ncols        199
nrows        266
xllcorner    216878.143852796056
yllcorner    8958414.140578340739
cellsize     50.000000000000
NODATA_value  -99999
 -99999.0 -99999 -99999 -99999 -99999 -99999 -99999 -99999 -99999 -99999 -99999 -99999 -99999 -99999 -99999 -99999 -99999 -99999 -99999 -99999 -99999 -99999 -99999 -99999 -99999 -99999 -99999 -99999 -99999 -99999 -99999 -99999 -99999 -99999 -99999 -99999 -99999 -99999 -99999 -99999 -99999 -99999 -99999 -99999 -99999 -99999 -99999 -99999 -99999 -99999 -99999 -99999 -99999 -99999 -99999 -99999 -99999 -99999 -99999 -99999 -99999 -99999 -99999 -99999 -99999 -99999 -99999 -99999 -99999 -99999 -99999 -99999 -99999 -99999 -99999 -99999 -99999 -99999 -99999 -99999 -99999 -99999 -99999 -99999 -99999 -99999 -99999 -99999 -99999 -99999 -99999 -99999 -99999 -99999 -99999 -99999 -99999 -99999 -99999 -99999 -99999 -99999 -99999 -99999 -99999 -99999 -99999 -99999 -99999 -99999 -99999 -99999 -99999 -99999 -99999 -99999 -99999 -99999 -99999 -99999 -99999 -99999 -99999 -99999 -99999 -99999 -99999 -99999 -99999 -99999 -99999 -99999 -99999 -99999 -99999 -99999 -99999 -99999 -99999 -99999 -99999 -99999 -99999 -99999 -99999 -99999 -99999 -99999 -99999 -99999 -99999 -99999 -99999 -99999 -99999 -99999 -99999 -99999 -99999 -99999 -99999 -99999 -99999 -99999 -99999 -99999 -99999 -99999 -99999 -99999 -99999 -99999 -99999 -99999 -99999 -99999 -99999 -99999 -99999 -99999 -99999 -99999 -99999 -99999 -99999 -99999 -99999 -99999 -99999 -99999 -99999 -99999 -99999 -99999 -99999 -99999 -99999 -99999 -99999
 -99999 -99999 -99999 -99999 -99999 -99999 -99999 -99999 -99999 -99999 -99999 -99999 -99999 -99999 -99999 -99999 -99999 -99999 -99999 -99999 -99999 -99999 -99999 -99999 -99999 -99999 -99999 -99999 -99999 -99999 -99999 -99999 -99999 -99999 -99999 -99999 -99999 -99999 -99999 -99999 -99999 -99999 -99999 -99999 -99999 -99999 -99999 -99999 -99999 -99999 -99999 -99999 -99999 -99999 -99999 -99999 -99999 -99999 -99999 -99999 -99999 -99999 -99999 -99999 -99999 -99999 -99999 -99999 -99999 -99999 -99999 -99999 -99999 -99999 -99999 -99999 -99999 -99999 -99999 -99999 -99999 -99999 -99999 -99999 -99999 -99999 -99999 -99999 -99999 -99999 -99999 -1050.8267822265625 -1054.7081298828125 -1061.8232421875 -99999 -99999 -99999 -99999 -99999 -99999 -99999 -99999 -99999 -99999 -99999 -99999 -99999 -99999 -99999 -99999 -99999 -99999 -99999 -99999 -99999 -99999 -99999 -99999 -99999 -99999 -99999 -99999 -99999 -99999 -99999 -99999 -99999 -99999 -99999 -99999 -99999 -99999 -99999 -99999 -99999 -99999 -99999 -99999 -99999 -99999 -99999 -99999 -99999 -99999 -99999 -99999 -99999 -99999 -99999 -99999 -99999 -99999 -99999 -99999 -99999 -99999 -99999 -99999 -99999 -99999 -99999 -99999 -99999 -99999 -99999 -99999 -99999 -99999 -99999 -99999 -99999 -99999 -99999 -99999 -99999 -99999 -99999 -99999 -99999 -99999 -99999 -99999 -99999 -99999 -99999 -99999 -99999 -99999 -99999 -99999 -99999 -99999 -99999 -99999 -99999 -99999 -99999 -99999 -99999
 -99999 -99999 -99999 -99999 -99999 -99999 -99999 -99999 -99999 -99999 -99999 -99999 -99999 -99999 -99999 -99999 -99999 -99999 -99999 -99999 -99999 -99999 -99999 -99999 -99999 -99999 -99999 -99999 -99999 -99999 -99999 -99999 -99999 -99999 -99999 -99999 -99999 -99999 -99999 -99999 -99999 -99999 -99999 -99999 -99999 -99999 -99999 -99999 -99999 -99999 -99999 -99999 -99999 -99999 -99999 -99999 -99999 -99999 -99999 -99999 -99999 -99999 -99999 -99999 -99999 -99999 -99999 -99999 -99999 -99999 -99999 -99999 -99999 -99999 -99999 -99999 -99999 -99999 -99999 -99999 -99999 -99999 -99999 -99999 -99999 -99999 -99999 -99999 -99999 -99999 -1054.6370849609375 -1056.4979248046875 -1061.2589111328125 -1069.1014404296875 -1079.0316162109375 -1087.468505859375 -99999 -99999 -99999 -99999 -99999 -99999 -99999 -99999 -99999 -99999 -99999 -99999 -99999 -99999 -99999 -99999 -99999 -99999 -99999 -99999 -99999 -99999 -99999 -99999 -99999 -99999 -99999 -99999 -99999 -99999 -99999 -99999 -99999 -99999 -99999 -99999 -99999 -99999 -99999 -99999 -99999 -99999 -99999 -99999 -99999 -99999 -99999 -99999 -99999 -99999 -99999 -99999 -99999 -99999 -99999 -99999 -99999 -99999 -99999 -99999 -99999 -99999 -99999 -99999 -99999 -99999 -99999 -99999 -99999 -99999 -99999 -99999 -99999 -99999 -99999 -99999 -99999 -99999 -99999 -99999 -99999 -99999 -99999 -99999 -99999 -99999 -99999 -99999 -99999 -99999 -99999 -99999 -99999 -99999 -99999 -99999 -99999 -99999 -99999 -99999 -99999 -99999 -99999
 -99999 -99999 -99999 -99999 -99999 -99999 -99999 -99999 -99999 -99999 -99999 -99999 -99999 -99999 -99999 -99999 -99999 -99999 -99999 -99999 -99999 -99999 -99999 -99999 -99999 -99999 -99999 -99999 -99999 -99999 -99999 -99999 -99999 -99999 -99999 -99999 -99999 -99999 -99999 -99999 -99999 -99999 -99999 -99999 -99999 -99999 -99999 -99999 -99999 -99999 -99999 -99999 -99999 -99999 -99999 -99999 -99999 -99999 -99999 -99999 -99999 -99999 -99999 -99999 -99999 -99999 -99999 -99999 -99999 -99999 -99999 -99999 -99999 -99999 -99999 -99999 -99999 -99999 -99999 -99999 -99999 -99999 -99999 -99999 -99999 -99999 -99999 -99999 -99999 -1060.6568603515625 -1063.006103515625 -1065.724365234375 -1070.8857421875 -1080.6751708984375 -1090.9111328125 -1098.8896484375 -1104.8114013671875 -1110.298583984375 -99999 -99999 -99999 -99999 -99999 -99999 -99999 -99999 -99999 -99999 -99999 -99999 -99999 -99999 -99999 -99999 -99999 -99999 -99999 -99999 -99999 -99999 -99999 -99999 -99999 -99999 -99999 -99999 -99999 -99999 -99999 -99999 -99999 -99999 -99999 -99999 -99999 -99999 -99999 -99999 -99999 -99999 -99999 -99999 -99999 -99999 -99999 -99999 -99999 -99999 -99999 -99999 -99999 -99999 -99999 -99999 -99999 -99999 -99999 -99999 -99999 -99999 -99999 -99999 -99999 -99999 -99999 -99999 -99999 -99999 -99999 -99999 -99999 -99999 -99999 -99999 -99999 -99999 -99999 -99999 -99999 -99999 -99999 -99999 -99999 -99999 -99999 -99999 -99999 -99999 -99999 -99999 -99999 -99999 -99999 -99999 -99999 -99999 -99999 -99999 -99999
 -99999 -99999 -99999 -99999 -99999 -99999 -99999 -99999 -99999 -99999 -99999 -99999 -99999 -99999 -99999 -99999 -99999 -99999 -99999 -99999 -99999 -99999 -99999 -99999 -99999 -99999 -99999 -99999 -99999 -99999 -99999 -99999 -99999 -99999 -99999 -99999 -99999 -99999 -99999 -99999 -99999 -99999 -99999 -99999 -99999 -99999 -99999 -99999 -99999 -99999 -99999 -99999 -99999 -99999 -99999 -99999 -99999 -99999 -99999 -99999 -99999 -99999 -99999 -99999 -99999 -99999 -99999 -99999 -99999 -99999 -99999 -99999 -99999 -99999 -99999 -99999 -99999 -99999 -99999 -99999 -99999 -99999 -99999 -99999 -99999 -99999 -99999 -99999 -1067.570556640625 -1070.0650634765625 -1073.2327880859375 -1077.79345703125 -1084.863525390625 -1094.3079833984375 -1104.03466796875 -1110.9017333984375 -1115.645263671875 -1119.9818115234375 -1124.178955078125 -1128.35791015625 -99999 -99999 -99999 -99999 -99999 -99999 -99999 -99999 -99999 -99999 -99999 -99999 -99999 -99999 -99999 -99999 -99999 -99999 -99999 -99999 -99999 -99999 -99999 -99999 -99999 -99999 -99999 -99999 -99999 -99999 -99999 -99999 -99999 -99999 -99999 -99999 -99999 -99999 -99999 -99999 -99999 -99999 -99999 -99999 -99999 -99999 -99999 -99999 -99999 -99999 -99999 -99999 -99999 -99999 -99999 -99999 -99999 -99999 -99999 -99999 -99999 -99999 -99999 -99999 -99999 -99999 -99999 -99999 -99999 -99999 -99999 -99999 -99999 -99999 -99999 -99999 -99999 -99999 -99999 -99999 -99999 -99999 -99999 -99999 -99999 -99999 -99999 -99999 -99999 -99999 -99999 -99999 -99999 -99999 -99999 -99999 -99999 -99999 -99999
 -99999 -99999 -99999 -99999 -99999 -99999 -99999 -99999 -99999 -99999 -99999 -99999 -99999 -99999 -99999 -99999 -99999 -99999 -99999 -99999 -99999 -99999 -99999 -99999 -99999 -99999 -99999 -99999 -99999 -99999 -99999 -99999 -99999 -99999 -99999 -99999 -99999 -99999 -99999 -99999 -99999 -99999 -99999 -99999 -99999 -99999 -99999 -99999 -99999 -99999 -99999 -99999 -99999 -99999 -99999 -99999 -99999 -99999 -99999 -99999 -99999 -99999 -99999 -99999 -99999 -99999 -99999 -99999 -99999 -99999 -99999 -99999 -99999 -99999 -99999 -99999 -99999 -99999 -99999 -99999 -99999 -99999 -99999 -99999 -99999 -99999 -99999 -1074.9100341796875 -1077.20263671875 -1080.384521484375 -1084.51904296875 -1089.8751220703125 -1097.4246826171875 -1106.9305419921875 -1115.94091796875 -1121.420166015625 -1125.0279541015625 -1128.84716796875 -1132.788818359375 -1136.676513671875 -1140.4630126953125 -1144.0880126953125 -99999 -99999 -99999 -99999 -99999 -99999 -99999 -99999 -99999 -99999 -99999 -99999 -99999 -99999 -99999 -99999 -99999 -99999 -99999 -99999 -99999 -99999 -99999 -99999 -99999 -99999 -99999 -99999 -99999 -99999 -99999 -99999 -99999 -99999 -99999 -99999 -99999 -99999 -99999 -99999 -99999 -99999 -99999 -99999 -99999 -99999 -99999 -99999 -99999 -99999 -99999 -99999 -99999 -99999 -99999 -99999 -99999 -99999 -99999 -99999 -99999 -99999 -99999 -99999 -99999 -99999 -99999 -99999 -99999 -99999 -99999 -99999 -99999 -99999 -99999 -99999 -99999 -99999 -99999 -99999 -99999 -99999 -99999 -99999 -99999 -99999 -99999 -99999 -99999 -99999 -99999 -99999 -99999 -99999 -99999 -99999 -99999
 -99999 -99999 -99999 -99999 -99999 -99999 -99999 -99999 -99999 -99999 -99999 -99999 -99999 -99999 -99999 -99999 -99999 -99999 -99999 -99999 -99999 -99999 -99999 -99999 -99999 -99999 -99999 -99999 -99999 -99999 -99999 -99999 -99999 -99999 -99999 -99999 -99999 -99999 -99999 -99999 -99999 -99999 -99999 -99999 -99999 -99999 -99999 -99999 -99999 -99999 -99999 -99999 -99999 -99999 -99999 -99999 -99999 -99999 -99999 -99999 -99999 -99999 -99999 -99999 -99999 -99999 -99999 -99999 -99999 -99999 -99999 -99999 -99999 -99999 -99999 -99999 -99999 -99999 -99999 -99999 -99999 -99999 -99999 -99999 -99999 -99999 -99999 -1084.7032470703125 -1087.3636474609375 -1090.8544921875 -1095.420654296875 -1101.1630859375 -1108.0609130859375 -1116.17333984375 -1123.2969970703125 -1128.65673828125 -1132.9217529296875 -1136.81982421875 -1140.7305908203125 -1144.50927734375 -1148.170654296875 -1151.6431884765625 -1155.0059814453125 -1158.3668212890625 -99999 -99999 -99999 -99999 -99999 -99999 -99999 -99999 -99999 -99999 -99999 -99999 -99999 -99999 -99999 -99999 -99999 -99999 -99999 -99999 -99999 -99999 -99999 -99999 -99999 -99999 -99999 -99999 -99999 -99999 -99999 -99999 -99999 -99999 -99999 -99999 -99999 -99999 -99999 -99999 -99999 -99999 -99999 -99999 -99999 -99999 -99999 -99999 -99999 -99999 -99999 -99999 -99999 -99999 -99999 -99999 -99999 -99999 -99999 -99999 -99999 -99999 -99999 -99999 -99999 -99999 -99999 -99999 -99999 -99999 -99999 -99999 -99999 -99999 -99999 -99999 -99999 -99999 -99999 -99999 -99999 -99999 -99999 -99999 -99999 -99999 -99999 -99999 -99999 -99999 -99999 -99999 -99999 -99999 -99999
 -99999 -99999 -99999 -99999 -99999 -99999 -99999 -99999 -99999 -99999 -99999 -99999 -99999 -99999 -99999 -99999 -99999 -99999 -99999 -99999 -99999 -99999 -99999 -99999 -99999 -99999 -99999 -99999 -99999 -99999 -99999 -99999 -99999 -99999 -99999 -99999 -99999 -99999 -99999 -99999 -99999 -99999 -99999 -99999 -99999 -99999 -99999 -99999 -99999 -99999 -99999 -99999 -99999 -99999 -99999 -99999 -99999 -99999 -99999 -99999 -99999 -99999 -99999 -99999 -99999 -99999 -99999 -99999 -99999 -99999 -99999 -99999 -99999 -99999 -99999 -99999 -99999 -99999 -99999 -99999 -99999 -99999 -99999 -99999 -99999 -99999 -1092.450439453125 -1094.69384765625 -1097.62744140625 -1101.2818603515625 -1105.794921875 -1111.4852294921875 -1117.7867431640625 -1124.307861328125 -1130.6229248046875 -1135.8873291015625 -1140.188720703125 -1144.26220703125 -1148.2615966796875 -1152.08935546875 -1155.6494140625 -1158.9544677734375 -1162.0654296875 -1165.242919921875 -1168.5531005859375 -1172.0977783203125 -99999 -99999 -99999 -99999 -99999 -99999 -99999 -99999 -99999 -99999 -99999 -99999 -99999 -99999 -99999 -99999 -99999 -99999 -99999 -99999 -99999 -99999 -99999 -99999 -99999 -99999 -99999 -99999 -99999 -99999 -99999 -99999 -99999 -99999 -99999 -99999 -99999 -99999 -99999 -99999 -99999 -99999 -99999 -99999 -99999 -99999 -99999 -99999 -99999 -99999 -99999 -99999 -99999 -99999 -99999 -99999 -99999 -99999 -99999 -99999 -99999 -99999 -99999 -99999 -99999 -99999 -99999 -99999 -99999 -99999 -99999 -99999 -99999 -99999 -99999 -99999 -99999 -99999 -99999 -99999 -99999 -99999 -99999 -99999 -99999 -99999 -99999 -99999 -99999 -99999 -99999 -99999 -99999
 -99999 -99999 -99999 -99999 -99999 -99999 -99999 -99999 -99999 -99999 -99999 -99999 -99999 -99999 -99999 -99999 -99999 -99999 -99999 -99999 -99999 -99999 -99999 -99999 -99999 -99999 -99999 -99999 -99999 -99999 -99999 -99999 -99999 -99999 -99999 -99999 -99999 -99999 -99999 -99999 -99999 -99999 -99999 -99999 -99999 -99999 -99999 -99999 -99999 -99999 -99999 -99999 -99999 -99999 -99999 -99999 -99999 -99999 -99999 -99999 -99999 -99999 -99999 -99999 -99999 -99999 -99999 -99999 -99999 -99999 -99999 -99999 -99999 -99999 -99999 -99999 -99999 -99999 -99999 -99999 -99999 -99999 -99999 -99999 -99999 -1100.5638427734375 -1102.375732421875 -1104.699951171875 -1107.708740234375 -1111.4608154296875 -1115.9261474609375 -1121.01416015625 -1126.6278076171875 -1132.5455322265625 -1138.0374755859375 -1143.00830078125 -1147.4154052734375 -1151.5545654296875 -1155.6021728515625 -1159.521484375 -1163.005859375 -1166.113037109375 -1168.8758544921875 -1171.7799072265625 -1175.00830078125 -1178.5673828125 -1182.501220703125 -1186.5250244140625 -99999 -99999 -99999 -99999 -99999 -99999 -99999 -99999 -99999 -99999 -99999 -99999 -99999 -99999 -99999 -99999 -99999 -99999 -99999 -99999 -99999 -99999 -99999 -99999 -99999 -99999 -99999 -99999 -99999 -99999 -99999 -99999 -99999 -99999 -99999 -99999 -99999 -99999 -99999 -99999 -99999 -99999 -99999 -99999 -99999 -99999 -99999 -99999 -99999 -99999 -99999 -99999 -99999 -99999 -99999 -99999 -99999 -99999 -99999 -99999 -99999 -99999 -99999 -99999 -99999 -99999 -99999 -99999 -99999 -99999 -99999 -99999 -99999 -99999 -99999 -99999 -99999 -99999 -99999 -99999 -99999 -99999 -99999 -99999 -99999 -99999 -99999 -99999 -99999 -99999 -99999
 -99999 -99999 -99999 -99999 -99999 -99999 -99999 -99999 -99999 -99999 -99999 -99999 -99999 -99999 -99999 -99999 -99999 -99999 -99999 -99999 -99999 -99999 -99999 -99999 -99999 -99999 -99999 -99999 -99999 -99999 -99999 -99999 -99999 -99999 -99999 -99999 -99999 -99999 -99999 -99999 -99999 -99999 -99999 -99999 -99999 -99999 -99999 -99999 -99999 -99999 -99999 -99999 -99999 -99999 -99999 -99999 -99999 -99999 -99999 -99999 -99999 -99999 -99999 -99999 -99999 -99999 -99999 -99999 -99999 -99999 -99999 -99999 -99999 -99999 -99999 -99999 -99999 -99999 -99999 -99999 -99999 -99999 -99999 -99999 -1108.9942626953125 -1110.413330078125 -1112.293701171875 -1114.7164306640625 -1117.7376708984375 -1121.307861328125 -1125.5323486328125 -1130.2686767578125 -1135.230224609375 -1140.559326171875 -1145.5875244140625 -1150.2203369140625 -1154.6107177734375 -1158.7890625 -1162.8746337890625 -1166.823486328125 -1170.2978515625 -1172.8453369140625 -1175.313720703125 -1177.948974609375 -1181.2340087890625 -1184.8988037109375 -1188.8826904296875 -1193.201416015625 -1197.6348876953125 -1202.0789794921875 -99999 -99999 -99999 -99999 -99999 -99999 -99999 -99999 -99999 -99999 -99999 -99999 -99999 -99999 -99999 -99999 -99999 -99999 -99999 -99999 -99999 -99999 -99999 -99999 -99999 -99999 -99999 -99999 -99999 -99999 -99999 -99999 -99999 -99999 -99999 -99999 -99999 -99999 -99999 -99999 -99999 -99999 -99999 -99999 -99999 -99999 -99999 -99999 -99999 -99999 -99999 -99999 -99999 -99999 -99999 -99999 -99999 -99999 -99999 -99999 -99999 -99999 -99999 -99999 -99999 -99999 -99999 -99999 -99999 -99999 -99999 -99999 -99999 -99999 -99999 -99999 -99999 -99999 -99999 -99999 -99999 -99999 -99999 -99999 -99999 -99999 -99999 -99999 -99999
 -99999 -99999 -99999 -99999 -99999 -99999 -99999 -99999 -99999 -99999 -99999 -99999 -99999 -99999 -99999 -99999 -99999 -99999 -99999 -99999 -99999 -99999 -99999 -99999 -99999 -99999 -99999 -99999 -99999 -99999 -99999 -99999 -99999 -99999 -99999 -99999 -99999 -99999 -99999 -99999 -99999 -99999 -99999 -99999 -99999 -99999 -99999 -99999 -99999 -99999 -99999 -99999 -99999 -99999 -99999 -99999 -99999 -99999 -99999 -99999 -99999 -99999 -99999 -99999 -99999 -99999 -99999 -99999 -99999 -99999 -99999 -99999 -99999 -99999 -99999 -99999 -99999 -99999 -99999 -99999 -99999 -99999 -99999 -1117.77392578125 -1118.822265625 -1120.2943115234375 -1122.21435546875 -1124.6378173828125 -1127.5784912109375 -1130.987060546875 -1134.74560546875 -1139.270263671875 -1143.8338623046875 -1148.425537109375 -1153.0032958984375 -1157.462158203125 -1161.69482421875 -1165.812255859375 -1169.864013671875 -1173.8912353515625 -1177.3284912109375 -1179.366943359375 -1181.1085205078125 -1183.6021728515625 -1186.9415283203125 -1191.0360107421875 -1195.448486328125 -1199.947998046875 -1204.5537109375 -1209.18798828125 -1213.77783203125 -1218.252197265625 -99999 -99999 -99999 -99999 -99999 -99999 -99999 -99999 -99999 -99999 -99999 -99999 -99999 -99999 -99999 -99999 -99999 -99999 -99999 -99999 -99999 -99999 -99999 -99999 -99999 -99999 -99999 -99999 -99999 -99999 -99999 -99999 -99999 -99999 -99999 -99999 -99999 -99999 -99999 -99999 -99999 -99999 -99999 -99999 -99999 -99999 -99999 -99999 -99999 -99999 -99999 -99999 -99999 -99999 -99999 -99999 -99999 -99999 -99999 -99999 -99999 -99999 -99999 -99999 -99999 -99999 -99999 -99999 -99999 -99999 -99999 -99999 -99999 -99999 -99999 -99999 -99999 -99999 -99999 -99999 -99999 -99999 -99999 -99999 -99999 -99999 -99999
 -99999 -99999 -99999 -99999 -99999 -99999 -99999 -99999 -99999 -99999 -99999 -99999 -99999 -99999 -99999 -99999 -99999 -99999 -99999 -99999 -99999 -99999 -99999 -99999 -99999 -99999 -99999 -99999 -99999 -99999 -99999 -99999 -99999 -99999 -99999 -99999 -99999 -99999 -99999 -99999 -99999 -99999 -99999 -99999 -99999 -99999 -99999 -99999 -99999 -99999 -99999 -99999 -99999 -99999 -99999 -99999 -99999 -99999 -99999 -99999 -99999 -99999 -99999 -99999 -99999 -99999 -99999 -99999 -99999 -99999 -99999 -99999 -99999 -99999 -99999 -99999 -99999 -99999 -99999 -99999 -99999 -99999 -1126.8228759765625 -1127.57861328125 -1128.6920166015625 -1130.2081298828125 -1132.120849609375 -1134.4473876953125 -1137.14501953125 -1140.490478515625 -1144.074462890625 -1147.9449462890625 -1152.1055908203125 -1156.3729248046875 -1160.5672607421875 -1164.6678466796875 -1168.6021728515625 -1172.5050048828125 -1176.3919677734375 -1180.0946044921875 -1183.072998046875 -1184.6263427734375 -1185.8369140625 -1188.744140625 -1192.759033203125 -1197.2337646484375 -1201.9530029296875 -1206.8294677734375 -1211.7244873046875 -1216.4927978515625 -1221.1715087890625 -1225.7318115234375 -1230.08056640625 -1234.25537109375 -99999 -99999 -99999 -99999 -99999 -99999 -99999 -99999 -99999 -99999 -99999 -99999 -99999 -99999 -99999 -99999 -99999 -99999 -99999 -99999 -99999 -99999 -99999 -99999 -99999 -99999 -99999 -99999 -99999 -99999 -99999 -99999 -99999 -99999 -99999 -99999 -99999 -99999 -99999 -99999 -99999 -99999 -99999 -99999 -99999 -99999 -99999 -99999 -99999 -99999 -99999 -99999 -99999 -99999 -99999 -99999 -99999 -99999 -99999 -99999 -99999 -99999 -99999 -99999 -99999 -99999 -99999 -99999 -99999 -99999 -99999 -99999 -99999 -99999 -99999 -99999 -99999 -99999 -99999 -99999 -99999 -99999 -99999 -99999 -99999
 -99999 -99999 -99999 -99999 -99999 -99999 -99999 -99999 -99999 -99999 -99999 -99999 -99999 -99999 -99999 -99999 -99999 -99999 -99999 -99999 -99999 -99999 -99999 -99999 -99999 -99999 -99999 -99999 -99999 -99999 -99999 -99999 -99999 -99999 -99999 -99999 -99999 -99999 -99999 -99999 -99999 -99999 -99999 -99999 -99999 -99999 -99999 -99999 -99999 -99999 -99999 -99999 -99999 -99999 -99999 -99999 -99999 -99999 -99999 -99999 -99999 -99999 -99999 -99999 -99999 -99999 -99999 -99999 -99999 -99999 -99999 -99999 -99999 -99999 -99999 -99999 -99999 -99999 -99999 -99999 -99999 -1136.1126708984375 -1136.5772705078125 -1137.3836669921875 -1138.4840087890625 -1140.009521484375 -1141.8895263671875 -1144.141845703125 -1146.7437744140625 -1149.7674560546875 -1153.103271484375 -1156.6904296875 -1160.4229736328125 -1164.2314453125 -1168.05615234375 -1171.8250732421875 -1175.491455078125 -1178.9913330078125 -1182.3878173828125 -1185.429443359375 -1187.726806640625 -1188.69189453125 -1190.3968505859375 -1193.788330078125 -1198.6279296875 -1203.7342529296875 -1208.90283203125 -1214.0001220703125 -1219.0302734375 -1223.9962158203125 -1228.822998046875 -1233.3599853515625 -1237.7733154296875 -1241.911865234375 -1245.8271484375 -1249.51708984375 -99999 -99999 -99999 -99999 -99999 -99999 -99999 -99999 -99999 -99999 -99999 -99999 -99999 -99999 -99999 -99999 -99999 -99999 -99999 -99999 -99999 -99999 -99999 -99999 -99999 -99999 -99999 -99999 -99999 -99999 -99999 -99999 -99999 -99999 -99999 -99999 -99999 -99999 -99999 -99999 -99999 -99999 -99999 -99999 -99999 -99999 -99999 -99999 -99999 -99999 -99999 -99999 -99999 -99999 -99999 -99999 -99999 -99999 -99999 -99999 -99999 -99999 -99999 -99999 -99999 -99999 -99999 -99999 -99999 -99999 -99999 -99999 -99999 -99999 -99999 -99999 -99999 -99999 -99999 -99999 -99999 -99999 -99999
 -99999 -99999 -99999 -99999 -99999 -99999 -99999 -99999 -99999 -99999 -99999 -99999 -99999 -99999 -99999 -99999 -99999 -99999 -99999 -99999 -99999 -99999 -99999 -99999 -99999 -99999 -99999 -99999 -99999 -99999 -99999 -99999 -99999 -99999 -99999 -99999 -99999 -99999 -99999 -99999 -99999 -99999 -99999 -99999 -99999 -99999 -99999 -99999 -99999 -99999 -99999 -99999 -99999 -99999 -99999 -99999 -99999 -99999 -99999 -99999 -99999 -99999 -99999 -99999 -99999 -99999 -99999 -99999 -99999 -99999 -99999 -99999 -99999 -99999 -99999 -99999 -99999 -99999 -99999 -99999 -99999 -1145.9178466796875 -1146.4642333984375 -1147.2852783203125 -1148.39599609375 -1149.809814453125 -1151.6025390625 -1153.7454833984375 -1156.2335205078125 -1158.9906005859375 -1162.0029296875 -1165.28662109375 -1168.6982421875 -1172.1690673828125 -1175.640380859375 -1179.0323486328125 -1182.361083984375 -1185.5255126953125 -1188.45703125 -1190.9073486328125 -1192.72216796875 -1194.0689697265625 -1195.5733642578125 -1200.226318359375 -1205.5164794921875 -1210.91845703125 -1216.2537841796875 -1221.52001953125 -1226.711669921875 -1231.691650390625 -1236.5604248046875 -1241.178955078125 -1245.561279296875 -1249.6685791015625 -1253.5440673828125 -1257.1201171875 -1260.45703125 -1263.6251220703125 -99999 -99999 -99999 -99999 -99999 -99999 -99999 -99999 -99999 -99999 -99999 -99999 -99999 -99999 -99999 -99999 -99999 -99999 -99999 -99999 -99999 -99999 -99999 -99999 -99999 -99999 -99999 -99999 -99999 -99999 -99999 -99999 -99999 -99999 -99999 -99999 -99999 -99999 -99999 -99999 -99999 -99999 -99999 -99999 -99999 -99999 -99999 -99999 -99999 -99999 -99999 -99999 -99999 -99999 -99999 -99999 -99999 -99999 -99999 -99999 -99999 -99999 -99999 -99999 -99999 -99999 -99999 -99999 -99999 -99999 -99999 -99999 -99999 -99999 -99999 -99999 -99999 -99999 -99999 -99999 -99999
 -99999 -99999 -99999 -99999 -99999 -99999 -99999 -99999 -99999 -99999 -99999 -99999 -99999 -99999 -99999 -99999 -99999 -99999 -99999 -99999 -99999 -99999 -99999 -99999 -99999 -99999 -99999 -99999 -99999 -99999 -99999 -99999 -99999 -99999 -99999 -99999 -99999 -99999 -99999 -99999 -99999 -99999 -99999 -99999 -99999 -99999 -99999 -99999 -99999 -99999 -99999 -99999 -99999 -99999 -99999 -99999 -99999 -99999 -99999 -99999 -99999 -99999 -99999 -99999 -99999 -99999 -99999 -99999 -99999 -99999 -99999 -99999 -99999 -99999 -99999 -99999 -99999 -99999 -99999 -99999 -1155.46630859375 -1155.74951171875 -1156.2694091796875 -1157.039306640625 -1158.183837890625 -1159.5831298828125 -1161.2755126953125 -1163.2623291015625 -1165.5567626953125 -1168.15087890625 -1170.943359375 -1173.88525390625 -1176.9617919921875 -1180.1549072265625 -1183.285888671875 -1186.44091796875 -1189.4722900390625 -1192.3182373046875 -1194.9595947265625 -1197.34619140625 -1199.4093017578125 -1201.400146484375 -1204.265869140625 -1208.45654296875 -1213.5628662109375 -1218.8179931640625 -1224.1424560546875 -1229.375244140625 -1234.5794677734375 -1239.650390625 -1244.5406494140625 -1249.200439453125 -1253.582763671875 -1257.5899658203125 -1261.2886962890625 -1264.781982421875 -1268.00830078125 -1270.9388427734375 -1273.7867431640625 -1276.485595703125 -99999 -99999 -99999 -99999 -99999 -99999 -99999 -99999 -99999 -99999 -99999 -99999 -99999 -99999 -99999 -99999 -99999 -99999 -99999 -99999 -99999 -99999 -99999 -99999 -99999 -99999 -99999 -99999 -99999 -99999 -99999 -99999 -99999 -99999 -99999 -99999 -99999 -99999 -99999 -99999 -99999 -99999 -99999 -99999 -99999 -99999 -99999 -99999 -99999 -99999 -99999 -99999 -99999 -99999 -99999 -99999 -99999 -99999 -99999 -99999 -99999 -99999 -99999 -99999 -99999 -99999 -99999 -99999 -99999 -99999 -99999 -99999 -99999 -99999 -99999 -99999 -99999 -99999 -99999
 -99999 -99999 -99999 -99999 -99999 -99999 -99999 -99999 -99999 -99999 -99999 -99999 -99999 -99999 -99999 -99999 -99999 -99999 -99999 -99999 -99999 -99999 -99999 -99999 -99999 -99999 -99999 -99999 -99999 -99999 -99999 -99999 -99999 -99999 -99999 -99999 -99999 -99999 -99999 -99999 -99999 -99999 -99999 -99999 -99999 -99999 -99999 -99999 -99999 -99999 -99999 -99999 -99999 -99999 -99999 -99999 -99999 -99999 -99999 -99999 -99999 -99999 -99999 -99999 -99999 -99999 -99999 -99999 -99999 -99999 -99999 -99999 -99999 -99999 -99999 -99999 -99999 -99999 -99999 -1165.18310546875 -1165.2384033203125 -1165.5335693359375 -1166.0965576171875 -1166.9005126953125 -1167.94921875 -1169.2530517578125 -1170.875244140625 -1172.772216796875 -1174.8583984375 -1177.1875 -1179.7886962890625 -1182.5340576171875 -1185.322998046875 -1188.26904296875 -1191.1748046875 -1194.0283203125 -1196.8203125 -1199.5311279296875 -1202.0860595703125 -1204.5074462890625 -1206.947998046875 -1209.6248779296875 -1212.82421875 -1217.0999755859375 -1221.94970703125 -1227.0706787109375 -1232.2969970703125 -1237.5203857421875 -1242.718994140625 -1247.8382568359375 -1252.7689208984375 -1257.3759765625 -1261.6474609375 -1265.6500244140625 -1269.1722412109375 -1272.3916015625 -1275.32666015625 -1278.132568359375 -1280.7816162109375 -1283.32275390625 -1285.830078125 -99999 -99999 -99999 -99999 -99999 -99999 -99999 -99999 -99999 -99999 -99999 -99999 -99999 -99999 -99999 -99999 -99999 -99999 -99999 -99999 -99999 -99999 -99999 -99999 -99999 -99999 -99999 -99999 -99999 -99999 -99999 -99999 -99999 -99999 -99999 -99999 -99999 -99999 -99999 -99999 -99999 -99999 -99999 -99999 -99999 -99999 -99999 -99999 -99999 -99999 -99999 -99999 -99999 -99999 -99999 -99999 -99999 -99999 -99999 -99999 -99999 -99999 -99999 -99999 -99999 -99999 -99999 -99999 -99999 -99999 -99999 -99999 -99999 -99999 -99999 -99999 -99999 -99999
 -99999 -99999 -99999 -99999 -99999 -99999 -99999 -99999 -99999 -99999 -99999 -99999 -99999 -99999 -99999 -99999 -99999 -99999 -99999 -99999 -99999 -99999 -99999 -99999 -99999 -99999 -99999 -99999 -99999 -99999 -99999 -99999 -99999 -99999 -99999 -99999 -99999 -99999 -99999 -99999 -99999 -99999 -99999 -99999 -99999 -99999 -99999 -99999 -99999 -99999 -99999 -99999 -99999 -99999 -99999 -99999 -99999 -99999 -99999 -99999 -99999 -99999 -99999 -99999 -99999 -99999 -99999 -99999 -99999 -99999 -99999 -99999 -99999 -99999 -99999 -99999 -99999 -99999 -1175.0516357421875 -1174.9434814453125 -1175.03271484375 -1175.3363037109375 -1175.8662109375 -1176.6485595703125 -1177.6470947265625 -1178.876220703125 -1180.3623046875 -1182.2021484375 -1184.1912841796875 -1186.3419189453125 -1188.70947265625 -1191.2371826171875 -1193.8314208984375 -1196.4810791015625 -1199.1602783203125 -1201.86572265625 -1204.53662109375 -1207.1470947265625 -1209.726318359375 -1212.32177734375 -1214.98681640625 -1217.9666748046875 -1221.4993896484375 -1225.7509765625 -1230.5059814453125 -1235.5289306640625 -1240.6617431640625 -1245.843994140625 -1251.044677734375 -1256.1546630859375 -1261.07763671875 -1265.752685546875 -1269.913818359375 -1273.6361083984375 -1276.945556640625 -1279.987548828125 -1282.7169189453125 -1285.2259521484375 -1287.64697265625 -1290.011962890625 -1292.3819580078125 -1294.7301025390625 -1297.133544921875 -99999 -99999 -99999 -99999 -99999 -99999 -99999 -99999 -99999 -99999 -99999 -99999 -99999 -99999 -99999 -99999 -99999 -99999 -99999 -99999 -99999 -99999 -99999 -99999 -99999 -99999 -99999 -99999 -99999 -99999 -99999 -99999 -99999 -99999 -99999 -99999 -99999 -99999 -99999 -99999 -99999 -99999 -99999 -99999 -99999 -99999 -99999 -99999 -99999 -99999 -99999 -99999 -99999 -99999 -99999 -99999 -99999 -99999 -99999 -99999 -99999 -99999 -99999 -99999 -99999 -99999 -99999 -99999 -99999 -99999 -99999 -99999 -99999 -99999 -99999 -99999
 -99999 -99999 -99999 -99999 -99999 -99999 -99999 -99999 -99999 -99999 -99999 -99999 -99999 -99999 -99999 -99999 -99999 -99999 -99999 -99999 -99999 -99999 -99999 -99999 -99999 -99999 -99999 -99999 -99999 -99999 -99999 -99999 -99999 -99999 -99999 -99999 -99999 -99999 -99999 -99999 -99999 -99999 -99999 -99999 -99999 -99999 -99999 -99999 -99999 -99999 -99999 -99999 -99999 -99999 -99999 -99999 -99999 -99999 -99999 -99999 -99999 -99999 -99999 -99999 -99999 -99999 -99999 -99999 -99999 -99999 -99999 -99999 -99999 -99999 -99999 -99999 -99999 -1185.0902099609375 -1184.835205078125 -1184.749755859375 -1184.8701171875 -1185.1800537109375 -1185.6822509765625 -1186.42724609375 -1187.388427734375 -1188.5928955078125 -1189.9931640625 -1191.6123046875 -1193.4632568359375 -1195.4921875 -1197.6622314453125 -1199.949462890625 -1202.3668212890625 -1204.8807373046875 -1207.42919921875 -1209.9649658203125 -1212.5279541015625 -1215.1187744140625 -1217.7235107421875 -1220.4013671875 -1223.1905517578125 -1226.560546875 -1230.2728271484375 -1234.47509765625 -1239.0958251953125 -1244.046875 -1249.1148681640625 -1254.2568359375 -1259.4241943359375 -1264.578857421875 -1269.52978515625 -1274.085693359375 -1278.10888671875 -1281.7071533203125 -1284.7510986328125 -1287.4515380859375 -1289.909912109375 -1292.207763671875 -1294.4158935546875 -1296.53515625 -1298.6754150390625 -1300.903076171875 -1303.22021484375 -1305.6243896484375 -1308.140380859375 -99999 -99999 -99999 -99999 -99999 -99999 -99999 -99999 -99999 -99999 -99999 -99999 -99999 -99999 -99999 -99999 -99999 -99999 -99999 -99999 -99999 -99999 -99999 -99999 -99999 -99999 -99999 -99999 -99999 -99999 -99999 -99999 -99999 -99999 -99999 -99999 -99999 -99999 -99999 -99999 -99999 -99999 -99999 -99999 -99999 -99999 -99999 -99999 -99999 -99999 -99999 -99999 -99999 -99999 -99999 -99999 -99999 -99999 -99999 -99999 -99999 -99999 -99999 -99999 -99999 -99999 -99999 -99999 -99999 -99999 -99999 -99999 -99999 -99999
 -99999 -99999 -99999 -99999 -99999 -99999 -99999 -99999 -99999 -99999 -99999 -99999 -99999 -99999 -99999 -99999 -99999 -99999 -99999 -99999 -99999 -99999 -99999 -99999 -99999 -99999 -99999 -99999 -99999 -99999 -99999 -99999 -99999 -99999 -99999 -99999 -99999 -99999 -99999 -99999 -99999 -99999 -99999 -99999 -99999 -99999 -99999 -99999 -99999 -99999 -99999 -99999 -99999 -99999 -99999 -99999 -99999 -99999 -99999 -99999 -99999 -99999 -99999 -99999 -99999 -99999 -99999 -99999 -99999 -99999 -99999 -99999 -99999 -99999 -99999 -99999 -1195.22265625 -1194.8280029296875 -1194.606201171875 -1194.5416259765625 -1194.6688232421875 -1194.9676513671875 -1195.46484375 -1196.1700439453125 -1197.0621337890625 -1198.199951171875 -1199.5269775390625 -1201.043212890625 -1202.737060546875 -1204.600830078125 -1206.6522216796875 -1208.81787109375 -1211.0762939453125 -1213.40234375 -1215.804443359375 -1218.2630615234375 -1220.7630615234375 -1223.2213134765625 -1225.8697509765625 -1228.8116455078125 -1231.8734130859375 -1235.2630615234375 -1239.0408935546875 -1243.216064453125 -1247.7998046875 -1252.6165771484375 -1257.6124267578125 -1262.703857421875 -1267.8282470703125 -1273.052001953125 -1277.962158203125 -1282.55029296875 -1286.4459228515625 -1289.6832275390625 -1292.413818359375 -1294.8365478515625 -1296.9888916015625 -1298.923828125 -1300.8450927734375 -1302.8160400390625 -1304.8299560546875 -1306.9141845703125 -1309.1048583984375 -1311.4639892578125 -1313.9412841796875 -1316.57373046875 -1319.323486328125 -99999 -99999 -99999 -99999 -99999 -99999 -99999 -99999 -99999 -99999 -99999 -99999 -99999 -99999 -99999 -99999 -99999 -99999 -99999 -99999 -99999 -99999 -99999 -99999 -99999 -99999 -99999 -99999 -99999 -99999 -99999 -99999 -99999 -99999 -99999 -99999 -99999 -99999 -99999 -99999 -99999 -99999 -99999 -99999 -99999 -99999 -99999 -99999 -99999 -99999 -99999 -99999 -99999 -99999 -99999 -99999 -99999 -99999 -99999 -99999 -99999 -99999 -99999 -99999 -99999 -99999 -99999 -99999 -99999 -99999 -99999 -99999
 -99999 -99999 -99999 -99999 -99999 -99999 -99999 -99999 -99999 -99999 -99999 -99999 -99999 -99999 -99999 -99999 -99999 -99999 -99999 -99999 -99999 -99999 -99999 -99999 -99999 -99999 -99999 -99999 -99999 -99999 -99999 -99999 -99999 -99999 -99999 -99999 -99999 -99999 -99999 -99999 -99999 -99999 -99999 -99999 -99999 -99999 -99999 -99999 -99999 -99999 -99999 -99999 -99999 -99999 -99999 -99999 -99999 -99999 -99999 -99999 -99999 -99999 -99999 -99999 -99999 -99999 -99999 -99999 -99999 -99999 -99999 -99999 -99999 -99999 -99999 -1205.43359375 -1204.9451904296875 -1204.5938720703125 -1204.3897705078125 -1204.34228515625 -1204.4451904296875 -1204.7379150390625 -1205.2230224609375 -1205.8983154296875 -1206.7548828125 -1207.800537109375 -1209.0223388671875 -1210.4569091796875 -1212.0621337890625 -1213.8135986328125 -1215.69873046875 -1217.696533203125 -1219.83056640625 -1222.05810546875 -1224.2821044921875 -1226.6636962890625 -1229.2200927734375 -1231.7740478515625 -1234.4869384765625 -1237.406005859375 -1240.5487060546875 -1243.9827880859375 -1247.7877197265625 -1251.9337158203125 -1256.458251953125 -1261.22314453125 -1266.139892578125 -1271.16064453125 -1276.28662109375 -1281.4814453125 -1286.53955078125 -1291.0548095703125 -1294.6787109375 -1297.6107177734375 -1299.9468994140625 -1301.8411865234375 -1303.6356201171875 -1305.3731689453125 -1307.0966796875 -1308.8455810546875 -1310.743408203125 -1312.702392578125 -1314.830810546875 -1317.1600341796875 -1319.56298828125 -1322.1556396484375 -1324.9151611328125 -1327.8524169921875 -1330.9356689453125 -99999 -99999 -99999 -99999 -99999 -99999 -99999 -99999 -99999 -99999 -99999 -99999 -99999 -99999 -99999 -99999 -99999 -99999 -99999 -99999 -99999 -99999 -99999 -99999 -99999 -99999 -99999 -99999 -99999 -99999 -99999 -99999 -99999 -99999 -99999 -99999 -99999 -99999 -99999 -99999 -99999 -99999 -99999 -99999 -99999 -99999 -99999 -99999 -99999 -99999 -99999 -99999 -99999 -99999 -99999 -99999 -99999 -99999 -99999 -99999 -99999 -99999 -99999 -99999 -99999 -99999 -99999 -99999 -99999 -99999
 -99999 -99999 -99999 -99999 -99999 -99999 -99999 -99999 -99999 -99999 -99999 -99999 -99999 -99999 -99999 -99999 -99999 -99999 -99999 -99999 -99999 -99999 -99999 -99999 -99999 -99999 -99999 -99999 -99999 -99999 -99999 -99999 -99999 -99999 -99999 -99999 -99999 -99999 -99999 -99999 -99999 -99999 -99999 -99999 -99999 -99999 -99999 -99999 -99999 -99999 -99999 -99999 -99999 -99999 -99999 -99999 -99999 -99999 -99999 -99999 -99999 -99999 -99999 -99999 -99999 -99999 -99999 -99999 -99999 -99999 -99999 -99999 -99999 -99999 -99999 -1215.1552734375 -1214.6915283203125 -1214.3507080078125 -1214.148193359375 -1214.1146240234375 -1214.24267578125 -1214.526123046875 -1214.9713134765625 -1215.5897216796875 -1216.402587890625 -1217.4002685546875 -1218.560791015625 -1219.8660888671875 -1221.3350830078125 -1223.003173828125 -1224.748779296875 -1226.6280517578125 -1228.6617431640625 -1230.8338623046875 -1233.04638671875 -1235.364501953125 -1237.80615234375 -1240.3912353515625 -1243.118408203125 -1246.0367431640625 -1249.2088623046875 -1252.7108154296875 -1256.5301513671875 -1260.64453125 -1265.0394287109375 -1269.6722412109375 -1274.60498046875 -1279.614990234375 -1284.760009765625 -1289.93701171875 -1295.022705078125 -1299.633056640625 -1302.9967041015625 -1305.1485595703125 -1306.9405517578125 -1308.520263671875 -1310.013671875 -1311.522216796875 -1313.0240478515625 -1314.6207275390625 -1316.3472900390625 -1318.2274169921875 -1320.3072509765625 -1322.545654296875 -1324.974609375 -1327.62255859375 -1330.44970703125 -1333.43017578125 -1336.5533447265625 -1339.814697265625 -1343.2135009765625 -99999 -99999 -99999 -99999 -99999 -99999 -99999 -99999 -99999 -99999 -99999 -99999 -99999 -99999 -99999 -99999 -99999 -99999 -99999 -99999 -99999 -99999 -99999 -99999 -99999 -99999 -99999 -99999 -99999 -99999 -99999 -99999 -99999 -99999 -99999 -99999 -99999 -99999 -99999 -99999 -99999 -99999 -99999 -99999 -99999 -99999 -99999 -99999 -99999 -99999 -99999 -99999 -99999 -99999 -99999 -99999 -99999 -99999 -99999 -99999 -99999 -99999 -99999 -99999 -99999 -99999 -99999 -99999
 -99999 -99999 -99999 -99999 -99999 -99999 -99999 -99999 -99999 -99999 -99999 -99999 -99999 -99999 -99999 -99999 -99999 -99999 -99999 -99999 -99999 -99999 -99999 -99999 -99999 -99999 -99999 -99999 -99999 -99999 -99999 -99999 -99999 -99999 -99999 -99999 -99999 -99999 -99999 -99999 -99999 -99999 -99999 -99999 -99999 -99999 -99999 -99999 -99999 -99999 -99999 -99999 -99999 -99999 -99999 -99999 -99999 -99999 -99999 -99999 -99999 -99999 -99999 -99999 -99999 -99999 -99999 -99999 -99999 -99999 -99999 -99999 -99999 -99999 -1225.4005126953125 -1224.8203125 -1224.3968505859375 -1224.09521484375 -1223.9212646484375 -1223.87939453125 -1223.9749755859375 -1224.2391357421875 -1224.68115234375 -1225.257080078125 -1226.0062255859375 -1226.93896484375 -1228.037841796875 -1229.293212890625 -1230.67431640625 -1232.2301025390625 -1233.91259765625 -1235.7119140625 -1237.625 -1239.6539306640625 -1241.8197021484375 -1244.100830078125 -1246.4989013671875 -1249.03759765625 -1251.774658203125 -1254.7437744140625 -1257.9432373046875 -1261.3936767578125 -1265.113037109375 -1269.12255859375 -1273.4786376953125 -1278.0556640625 -1282.87548828125 -1287.85888671875 -1292.987548828125 -1298.2271728515625 -1303.5416259765625 -1307.8824462890625 -1310.6597900390625 -1312.25048828125 -1313.4853515625 -1314.703369140625 -1315.9344482421875 -1317.1236572265625 -1318.50244140625 -1320.0067138671875 -1321.66552734375 -1323.4971923828125 -1325.5301513671875 -1327.8162841796875 -1330.29931640625 -1332.97509765625 -1335.8272705078125 -1338.8822021484375 -1342.126220703125 -1345.482421875 -1348.9552001953125 -1352.524658203125 -1356.20751953125 -99999 -99999 -99999 -99999 -99999 -99999 -99999 -99999 -99999 -99999 -99999 -99999 -99999 -99999 -99999 -99999 -99999 -99999 -99999 -99999 -99999 -99999 -99999 -99999 -99999 -99999 -99999 -99999 -99999 -99999 -99999 -99999 -99999 -99999 -99999 -99999 -99999 -99999 -99999 -99999 -99999 -99999 -99999 -99999 -99999 -99999 -99999 -99999 -99999 -99999 -99999 -99999 -99999 -99999 -99999 -99999 -99999 -99999 -99999 -99999 -99999 -99999 -99999 -99999 -99999 -99999
 -99999 -99999 -99999 -99999 -99999 -99999 -99999 -99999 -99999 -99999 -99999 -99999 -99999 -99999 -99999 -99999 -99999 -99999 -99999 -99999 -99999 -99999 -99999 -99999 -99999 -99999 -99999 -99999 -99999 -99999 -99999 -99999 -99999 -99999 -99999 -99999 -99999 -99999 -99999 -99999 -99999 -99999 -99999 -99999 -99999 -99999 -99999 -99999 -99999 -99999 -99999 -99999 -99999 -99999 -99999 -99999 -99999 -99999 -99999 -99999 -99999 -99999 -99999 -99999 -99999 -99999 -99999 -99999 -99999 -99999 -99999 -99999 -99999 -1235.6993408203125 -1235.06787109375 -1234.532470703125 -1234.106689453125 -1233.8243408203125 -1233.66162109375 -1233.623779296875 -1233.7156982421875 -1233.9658203125 -1234.38330078125 -1234.943603515625 -1235.6478271484375 -1236.4954833984375 -1237.5225830078125 -1238.7021484375 -1240.0164794921875 -1241.4593505859375 -1243.0296630859375 -1244.7525634765625 -1246.608642578125 -1248.5693359375 -1250.6478271484375 -1252.8604736328125 -1255.2425537109375 -1257.781494140625 -1260.49072265625 -1263.3697509765625 -1266.486572265625 -1269.8707275390625 -1273.5694580078125 -1277.5308837890625 -1281.73681640625 -1286.1632080078125 -1290.7821044921875 -1295.567138671875 -1300.5596923828125 -1305.6214599609375 -1310.6474609375 -1314.898193359375 -1316.9884033203125 -1318.1065673828125 -1319.0885009765625 -1320.1160888671875 -1321.200927734375 -1322.365966796875 -1323.640869140625 -1325.05517578125 -1326.6826171875 -1328.5360107421875 -1330.6046142578125 -1332.8983154296875 -1335.40576171875 -1338.1522216796875 -1341.142822265625 -1344.297119140625 -1347.6141357421875 -1351.0714111328125 -1354.6749267578125 -1358.4158935546875 -1362.1175537109375 -1365.931640625 -1369.7686767578125 -99999 -99999 -99999 -99999 -99999 -99999 -99999 -99999 -99999 -99999 -99999 -99999 -99999 -99999 -99999 -99999 -99999 -99999 -99999 -99999 -99999 -99999 -99999 -99999 -99999 -99999 -99999 -99999 -99999 -99999 -99999 -99999 -99999 -99999 -99999 -99999 -99999 -99999 -99999 -99999 -99999 -99999 -99999 -99999 -99999 -99999 -99999 -99999 -99999 -99999 -99999 -99999 -99999 -99999 -99999 -99999 -99999 -99999 -99999 -99999 -99999 -99999 -99999 -99999
 -99999 -99999 -99999 -99999 -99999 -99999 -99999 -99999 -99999 -99999 -99999 -99999 -99999 -99999 -99999 -99999 -99999 -99999 -99999 -99999 -99999 -99999 -99999 -99999 -99999 -99999 -99999 -99999 -99999 -99999 -99999 -99999 -99999 -99999 -99999 -99999 -99999 -99999 -99999 -99999 -99999 -99999 -99999 -99999 -99999 -99999 -99999 -99999 -99999 -99999 -99999 -99999 -99999 -99999 -99999 -99999 -99999 -99999 -99999 -99999 -99999 -99999 -99999 -99999 -99999 -99999 -99999 -99999 -99999 -99999 -99999 -99999 -1246.00146484375 -1245.29931640625 -1244.692626953125 -1244.202880859375 -1243.8092041015625 -1243.5208740234375 -1243.3516845703125 -1243.3193359375 -1243.427001953125 -1243.6622314453125 -1244.028076171875 -1244.5447998046875 -1245.220947265625 -1246.0419921875 -1246.9949951171875 -1248.0792236328125 -1249.31982421875 -1250.70849609375 -1252.21484375 -1253.849853515625 -1255.6031494140625 -1257.5025634765625 -1259.5364990234375 -1261.6959228515625 -1263.964599609375 -1266.4345703125 -1269.078857421875 -1271.974365234375 -1275.0430908203125 -1278.367431640625 -1281.916015625 -1285.6903076171875 -1289.6708984375 -1293.90234375 -1298.309814453125 -1302.806640625 -1307.3580322265625 -1311.9332275390625 -1316.265869140625 -1319.636962890625 -1321.8031005859375 -1322.9451904296875 -1323.9970703125 -1325.0228271484375 -1326.068359375 -1327.1839599609375 -1328.433837890625 -1329.8594970703125 -1331.482177734375 -1333.32861328125 -1335.4246826171875 -1337.786376953125 -1340.4276123046875 -1343.2745361328125 -1346.3388671875 -1349.593994140625 -1353.0697021484375 -1356.742431640625 -1360.4215087890625 -1364.2218017578125 -1368.09716796875 -1372.0230712890625 -1375.94970703125 -1379.8848876953125 -1383.8135986328125 -99999 -99999 -99999 -99999 -99999 -99999 -99999 -99999 -99999 -99999 -99999 -99999 -99999 -99999 -99999 -99999 -99999 -99999 -99999 -99999 -99999 -99999 -99999 -99999 -99999 -99999 -99999 -99999 -99999 -99999 -99999 -99999 -99999 -99999 -99999 -99999 -99999 -99999 -99999 -99999 -99999 -99999 -99999 -99999 -99999 -99999 -99999 -99999 -99999 -99999 -99999 -99999 -99999 -99999 -99999 -99999 -99999 -99999 -99999 -99999 -99999 -99999
 -99999 -99999 -99999 -99999 -99999 -99999 -99999 -99999 -99999 -99999 -99999 -99999 -99999 -99999 -99999 -99999 -99999 -99999 -99999 -99999 -99999 -99999 -99999 -99999 -99999 -99999 -99999 -99999 -99999 -99999 -99999 -99999 -99999 -99999 -99999 -99999 -99999 -99999 -99999 -99999 -99999 -99999 -99999 -99999 -99999 -99999 -99999 -99999 -99999 -99999 -99999 -99999 -99999 -99999 -99999 -99999 -99999 -99999 -99999 -99999 -99999 -99999 -99999 -99999 -99999 -99999 -99999 -99999 -99999 -99999 -99999 -99999 -1255.5606689453125 -1254.906494140625 -1254.332275390625 -1253.847900390625 -1253.4671630859375 -1253.1962890625 -1253.04638671875 -1253.0068359375 -1253.0904541015625 -1253.3123779296875 -1253.668701171875 -1254.156982421875 -1254.779052734375 -1255.5355224609375 -1256.44482421875 -1257.4888916015625 -1258.658203125 -1259.9434814453125 -1261.377197265625 -1262.9454345703125 -1264.6494140625 -1266.39892578125 -1268.35302734375 -1270.4766845703125 -1272.7396240234375 -1275.115234375 -1277.7281494140625 -1280.5057373046875 -1283.46923828125 -1286.6337890625 -1290.01416015625 -1293.6422119140625 -1297.4327392578125 -1301.3533935546875 -1305.3760986328125 -1309.5133056640625 -1313.629638671875 -1317.650634765625 -1321.244140625 -1324.0926513671875 -1326 -1327.35986328125 -1328.4520263671875 -1329.5010986328125 -1330.5850830078125 -1331.717529296875 -1332.9637451171875 -1334.382080078125 -1336.031005859375 -1337.947509765625 -1340.151123046875 -1342.594482421875 -1345.304931640625 -1348.257568359375 -1351.49755859375 -1354.927001953125 -1358.5289306640625 -1362.2738037109375 -1366.1544189453125 -1370.104248046875 -1374.0943603515625 -1378.14599609375 -1382.1988525390625 -1386.242431640625 -1390.244873046875 -1394.1986083984375 -1398.1195068359375 -99999 -99999 -99999 -99999 -99999 -99999 -99999 -99999 -99999 -99999 -99999 -99999 -99999 -99999 -99999 -99999 -99999 -99999 -99999 -99999 -99999 -99999 -99999 -99999 -99999 -99999 -99999 -99999 -99999 -99999 -99999 -99999 -99999 -99999 -99999 -99999 -99999 -99999 -99999 -99999 -99999 -99999 -99999 -99999 -99999 -99999 -99999 -99999 -99999 -99999 -99999 -99999 -99999 -99999 -99999 -99999 -99999 -99999 -99999 -99999
 -99999 -99999 -99999 -99999 -99999 -99999 -99999 -99999 -99999 -99999 -99999 -99999 -99999 -99999 -99999 -99999 -99999 -99999 -99999 -99999 -99999 -99999 -99999 -99999 -99999 -99999 -99999 -99999 -99999 -99999 -99999 -99999 -99999 -99999 -99999 -99999 -99999 -99999 -99999 -99999 -99999 -99999 -99999 -99999 -99999 -99999 -99999 -99999 -99999 -99999 -99999 -99999 -99999 -99999 -99999 -99999 -99999 -99999 -99999 -99999 -99999 -99999 -99999 -99999 -99999 -99999 -99999 -99999 -99999 -99999 -99999 -1265.8243408203125 -1265.104248046875 -1264.477294921875 -1263.9334716796875 -1263.4749755859375 -1263.115966796875 -1262.8516845703125 -1262.7037353515625 -1262.663330078125 -1262.7449951171875 -1262.9459228515625 -1263.2674560546875 -1263.729736328125 -1264.315673828125 -1265.0484619140625 -1265.8292236328125 -1266.824951171875 -1267.9420166015625 -1269.1536865234375 -1270.47998046875 -1271.9774169921875 -1273.6470947265625 -1275.3885498046875 -1277.252197265625 -1279.2894287109375 -1281.458984375 -1283.7755126953125 -1286.254638671875 -1288.9029541015625 -1291.758056640625 -1294.8040771484375 -1298.0079345703125 -1301.3555908203125 -1304.8529052734375 -1308.54248046875 -1312.2657470703125 -1315.97802734375 -1319.6060791015625 -1323.0186767578125 -1325.9871826171875 -1328.4854736328125 -1330.33984375 -1331.6837158203125 -1332.75537109375 -1333.806884765625 -1334.8997802734375 -1336.034912109375 -1337.2852783203125 -1338.741455078125 -1340.4610595703125 -1342.447509765625 -1344.719970703125 -1347.2711181640625 -1350.1514892578125 -1353.2847900390625 -1356.66015625 -1360.2283935546875 -1364.029052734375 -1367.9090576171875 -1371.914306640625 -1376.046142578125 -1380.2021484375 -1384.3765869140625 -1388.5211181640625 -1392.6456298828125 -1396.7410888671875 -1400.8665771484375 -1404.75390625 -1408.6378173828125 -1412.4573974609375 -99999 -99999 -99999 -99999 -99999 -99999 -99999 -99999 -99999 -99999 -99999 -99999 -99999 -99999 -99999 -99999 -99999 -99999 -99999 -99999 -99999 -99999 -99999 -99999 -99999 -99999 -99999 -99999 -99999 -99999 -99999 -99999 -99999 -99999 -99999 -99999 -99999 -99999 -99999 -99999 -99999 -99999 -99999 -99999 -99999 -99999 -99999 -99999 -99999 -99999 -99999 -99999 -99999 -99999 -99999 -99999 -99999 -99999
 -99999 -99999 -99999 -99999 -99999 -99999 -99999 -99999 -99999 -99999 -99999 -99999 -99999 -99999 -99999 -99999 -99999 -99999 -99999 -99999 -99999 -99999 -99999 -99999 -99999 -99999 -99999 -99999 -99999 -99999 -99999 -99999 -99999 -99999 -99999 -99999 -99999 -99999 -99999 -99999 -99999 -99999 -99999 -99999 -99999 -99999 -99999 -99999 -99999 -99999 -99999 -99999 -99999 -99999 -99999 -99999 -99999 -99999 -99999 -99999 -99999 -99999 -99999 -99999 -99999 -99999 -99999 -99999 -99999 -99999 -1276.0440673828125 -1275.3072509765625 -1274.6312255859375 -1274.0262451171875 -1273.4970703125 -1273.0587158203125 -1272.710693359375 -1272.4595947265625 -1272.30517578125 -1272.26318359375 -1272.338623046875 -1272.5242919921875 -1272.81787109375 -1273.235595703125 -1273.7869873046875 -1274.4825439453125 -1275.2740478515625 -1276.1900634765625 -1277.240478515625 -1278.4150390625 -1279.70068359375 -1281.10205078125 -1282.647216796875 -1284.3192138671875 -1286.119873046875 -1288.0457763671875 -1290.1021728515625 -1292.3375244140625 -1294.73193359375 -1297.2679443359375 -1299.9443359375 -1302.768310546875 -1305.7911376953125 -1308.9564208984375 -1312.198974609375 -1315.4056396484375 -1318.8594970703125 -1322.1468505859375 -1325.26513671875 -1328.2236328125 -1330.856201171875 -1333.054443359375 -1334.70947265625 -1336.027587890625 -1337.093017578125 -1338.12109375 -1339.153564453125 -1340.255615234375 -1341.501708984375 -1343.006103515625 -1344.7733154296875 -1346.849365234375 -1349.2728271484375 -1351.985595703125 -1354.9769287109375 -1358.26123046875 -1361.8040771484375 -1365.5589599609375 -1369.481201171875 -1373.6064453125 -1377.8299560546875 -1382.080322265625 -1386.3779296875 -1390.6646728515625 -1394.9501953125 -1399.1851806640625 -1403.3565673828125 -1407.4378662109375 -1411.445556640625 -1415.3736572265625 -1419.2252197265625 -1422.9881591796875 -1426.6639404296875 -99999 -99999 -99999 -99999 -99999 -99999 -99999 -99999 -99999 -99999 -99999 -99999 -99999 -99999 -99999 -99999 -99999 -99999 -99999 -99999 -99999 -99999 -99999 -99999 -99999 -99999 -99999 -99999 -99999 -99999 -99999 -99999 -99999 -99999 -99999 -99999 -99999 -99999 -99999 -99999 -99999 -99999 -99999 -99999 -99999 -99999 -99999 -99999 -99999 -99999 -99999 -99999 -99999 -99999 -99999 -99999
 -99999 -99999 -99999 -99999 -99999 -99999 -99999 -99999 -99999 -99999 -99999 -99999 -99999 -99999 -99999 -99999 -99999 -99999 -99999 -99999 -99999 -99999 -99999 -99999 -99999 -99999 -99999 -99999 -99999 -99999 -99999 -99999 -99999 -99999 -99999 -99999 -99999 -99999 -99999 -99999 -99999 -99999 -99999 -99999 -99999 -99999 -99999 -99999 -99999 -99999 -99999 -99999 -99999 -99999 -99999 -99999 -99999 -99999 -99999 -99999 -99999 -99999 -99999 -99999 -99999 -99999 -99999 -99999 -99999 -1286.2274169921875 -1285.459716796875 -1284.753173828125 -1284.1063232421875 -1283.529052734375 -1283.0316162109375 -1282.6177978515625 -1282.2860107421875 -1282.040283203125 -1281.893310546875 -1281.8492431640625 -1281.9185791015625 -1282.090576171875 -1282.367431640625 -1282.7589111328125 -1283.26806640625 -1283.9061279296875 -1284.6544189453125 -1285.512451171875 -1286.4910888671875 -1287.5880126953125 -1288.822998046875 -1290.1707763671875 -1291.6256103515625 -1293.204345703125 -1294.91845703125 -1296.776123046875 -1298.7557373046875 -1300.865234375 -1303.097900390625 -1305.4931640625 -1308.0400390625 -1310.6884765625 -1313.381591796875 -1316.298583984375 -1319.337890625 -1322.303955078125 -1325.264892578125 -1328.197021484375 -1330.9920654296875 -1333.56787109375 -1335.7723388671875 -1337.655029296875 -1339.2056884765625 -1340.4610595703125 -1341.51123046875 -1342.458984375 -1343.4310302734375 -1344.4990234375 -1345.7196044921875 -1347.2001953125 -1349.0892333984375 -1351.3228759765625 -1353.8614501953125 -1356.6890869140625 -1359.906005859375 -1363.2957763671875 -1366.9786376953125 -1370.976806640625 -1375.156494140625 -1379.419921875 -1383.8004150390625 -1388.229736328125 -1392.7015380859375 -1397.125244140625 -1401.5081787109375 -1405.859375 -1410.0330810546875 -1414.167724609375 -1418.231689453125 -1422.2039794921875 -1426.075927734375 -1429.84765625 -1433.53369140625 -1437.125244140625 -1440.611572265625 -99999 -99999 -99999 -99999 -99999 -99999 -99999 -99999 -99999 -99999 -99999 -99999 -99999 -99999 -99999 -99999 -99999 -99999 -99999 -99999 -99999 -99999 -99999 -99999 -99999 -99999 -99999 -99999 -99999 -99999 -99999 -99999 -99999 -99999 -99999 -99999 -99999 -99999 -99999 -99999 -99999 -99999 -99999 -99999 -99999 -99999 -99999 -99999 -99999 -99999 -99999 -99999 -99999 -99999
 -99999 -99999 -99999 -99999 -99999 -99999 -99999 -99999 -99999 -99999 -99999 -99999 -99999 -99999 -99999 -99999 -99999 -99999 -99999 -99999 -99999 -99999 -99999 -99999 -99999 -99999 -99999 -99999 -99999 -99999 -99999 -99999 -99999 -99999 -99999 -99999 -99999 -99999 -99999 -99999 -99999 -99999 -99999 -99999 -99999 -99999 -99999 -99999 -99999 -99999 -99999 -99999 -99999 -99999 -99999 -99999 -99999 -99999 -99999 -99999 -99999 -99999 -99999 -99999 -99999 -99999 -99999 -99999 -1296.3558349609375 -1295.57470703125 -1294.839111328125 -1294.1640625 -1293.555908203125 -1293.010009765625 -1292.5308837890625 -1292.12255859375 -1291.799072265625 -1291.574462890625 -1291.4366455078125 -1291.3883056640625 -1291.4322509765625 -1291.583251953125 -1291.854736328125 -1292.2275390625 -1292.70263671875 -1293.2808837890625 -1293.9832763671875 -1294.801513671875 -1295.7327880859375 -1296.7716064453125 -1297.9185791015625 -1299.1824951171875 -1300.5819091796875 -1302.0909423828125 -1303.7147216796875 -1305.449462890625 -1307.3109130859375 -1309.3182373046875 -1311.438232421875 -1313.6639404296875 -1315.9903564453125 -1318.512451171875 -1321.062255859375 -1323.6624755859375 -1326.3543701171875 -1329.0489501953125 -1331.7113037109375 -1334.27001953125 -1336.67919921875 -1338.8656005859375 -1340.8316650390625 -1342.5262451171875 -1343.9154052734375 -1345.043701171875 -1346.0234375 -1346.9345703125 -1347.84326171875 -1348.8138427734375 -1349.9683837890625 -1351.54150390625 -1353.509765625 -1355.8369140625 -1358.484375 -1361.46337890625 -1364.7410888671875 -1368.410888671875 -1372.3502197265625 -1376.51220703125 -1380.84814453125 -1385.36328125 -1389.9654541015625 -1394.557373046875 -1399.13525390625 -1403.6925048828125 -1408.1505126953125 -1412.5352783203125 -1416.834228515625 -1421.0321044921875 -1425.1083984375 -1429.0869140625 -1432.9896240234375 -1436.7850341796875 -1440.470947265625 -1444.0634765625 -1447.570556640625 -1450.9681396484375 -1454.193603515625 -99999 -99999 -99999 -99999 -99999 -99999 -99999 -99999 -99999 -99999 -99999 -99999 -99999 -99999 -99999 -99999 -99999 -99999 -99999 -99999 -99999 -99999 -99999 -99999 -99999 -99999 -99999 -99999 -99999 -99999 -99999 -99999 -99999 -99999 -99999 -99999 -99999 -99999 -99999 -99999 -99999 -99999 -99999 -99999 -99999 -99999 -99999 -99999 -99999 -99999 -99999 -99999
 -99999 -99999 -99999 -99999 -99999 -99999 -99999 -99999 -99999 -99999 -99999 -99999 -99999 -99999 -99999 -99999 -99999 -99999 -99999 -99999 -99999 -99999 -99999 -99999 -99999 -99999 -99999 -99999 -99999 -99999 -99999 -99999 -99999 -99999 -99999 -99999 -99999 -99999 -99999 -99999 -99999 -99999 -99999 -99999 -99999 -99999 -99999 -99999 -99999 -99999 -99999 -99999 -99999 -99999 -99999 -99999 -99999 -99999 -99999 -99999 -99999 -99999 -99999 -99999 -99999 -99999 -99999 -99999 -1305.6171875 -1304.87841796875 -1304.1871337890625 -1303.54541015625 -1302.957275390625 -1302.4266357421875 -1301.975830078125 -1301.598388671875 -1301.2935791015625 -1301.0648193359375 -1300.916015625 -1300.874267578125 -1300.925537109375 -1301.067138671875 -1301.3013916015625 -1301.6318359375 -1302.0858154296875 -1302.6427001953125 -1303.2989501953125 -1304.05517578125 -1304.913330078125 -1305.904052734375 -1306.9986572265625 -1308.19580078125 -1309.49609375 -1310.8917236328125 -1312.430419921875 -1314.0797119140625 -1315.796142578125 -1317.705322265625 -1319.697265625 -1321.7796630859375 -1323.9493408203125 -1326.2247314453125 -1328.5670166015625 -1330.9459228515625 -1333.366455078125 -1335.75341796875 -1338.1009521484375 -1340.3353271484375 -1342.4642333984375 -1344.4083251953125 -1346.106201171875 -1347.552734375 -1348.790283203125 -1349.85009765625 -1350.773681640625 -1351.6119384765625 -1352.46728515625 -1353.396240234375 -1354.5101318359375 -1355.9600830078125 -1358.153564453125 -1360.6368408203125 -1363.308349609375 -1366.412109375 -1369.8778076171875 -1373.6949462890625 -1377.7958984375 -1382.1929931640625 -1386.813232421875 -1391.513427734375 -1396.2755126953125 -1401.08056640625 -1405.825439453125 -1410.42138671875 -1414.9903564453125 -1419.4320068359375 -1423.7548828125 -1427.96826171875 -1432.0872802734375 -1436.0911865234375 -1439.971923828125 -1443.770263671875 -1447.478759765625 -1451.069091796875 -1454.510986328125 -1457.890869140625 -1461.1690673828125 -1464.3077392578125 -1467.3319091796875 -99999 -99999 -99999 -99999 -99999 -99999 -99999 -99999 -99999 -99999 -99999 -99999 -99999 -99999 -99999 -99999 -99999 -99999 -99999 -99999 -99999 -99999 -99999 -99999 -99999 -99999 -99999 -99999 -99999 -99999 -99999 -99999 -99999 -99999 -99999 -99999 -99999 -99999 -99999 -99999 -99999 -99999 -99999 -99999 -99999 -99999 -99999 -99999 -99999 -99999
 -99999 -99999 -99999 -99999 -99999 -99999 -99999 -99999 -99999 -99999 -99999 -99999 -99999 -99999 -99999 -99999 -99999 -99999 -99999 -99999 -99999 -99999 -99999 -99999 -99999 -99999 -99999 -99999 -99999 -99999 -99999 -99999 -99999 -99999 -99999 -99999 -99999 -99999 -99999 -99999 -99999 -99999 -99999 -99999 -99999 -99999 -99999 -99999 -99999 -99999 -99999 -99999 -99999 -99999 -99999 -99999 -99999 -99999 -99999 -99999 -99999 -99999 -99999 -99999 -99999 -99999 -99999 -1315.5972900390625 -1314.843017578125 -1314.1368408203125 -1313.4842529296875 -1312.8626708984375 -1312.3114013671875 -1311.8167724609375 -1311.38134765625 -1311.0084228515625 -1310.7103271484375 -1310.4986572265625 -1310.3682861328125 -1310.3177490234375 -1310.344482421875 -1310.46435546875 -1310.68896484375 -1311.005126953125 -1311.4112548828125 -1311.9171142578125 -1312.5313720703125 -1313.2471923828125 -1314.06201171875 -1314.98974609375 -1316.0098876953125 -1317.13330078125 -1318.3580322265625 -1319.6978759765625 -1321.1436767578125 -1322.685546875 -1324.3221435546875 -1326.0516357421875 -1327.898193359375 -1329.830810546875 -1331.829833984375 -1333.904052734375 -1336.0303955078125 -1338.2098388671875 -1340.3565673828125 -1342.4912109375 -1344.56689453125 -1346.5596923828125 -1348.406982421875 -1350.0693359375 -1351.5540771484375 -1352.8624267578125 -1353.995361328125 -1354.9334716796875 -1355.7861328125 -1356.5887451171875 -1357.4034423828125 -1358.3544921875 -1359.4730224609375 -1361.083251953125 -1363.3035888671875 -1365.72998046875 -1368.4376220703125 -1371.5303955078125 -1375.0750732421875 -1379.1416015625 -1383.516357421875 -1388.153076171875 -1392.961181640625 -1397.8797607421875 -1402.8868408203125 -1407.7767333984375 -1412.6187744140625 -1417.3558349609375 -1421.9686279296875 -1426.462646484375 -1430.833984375 -1435.0523681640625 -1439.145751953125 -1443.175048828125 -1447.0555419921875 -1450.820556640625 -1454.4801025390625 -1458.066650390625 -1461.544677734375 -1464.9007568359375 -1468.150634765625 -1471.293212890625 -1474.3133544921875 -1477.20068359375 -1479.9451904296875 -99999 -99999 -99999 -99999 -99999 -99999 -99999 -99999 -99999 -99999 -99999 -99999 -99999 -99999 -99999 -99999 -99999 -99999 -99999 -99999 -99999 -99999 -99999 -99999 -99999 -99999 -99999 -99999 -99999 -99999 -99999 -99999 -99999 -99999 -99999 -99999 -99999 -99999 -99999 -99999 -99999 -99999 -99999 -99999 -99999 -99999 -99999 -99999
 -99999 -99999 -99999 -99999 -99999 -99999 -99999 -99999 -99999 -99999 -99999 -99999 -99999 -99999 -99999 -99999 -99999 -99999 -99999 -99999 -99999 -99999 -99999 -99999 -99999 -99999 -99999 -99999 -99999 -99999 -99999 -99999 -99999 -99999 -99999 -99999 -99999 -99999 -99999 -99999 -99999 -99999 -99999 -99999 -99999 -99999 -99999 -99999 -99999 -99999 -99999 -99999 -99999 -99999 -99999 -99999 -99999 -99999 -99999 -99999 -99999 -99999 -99999 -99999 -99999 -99999 -1325.4456787109375 -1324.70556640625 -1324.004150390625 -1323.337890625 -1322.7100830078125 -1322.125244140625 -1321.5985107421875 -1321.1302490234375 -1320.7176513671875 -1320.3638916015625 -1320.079833984375 -1319.876708984375 -1319.7513427734375 -1319.69921875 -1319.718994140625 -1319.828369140625 -1320.0374755859375 -1320.3311767578125 -1320.7095947265625 -1321.17626953125 -1321.754150390625 -1322.4271240234375 -1323.1888427734375 -1324.0399169921875 -1324.98779296875 -1326.0518798828125 -1327.2054443359375 -1328.4482421875 -1329.7799072265625 -1331.21337890625 -1332.75390625 -1334.3668212890625 -1336.06982421875 -1337.8280029296875 -1339.677734375 -1341.583740234375 -1343.509765625 -1345.4464111328125 -1347.377685546875 -1349.307373046875 -1351.1435546875 -1352.8662109375 -1354.4605712890625 -1355.9522705078125 -1357.28515625 -1358.3988037109375 -1359.44482421875 -1360.30908203125 -1361.11962890625 -1361.9495849609375 -1362.831298828125 -1363.798828125 -1365.05078125 -1366.756591796875 -1368.800048828125 -1371.1005859375 -1373.66796875 -1376.8265380859375 -1380.6329345703125 -1384.916748046875 -1389.4940185546875 -1394.331298828125 -1399.39111328125 -1404.5220947265625 -1409.6549072265625 -1414.733642578125 -1419.6947021484375 -1424.5252685546875 -1429.182861328125 -1433.6766357421875 -1438.015625 -1442.22705078125 -1446.321044921875 -1450.282470703125 -1454.132080078125 -1457.9007568359375 -1461.564697265625 -1465.1246337890625 -1468.589111328125 -1471.9534912109375 -1475.19921875 -1478.314453125 -1481.2984619140625 -1484.164306640625 -1486.8973388671875 -1489.495849609375 -1491.98779296875 -99999 -99999 -99999 -99999 -99999 -99999 -99999 -99999 -99999 -99999 -99999 -99999 -99999 -99999 -99999 -99999 -99999 -99999 -99999 -99999 -99999 -99999 -99999 -99999 -99999 -99999 -99999 -99999 -99999 -99999 -99999 -99999 -99999 -99999 -99999 -99999 -99999 -99999 -99999 -99999 -99999 -99999 -99999 -99999 -99999 -99999
 -99999 -99999 -99999 -99999 -99999 -99999 -99999 -99999 -99999 -99999 -99999 -99999 -99999 -99999 -99999 -99999 -99999 -99999 -99999 -99999 -99999 -99999 -99999 -99999 -99999 -99999 -99999 -99999 -99999 -99999 -99999 -99999 -99999 -99999 -99999 -99999 -99999 -99999 -99999 -99999 -99999 -99999 -99999 -99999 -99999 -99999 -99999 -99999 -99999 -99999 -99999 -99999 -99999 -99999 -99999 -99999 -99999 -99999 -99999 -99999 -99999 -99999 -99999 -99999 -99999 -1335.1978759765625 -1334.4765625 -1333.7811279296875 -1333.1119384765625 -1332.474365234375 -1331.88427734375 -1331.3392333984375 -1330.838623046875 -1330.38671875 -1329.990234375 -1329.6640625 -1329.398193359375 -1329.1944580078125 -1329.0625 -1329.00732421875 -1329.0352783203125 -1329.1368408203125 -1329.31396484375 -1329.58349609375 -1329.94189453125 -1330.38720703125 -1330.91650390625 -1331.5234375 -1332.2418212890625 -1333.0477294921875 -1333.9395751953125 -1334.9150390625 -1335.9796142578125 -1337.1485595703125 -1338.4061279296875 -1339.738525390625 -1341.138916015625 -1342.6224365234375 -1344.21875 -1345.8514404296875 -1347.5245361328125 -1349.2330322265625 -1350.97607421875 -1352.7498779296875 -1354.49365234375 -1356.1177978515625 -1357.749267578125 -1359.3499755859375 -1360.7733154296875 -1362.0672607421875 -1363.3037109375 -1364.347412109375 -1365.2694091796875 -1366.1160888671875 -1366.916748046875 -1367.716796875 -1368.5997314453125 -1369.6512451171875 -1370.9307861328125 -1372.5267333984375 -1374.50537109375 -1376.71875 -1379.1541748046875 -1382.3975830078125 -1386.5010986328125 -1390.9617919921875 -1395.82275390625 -1400.9486083984375 -1406.1531982421875 -1411.4801025390625 -1416.8065185546875 -1422.0108642578125 -1427.0472412109375 -1431.9013671875 -1436.5546875 -1441.0391845703125 -1445.3740234375 -1449.5401611328125 -1453.55126953125 -1457.457763671875 -1461.2843017578125 -1465.015380859375 -1468.6650390625 -1472.22607421875 -1475.6802978515625 -1479.0216064453125 -1482.246826171875 -1485.365478515625 -1488.358642578125 -1491.2161865234375 -1493.9359130859375 -1496.4305419921875 -1498.8118896484375 -1501.054443359375 -1503.167236328125 -99999 -99999 -99999 -99999 -99999 -99999 -99999 -99999 -99999 -99999 -99999 -99999 -99999 -99999 -99999 -99999 -99999 -99999 -99999 -99999 -99999 -99999 -99999 -99999 -99999 -99999 -99999 -99999 -99999 -99999 -99999 -99999 -99999 -99999 -99999 -99999 -99999 -99999 -99999 -99999 -99999 -99999 -99999 -99999
 -99999 -99999 -99999 -99999 -99999 -99999 -99999 -99999 -99999 -99999 -99999 -99999 -99999 -99999 -99999 -99999 -99999 -99999 -99999 -99999 -99999 -99999 -99999 -99999 -99999 -99999 -99999 -99999 -99999 -99999 -99999 -99999 -99999 -99999 -99999 -99999 -99999 -99999 -99999 -99999 -99999 -99999 -99999 -99999 -99999 -99999 -99999 -99999 -99999 -99999 -99999 -99999 -99999 -99999 -99999 -99999 -99999 -99999 -99999 -99999 -99999 -99999 -99999 -99999 -99999 -1344.1290283203125 -1343.4385986328125 -1342.775146484375 -1342.1514892578125 -1341.560791015625 -1341.0029296875 -1340.4822998046875 -1340.0062255859375 -1339.5882568359375 -1339.21875 -1338.9017333984375 -1338.6456298828125 -1338.453857421875 -1338.3323974609375 -1338.274658203125 -1338.2877197265625 -1338.3802490234375 -1338.55029296875 -1338.7982177734375 -1339.1197509765625 -1339.5284423828125 -1340.0262451171875 -1340.604736328125 -1341.26123046875 -1341.994873046875 -1342.8323974609375 -1343.7515869140625 -1344.7532958984375 -1345.82666015625 -1346.971435546875 -1348.2181396484375 -1349.540283203125 -1350.9053955078125 -1352.32958984375 -1353.8221435546875 -1355.357177734375 -1356.89599609375 -1358.4403076171875 -1360.0146484375 -1361.63916015625 -1363.1319580078125 -1364.585205078125 -1365.995361328125 -1367.2996826171875 -1368.4713134765625 -1369.531494140625 -1370.5015869140625 -1371.3868408203125 -1372.20751953125 -1373.0054931640625 -1373.842041015625 -1374.7791748046875 -1375.851806640625 -1377.1484375 -1378.7518310546875 -1380.5965576171875 -1382.6868896484375 -1385.08544921875 -1388.537109375 -1392.9161376953125 -1397.5472412109375 -1402.5029296875 -1407.74853515625 -1413.2686767578125 -1418.774658203125 -1424.22705078125 -1429.5755615234375 -1434.6646728515625 -1439.51611328125 -1444.146240234375 -1448.5960693359375 -1452.76611328125 -1456.83837890625 -1460.7998046875 -1464.66064453125 -1468.451171875 -1472.1612548828125 -1475.7916259765625 -1479.327880859375 -1482.77294921875 -1486.1314697265625 -1489.354248046875 -1492.4949951171875 -1495.3988037109375 -1498.1922607421875 -1500.8486328125 -1503.3408203125 -1505.687255859375 -1507.8843994140625 -1509.946533203125 -99999 -99999 -99999 -99999 -99999 -99999 -99999 -99999 -99999 -99999 -99999 -99999 -99999 -99999 -99999 -99999 -99999 -99999 -99999 -99999 -99999 -99999 -99999 -99999 -99999 -99999 -99999 -99999 -99999 -99999 -99999 -99999 -99999 -99999 -99999 -99999 -99999 -99999 -99999 -99999 -99999 -99999 -99999 -99999
 -99999 -99999 -99999 -99999 -99999 -99999 -99999 -99999 -99999 -99999 -99999 -99999 -99999 -99999 -99999 -99999 -99999 -99999 -99999 -99999 -99999 -99999 -99999 -99999 -99999 -99999 -99999 -99999 -99999 -99999 -99999 -99999 -99999 -99999 -99999 -99999 -99999 -99999 -99999 -99999 -99999 -99999 -99999 -99999 -99999 -99999 -99999 -99999 -99999 -99999 -99999 -99999 -99999 -99999 -99999 -99999 -99999 -99999 -99999 -99999 -99999 -99999 -99999 -99999 -1353.648193359375 -1352.9833984375 -1352.34716796875 -1351.73388671875 -1351.1373291015625 -1350.5712890625 -1350.045166015625 -1349.5648193359375 -1349.1224365234375 -1348.7235107421875 -1348.3714599609375 -1348.07421875 -1347.836181640625 -1347.652587890625 -1347.5340576171875 -1347.477294921875 -1347.48974609375 -1347.5706787109375 -1347.72119140625 -1347.9522705078125 -1348.2550048828125 -1348.6339111328125 -1349.085205078125 -1349.6175537109375 -1350.237060546875 -1350.931884765625 -1351.69580078125 -1352.532958984375 -1353.4622802734375 -1354.4722900390625 -1355.547607421875 -1356.624267578125 -1357.843994140625 -1359.1279296875 -1360.44482421875 -1361.7816162109375 -1363.21142578125 -1364.6419677734375 -1366.07470703125 -1367.4793701171875 -1368.8804931640625 -1370.2576904296875 -1371.5836181640625 -1372.8121337890625 -1373.9632568359375 -1375.0521240234375 -1376.0552978515625 -1376.969482421875 -1377.810302734375 -1378.6318359375 -1379.457275390625 -1380.3306884765625 -1381.299560546875 -1382.4539794921875 -1383.808837890625 -1385.45068359375 -1387.343505859375 -1389.482177734375 -1392.2337646484375 -1395.7255859375 -1400.0191650390625 -1404.574951171875 -1409.5672607421875 -1414.9913330078125 -1420.6876220703125 -1426.4627685546875 -1432.1087646484375 -1437.4591064453125 -1442.569580078125 -1447.425537109375 -1451.8447265625 -1456.13134765625 -1460.2296142578125 -1464.1826171875 -1468.0770263671875 -1471.8863525390625 -1475.628662109375 -1479.29736328125 -1482.9090576171875 -1486.45556640625 -1489.9052734375 -1493.3101806640625 -1496.4520263671875 -1499.5279541015625 -1502.46435546875 -1505.23974609375 -1507.8494873046875 -1510.307373046875 -1512.6070556640625 -1514.723876953125 -1516.6868896484375 -1518.5032958984375 -99999 -99999 -99999 -99999 -99999 -99999 -99999 -99999 -99999 -99999 -99999 -99999 -99999 -99999 -99999 -99999 -99999 -99999 -99999 -99999 -99999 -99999 -99999 -99999 -99999 -99999 -99999 -99999 -99999 -99999 -99999 -99999 -99999 -99999 -99999 -99999 -99999 -99999 -99999 -99999 -99999 -99999 -99999
 -99999 -99999 -99999 -99999 -99999 -99999 -99999 -99999 -99999 -99999 -99999 -99999 -99999 -99999 -99999 -99999 -99999 -99999 -99999 -99999 -99999 -99999 -99999 -99999 -99999 -99999 -99999 -99999 -99999 -99999 -99999 -99999 -99999 -99999 -99999 -99999 -99999 -99999 -99999 -99999 -99999 -99999 -99999 -99999 -99999 -99999 -99999 -99999 -99999 -99999 -99999 -99999 -99999 -99999 -99999 -99999 -99999 -99999 -99999 -99999 -99999 -99999 -99999 -1363.0333251953125 -1362.3985595703125 -1361.7747802734375 -1361.1640625 -1360.603759765625 -1360.0634765625 -1359.5367431640625 -1359.0374755859375 -1358.5755615234375 -1358.1715087890625 -1357.802490234375 -1357.469970703125 -1357.1849365234375 -1356.9549560546875 -1356.7879638671875 -1356.6722412109375 -1356.615234375 -1356.620849609375 -1356.69287109375 -1356.8310546875 -1357.0355224609375 -1357.314697265625 -1357.6658935546875 -1358.085693359375 -1358.5701904296875 -1359.1361083984375 -1359.7806396484375 -1360.501953125 -1361.279296875 -1362.1236572265625 -1363.051025390625 -1364.0643310546875 -1365.1082763671875 -1366.2020263671875 -1367.376220703125 -1368.5887451171875 -1369.8382568359375 -1371.096923828125 -1372.3739013671875 -1373.6773681640625 -1374.973876953125 -1376.25927734375 -1377.470947265625 -1378.6507568359375 -1379.7880859375 -1380.8626708984375 -1381.8712158203125 -1382.8082275390625 -1383.6976318359375 -1384.55126953125 -1385.39599609375 -1386.2628173828125 -1387.210693359375 -1388.274169921875 -1389.4842529296875 -1390.90625 -1392.5997314453125 -1394.629150390625 -1397.019775390625 -1399.8800048828125 -1403.40283203125 -1407.540283203125 -1411.9403076171875 -1416.789306640625 -1422.5777587890625 -1428.605712890625 -1434.571044921875 -1440.2977294921875 -1445.690185546875 -1450.7008056640625 -1455.3380126953125 -1459.6591796875 -1463.748046875 -1467.72607421875 -1471.57666015625 -1475.3609619140625 -1479.0704345703125 -1482.7611083984375 -1486.4283447265625 -1490.039306640625 -1493.6483154296875 -1497.0079345703125 -1500.352783203125 -1503.5772705078125 -1506.6531982421875 -1509.556396484375 -1512.3162841796875 -1514.9049072265625 -1517.29248046875 -1519.5018310546875 -1521.5428466796875 -1523.43994140625 -1525.1845703125 -99999 -99999 -99999 -99999 -99999 -99999 -99999 -99999 -99999 -99999 -99999 -99999 -99999 -99999 -99999 -99999 -99999 -99999 -99999 -99999 -99999 -99999 -99999 -99999 -99999 -99999 -99999 -99999 -99999 -99999 -99999 -99999 -99999 -99999 -99999 -99999 -99999 -99999 -99999 -99999 -99999 -99999 -99999
 -99999 -99999 -99999 -99999 -99999 -99999 -99999 -99999 -99999 -99999 -99999 -99999 -99999 -99999 -99999 -99999 -99999 -99999 -99999 -99999 -99999 -99999 -99999 -99999 -99999 -99999 -99999 -99999 -99999 -99999 -99999 -99999 -99999 -99999 -99999 -99999 -99999 -99999 -99999 -99999 -99999 -99999 -99999 -99999 -99999 -99999 -99999 -99999 -99999 -99999 -99999 -99999 -99999 -99999 -99999 -99999 -99999 -99999 -99999 -99999 -99999 -99999 -1372.2166748046875 -1371.61767578125 -1371.0390625 -1370.4678955078125 -1369.9129638671875 -1369.3773193359375 -1368.86669921875 -1368.388916015625 -1367.9361572265625 -1367.5147705078125 -1367.127197265625 -1366.7781982421875 -1366.4774169921875 -1366.2210693359375 -1366.0101318359375 -1365.8466796875 -1365.736328125 -1365.6865234375 -1365.69677734375 -1365.763671875 -1365.888671875 -1366.07666015625 -1366.3348388671875 -1366.6622314453125 -1367.052734375 -1367.5064697265625 -1368.0252685546875 -1368.6192626953125 -1369.2841796875 -1370.0101318359375 -1370.796875 -1371.6370849609375 -1372.5523681640625 -1373.523681640625 -1374.541748046875 -1375.6026611328125 -1376.6951904296875 -1377.835693359375 -1379.0029296875 -1380.18115234375 -1381.3607177734375 -1382.5224609375 -1383.6812744140625 -1384.8182373046875 -1385.91796875 -1386.9716796875 -1387.9659423828125 -1388.92138671875 -1389.834716796875 -1390.7171630859375 -1391.5845947265625 -1392.4710693359375 -1393.40185546875 -1394.412841796875 -1395.53857421875 -1396.8570556640625 -1398.375 -1400.1845703125 -1402.3387451171875 -1404.861328125 -1407.953857421875 -1411.460205078125 -1415.34912109375 -1419.524169921875 -1424.6705322265625 -1430.7099609375 -1437.0030517578125 -1443.147216796875 -1448.9884033203125 -1454.222900390625 -1459.023193359375 -1463.396728515625 -1467.5408935546875 -1471.4400634765625 -1475.211669921875 -1478.87158203125 -1482.54443359375 -1486.22119140625 -1489.8836669921875 -1493.568115234375 -1497.099609375 -1500.6533203125 -1504.1348876953125 -1507.48974609375 -1510.7144775390625 -1513.799560546875 -1516.71240234375 -1519.4295654296875 -1521.9395751953125 -1524.27099609375 -1526.4281005859375 -1528.4017333984375 -1530.174072265625 -1531.795654296875 -1533.29541015625 -99999 -99999 -99999 -99999 -99999 -99999 -99999 -99999 -99999 -99999 -99999 -99999 -99999 -99999 -99999 -99999 -99999 -99999 -99999 -99999 -99999 -99999 -99999 -99999 -99999 -99999 -99999 -99999 -99999 -99999 -99999 -99999 -99999 -99999 -99999 -99999 -99999 -99999 -99999 -99999 -99999 -99999
 -99999 -99999 -99999 -99999 -99999 -99999 -99999 -99999 -99999 -99999 -99999 -99999 -99999 -99999 -99999 -99999 -99999 -99999 -99999 -99999 -99999 -99999 -99999 -99999 -99999 -99999 -99999 -99999 -99999 -99999 -99999 -99999 -99999 -99999 -99999 -99999 -99999 -99999 -99999 -99999 -99999 -99999 -99999 -99999 -99999 -99999 -99999 -99999 -99999 -99999 -99999 -99999 -99999 -99999 -99999 -99999 -99999 -99999 -99999 -99999 -99999 -99999 -1380.70458984375 -1380.1546630859375 -1379.6143798828125 -1379.0853271484375 -1378.574462890625 -1378.0863037109375 -1377.6158447265625 -1377.168212890625 -1376.74560546875 -1376.3577880859375 -1376.0128173828125 -1375.697265625 -1375.4163818359375 -1375.1739501953125 -1374.977294921875 -1374.8338623046875 -1374.73681640625 -1374.68798828125 -1374.688720703125 -1374.7481689453125 -1374.8721923828125 -1375.051513671875 -1375.2869873046875 -1375.579345703125 -1375.9385986328125 -1376.35986328125 -1376.8477783203125 -1377.3948974609375 -1377.9991455078125 -1378.6649169921875 -1379.4007568359375 -1380.1884765625 -1381.0294189453125 -1381.9078369140625 -1382.849853515625 -1383.8260498046875 -1384.8428955078125 -1385.8853759765625 -1386.9449462890625 -1388.0211181640625 -1389.10546875 -1390.184326171875 -1391.2532958984375 -1392.2940673828125 -1393.310546875 -1394.297607421875 -1395.25390625 -1396.1806640625 -1397.081298828125 -1397.9730224609375 -1398.84912109375 -1399.760986328125 -1400.74951171875 -1401.839111328125 -1403.0906982421875 -1404.5238037109375 -1406.20361328125 -1408.1900634765625 -1410.496337890625 -1413.15380859375 -1416.2476806640625 -1419.8892822265625 -1423.8385009765625 -1428.3067626953125 -1433.4405517578125 -1439.642333984375 -1445.99755859375 -1452.1414794921875 -1457.812744140625 -1462.89111328125 -1467.5087890625 -1471.6138916015625 -1475.408447265625 -1479 -1482.5487060546875 -1486.1065673828125 -1489.6773681640625 -1493.2928466796875 -1496.8636474609375 -1500.5072021484375 -1504.1448974609375 -1507.7313232421875 -1511.2408447265625 -1514.648193359375 -1517.91455078125 -1520.98095703125 -1523.857421875 -1526.543212890625 -1529.0347900390625 -1531.30908203125 -1533.37353515625 -1535.2586669921875 -1536.9317626953125 -1538.473388671875 -1539.8262939453125 -1541.0299072265625 -99999 -99999 -99999 -99999 -99999 -99999 -99999 -99999 -99999 -99999 -99999 -99999 -99999 -99999 -99999 -99999 -99999 -99999 -99999 -99999 -99999 -99999 -99999 -99999 -99999 -99999 -99999 -99999 -99999 -99999 -99999 -99999 -99999 -99999 -99999 -99999 -99999 -99999 -99999 -99999 -99999
 -99999 -99999 -99999 -99999 -99999 -99999 -99999 -99999 -99999 -99999 -99999 -99999 -99999 -99999 -99999 -99999 -99999 -99999 -99999 -99999 -99999 -99999 -99999 -99999 -99999 -99999 -99999 -99999 -99999 -99999 -99999 -99999 -99999 -99999 -99999 -99999 -99999 -99999 -99999 -99999 -99999 -99999 -99999 -99999 -99999 -99999 -99999 -99999 -99999 -99999 -99999 -99999 -99999 -99999 -99999 -99999 -99999 -99999 -99999 -99999 -99999 -1389.5933837890625 -1389.08740234375 -1388.5872802734375 -1388.09521484375 -1387.618408203125 -1387.155517578125 -1386.70849609375 -1386.2791748046875 -1385.8726806640625 -1385.494873046875 -1385.137451171875 -1384.812255859375 -1384.5191650390625 -1384.26220703125 -1384.049560546875 -1383.8741455078125 -1383.7379150390625 -1383.6435546875 -1383.603515625 -1383.614013671875 -1383.671875 -1383.7781982421875 -1383.9383544921875 -1384.1630859375 -1384.442138671875 -1384.7738037109375 -1385.1641845703125 -1385.612060546875 -1386.124755859375 -1386.6900634765625 -1387.3070068359375 -1387.974609375 -1388.6981201171875 -1389.4769287109375 -1390.298095703125 -1391.1583251953125 -1392.0540771484375 -1392.98779296875 -1393.9483642578125 -1394.926513671875 -1395.917724609375 -1396.9136962890625 -1397.912353515625 -1398.901123046875 -1399.86279296875 -1400.8038330078125 -1401.7607421875 -1402.6678466796875 -1403.61376953125 -1404.486572265625 -1405.39892578125 -1406.365478515625 -1407.3851318359375 -1408.45361328125 -1409.6358642578125 -1411.00244140625 -1412.5626220703125 -1414.3536376953125 -1416.4078369140625 -1418.8431396484375 -1421.7186279296875 -1424.98388671875 -1428.7069091796875 -1432.8143310546875 -1437.6014404296875 -1443.0634765625 -1449.0328369140625 -1455.298583984375 -1461.3770751953125 -1467.04736328125 -1471.9520263671875 -1476.08349609375 -1479.6824951171875 -1483.0830078125 -1486.399169921875 -1489.7052001953125 -1493.1368408203125 -1496.5574951171875 -1500.1181640625 -1503.76611328125 -1507.4515380859375 -1511.1429443359375 -1514.8052978515625 -1518.38818359375 -1521.81982421875 -1525.0953369140625 -1528.1932373046875 -1531.102294921875 -1533.802734375 -1536.2232666015625 -1538.375 -1540.2957763671875 -1542.032470703125 -1543.5986328125 -1545.001953125 -1546.254638671875 -1547.341064453125 -99999 -99999 -99999 -99999 -99999 -99999 -99999 -99999 -99999 -99999 -99999 -99999 -99999 -99999 -99999 -99999 -99999 -99999 -99999 -99999 -99999 -99999 -99999 -99999 -99999 -99999 -99999 -99999 -99999 -99999 -99999 -99999 -99999 -99999 -99999 -99999 -99999 -99999 -99999 -99999 -99999
 -99999 -99999 -99999 -99999 -99999 -99999 -99999 -99999 -99999 -99999 -99999 -99999 -99999 -99999 -99999 -99999 -99999 -99999 -99999 -99999 -99999 -99999 -99999 -99999 -99999 -99999 -99999 -99999 -99999 -99999 -99999 -99999 -99999 -99999 -99999 -99999 -99999 -99999 -99999 -99999 -99999 -99999 -99999 -99999 -99999 -99999 -99999 -99999 -99999 -99999 -99999 -99999 -99999 -99999 -99999 -99999 -99999 -99999 -99999 -99999 -1398.3006591796875 -1397.82958984375 -1397.378662109375 -1396.9212646484375 -1396.4815673828125 -1396.052001953125 -1395.631591796875 -1395.22802734375 -1394.846435546875 -1394.4833984375 -1394.1407470703125 -1393.8192138671875 -1393.5302734375 -1393.2723388671875 -1393.0439453125 -1392.8448486328125 -1392.6824951171875 -1392.567626953125 -1392.49169921875 -1392.4556884765625 -1392.4608154296875 -1392.5159912109375 -1392.6256103515625 -1392.7823486328125 -1392.985107421875 -1393.2357177734375 -1393.549072265625 -1393.915771484375 -1394.33154296875 -1394.7962646484375 -1395.3116455078125 -1395.8897705078125 -1396.513916015625 -1397.175048828125 -1397.88427734375 -1398.645751953125 -1399.4407958984375 -1400.2623291015625 -1401.1119384765625 -1401.995849609375 -1402.922607421875 -1403.8443603515625 -1404.7645263671875 -1405.697021484375 -1406.6258544921875 -1407.564697265625 -1408.49462890625 -1409.40869140625 -1410.31689453125 -1411.2269287109375 -1412.1513671875 -1413.101318359375 -1414.0888671875 -1415.1470947265625 -1416.32177734375 -1417.617431640625 -1419.068603515625 -1420.714599609375 -1422.664306640625 -1424.902099609375 -1427.4735107421875 -1430.43359375 -1433.782958984375 -1437.6927490234375 -1442.0845947265625 -1446.949462890625 -1452.4632568359375 -1458.439453125 -1464.6993408203125 -1470.968994140625 -1476.55517578125 -1480.8720703125 -1484.3773193359375 -1487.4937744140625 -1490.4530029296875 -1493.50048828125 -1496.617919921875 -1499.8402099609375 -1503.280517578125 -1506.86181640625 -1510.552490234375 -1514.313232421875 -1518.093994140625 -1521.8507080078125 -1525.511474609375 -1529.0447998046875 -1532.40087890625 -1535.5701904296875 -1538.3878173828125 -1540.976318359375 -1543.29296875 -1545.3721923828125 -1547.2257080078125 -1548.8687744140625 -1550.3082275390625 -1551.5341796875 -1552.6259765625 -1553.5909423828125 -1554.4525146484375 -99999 -99999 -99999 -99999 -99999 -99999 -99999 -99999 -99999 -99999 -99999 -99999 -99999 -99999 -99999 -99999 -99999 -99999 -99999 -99999 -99999 -99999 -99999 -99999 -99999 -99999 -99999 -99999 -99999 -99999 -99999 -99999 -99999 -99999 -99999 -99999 -99999 -99999 -99999 -99999
 -99999 -99999 -99999 -99999 -99999 -99999 -99999 -99999 -99999 -99999 -99999 -99999 -99999 -99999 -99999 -99999 -99999 -99999 -99999 -99999 -99999 -99999 -99999 -99999 -99999 -99999 -99999 -99999 -99999 -99999 -99999 -99999 -99999 -99999 -99999 -99999 -99999 -99999 -99999 -99999 -99999 -99999 -99999 -99999 -99999 -99999 -99999 -99999 -99999 -99999 -99999 -99999 -99999 -99999 -99999 -99999 -99999 -99999 -99999 -1406.790771484375 -1406.3822021484375 -1405.972412109375 -1405.5633544921875 -1405.1527099609375 -1404.7703857421875 -1404.4051513671875 -1404.0426025390625 -1403.68310546875 -1403.3240966796875 -1403.0008544921875 -1402.710205078125 -1402.4327392578125 -1402.1717529296875 -1401.9268798828125 -1401.728515625 -1401.5633544921875 -1401.4249267578125 -1401.318603515625 -1401.2430419921875 -1401.22119140625 -1401.238037109375 -1401.293212890625 -1401.389404296875 -1401.53076171875 -1401.726806640625 -1401.9659423828125 -1402.2498779296875 -1402.5867919921875 -1402.9739990234375 -1403.4072265625 -1403.8846435546875 -1404.408447265625 -1405.00439453125 -1405.635009765625 -1406.281982421875 -1406.9810791015625 -1407.7237548828125 -1408.5010986328125 -1409.2972412109375 -1410.1163330078125 -1410.9678955078125 -1411.833984375 -1412.703125 -1413.5802001953125 -1414.46337890625 -1415.3568115234375 -1416.248046875 -1417.1441650390625 -1418.0491943359375 -1418.9697265625 -1419.912109375 -1420.900390625 -1421.9576416015625 -1423.0985107421875 -1424.337890625 -1425.70556640625 -1427.2900390625 -1429.0980224609375 -1431.1446533203125 -1433.4683837890625 -1436.1385498046875 -1439.24658203125 -1442.7572021484375 -1446.6268310546875 -1451.1005859375 -1456.1278076171875 -1461.54931640625 -1467.5330810546875 -1473.7896728515625 -1480.0670166015625 -1485.7655029296875 -1489.528076171875 -1492.2025146484375 -1494.728271484375 -1497.2734375 -1500.075927734375 -1503.0889892578125 -1506.3253173828125 -1509.7742919921875 -1513.41064453125 -1517.1934814453125 -1521.1026611328125 -1525.0302734375 -1528.9342041015625 -1532.705810546875 -1536.39599609375 -1539.7388916015625 -1542.8458251953125 -1545.6748046875 -1548.220947265625 -1550.482177734375 -1552.4798583984375 -1554.197998046875 -1555.6566162109375 -1556.9150390625 -1558.0118408203125 -1558.9765625 -1559.7791748046875 -1560.468994140625 -99999 -99999 -99999 -99999 -99999 -99999 -99999 -99999 -99999 -99999 -99999 -99999 -99999 -99999 -99999 -99999 -99999 -99999 -99999 -99999 -99999 -99999 -99999 -99999 -99999 -99999 -99999 -99999 -99999 -99999 -99999 -99999 -99999 -99999 -99999 -99999 -99999 -99999 -99999 -99999
 -99999 -99999 -99999 -99999 -99999 -99999 -99999 -99999 -99999 -99999 -99999 -99999 -99999 -99999 -99999 -99999 -99999 -99999 -99999 -99999 -99999 -99999 -99999 -99999 -99999 -99999 -99999 -99999 -99999 -99999 -99999 -99999 -99999 -99999 -99999 -99999 -99999 -99999 -99999 -99999 -99999 -99999 -99999 -99999 -99999 -99999 -99999 -99999 -99999 -99999 -99999 -99999 -99999 -99999 -99999 -99999 -99999 -99999 -99999 -1414.6846923828125 -1414.3226318359375 -1413.9732666015625 -1413.6273193359375 -1413.2811279296875 -1412.9351806640625 -1412.6021728515625 -1412.2879638671875 -1411.9844970703125 -1411.688232421875 -1411.4036865234375 -1411.1422119140625 -1410.9051513671875 -1410.68701171875 -1410.487060546875 -1410.3106689453125 -1410.175048828125 -1410.0638427734375 -1409.9783935546875 -1409.9248046875 -1409.906005859375 -1409.9298095703125 -1409.9888916015625 -1410.0841064453125 -1410.219970703125 -1410.4029541015625 -1410.6309814453125 -1410.8995361328125 -1411.21142578125 -1411.5755615234375 -1411.9827880859375 -1412.431640625 -1412.9202880859375 -1413.45361328125 -1414.0360107421875 -1414.65478515625 -1415.3045654296875 -1415.98583984375 -1416.70458984375 -1417.4573974609375 -1418.2313232421875 -1419.0203857421875 -1419.8271484375 -1420.656494140625 -1421.50048828125 -1422.3502197265625 -1423.2099609375 -1424.0836181640625 -1424.9757080078125 -1425.8818359375 -1426.823974609375 -1427.809326171875 -1428.85107421875 -1429.9608154296875 -1431.1591796875 -1432.4996337890625 -1433.99072265625 -1435.65380859375 -1437.53466796875 -1439.6663818359375 -1442.120849609375 -1444.8009033203125 -1447.984619140625 -1451.5491943359375 -1455.57177734375 -1460.0194091796875 -1464.924072265625 -1470.3173828125 -1476.0224609375 -1481.9488525390625 -1488.0953369140625 -1493.477783203125 -1496.7803955078125 -1498.8878173828125 -1501.140625 -1503.56689453125 -1506.2498779296875 -1509.241943359375 -1512.4990234375 -1516.0400390625 -1519.828369140625 -1523.78515625 -1527.833984375 -1531.9127197265625 -1536.1082763671875 -1539.92724609375 -1543.6556396484375 -1547.1187744140625 -1550.2764892578125 -1553.0926513671875 -1555.589111328125 -1557.721923828125 -1559.548583984375 -1561.099609375 -1562.3968505859375 -1563.527099609375 -1564.4254150390625 -1565.1700439453125 -1565.8018798828125 -1566.3638916015625 -1566.856201171875 -99999 -99999 -99999 -99999 -99999 -99999 -99999 -99999 -99999 -99999 -99999 -99999 -99999 -99999 -99999 -99999 -99999 -99999 -99999 -99999 -99999 -99999 -99999 -99999 -99999 -99999 -99999 -99999 -99999 -99999 -99999 -99999 -99999 -99999 -99999 -99999 -99999 -99999 -99999
 -99999 -99999 -99999 -99999 -99999 -99999 -99999 -99999 -99999 -99999 -99999 -99999 -99999 -99999 -99999 -99999 -99999 -99999 -99999 -99999 -99999 -99999 -99999 -99999 -99999 -99999 -99999 -99999 -99999 -99999 -99999 -99999 -99999 -99999 -99999 -99999 -99999 -99999 -99999 -99999 -99999 -99999 -99999 -99999 -99999 -99999 -99999 -99999 -99999 -99999 -99999 -99999 -99999 -99999 -99999 -99999 -99999 -99999 -1422.785400390625 -1422.489013671875 -1422.1920166015625 -1421.8858642578125 -1421.58251953125 -1421.29150390625 -1421.0126953125 -1420.7384033203125 -1420.4632568359375 -1420.1978759765625 -1419.95458984375 -1419.726806640625 -1419.5093994140625 -1419.3021240234375 -1419.1126708984375 -1418.954345703125 -1418.816162109375 -1418.69775390625 -1418.602294921875 -1418.534912109375 -1418.503662109375 -1418.500244140625 -1418.5283203125 -1418.591064453125 -1418.6903076171875 -1418.8284912109375 -1419.00146484375 -1419.217529296875 -1419.4747314453125 -1419.7718505859375 -1420.1080322265625 -1420.481689453125 -1420.906494140625 -1421.3702392578125 -1421.8699951171875 -1422.404296875 -1422.9759521484375 -1423.591552734375 -1424.2374267578125 -1424.9100341796875 -1425.6082763671875 -1426.3336181640625 -1427.0902099609375 -1427.86572265625 -1428.656005859375 -1429.4627685546875 -1430.2916259765625 -1431.141357421875 -1432.0087890625 -1432.900390625 -1433.8258056640625 -1434.7923583984375 -1435.806884765625 -1436.8826904296875 -1438.0616455078125 -1439.3424072265625 -1440.739013671875 -1442.2952880859375 -1444.029541015625 -1445.9068603515625 -1448.1748046875 -1450.7354736328125 -1453.5770263671875 -1456.7674560546875 -1460.3262939453125 -1464.2608642578125 -1468.66357421875 -1473.3436279296875 -1478.4144287109375 -1483.8603515625 -1489.3759765625 -1494.7406005859375 -1499.2154541015625 -1502.2886962890625 -1504.66943359375 -1506.8914794921875 -1509.3018798828125 -1511.96923828125 -1515.0640869140625 -1518.47705078125 -1522.1700439453125 -1526.0950927734375 -1530.21142578125 -1534.5169677734375 -1538.85791015625 -1543.1318359375 -1547.27587890625 -1551.1455078125 -1554.6572265625 -1557.826904296875 -1560.5986328125 -1562.9718017578125 -1564.9658203125 -1566.6429443359375 -1568.0419921875 -1569.1162109375 -1569.97998046875 -1570.69189453125 -1571.284423828125 -1571.7684326171875 -1572.1248779296875 -1572.431640625 -99999 -99999 -99999 -99999 -99999 -99999 -99999 -99999 -99999 -99999 -99999 -99999 -99999 -99999 -99999 -99999 -99999 -99999 -99999 -99999 -99999 -99999 -99999 -99999 -99999 -99999 -99999 -99999 -99999 -99999 -99999 -99999 -99999 -99999 -99999 -99999 -99999 -99999 -99999
 -99999 -99999 -99999 -99999 -99999 -99999 -99999 -99999 -99999 -99999 -99999 -99999 -99999 -99999 -99999 -99999 -99999 -99999 -99999 -99999 -99999 -99999 -99999 -99999 -99999 -99999 -99999 -99999 -99999 -99999 -99999 -99999 -99999 -99999 -99999 -99999 -99999 -99999 -99999 -99999 -99999 -99999 -99999 -99999 -99999 -99999 -99999 -99999 -99999 -99999 -99999 -99999 -99999 -99999 -99999 -99999 -99999 -1430.6552734375 -1430.40673828125 -1430.15625 -1429.90771484375 -1429.6690673828125 -1429.438720703125 -1429.20068359375 -1428.9671630859375 -1428.7398681640625 -1428.53125 -1428.330810546875 -1428.130126953125 -1427.9403076171875 -1427.76318359375 -1427.6092529296875 -1427.4676513671875 -1427.33740234375 -1427.225341796875 -1427.135009765625 -1427.0716552734375 -1427.0294189453125 -1427.01123046875 -1427.019287109375 -1427.0579833984375 -1427.1285400390625 -1427.2303466796875 -1427.3665771484375 -1427.5361328125 -1427.7418212890625 -1427.9830322265625 -1428.2640380859375 -1428.58447265625 -1428.9410400390625 -1429.333984375 -1429.7615966796875 -1430.234619140625 -1430.741943359375 -1431.2833251953125 -1431.8546142578125 -1432.455322265625 -1433.097412109375 -1433.7655029296875 -1434.4603271484375 -1435.17431640625 -1435.9130859375 -1436.6820068359375 -1437.471435546875 -1438.281494140625 -1439.117431640625 -1439.984130859375 -1440.8858642578125 -1441.8209228515625 -1442.79541015625 -1443.8519287109375 -1444.9879150390625 -1446.199462890625 -1447.514404296875 -1448.96337890625 -1450.5977783203125 -1452.467041015625 -1454.5047607421875 -1456.785400390625 -1459.3587646484375 -1462.2012939453125 -1465.3590087890625 -1468.8875732421875 -1472.7254638671875 -1476.9407958984375 -1481.4573974609375 -1486.212158203125 -1491.0458984375 -1495.9942626953125 -1500.5247802734375 -1504.4107666015625 -1507.46533203125 -1509.9185791015625 -1512.1826171875 -1514.589111328125 -1517.43798828125 -1520.696533203125 -1524.26220703125 -1528.1204833984375 -1532.339599609375 -1536.739990234375 -1541.25537109375 -1545.91455078125 -1550.4251708984375 -1554.7235107421875 -1558.7308349609375 -1562.3634033203125 -1565.5089111328125 -1568.174560546875 -1570.4339599609375 -1572.30517578125 -1573.7177734375 -1574.83056640625 -1575.7110595703125 -1576.3939208984375 -1576.899169921875 -1577.2698974609375 -1577.5390625 -1577.7586669921875 -1577.9376220703125 -1578.08837890625 -99999 -99999 -99999 -99999 -99999 -99999 -99999 -99999 -99999 -99999 -99999 -99999 -99999 -99999 -99999 -99999 -99999 -99999 -99999 -99999 -99999 -99999 -99999 -99999 -99999 -99999 -99999 -99999 -99999 -99999 -99999 -99999 -99999 -99999 -99999 -99999 -99999 -99999
 -99999 -99999 -99999 -99999 -99999 -99999 -99999 -99999 -99999 -99999 -99999 -99999 -99999 -99999 -99999 -99999 -99999 -99999 -99999 -99999 -99999 -99999 -99999 -99999 -99999 -99999 -99999 -99999 -99999 -99999 -99999 -99999 -99999 -99999 -99999 -99999 -99999 -99999 -99999 -99999 -99999 -99999 -99999 -99999 -99999 -99999 -99999 -99999 -99999 -99999 -99999 -99999 -99999 -99999 -99999 -99999 -1438.2607421875 -1438.0679931640625 -1437.8756103515625 -1437.6961669921875 -1437.5125732421875 -1437.3270263671875 -1437.1446533203125 -1436.966064453125 -1436.80615234375 -1436.640869140625 -1436.478759765625 -1436.3232421875 -1436.1767578125 -1436.04931640625 -1435.9210205078125 -1435.802978515625 -1435.69677734375 -1435.6065673828125 -1435.5369873046875 -1435.4781494140625 -1435.4373779296875 -1435.415771484375 -1435.4183349609375 -1435.4464111328125 -1435.4986572265625 -1435.57666015625 -1435.6815185546875 -1435.8175048828125 -1435.9859619140625 -1436.1883544921875 -1436.42236328125 -1436.688720703125 -1436.9891357421875 -1437.3275146484375 -1437.7034912109375 -1438.112548828125 -1438.5545654296875 -1439.028076171875 -1439.540771484375 -1440.0875244140625 -1440.663818359375 -1441.2684326171875 -1441.898681640625 -1442.562744140625 -1443.252197265625 -1443.968017578125 -1444.708740234375 -1445.4791259765625 -1446.282958984375 -1447.111328125 -1447.9609375 -1448.8653564453125 -1449.82275390625 -1450.85791015625 -1451.9541015625 -1453.116455078125 -1454.4158935546875 -1455.8006591796875 -1457.31689453125 -1459.0125732421875 -1460.9002685546875 -1462.98779296875 -1465.28125 -1467.8426513671875 -1470.681640625 -1473.841796875 -1477.2806396484375 -1480.9959716796875 -1484.9705810546875 -1489.1976318359375 -1493.579345703125 -1497.972900390625 -1502.2568359375 -1506.26806640625 -1509.7947998046875 -1512.7294921875 -1515.16162109375 -1517.357421875 -1519.7987060546875 -1522.6990966796875 -1526.2337646484375 -1530.07275390625 -1534.135009765625 -1538.490478515625 -1543.1817626953125 -1548.0540771484375 -1552.96875 -1557.819091796875 -1562.4432373046875 -1566.5511474609375 -1570.181640625 -1573.322021484375 -1575.9400634765625 -1577.985595703125 -1579.5841064453125 -1580.8050537109375 -1581.704345703125 -1582.3258056640625 -1582.7471923828125 -1582.95947265625 -1583.0526123046875 -1583.154052734375 -1583.1964111328125 -1583.2193603515625 -1583.210205078125 -99999 -99999 -99999 -99999 -99999 -99999 -99999 -99999 -99999 -99999 -99999 -99999 -99999 -99999 -99999 -99999 -99999 -99999 -99999 -99999 -99999 -99999 -99999 -99999 -99999 -99999 -99999 -99999 -99999 -99999 -99999 -99999 -99999 -99999 -99999 -99999 -99999 -99999
 -99999 -99999 -99999 -99999 -99999 -99999 -99999 -99999 -99999 -99999 -99999 -99999 -99999 -99999 -99999 -99999 -99999 -99999 -99999 -99999 -99999 -99999 -99999 -99999 -99999 -99999 -99999 -99999 -99999 -99999 -99999 -99999 -99999 -99999 -99999 -99999 -99999 -99999 -99999 -99999 -99999 -99999 -99999 -99999 -99999 -99999 -99999 -99999 -99999 -99999 -99999 -99999 -99999 -99999 -99999 -99999 -1445.515625 -1445.3819580078125 -1445.2528076171875 -1445.126220703125 -1445.00244140625 -1444.8817138671875 -1444.762939453125 -1444.64990234375 -1444.54052734375 -1444.4346923828125 -1444.3309326171875 -1444.2354736328125 -1444.1448974609375 -1444.06005859375 -1443.9814453125 -1443.9090576171875 -1443.84912109375 -1443.7989501953125 -1443.7598876953125 -1443.7327880859375 -1443.719970703125 -1443.7271728515625 -1443.7518310546875 -1443.794921875 -1443.8577880859375 -1443.945068359375 -1444.060546875 -1444.200927734375 -1444.3671875 -1444.5601806640625 -1444.787109375 -1445.0472412109375 -1445.337158203125 -1445.6572265625 -1446.0076904296875 -1446.397705078125 -1446.82666015625 -1447.2686767578125 -1447.7481689453125 -1448.267822265625 -1448.8165283203125 -1449.39697265625 -1450.005615234375 -1450.65234375 -1451.326416015625 -1452.024658203125 -1452.7509765625 -1453.5125732421875 -1454.3182373046875 -1455.1513671875 -1456.0247802734375 -1456.9412841796875 -1457.925048828125 -1458.976318359375 -1460.09814453125 -1461.3021240234375 -1462.6031494140625 -1464.0496826171875 -1465.6298828125 -1467.362548828125 -1469.2630615234375 -1471.3580322265625 -1473.7110595703125 -1476.289306640625 -1479.098388671875 -1482.147216796875 -1485.4388427734375 -1489.03125 -1492.7567138671875 -1496.6883544921875 -1500.727294921875 -1504.7286376953125 -1508.602294921875 -1512.177734375 -1515.4007568359375 -1518.1583251953125 -1520.6226806640625 -1522.8785400390625 -1525.1395263671875 -1528.418212890625 -1532.094482421875 -1536.001708984375 -1540.20849609375 -1544.7755126953125 -1549.7027587890625 -1554.96484375 -1560.311279296875 -1565.4700927734375 -1570.28173828125 -1574.61279296875 -1578.3685302734375 -1581.46728515625 -1583.8126220703125 -1585.5701904296875 -1586.837890625 -1587.7152099609375 -1588.300048828125 -1588.630126953125 -1588.7137451171875 -1588.70361328125 -1588.6185302734375 -1588.4970703125 -1588.3553466796875 -1588.215087890625 -1588.1087646484375 -1588.0279541015625 -99999 -99999 -99999 -99999 -99999 -99999 -99999 -99999 -99999 -99999 -99999 -99999 -99999 -99999 -99999 -99999 -99999 -99999 -99999 -99999 -99999 -99999 -99999 -99999 -99999 -99999 -99999 -99999 -99999 -99999 -99999 -99999 -99999 -99999 -99999 -99999 -99999
 -99999 -99999 -99999 -99999 -99999 -99999 -99999 -99999 -99999 -99999 -99999 -99999 -99999 -99999 -99999 -99999 -99999 -99999 -99999 -99999 -99999 -99999 -99999 -99999 -99999 -99999 -99999 -99999 -99999 -99999 -99999 -99999 -99999 -99999 -99999 -99999 -99999 -99999 -99999 -99999 -99999 -99999 -99999 -99999 -99999 -99999 -99999 -99999 -99999 -99999 -99999 -99999 -99999 -99999 -99999 -1452.6317138671875 -1452.558349609375 -1452.4854736328125 -1452.42041015625 -1452.359130859375 -1452.3016357421875 -1452.24755859375 -1452.193603515625 -1452.1468505859375 -1452.1026611328125 -1452.0611572265625 -1452.0206298828125 -1451.9825439453125 -1451.949951171875 -1451.92041015625 -1451.89453125 -1451.8702392578125 -1451.85595703125 -1451.848388671875 -1451.8485107421875 -1451.8572998046875 -1451.8753662109375 -1451.910400390625 -1451.959228515625 -1452.0230712890625 -1452.103271484375 -1452.203369140625 -1452.32861328125 -1452.4754638671875 -1452.6448974609375 -1452.8382568359375 -1453.0621337890625 -1453.3162841796875 -1453.5977783203125 -1453.9072265625 -1454.2449951171875 -1454.619873046875 -1455.026123046875 -1455.4615478515625 -1455.92626953125 -1456.4202880859375 -1456.9532470703125 -1457.515380859375 -1458.1065673828125 -1458.726806640625 -1459.3773193359375 -1460.0673828125 -1460.78955078125 -1461.5452880859375 -1462.3370361328125 -1463.16943359375 -1464.0589599609375 -1464.9998779296875 -1466.000732421875 -1467.058837890625 -1468.2044677734375 -1469.460693359375 -1470.8133544921875 -1472.2830810546875 -1473.8892822265625 -1475.651123046875 -1477.6055908203125 -1479.736572265625 -1482.0540771484375 -1484.5670166015625 -1487.3311767578125 -1490.2789306640625 -1493.4666748046875 -1496.89892578125 -1500.445068359375 -1504.093994140625 -1507.7926025390625 -1511.455078125 -1515.004638671875 -1518.26806640625 -1521.296875 -1524.0494384765625 -1526.529541015625 -1528.947265625 -1531.6287841796875 -1534.7265625 -1538.3377685546875 -1542.19287109375 -1546.341552734375 -1550.991943359375 -1556.347900390625 -1562.030029296875 -1567.845703125 -1573.4896240234375 -1578.66162109375 -1583.113037109375 -1586.6986083984375 -1589.4840087890625 -1591.5775146484375 -1593.082275390625 -1594.0755615234375 -1594.643310546875 -1594.7972412109375 -1594.7515869140625 -1594.5631103515625 -1594.281982421875 -1593.9595947265625 -1593.625 -1593.314697265625 -1593.03955078125 -1592.8076171875 -1592.6331787109375 -1592.512451171875 -99999 -99999 -99999 -99999 -99999 -99999 -99999 -99999 -99999 -99999 -99999 -99999 -99999 -99999 -99999 -99999 -99999 -99999 -99999 -99999 -99999 -99999 -99999 -99999 -99999 -99999 -99999 -99999 -99999 -99999 -99999 -99999 -99999 -99999 -99999 -99999
 -99999 -99999 -99999 -99999 -99999 -99999 -99999 -99999 -99999 -99999 -99999 -99999 -99999 -99999 -99999 -99999 -99999 -99999 -99999 -99999 -99999 -99999 -99999 -99999 -99999 -99999 -99999 -99999 -99999 -99999 -99999 -99999 -99999 -99999 -99999 -99999 -99999 -99999 -99999 -99999 -99999 -99999 -99999 -99999 -99999 -99999 -99999 -99999 -99999 -99999 -99999 -99999 -99999 -99999 -1459.495849609375 -1459.4759521484375 -1459.4664306640625 -1459.4630126953125 -1459.46533203125 -1459.463134765625 -1459.4739990234375 -1459.491455078125 -1459.5120849609375 -1459.53515625 -1459.5474853515625 -1459.57421875 -1459.6015625 -1459.6292724609375 -1459.6573486328125 -1459.67529296875 -1459.7054443359375 -1459.7369384765625 -1459.7703857421875 -1459.8056640625 -1459.84033203125 -1459.8883056640625 -1459.9429931640625 -1460.005615234375 -1460.07666015625 -1460.16064453125 -1460.2618408203125 -1460.3775634765625 -1460.5106201171875 -1460.6617431640625 -1460.8377685546875 -1461.0372314453125 -1461.2591552734375 -1461.504638671875 -1461.777587890625 -1462.082275390625 -1462.414306640625 -1462.773681640625 -1463.16064453125 -1463.5810546875 -1464.034912109375 -1464.5174560546875 -1465.0291748046875 -1465.5704345703125 -1466.1480712890625 -1466.760009765625 -1467.40380859375 -1468.0806884765625 -1468.790771484375 -1469.5447998046875 -1470.3466796875 -1471.18896484375 -1472.0814208984375 -1473.0294189453125 -1474.0457763671875 -1475.149658203125 -1476.3309326171875 -1477.5989990234375 -1478.9676513671875 -1480.475341796875 -1482.12109375 -1483.9039306640625 -1485.8209228515625 -1487.9375 -1490.2138671875 -1492.7413330078125 -1495.4381103515625 -1498.3447265625 -1501.4036865234375 -1504.6080322265625 -1507.951171875 -1511.3927001953125 -1514.851806640625 -1518.23486328125 -1521.5294189453125 -1524.6708984375 -1527.5625 -1530.256103515625 -1532.8231201171875 -1535.402587890625 -1538.1937255859375 -1541.3564453125 -1544.80859375 -1548.5194091796875 -1552.6409912109375 -1557.4185791015625 -1563.1251220703125 -1569.4078369140625 -1575.8328857421875 -1581.988037109375 -1587.3377685546875 -1591.7218017578125 -1595.1905517578125 -1597.80029296875 -1599.6253662109375 -1600.74755859375 -1601.1932373046875 -1601.2611083984375 -1601.045654296875 -1600.6380615234375 -1600.1396484375 -1599.5526123046875 -1598.9739990234375 -1598.439453125 -1597.9674072265625 -1597.578857421875 -1597.255126953125 -1597.00244140625 -1596.816650390625 -99999 -99999 -99999 -99999 -99999 -99999 -99999 -99999 -99999 -99999 -99999 -99999 -99999 -99999 -99999 -99999 -99999 -99999 -99999 -99999 -99999 -99999 -99999 -99999 -99999 -99999 -99999 -99999 -99999 -99999 -99999 -99999 -99999 -99999 -99999 -99999
 -99999 -99999 -99999 -99999 -99999 -99999 -99999 -99999 -99999 -99999 -99999 -99999 -99999 -99999 -99999 -99999 -99999 -99999 -99999 -99999 -99999 -99999 -99999 -99999 -99999 -99999 -99999 -99999 -99999 -99999 -99999 -99999 -99999 -99999 -99999 -99999 -99999 -99999 -99999 -99999 -99999 -99999 -99999 -99999 -99999 -99999 -99999 -99999 -99999 -99999 -99999 -99999 -99999 -1466.0804443359375 -1466.118896484375 -1466.1666259765625 -1466.218505859375 -1466.268798828125 -1466.3433837890625 -1466.425048828125 -1466.512451171875 -1466.5960693359375 -1466.677001953125 -1466.774658203125 -1466.8729248046875 -1466.970703125 -1467.056884765625 -1467.14111328125 -1467.23388671875 -1467.3240966796875 -1467.4117431640625 -1467.4874267578125 -1467.5657958984375 -1467.6500244140625 -1467.7344970703125 -1467.8199462890625 -1467.9024658203125 -1467.9945068359375 -1468.0966796875 -1468.207275390625 -1468.326171875 -1468.455322265625 -1468.6036376953125 -1468.7674560546875 -1468.947998046875 -1469.146728515625 -1469.369140625 -1469.6170654296875 -1469.8878173828125 -1470.1822509765625 -1470.5028076171875 -1470.8546142578125 -1471.23583984375 -1471.6444091796875 -1472.0811767578125 -1472.5491943359375 -1473.05078125 -1473.585205078125 -1474.1505126953125 -1474.7479248046875 -1475.386474609375 -1476.0623779296875 -1476.7774658203125 -1477.532470703125 -1478.330078125 -1479.1790771484375 -1480.0869140625 -1481.05810546875 -1482.0938720703125 -1483.1981201171875 -1484.39404296875 -1485.6925048828125 -1487.1016845703125 -1488.586669921875 -1490.2408447265625 -1492.023681640625 -1493.9923095703125 -1496.0870361328125 -1498.3790283203125 -1500.8358154296875 -1503.4503173828125 -1506.2169189453125 -1509.17626953125 -1512.2615966796875 -1515.432861328125 -1518.6522216796875 -1521.8970947265625 -1525.138427734375 -1528.2493896484375 -1531.2210693359375 -1534.0438232421875 -1536.82666015625 -1539.4876708984375 -1542.23876953125 -1545.0784912109375 -1548.1988525390625 -1551.5631103515625 -1555.119873046875 -1558.931396484375 -1563.7120361328125 -1569.9730224609375 -1577.1280517578125 -1584.38623046875 -1590.8861083984375 -1596.4442138671875 -1600.8670654296875 -1604.1466064453125 -1606.369384765625 -1607.534423828125 -1608.0361328125 -1607.9852294921875 -1607.648193359375 -1607.009765625 -1606.150146484375 -1605.2724609375 -1604.4219970703125 -1603.6588134765625 -1602.9520263671875 -1602.341064453125 -1601.822509765625 -1601.41552734375 -1601.1192626953125 -1600.90869140625 -1600.7696533203125 -99999 -99999 -99999 -99999 -99999 -99999 -99999 -99999 -99999 -99999 -99999 -99999 -99999 -99999 -99999 -99999 -99999 -99999 -99999 -99999 -99999 -99999 -99999 -99999 -99999 -99999 -99999 -99999 -99999 -99999 -99999 -99999 -99999 -99999 -99999
 -99999 -99999 -99999 -99999 -99999 -99999 -99999 -99999 -99999 -99999 -99999 -99999 -99999 -99999 -99999 -99999 -99999 -99999 -99999 -99999 -99999 -99999 -99999 -99999 -99999 -99999 -99999 -99999 -99999 -99999 -99999 -99999 -99999 -99999 -99999 -99999 -99999 -99999 -99999 -99999 -99999 -99999 -99999 -99999 -99999 -99999 -99999 -99999 -99999 -99999 -99999 -99999 -99999 -1472.4666748046875 -1472.5537109375 -1472.65380859375 -1472.7823486328125 -1472.9228515625 -1473.06982421875 -1473.2109375 -1473.36279296875 -1473.535400390625 -1473.7110595703125 -1473.8797607421875 -1474.03662109375 -1474.1988525390625 -1474.370361328125 -1474.537353515625 -1474.6881103515625 -1474.8275146484375 -1474.9698486328125 -1475.11474609375 -1475.2540283203125 -1475.3779296875 -1475.4974365234375 -1475.6226806640625 -1475.7513427734375 -1475.8800048828125 -1476.00390625 -1476.1336669921875 -1476.281494140625 -1476.4349365234375 -1476.5963134765625 -1476.7689208984375 -1476.957275390625 -1477.1661376953125 -1477.392333984375 -1477.637451171875 -1477.90673828125 -1478.1998291015625 -1478.5191650390625 -1478.863037109375 -1479.2335205078125 -1479.6356201171875 -1480.06689453125 -1480.52880859375 -1481.020263671875 -1481.5445556640625 -1482.1048583984375 -1482.7005615234375 -1483.3331298828125 -1484.002685546875 -1484.7144775390625 -1485.4708251953125 -1486.276611328125 -1487.13623046875 -1488.0338134765625 -1489.020751953125 -1490.0645751953125 -1491.173095703125 -1492.3807373046875 -1493.7071533203125 -1495.142578125 -1496.683349609375 -1498.3311767578125 -1500.129638671875 -1502.0677490234375 -1504.156005859375 -1506.3831787109375 -1508.780517578125 -1511.341552734375 -1514.0440673828125 -1516.8748779296875 -1519.7982177734375 -1522.839111328125 -1525.941162109375 -1529.0267333984375 -1532.08642578125 -1535.0589599609375 -1538.0400390625 -1540.8839111328125 -1543.7088623046875 -1546.473388671875 -1549.3104248046875 -1552.3106689453125 -1555.4346923828125 -1558.7266845703125 -1562.1893310546875 -1565.77734375 -1570.45654296875 -1577.576416015625 -1585.87890625 -1593.779541015625 -1600.6920166015625 -1606.231689453125 -1610.435791015625 -1613.040771484375 -1614.6251220703125 -1615.2891845703125 -1615.2864990234375 -1614.6256103515625 -1613.598388671875 -1612.4102783203125 -1611.2177734375 -1610.0557861328125 -1608.9217529296875 -1607.9072265625 -1607.03173828125 -1606.3155517578125 -1605.7503662109375 -1605.3111572265625 -1604.9874267578125 -1604.765380859375 -1604.6265869140625 -99999 -99999 -99999 -99999 -99999 -99999 -99999 -99999 -99999 -99999 -99999 -99999 -99999 -99999 -99999 -99999 -99999 -99999 -99999 -99999 -99999 -99999 -99999 -99999 -99999 -99999 -99999 -99999 -99999 -99999 -99999 -99999 -99999 -99999 -99999
 -99999 -99999 -99999 -99999 -99999 -99999 -99999 -99999 -99999 -99999 -99999 -99999 -99999 -99999 -99999 -99999 -99999 -99999 -99999 -99999 -99999 -99999 -99999 -99999 -99999 -99999 -99999 -99999 -99999 -99999 -99999 -99999 -99999 -99999 -99999 -99999 -99999 -99999 -99999 -99999 -99999 -99999 -99999 -99999 -99999 -99999 -99999 -99999 -99999 -99999 -99999 -99999 -1478.4910888671875 -1478.6300048828125 -1478.7991943359375 -1478.986328125 -1479.1761474609375 -1479.3768310546875 -1479.5985107421875 -1479.841552734375 -1480.0919189453125 -1480.3287353515625 -1480.568115234375 -1480.8203125 -1481.0777587890625 -1481.327880859375 -1481.5570068359375 -1481.7803955078125 -1482.0086669921875 -1482.2314453125 -1482.4395751953125 -1482.6285400390625 -1482.8104248046875 -1482.995361328125 -1483.1732177734375 -1483.339599609375 -1483.4969482421875 -1483.6536865234375 -1483.8165283203125 -1483.9796142578125 -1484.14208984375 -1484.30908203125 -1484.485595703125 -1484.67529296875 -1484.875732421875 -1485.089599609375 -1485.321533203125 -1485.5760498046875 -1485.846435546875 -1486.1373291015625 -1486.4541015625 -1486.7947998046875 -1487.1614990234375 -1487.5565185546875 -1487.9805908203125 -1488.4417724609375 -1488.9248046875 -1489.43359375 -1489.985595703125 -1490.5799560546875 -1491.2122802734375 -1491.87841796875 -1492.5828857421875 -1493.3431396484375 -1494.16162109375 -1495.031005859375 -1495.9696044921875 -1496.9559326171875 -1498.015869140625 -1499.1595458984375 -1500.390380859375 -1501.71142578125 -1503.140380859375 -1504.6746826171875 -1506.3338623046875 -1508.11572265625 -1510.0341796875 -1512.10205078125 -1514.3028564453125 -1516.6510009765625 -1519.124755859375 -1521.733642578125 -1524.484130859375 -1527.3258056640625 -1530.226806640625 -1533.1793212890625 -1536.137451171875 -1539.1453857421875 -1542.0865478515625 -1545.033447265625 -1547.9163818359375 -1550.79833984375 -1553.7490234375 -1556.7445068359375 -1559.876220703125 -1563.1688232421875 -1566.6600341796875 -1570.3321533203125 -1574.0631103515625 -1578.8677978515625 -1586.67919921875 -1595.655517578125 -1603.962890625 -1611.1942138671875 -1616.404052734375 -1619.9512939453125 -1622.1343994140625 -1623.0146484375 -1622.82568359375 -1621.9195556640625 -1620.5374755859375 -1619.048583984375 -1617.439697265625 -1615.765625 -1614.2200927734375 -1612.87939453125 -1611.7357177734375 -1610.7586669921875 -1609.9739990234375 -1609.360595703125 -1608.9117431640625 -1608.5904541015625 -1608.3804931640625 -1608.2789306640625 -1608.2491455078125 -99999 -99999 -99999 -99999 -99999 -99999 -99999 -99999 -99999 -99999 -99999 -99999 -99999 -99999 -99999 -99999 -99999 -99999 -99999 -99999 -99999 -99999 -99999 -99999 -99999 -99999 -99999 -99999 -99999 -99999 -99999 -99999 -99999 -99999
 -99999 -99999 -99999 -99999 -99999 -99999 -99999 -99999 -99999 -99999 -99999 -99999 -99999 -99999 -99999 -99999 -99999 -99999 -99999 -99999 -99999 -99999 -99999 -99999 -99999 -99999 -99999 -99999 -99999 -99999 -99999 -99999 -99999 -99999 -99999 -99999 -99999 -99999 -99999 -99999 -99999 -99999 -99999 -99999 -99999 -99999 -99999 -99999 -99999 -99999 -99999 -1484.222900390625 -1484.4144287109375 -1484.623779296875 -1484.8492431640625 -1485.094482421875 -1485.371826171875 -1485.67578125 -1485.9814453125 -1486.2928466796875 -1486.6123046875 -1486.953857421875 -1487.322509765625 -1487.653564453125 -1487.980224609375 -1488.3018798828125 -1488.6253662109375 -1488.9384765625 -1489.2293701171875 -1489.5091552734375 -1489.777099609375 -1490.0711669921875 -1490.2962646484375 -1490.510498046875 -1490.7386474609375 -1490.9659423828125 -1491.168701171875 -1491.348876953125 -1491.5252685546875 -1491.72314453125 -1491.9229736328125 -1492.1103515625 -1492.293212890625 -1492.484375 -1492.7059326171875 -1492.9359130859375 -1493.1700439453125 -1493.4158935546875 -1493.6834716796875 -1493.9825439453125 -1494.2991943359375 -1494.6365966796875 -1494.9981689453125 -1495.389404296875 -1495.8125 -1496.2640380859375 -1496.7520751953125 -1497.268798828125 -1497.8218994140625 -1498.4127197265625 -1499.0438232421875 -1499.7137451171875 -1500.429443359375 -1501.194580078125 -1502.0142822265625 -1502.8883056640625 -1503.81884765625 -1504.818603515625 -1505.891357421875 -1507.0474853515625 -1508.2828369140625 -1509.6041259765625 -1511.0445556640625 -1512.5784912109375 -1514.23974609375 -1516.017822265625 -1517.9130859375 -1519.943359375 -1522.0992431640625 -1524.406005859375 -1526.830810546875 -1529.369384765625 -1531.997314453125 -1534.714111328125 -1537.5467529296875 -1540.410888671875 -1543.3360595703125 -1546.278076171875 -1549.2095947265625 -1552.149169921875 -1555.12548828125 -1558.1239013671875 -1561.2015380859375 -1564.3822021484375 -1567.818115234375 -1571.4686279296875 -1575.266357421875 -1579.442138671875 -1584.17333984375 -1590.2310791015625 -1597.8985595703125 -1606.7073974609375 -1615.2442626953125 -1622.378662109375 -1627.0330810546875 -1629.7177734375 -1630.787841796875 -1630.753662109375 -1629.745361328125 -1628.033203125 -1626.080078125 -1623.8668212890625 -1621.6043701171875 -1619.66259765625 -1617.900390625 -1616.3526611328125 -1615.0662841796875 -1614.0438232421875 -1613.253173828125 -1612.644775390625 -1612.213623046875 -1611.947509765625 -1611.7987060546875 -1611.739501953125 -1611.752197265625 -99999 -99999 -99999 -99999 -99999 -99999 -99999 -99999 -99999 -99999 -99999 -99999 -99999 -99999 -99999 -99999 -99999 -99999 -99999 -99999 -99999 -99999 -99999 -99999 -99999 -99999 -99999 -99999 -99999 -99999 -99999 -99999 -99999 -99999
 -99999 -99999 -99999 -99999 -99999 -99999 -99999 -99999 -99999 -99999 -99999 -99999 -99999 -99999 -99999 -99999 -99999 -99999 -99999 -99999 -99999 -99999 -99999 -99999 -99999 -99999 -99999 -99999 -99999 -99999 -99999 -99999 -99999 -99999 -99999 -99999 -99999 -99999 -99999 -99999 -99999 -99999 -99999 -99999 -99999 -99999 -99999 -99999 -99999 -99999 -1489.705810546875 -1489.920166015625 -1490.1630859375 -1490.4344482421875 -1490.74072265625 -1491.084716796875 -1491.415283203125 -1491.8104248046875 -1492.23876953125 -1492.638916015625 -1493.0438232421875 -1493.444580078125 -1493.8900146484375 -1494.321044921875 -1494.7354736328125 -1495.1424560546875 -1495.5247802734375 -1495.9404296875 -1496.308349609375 -1496.659423828125 -1496.981201171875 -1497.309326171875 -1497.6123046875 -1497.89501953125 -1498.16357421875 -1498.4188232421875 -1498.66748046875 -1498.8995361328125 -1499.1207275390625 -1499.336669921875 -1499.54931640625 -1499.7645263671875 -1499.9775390625 -1500.1944580078125 -1500.4180908203125 -1500.6512451171875 -1500.8980712890625 -1501.15625 -1501.433837890625 -1501.729248046875 -1502.045166015625 -1502.3861083984375 -1502.753662109375 -1503.1466064453125 -1503.5660400390625 -1504.015625 -1504.4998779296875 -1505.019775390625 -1505.5733642578125 -1506.162109375 -1506.792236328125 -1507.4688720703125 -1508.1922607421875 -1508.9610595703125 -1509.775390625 -1510.6553955078125 -1511.6009521484375 -1512.6146240234375 -1513.6983642578125 -1514.8486328125 -1516.0926513671875 -1517.4337158203125 -1518.871337890625 -1520.4031982421875 -1522.039794921875 -1523.7987060546875 -1525.6876220703125 -1527.693115234375 -1529.8145751953125 -1532.0447998046875 -1534.4119873046875 -1536.8558349609375 -1539.446533203125 -1542.127197265625 -1544.868408203125 -1547.6802978515625 -1550.5338134765625 -1553.4288330078125 -1556.37353515625 -1559.36181640625 -1562.4122314453125 -1565.5269775390625 -1568.830322265625 -1572.2847900390625 -1575.9254150390625 -1579.8892822265625 -1584.2255859375 -1589.16650390625 -1594.67138671875 -1601.487548828125 -1609.46728515625 -1618.212646484375 -1626.90869140625 -1633.395263671875 -1637.20458984375 -1638.8448486328125 -1638.8394775390625 -1637.6285400390625 -1635.6922607421875 -1633.2525634765625 -1630.5675048828125 -1627.7115478515625 -1625.2056884765625 -1622.8450927734375 -1620.8548583984375 -1619.2587890625 -1617.947265625 -1616.9052734375 -1616.1358642578125 -1615.6138916015625 -1615.2718505859375 -1615.0694580078125 -1614.984619140625 -1615.01513671875 -1615.1197509765625 -1615.264892578125 -99999 -99999 -99999 -99999 -99999 -99999 -99999 -99999 -99999 -99999 -99999 -99999 -99999 -99999 -99999 -99999 -99999 -99999 -99999 -99999 -99999 -99999 -99999 -99999 -99999 -99999 -99999 -99999 -99999 -99999 -99999 -99999 -99999
 -99999 -99999 -99999 -99999 -99999 -99999 -99999 -99999 -99999 -99999 -99999 -99999 -99999 -99999 -99999 -99999 -99999 -99999 -99999 -99999 -99999 -99999 -99999 -99999 -99999 -99999 -99999 -99999 -99999 -99999 -99999 -99999 -99999 -99999 -99999 -99999 -99999 -99999 -99999 -99999 -99999 -99999 -99999 -99999 -99999 -99999 -99999 -99999 -99999 -99999 -1495.05419921875 -1495.327880859375 -1495.637451171875 -1495.9820556640625 -1496.354736328125 -1496.78125 -1497.2275390625 -1497.69775390625 -1498.187255859375 -1498.7037353515625 -1499.2230224609375 -1499.74560546875 -1500.26513671875 -1500.7862548828125 -1501.3106689453125 -1501.81103515625 -1502.297607421875 -1502.7684326171875 -1503.2216796875 -1503.660888671875 -1504.0670166015625 -1504.45263671875 -1504.817626953125 -1505.1624755859375 -1505.4892578125 -1505.789794921875 -1506.07470703125 -1506.3453369140625 -1506.6041259765625 -1506.8525390625 -1507.0909423828125 -1507.325439453125 -1507.5582275390625 -1507.7928466796875 -1508.031982421875 -1508.27783203125 -1508.5330810546875 -1508.800048828125 -1509.0821533203125 -1509.3846435546875 -1509.7064208984375 -1510.047607421875 -1510.4078369140625 -1510.798828125 -1511.223876953125 -1511.6785888671875 -1512.16357421875 -1512.68017578125 -1513.2366943359375 -1513.8353271484375 -1514.4739990234375 -1515.1492919921875 -1515.869873046875 -1516.645751953125 -1517.47998046875 -1518.366943359375 -1519.3125 -1520.3203125 -1521.411865234375 -1522.581298828125 -1523.8297119140625 -1525.16064453125 -1526.581787109375 -1528.1160888671875 -1529.756591796875 -1531.5009765625 -1533.346923828125 -1535.300537109375 -1537.3673095703125 -1539.5816650390625 -1541.8865966796875 -1544.3201904296875 -1546.8349609375 -1549.433349609375 -1552.109130859375 -1554.86328125 -1557.696533203125 -1560.591796875 -1563.5452880859375 -1566.576904296875 -1569.73193359375 -1573.0107421875 -1576.4454345703125 -1580.0888671875 -1584.0059814453125 -1588.4197998046875 -1593.150390625 -1598.6962890625 -1604.88134765625 -1612.0654296875 -1619.9521484375 -1628.8583984375 -1637.8157958984375 -1645.5830078125 -1646.4705810546875 -1646.573486328125 -1645.6485595703125 -1643.7176513671875 -1640.902099609375 -1637.3994140625 -1633.9759521484375 -1630.7386474609375 -1627.8223876953125 -1625.2684326171875 -1623.2364501953125 -1621.5521240234375 -1620.2735595703125 -1619.3692626953125 -1618.71728515625 -1618.2833251953125 -1618.0345458984375 -1617.972412109375 -1618.01953125 -1618.1446533203125 -1618.329833984375 -1618.5584716796875 -99999 -99999 -99999 -99999 -99999 -99999 -99999 -99999 -99999 -99999 -99999 -99999 -99999 -99999 -99999 -99999 -99999 -99999 -99999 -99999 -99999 -99999 -99999 -99999 -99999 -99999 -99999 -99999 -99999 -99999 -99999 -99999 -99999
 -99999 -99999 -99999 -99999 -99999 -99999 -99999 -99999 -99999 -99999 -99999 -99999 -99999 -99999 -99999 -99999 -99999 -99999 -99999 -99999 -99999 -99999 -99999 -99999 -99999 -99999 -99999 -99999 -99999 -99999 -99999 -99999 -99999 -99999 -99999 -99999 -99999 -99999 -99999 -99999 -99999 -99999 -99999 -99999 -99999 -99999 -99999 -99999 -99999 -1499.87548828125 -1500.1627197265625 -1500.4951171875 -1500.878662109375 -1501.313720703125 -1501.7879638671875 -1502.2984619140625 -1502.8414306640625 -1503.415771484375 -1504.01513671875 -1504.6295166015625 -1505.2545166015625 -1505.8857421875 -1506.5152587890625 -1507.1400146484375 -1507.7548828125 -1508.3565673828125 -1508.9417724609375 -1509.4993896484375 -1510.034912109375 -1510.54638671875 -1511.033203125 -1511.4912109375 -1511.91259765625 -1512.310546875 -1512.68798828125 -1513.0430908203125 -1513.3778076171875 -1513.6854248046875 -1513.9779052734375 -1514.25732421875 -1514.5257568359375 -1514.782470703125 -1515.0340576171875 -1515.2847900390625 -1515.537109375 -1515.7933349609375 -1516.0570068359375 -1516.333740234375 -1516.62353515625 -1516.9285888671875 -1517.2508544921875 -1517.596923828125 -1517.9769287109375 -1518.3778076171875 -1518.801025390625 -1519.251953125 -1519.7423095703125 -1520.2666015625 -1520.8251953125 -1521.420166015625 -1522.0537109375 -1522.7421875 -1523.475341796875 -1524.2557373046875 -1525.0859375 -1525.97265625 -1526.9332275390625 -1527.956298828125 -1529.045654296875 -1530.2047119140625 -1531.4471435546875 -1532.7882080078125 -1534.20849609375 -1535.7105712890625 -1537.3359375 -1539.0635986328125 -1540.8935546875 -1542.81787109375 -1544.8753662109375 -1547.0328369140625 -1549.2880859375 -1551.6387939453125 -1554.0887451171875 -1556.6475830078125 -1559.285888671875 -1561.9976806640625 -1564.80126953125 -1567.6851806640625 -1570.6751708984375 -1573.7691650390625 -1576.9759521484375 -1580.332275390625 -1583.910888671875 -1587.8238525390625 -1591.96630859375 -1596.6234130859375 -1601.75927734375 -1607.488037109375 -1613.831787109375 -1620.9237060546875 -1628.769775390625 -1637.1629638671875 -1645.484130859375 -1650.4879150390625 -1652.488037109375 -1652.48974609375 -1651.48828125 -1648.46435546875 -1644.5797119140625 -1640.39208984375 -1636.283203125 -1632.5526123046875 -1629.480712890625 -1626.95556640625 -1624.8460693359375 -1623.351806640625 -1622.2222900390625 -1621.4246826171875 -1620.9110107421875 -1620.6859130859375 -1620.6297607421875 -1620.7022705078125 -1620.8758544921875 -1621.1265869140625 -1621.4366455078125 -1621.7689208984375 -1622.1121826171875 -99999 -99999 -99999 -99999 -99999 -99999 -99999 -99999 -99999 -99999 -99999 -99999 -99999 -99999 -99999 -99999 -99999 -99999 -99999 -99999 -99999 -99999 -99999 -99999 -99999 -99999 -99999 -99999 -99999 -99999 -99999 -99999
 -99999 -99999 -99999 -99999 -99999 -99999 -99999 -99999 -99999 -99999 -99999 -99999 -99999 -99999 -99999 -99999 -99999 -99999 -99999 -99999 -99999 -99999 -99999 -99999 -99999 -99999 -99999 -99999 -99999 -99999 -99999 -99999 -99999 -99999 -99999 -99999 -99999 -99999 -99999 -99999 -99999 -99999 -99999 -99999 -99999 -99999 -99999 -99999 -1504.3858642578125 -1504.6690673828125 -1505.0164794921875 -1505.4287109375 -1505.89501953125 -1506.412841796875 -1506.9718017578125 -1507.585693359375 -1508.2425537109375 -1508.927734375 -1509.6412353515625 -1510.356201171875 -1511.098876953125 -1511.8463134765625 -1512.59423828125 -1513.3253173828125 -1514.0440673828125 -1514.742919921875 -1515.42333984375 -1516.0792236328125 -1516.7095947265625 -1517.283203125 -1517.8438720703125 -1518.3822021484375 -1518.883056640625 -1519.3499755859375 -1519.7733154296875 -1520.173828125 -1520.5489501953125 -1520.900390625 -1521.229248046875 -1521.53466796875 -1521.8282470703125 -1522.1109619140625 -1522.3857421875 -1522.6541748046875 -1522.921875 -1523.193603515625 -1523.470947265625 -1523.7564697265625 -1524.052978515625 -1524.3681640625 -1524.7012939453125 -1525.0537109375 -1525.427490234375 -1525.8267822265625 -1526.2591552734375 -1526.719970703125 -1527.2110595703125 -1527.735107421875 -1528.297119140625 -1528.9031982421875 -1529.5487060546875 -1530.2354736328125 -1530.9635009765625 -1531.74951171875 -1532.5928955078125 -1533.489990234375 -1534.4412841796875 -1535.4549560546875 -1536.5445556640625 -1537.7232666015625 -1538.96484375 -1540.3011474609375 -1541.71630859375 -1543.21533203125 -1544.80517578125 -1546.5062255859375 -1548.3143310546875 -1550.216552734375 -1552.216552734375 -1554.3115234375 -1556.53076171875 -1558.8448486328125 -1561.246826171875 -1563.740234375 -1566.3302001953125 -1569.0244140625 -1571.8096923828125 -1574.68994140625 -1577.6536865234375 -1580.760498046875 -1584.0616455078125 -1587.5242919921875 -1591.21044921875 -1595.2177734375 -1599.58056640625 -1604.26318359375 -1609.3704833984375 -1615.166748046875 -1621.5108642578125 -1628.3104248046875 -1635.5823974609375 -1642.6307373046875 -1649.1083984375 -1653.8406982421875 -1655.7425537109375 -1656.6046142578125 -1655.2406005859375 -1651.581787109375 -1646.698974609375 -1641.6553955078125 -1637.1240234375 -1633.2691650390625 -1630.1063232421875 -1627.611328125 -1625.93798828125 -1624.5203857421875 -1623.5963134765625 -1623.1219482421875 -1622.89501953125 -1622.8697509765625 -1623.0111083984375 -1623.255859375 -1623.617431640625 -1624.0445556640625 -1624.477294921875 -1624.91259765625 -1625.3748779296875 -1625.8173828125 -99999 -99999 -99999 -99999 -99999 -99999 -99999 -99999 -99999 -99999 -99999 -99999 -99999 -99999 -99999 -99999 -99999 -99999 -99999 -99999 -99999 -99999 -99999 -99999 -99999 -99999 -99999 -99999 -99999 -99999 -99999
 -99999 -99999 -99999 -99999 -99999 -99999 -99999 -99999 -99999 -99999 -99999 -99999 -99999 -99999 -99999 -99999 -99999 -99999 -99999 -99999 -99999 -99999 -99999 -99999 -99999 -99999 -99999 -99999 -99999 -99999 -99999 -99999 -99999 -99999 -99999 -99999 -99999 -99999 -99999 -99999 -99999 -99999 -99999 -99999 -99999 -99999 -99999 -1508.587646484375 -1508.8624267578125 -1509.2098388671875 -1509.6236572265625 -1510.1036376953125 -1510.6365966796875 -1511.2642822265625 -1511.9425048828125 -1512.6722412109375 -1513.4356689453125 -1514.2232666015625 -1515.0552978515625 -1515.9073486328125 -1516.773193359375 -1517.6253662109375 -1518.475830078125 -1519.336669921875 -1520.1749267578125 -1520.9921875 -1521.7681884765625 -1522.5103759765625 -1523.230712890625 -1523.9154052734375 -1524.5634765625 -1525.1583251953125 -1525.7164306640625 -1526.2425537109375 -1526.7332763671875 -1527.190185546875 -1527.6031494140625 -1527.99072265625 -1528.3548583984375 -1528.6971435546875 -1529.025146484375 -1529.327392578125 -1529.6217041015625 -1529.909912109375 -1530.194580078125 -1530.4783935546875 -1530.7650146484375 -1531.0623779296875 -1531.3704833984375 -1531.6917724609375 -1532.02734375 -1532.389892578125 -1532.7745361328125 -1533.181396484375 -1533.614013671875 -1534.07177734375 -1534.572998046875 -1535.105712890625 -1535.6732177734375 -1536.277587890625 -1536.9228515625 -1537.618408203125 -1538.376953125 -1539.15869140625 -1540.006103515625 -1540.9071044921875 -1541.8624267578125 -1542.87744140625 -1543.96875 -1545.1373291015625 -1546.3763427734375 -1547.68896484375 -1549.0880126953125 -1550.580322265625 -1552.1629638671875 -1553.836181640625 -1555.5958251953125 -1557.462890625 -1559.4376220703125 -1561.497802734375 -1563.6507568359375 -1565.9083251953125 -1568.2696533203125 -1570.728271484375 -1573.2783203125 -1575.9248046875 -1578.64599609375 -1581.5018310546875 -1584.5220947265625 -1587.6436767578125 -1590.9453125 -1594.4591064453125 -1598.2015380859375 -1602.184814453125 -1606.5042724609375 -1611.2418212890625 -1616.3658447265625 -1621.881591796875 -1627.76318359375 -1634.0362548828125 -1640.285888671875 -1646.599853515625 -1651.9464111328125 -1655.5906982421875 -1658.0599365234375 -1659.260498046875 -1657.970947265625 -1652.7637939453125 -1646.8482666015625 -1641.2840576171875 -1636.490478515625 -1632.6494140625 -1629.7806396484375 -1627.7421875 -1626.2747802734375 -1625.3408203125 -1624.8201904296875 -1624.63232421875 -1624.6492919921875 -1624.8651123046875 -1625.34912109375 -1625.8526611328125 -1626.3016357421875 -1626.8616943359375 -1627.4434814453125 -1628.000244140625 -1628.4874267578125 -1628.9942626953125 -99999 -99999 -99999 -99999 -99999 -99999 -99999 -99999 -99999 -99999 -99999 -99999 -99999 -99999 -99999 -99999 -99999 -99999 -99999 -99999 -99999 -99999 -99999 -99999 -99999 -99999 -99999 -99999 -99999 -99999 -99999
 -99999 -99999 -99999 -99999 -99999 -99999 -99999 -99999 -99999 -99999 -99999 -99999 -99999 -99999 -99999 -99999 -99999 -99999 -99999 -99999 -99999 -99999 -99999 -99999 -99999 -99999 -99999 -99999 -99999 -99999 -99999 -99999 -99999 -99999 -99999 -99999 -99999 -99999 -99999 -99999 -99999 -99999 -99999 -99999 -99999 -99999 -1512.5106201171875 -1512.7489013671875 -1513.066162109375 -1513.46337890625 -1513.9434814453125 -1514.5159912109375 -1515.1661376953125 -1515.88720703125 -1516.652099609375 -1517.46630859375 -1518.3828125 -1519.3250732421875 -1520.2904052734375 -1521.25 -1522.232421875 -1523.2366943359375 -1524.2342529296875 -1525.21044921875 -1526.1436767578125 -1527.065185546875 -1527.965087890625 -1528.828857421875 -1529.64208984375 -1530.3994140625 -1531.1346435546875 -1531.8187255859375 -1532.45849609375 -1533.04296875 -1533.5927734375 -1534.11279296875 -1534.5799560546875 -1534.9993896484375 -1535.37841796875 -1535.759765625 -1536.1246337890625 -1536.4556884765625 -1536.753173828125 -1537.04248046875 -1537.3546142578125 -1537.6636962890625 -1537.9609375 -1538.2542724609375 -1538.5621337890625 -1538.9024658203125 -1539.2576904296875 -1539.6131591796875 -1540.0040283203125 -1540.418701171875 -1540.8590087890625 -1541.3287353515625 -1541.83154296875 -1542.3660888671875 -1542.9398193359375 -1543.5523681640625 -1544.20849609375 -1544.9066162109375 -1545.6563720703125 -1546.4520263671875 -1547.2967529296875 -1548.2003173828125 -1549.1614990234375 -1550.1881103515625 -1551.27294921875 -1552.425537109375 -1553.6597900390625 -1554.97119140625 -1556.35986328125 -1557.826416015625 -1559.37841796875 -1561.0291748046875 -1562.76416015625 -1564.5928955078125 -1566.513916015625 -1568.531005859375 -1570.6507568359375 -1572.862548828125 -1575.163818359375 -1577.533935546875 -1580.0474853515625 -1582.641845703125 -1585.3704833984375 -1588.211669921875 -1591.177734375 -1594.2933349609375 -1597.565185546875 -1601.0389404296875 -1604.7606201171875 -1608.72998046875 -1612.971923828125 -1617.486083984375 -1622.328369140625 -1627.4915771484375 -1632.9022216796875 -1638.574951171875 -1644.09912109375 -1649.0677490234375 -1653.1815185546875 -1656.32080078125 -1658.3289794921875 -1658.9462890625 -1656.2542724609375 -1651.0640869140625 -1644.8408203125 -1639.1920166015625 -1634.590576171875 -1631.2525634765625 -1628.9195556640625 -1627.322509765625 -1626.345703125 -1625.9310302734375 -1625.7852783203125 -1626.0087890625 -1626.425537109375 -1626.876953125 -1627.5064697265625 -1628.2169189453125 -1628.9493408203125 -1629.645263671875 -1630.3319091796875 -1631.0086669921875 -1631.642333984375 -1632.2281494140625 -1632.7486572265625 -99999 -99999 -99999 -99999 -99999 -99999 -99999 -99999 -99999 -99999 -99999 -99999 -99999 -99999 -99999 -99999 -99999 -99999 -99999 -99999 -99999 -99999 -99999 -99999 -99999 -99999 -99999 -99999 -99999 -99999
 -99999 -99999 -99999 -99999 -99999 -99999 -99999 -99999 -99999 -99999 -99999 -99999 -99999 -99999 -99999 -99999 -99999 -99999 -99999 -99999 -99999 -99999 -99999 -99999 -99999 -99999 -99999 -99999 -99999 -99999 -99999 -99999 -99999 -99999 -99999 -99999 -99999 -99999 -99999 -99999 -99999 -99999 -99999 -99999 -99999 -99999 -1516.3211669921875 -1516.5830078125 -1516.9324951171875 -1517.40576171875 -1517.97998046875 -1518.6484375 -1519.384521484375 -1520.2093505859375 -1521.131591796875 -1522.1156005859375 -1523.130615234375 -1524.1800537109375 -1525.2789306640625 -1526.416015625 -1527.5628662109375 -1528.6773681640625 -1529.7828369140625 -1530.8919677734375 -1532.003662109375 -1533.0533447265625 -1534.044921875 -1535.028076171875 -1535.9697265625 -1536.830078125 -1537.6126708984375 -1538.353515625 -1539.0797119140625 -1539.7196044921875 -1540.310791015625 -1540.865478515625 -1541.37890625 -1541.8533935546875 -1542.2821044921875 -1542.6807861328125 -1543.0462646484375 -1543.398681640625 -1543.734375 -1544.0540771484375 -1544.3670654296875 -1544.678955078125 -1544.992431640625 -1545.309814453125 -1545.635498046875 -1545.973388671875 -1546.3304443359375 -1546.7060546875 -1547.1033935546875 -1547.5250244140625 -1547.97265625 -1548.45458984375 -1548.9664306640625 -1549.512939453125 -1550.094970703125 -1550.715087890625 -1551.3800048828125 -1552.0849609375 -1552.83349609375 -1553.63134765625 -1554.484619140625 -1555.3944091796875 -1556.3529052734375 -1557.3782958984375 -1558.462646484375 -1559.614501953125 -1560.8367919921875 -1562.1251220703125 -1563.4959716796875 -1564.94482421875 -1566.480224609375 -1568.0933837890625 -1569.7899169921875 -1571.5870361328125 -1573.46923828125 -1575.4404296875 -1577.5069580078125 -1579.635986328125 -1581.890625 -1584.2537841796875 -1586.6993408203125 -1589.25634765625 -1591.918212890625 -1594.6947021484375 -1597.59228515625 -1600.668701171875 -1603.9193115234375 -1607.303955078125 -1610.8970947265625 -1614.7156982421875 -1618.8245849609375 -1623.1505126953125 -1627.7093505859375 -1632.41943359375 -1637.2899169921875 -1642.0010986328125 -1646.466552734375 -1650.4515380859375 -1653.89501953125 -1655.981201171875 -1656.686767578125 -1655.85888671875 -1652.86376953125 -1647.517578125 -1641.5670166015625 -1635.9989013671875 -1631.8267822265625 -1629.077880859375 -1627.415771484375 -1626.7237548828125 -1626.44873046875 -1626.4747314453125 -1626.753662109375 -1627.2545166015625 -1628.033447265625 -1628.90234375 -1629.787353515625 -1630.6795654296875 -1631.580078125 -1632.4720458984375 -1633.3118896484375 -1634.071044921875 -1634.7734375 -1635.4232177734375 -1636.0155029296875 -99999 -99999 -99999 -99999 -99999 -99999 -99999 -99999 -99999 -99999 -99999 -99999 -99999 -99999 -99999 -99999 -99999 -99999 -99999 -99999 -99999 -99999 -99999 -99999 -99999 -99999 -99999 -99999 -99999 -99999
 -99999 -99999 -99999 -99999 -99999 -99999 -99999 -99999 -99999 -99999 -99999 -99999 -99999 -99999 -99999 -99999 -99999 -99999 -99999 -99999 -99999 -99999 -99999 -99999 -99999 -99999 -99999 -99999 -99999 -99999 -99999 -99999 -99999 -99999 -99999 -99999 -99999 -99999 -99999 -99999 -99999 -99999 -99999 -99999 -99999 -1519.6064453125 -1519.793701171875 -1520.1065673828125 -1520.5355224609375 -1521.07373046875 -1521.7149658203125 -1522.4764404296875 -1523.35986328125 -1524.323974609375 -1525.35498046875 -1526.45068359375 -1527.6298828125 -1528.8690185546875 -1530.1180419921875 -1531.3756103515625 -1532.6435546875 -1533.9654541015625 -1535.266357421875 -1536.48046875 -1537.6861572265625 -1538.8927001953125 -1539.9765625 -1541.04296875 -1542.06591796875 -1543.03369140625 -1543.92431640625 -1544.7540283203125 -1545.528564453125 -1546.2513427734375 -1546.9207763671875 -1547.521240234375 -1548.0721435546875 -1548.580810546875 -1549.051513671875 -1549.487060546875 -1549.882568359375 -1550.2547607421875 -1550.60791015625 -1550.9481201171875 -1551.278076171875 -1551.60009765625 -1551.9227294921875 -1552.249267578125 -1552.5869140625 -1552.93603515625 -1553.30078125 -1553.681396484375 -1554.0806884765625 -1554.5146484375 -1554.974853515625 -1555.4647216796875 -1555.985107421875 -1556.54150390625 -1557.13330078125 -1557.76416015625 -1558.4351806640625 -1559.1458740234375 -1559.90283203125 -1560.7073974609375 -1561.56201171875 -1562.4703369140625 -1563.42724609375 -1564.4447021484375 -1565.5211181640625 -1566.671630859375 -1567.883056640625 -1569.159912109375 -1570.5108642578125 -1571.930908203125 -1573.4404296875 -1575.0294189453125 -1576.6947021484375 -1578.4395751953125 -1580.2545166015625 -1582.1837158203125 -1584.1905517578125 -1586.304443359375 -1588.5030517578125 -1590.791259765625 -1593.1708984375 -1595.6455078125 -1598.2462158203125 -1600.9698486328125 -1603.81982421875 -1606.77783203125 -1609.88525390625 -1613.1876220703125 -1616.6624755859375 -1620.314208984375 -1624.1661376953125 -1628.183349609375 -1632.2913818359375 -1636.41259765625 -1640.610107421875 -1644.6954345703125 -1648.4493408203125 -1651.44970703125 -1653.5826416015625 -1654.7342529296875 -1654.6322021484375 -1653.0074462890625 -1649.2532958984375 -1644.0638427734375 -1637.9930419921875 -1632.420654296875 -1628.2945556640625 -1626.854736328125 -1626.5184326171875 -1626.3756103515625 -1626.5667724609375 -1627.0552978515625 -1627.8646240234375 -1628.81884765625 -1629.853271484375 -1630.9598388671875 -1632.1148681640625 -1633.273193359375 -1634.3502197265625 -1635.34765625 -1636.281494140625 -1637.1485595703125 -1637.9404296875 -1638.6417236328125 -1639.26953125 -1639.833740234375 -99999 -99999 -99999 -99999 -99999 -99999 -99999 -99999 -99999 -99999 -99999 -99999 -99999 -99999 -99999 -99999 -99999 -99999 -99999 -99999 -99999 -99999 -99999 -99999 -99999 -99999 -99999 -99999 -99999
 -99999 -99999 -99999 -99999 -99999 -99999 -99999 -99999 -99999 -99999 -99999 -99999 -99999 -99999 -99999 -99999 -99999 -99999 -99999 -99999 -99999 -99999 -99999 -99999 -99999 -99999 -99999 -99999 -99999 -99999 -99999 -99999 -99999 -99999 -99999 -99999 -99999 -99999 -99999 -99999 -99999 -99999 -99999 -99999 -1522.623779296875 -1522.7198486328125 -1522.9501953125 -1523.3013916015625 -1523.776123046875 -1524.4012451171875 -1525.17138671875 -1526.052978515625 -1527.038818359375 -1528.120849609375 -1529.3270263671875 -1530.6090087890625 -1531.9327392578125 -1533.30859375 -1534.7498779296875 -1536.22998046875 -1537.6494140625 -1539.0455322265625 -1540.4866943359375 -1541.86767578125 -1543.200927734375 -1544.5032958984375 -1545.76806640625 -1546.9693603515625 -1548.0859375 -1549.140625 -1550.1319580078125 -1551.0635986328125 -1551.915283203125 -1552.690673828125 -1553.4066162109375 -1554.0655517578125 -1554.66796875 -1555.2108154296875 -1555.705810546875 -1556.1651611328125 -1556.591796875 -1556.99072265625 -1557.36083984375 -1557.7132568359375 -1558.0546875 -1558.389892578125 -1558.7252197265625 -1559.062744140625 -1559.4085693359375 -1559.7657470703125 -1560.1376953125 -1560.53173828125 -1560.9482421875 -1561.387451171875 -1561.853271484375 -1562.350830078125 -1562.882080078125 -1563.4482421875 -1564.0469970703125 -1564.68115234375 -1565.3582763671875 -1566.079345703125 -1566.8458251953125 -1567.65625 -1568.5098876953125 -1569.4176025390625 -1570.3795166015625 -1571.39794921875 -1572.470703125 -1573.600341796875 -1574.795166015625 -1576.0596923828125 -1577.3994140625 -1578.8057861328125 -1580.2764892578125 -1581.8046875 -1583.4364013671875 -1585.1424560546875 -1586.94140625 -1588.812255859375 -1590.7689208984375 -1592.8062744140625 -1594.924560546875 -1597.144775390625 -1599.464111328125 -1601.878662109375 -1604.389404296875 -1606.9969482421875 -1609.7379150390625 -1612.6136474609375 -1615.6114501953125 -1618.7366943359375 -1621.99169921875 -1625.3741455078125 -1628.919677734375 -1632.545654296875 -1636.25732421875 -1639.9603271484375 -1643.5771484375 -1646.7158203125 -1649.591064453125 -1651.8101806640625 -1653.244873046875 -1653.7010498046875 -1652.651611328125 -1650.2142333984375 -1646.3818359375 -1641.2926025390625 -1635.396240234375 -1629.520263671875 -1625.826171875 -1625.6226806640625 -1626.11474609375 -1626.546630859375 -1627.2562255859375 -1628.13916015625 -1629.2216796875 -1630.466552734375 -1631.8585205078125 -1633.2933349609375 -1634.6507568359375 -1635.9527587890625 -1637.1807861328125 -1638.3245849609375 -1639.355224609375 -1640.2747802734375 -1641.1099853515625 -1641.86376953125 -1642.53515625 -1643.1224365234375 -99999 -99999 -99999 -99999 -99999 -99999 -99999 -99999 -99999 -99999 -99999 -99999 -99999 -99999 -99999 -99999 -99999 -99999 -99999 -99999 -99999 -99999 -99999 -99999 -99999 -99999 -99999 -99999 -99999
 -99999 -99999 -99999 -99999 -99999 -99999 -99999 -99999 -99999 -99999 -99999 -99999 -99999 -99999 -99999 -99999 -99999 -99999 -99999 -99999 -99999 -99999 -99999 -99999 -99999 -99999 -99999 -99999 -99999 -99999 -99999 -99999 -99999 -99999 -99999 -99999 -99999 -99999 -99999 -99999 -99999 -99999 -99999 -1525.41748046875 -1525.39111328125 -1525.490478515625 -1525.7254638671875 -1526.133544921875 -1526.714111328125 -1527.436767578125 -1528.2967529296875 -1529.2877197265625 -1530.4468994140625 -1531.7056884765625 -1533.0540771484375 -1534.490234375 -1536.0447998046875 -1537.5950927734375 -1539.1396484375 -1540.7685546875 -1542.3831787109375 -1543.9761962890625 -1545.553955078125 -1547.10107421875 -1548.6224365234375 -1550.0587158203125 -1551.435546875 -1552.7484130859375 -1553.99365234375 -1555.168701171875 -1556.23876953125 -1557.231689453125 -1558.16455078125 -1559.0220947265625 -1559.7947998046875 -1560.492431640625 -1561.134765625 -1561.718017578125 -1562.251953125 -1562.73486328125 -1563.17578125 -1563.5872802734375 -1563.974365234375 -1564.3419189453125 -1564.694091796875 -1565.038818359375 -1565.38232421875 -1565.7283935546875 -1566.083251953125 -1566.451416015625 -1566.8353271484375 -1567.238525390625 -1567.662841796875 -1568.1138916015625 -1568.59521484375 -1569.10498046875 -1569.6446533203125 -1570.2158203125 -1570.8272705078125 -1571.4783935546875 -1572.166259765625 -1572.8922119140625 -1573.6575927734375 -1574.4736328125 -1575.337890625 -1576.2474365234375 -1577.20654296875 -1578.221923828125 -1579.2918701171875 -1580.3984375 -1581.5791015625 -1582.8233642578125 -1584.1397705078125 -1585.5174560546875 -1586.9603271484375 -1588.469970703125 -1590.063232421875 -1591.7274169921875 -1593.462646484375 -1595.270263671875 -1597.1588134765625 -1599.1334228515625 -1601.1961669921875 -1603.3438720703125 -1605.56689453125 -1607.8851318359375 -1610.307861328125 -1612.828857421875 -1615.445068359375 -1618.1556396484375 -1620.9827880859375 -1623.9697265625 -1626.9827880859375 -1630.136474609375 -1633.34716796875 -1636.607666015625 -1639.8702392578125 -1642.9451904296875 -1645.84326171875 -1648.504150390625 -1650.6767578125 -1652.2342529296875 -1652.8125 -1652.4478759765625 -1650.99951171875 -1648.509033203125 -1644.721435546875 -1639.9373779296875 -1634.6910400390625 -1629.96484375 -1626.8922119140625 -1626.5771484375 -1626.98486328125 -1627.6275634765625 -1628.4632568359375 -1629.54248046875 -1630.9437255859375 -1632.523681640625 -1634.1597900390625 -1635.7935791015625 -1637.37353515625 -1638.859375 -1640.1820068359375 -1641.3887939453125 -1642.482666015625 -1643.4688720703125 -1644.3392333984375 -1645.103759765625 -1645.7869873046875 -1646.3980712890625 -1646.931884765625 -99999 -99999 -99999 -99999 -99999 -99999 -99999 -99999 -99999 -99999 -99999 -99999 -99999 -99999 -99999 -99999 -99999 -99999 -99999 -99999 -99999 -99999 -99999 -99999 -99999 -99999 -99999 -99999
 -99999 -99999 -99999 -99999 -99999 -99999 -99999 -99999 -99999 -99999 -99999 -99999 -99999 -99999 -99999 -99999 -99999 -99999 -99999 -99999 -99999 -99999 -99999 -99999 -99999 -99999 -99999 -99999 -99999 -99999 -99999 -99999 -99999 -99999 -99999 -99999 -99999 -99999 -99999 -99999 -99999 -99999 -99999 -1527.80810546875 -1527.739990234375 -1527.86669921875 -1528.17138671875 -1528.644287109375 -1529.28564453125 -1530.0928955078125 -1531.113525390625 -1532.2764892578125 -1533.570068359375 -1534.990234375 -1536.541015625 -1538.1727294921875 -1539.8333740234375 -1541.5843505859375 -1543.367919921875 -1545.1654052734375 -1546.9639892578125 -1548.751708984375 -1550.5064697265625 -1552.2144775390625 -1553.870849609375 -1555.468505859375 -1557.0015869140625 -1558.4300537109375 -1559.7734375 -1561.046142578125 -1562.227294921875 -1563.3236083984375 -1564.30908203125 -1565.2154541015625 -1566.0455322265625 -1566.80322265625 -1567.4881591796875 -1568.0965576171875 -1568.65185546875 -1569.16015625 -1569.6270751953125 -1570.0550537109375 -1570.451416015625 -1570.8291015625 -1571.193115234375 -1571.5484619140625 -1571.9010009765625 -1572.257568359375 -1572.6224365234375 -1572.9989013671875 -1573.3900146484375 -1573.8050537109375 -1574.2437744140625 -1574.7069091796875 -1575.196044921875 -1575.7130126953125 -1576.2696533203125 -1576.85888671875 -1577.4808349609375 -1578.139892578125 -1578.83349609375 -1579.5751953125 -1580.3544921875 -1581.173095703125 -1582.03466796875 -1582.9453125 -1583.901123046875 -1584.9053955078125 -1585.9676513671875 -1587.0843505859375 -1588.2529296875 -1589.4752197265625 -1590.7525634765625 -1592.10546875 -1593.52001953125 -1594.9957275390625 -1596.5341796875 -1598.1373291015625 -1599.8175048828125 -1601.580322265625 -1603.4149169921875 -1605.3028564453125 -1607.2852783203125 -1609.3529052734375 -1611.49560546875 -1613.71630859375 -1616.0155029296875 -1618.4007568359375 -1620.889892578125 -1623.4591064453125 -1626.0955810546875 -1628.8499755859375 -1631.660888671875 -1634.5142822265625 -1637.3944091796875 -1640.2532958984375 -1643.02734375 -1645.6414794921875 -1648.064208984375 -1650.106201171875 -1651.5770263671875 -1652.436279296875 -1652.58203125 -1651.9227294921875 -1650.239990234375 -1647.4669189453125 -1643.875732421875 -1639.8492431640625 -1635.539794921875 -1631.7918701171875 -1629.7213134765625 -1628.9298095703125 -1628.9813232421875 -1629.420654296875 -1630.2381591796875 -1631.4932861328125 -1633.078125 -1634.8887939453125 -1636.7955322265625 -1638.640625 -1640.3516845703125 -1641.920654296875 -1643.3416748046875 -1644.6163330078125 -1645.7159423828125 -1646.7054443359375 -1647.585693359375 -1648.3681640625 -1649.0667724609375 -1649.662841796875 -1650.19140625 -99999 -99999 -99999 -99999 -99999 -99999 -99999 -99999 -99999 -99999 -99999 -99999 -99999 -99999 -99999 -99999 -99999 -99999 -99999 -99999 -99999 -99999 -99999 -99999 -99999 -99999 -99999 -99999
 -99999 -99999 -99999 -99999 -99999 -99999 -99999 -99999 -99999 -99999 -99999 -99999 -99999 -99999 -99999 -99999 -99999 -99999 -99999 -99999 -99999 -99999 -99999 -99999 -99999 -99999 -99999 -99999 -99999 -99999 -99999 -99999 -99999 -99999 -99999 -99999 -99999 -99999 -99999 -99999 -99999 -99999 -1529.97021484375 -1529.7508544921875 -1529.7027587890625 -1529.837158203125 -1530.1629638671875 -1530.697509765625 -1531.4775390625 -1532.4434814453125 -1533.585693359375 -1534.9173583984375 -1536.3756103515625 -1538.026123046875 -1539.698974609375 -1541.5284423828125 -1543.4373779296875 -1545.39501953125 -1547.3858642578125 -1549.3690185546875 -1551.3697509765625 -1553.3499755859375 -1555.2967529296875 -1557.190673828125 -1558.9984130859375 -1560.7252197265625 -1562.4014892578125 -1563.9761962890625 -1565.460693359375 -1566.822998046875 -1568.087158203125 -1569.25634765625 -1570.33203125 -1571.3165283203125 -1572.189697265625 -1572.98046875 -1573.69775390625 -1574.3502197265625 -1574.9375 -1575.4581298828125 -1575.9345703125 -1576.3765869140625 -1576.7923583984375 -1577.1729736328125 -1577.5489501953125 -1577.911376953125 -1578.2720947265625 -1578.6357421875 -1579.0035400390625 -1579.4027099609375 -1579.8079833984375 -1580.232421875 -1580.6756591796875 -1581.1441650390625 -1581.6551513671875 -1582.19189453125 -1582.7623291015625 -1583.3648681640625 -1583.9998779296875 -1584.66748046875 -1585.3592529296875 -1586.1087646484375 -1586.8975830078125 -1587.7239990234375 -1588.589111328125 -1589.4974365234375 -1590.4580078125 -1591.4625244140625 -1592.5115966796875 -1593.6064453125 -1594.7569580078125 -1595.965576171875 -1597.2269287109375 -1598.5416259765625 -1599.9091796875 -1601.3482666015625 -1602.8536376953125 -1604.4097900390625 -1606.0235595703125 -1607.7139892578125 -1609.4810791015625 -1611.3123779296875 -1613.2086181640625 -1615.17041015625 -1617.1993408203125 -1619.3253173828125 -1621.517578125 -1623.75927734375 -1626.0877685546875 -1628.52001953125 -1630.953857421875 -1633.4578857421875 -1636.0391845703125 -1638.5997314453125 -1641.1351318359375 -1643.606201171875 -1645.98779296875 -1648.2086181640625 -1650.0501708984375 -1651.5447998046875 -1652.59619140625 -1653.1226806640625 -1652.857177734375 -1651.7894287109375 -1649.990234375 -1647.50732421875 -1644.37353515625 -1640.7901611328125 -1637.370849609375 -1634.499267578125 -1632.4654541015625 -1631.56298828125 -1631.5517578125 -1631.8585205078125 -1632.5322265625 -1633.7589111328125 -1635.57373046875 -1637.7252197265625 -1639.843505859375 -1641.8421630859375 -1643.669189453125 -1645.282958984375 -1646.6761474609375 -1647.9302978515625 -1649.036865234375 -1650.019287109375 -1650.8831787109375 -1651.6380615234375 -1652.3125 -1652.912841796875 -1653.4442138671875 -1653.896728515625 -99999 -99999 -99999 -99999 -99999 -99999 -99999 -99999 -99999 -99999 -99999 -99999 -99999 -99999 -99999 -99999 -99999 -99999 -99999 -99999 -99999 -99999 -99999 -99999 -99999 -99999 -99999
 -99999 -99999 -99999 -99999 -99999 -99999 -99999 -99999 -99999 -99999 -99999 -99999 -99999 -99999 -99999 -99999 -99999 -99999 -99999 -99999 -99999 -99999 -99999 -99999 -99999 -99999 -99999 -99999 -99999 -99999 -99999 -99999 -99999 -99999 -99999 -99999 -99999 -99999 -99999 -99999 -99999 -1531.982666015625 -1531.5321044921875 -1531.2557373046875 -1531.1854248046875 -1531.3511962890625 -1531.775390625 -1532.4261474609375 -1533.298828125 -1534.3917236328125 -1535.7012939453125 -1537.2613525390625 -1538.8521728515625 -1540.69287109375 -1542.6529541015625 -1544.7071533203125 -1546.8265380859375 -1548.96728515625 -1551.18994140625 -1553.418701171875 -1555.639892578125 -1557.8131103515625 -1559.9151611328125 -1561.9925537109375 -1563.9930419921875 -1565.9110107421875 -1567.713623046875 -1569.404052734375 -1570.99853515625 -1572.4853515625 -1573.86376953125 -1575.1129150390625 -1576.2515869140625 -1577.2852783203125 -1578.243408203125 -1579.0789794921875 -1579.8167724609375 -1580.51220703125 -1581.1151123046875 -1581.6573486328125 -1582.1268310546875 -1582.565673828125 -1582.993408203125 -1583.386962890625 -1583.7615966796875 -1584.129638671875 -1584.4967041015625 -1584.8673095703125 -1585.2464599609375 -1585.6253662109375 -1586.039306640625 -1586.47705078125 -1586.9381103515625 -1587.4254150390625 -1587.9461669921875 -1588.498779296875 -1589.0816650390625 -1589.6954345703125 -1590.3428955078125 -1591.0313720703125 -1591.7545166015625 -1592.5115966796875 -1593.3038330078125 -1594.1357421875 -1595.01220703125 -1595.9261474609375 -1596.8756103515625 -1597.870361328125 -1598.9139404296875 -1600.0054931640625 -1601.138427734375 -1602.3160400390625 -1603.5465087890625 -1604.8349609375 -1606.169921875 -1607.5562744140625 -1609.005859375 -1610.513916015625 -1612.0849609375 -1613.7093505859375 -1615.3896484375 -1617.1263427734375 -1618.9451904296875 -1620.8228759765625 -1622.761962890625 -1624.7281494140625 -1626.7982177734375 -1628.9310302734375 -1631.0787353515625 -1633.3106689453125 -1635.595703125 -1637.875732421875 -1640.157958984375 -1642.4228515625 -1644.6854248046875 -1646.8115234375 -1648.7899169921875 -1650.5091552734375 -1652.025634765625 -1653.1966552734375 -1653.82373046875 -1653.89697265625 -1653.41845703125 -1652.361083984375 -1650.5775146484375 -1648.1737060546875 -1645.3887939453125 -1642.506591796875 -1639.628173828125 -1637.1312255859375 -1635.5582275390625 -1634.6744384765625 -1634.36572265625 -1634.4822998046875 -1634.946044921875 -1636.42138671875 -1638.655029296875 -1641.066650390625 -1643.371337890625 -1645.4476318359375 -1647.22900390625 -1648.81640625 -1650.1904296875 -1651.387451171875 -1652.432861328125 -1653.3497314453125 -1654.1727294921875 -1654.9107666015625 -1655.5675048828125 -1656.140625 -1656.64501953125 -1657.09033203125 -1657.479248046875 -99999 -99999 -99999 -99999 -99999 -99999 -99999 -99999 -99999 -99999 -99999 -99999 -99999 -99999 -99999 -99999 -99999 -99999 -99999 -99999 -99999 -99999 -99999 -99999 -99999 -99999
 -99999 -99999 -99999 -99999 -99999 -99999 -99999 -99999 -99999 -99999 -99999 -99999 -99999 -99999 -99999 -99999 -99999 -99999 -99999 -99999 -99999 -99999 -99999 -99999 -99999 -99999 -99999 -99999 -99999 -99999 -99999 -99999 -99999 -99999 -99999 -99999 -99999 -99999 -99999 -99999 -1533.823974609375 -1533.110595703125 -1532.609375 -1532.3125 -1532.2728271484375 -1532.486328125 -1532.9630126953125 -1533.7027587890625 -1534.7205810546875 -1536.02734375 -1537.5321044921875 -1539.221923828125 -1541.1180419921875 -1543.1795654296875 -1545.3302001953125 -1547.5894775390625 -1549.97607421875 -1552.4097900390625 -1554.86767578125 -1557.2767333984375 -1559.6927490234375 -1562.0989990234375 -1564.4488525390625 -1566.716796875 -1568.8602294921875 -1570.927734375 -1572.898193359375 -1574.7548828125 -1576.4796142578125 -1578.064697265625 -1579.5689697265625 -1580.91552734375 -1582.114501953125 -1583.1727294921875 -1584.149658203125 -1585.0323486328125 -1585.8067626953125 -1586.479248046875 -1587.0927734375 -1587.6466064453125 -1588.1453857421875 -1588.5980224609375 -1589.0167236328125 -1589.4111328125 -1589.791015625 -1590.1627197265625 -1590.5333251953125 -1590.91064453125 -1591.3006591796875 -1591.7064208984375 -1592.131591796875 -1592.5789794921875 -1593.0574951171875 -1593.564453125 -1594.0999755859375 -1594.66552734375 -1595.26171875 -1595.8985595703125 -1596.56689453125 -1597.2645263671875 -1597.9970703125 -1598.765869140625 -1599.5767822265625 -1600.420166015625 -1601.2952880859375 -1602.2098388671875 -1603.1641845703125 -1604.1573486328125 -1605.1861572265625 -1606.254150390625 -1607.36669921875 -1608.5328369140625 -1609.7381591796875 -1610.984375 -1612.2794189453125 -1613.6337890625 -1615.0341796875 -1616.48046875 -1617.974365234375 -1619.5328369140625 -1621.151611328125 -1622.823974609375 -1624.5086669921875 -1626.27587890625 -1628.1124267578125 -1629.9970703125 -1631.904541015625 -1633.897705078125 -1635.916748046875 -1637.94482421875 -1639.9874267578125 -1642.0523681640625 -1644.1387939453125 -1646.142578125 -1648.050537109375 -1649.838134765625 -1651.502197265625 -1652.9759521484375 -1654.0767822265625 -1654.82373046875 -1655.1922607421875 -1655.1053466796875 -1654.4931640625 -1653.273681640625 -1651.5936279296875 -1649.5218505859375 -1647.116455078125 -1644.5343017578125 -1642.244873046875 -1640.2911376953125 -1638.8013916015625 -1637.9429931640625 -1637.61328125 -1637.63427734375 -1638.16845703125 -1639.7110595703125 -1642.3267822265625 -1644.962890625 -1647.325927734375 -1649.376220703125 -1651.0911865234375 -1652.5645751953125 -1653.796142578125 -1654.8673095703125 -1655.8287353515625 -1656.6953125 -1657.4747314453125 -1658.1588134765625 -1658.7728271484375 -1659.3255615234375 -1659.8172607421875 -1660.2498779296875 -1660.6177978515625 -99999 -99999 -99999 -99999 -99999 -99999 -99999 -99999 -99999 -99999 -99999 -99999 -99999 -99999 -99999 -99999 -99999 -99999 -99999 -99999 -99999 -99999 -99999 -99999 -99999 -99999
 -99999 -99999 -99999 -99999 -99999 -99999 -99999 -99999 -99999 -99999 -99999 -99999 -99999 -99999 -99999 -99999 -99999 -99999 -99999 -99999 -99999 -99999 -99999 -99999 -99999 -99999 -99999 -99999 -99999 -99999 -99999 -99999 -99999 -99999 -99999 -99999 -99999 -99999 -99999 -99999 -1534.603271484375 -1533.80517578125 -1533.229736328125 -1532.90478515625 -1532.8875732421875 -1533.1434326171875 -1533.727783203125 -1534.632080078125 -1535.8521728515625 -1537.2513427734375 -1538.995361328125 -1540.9276123046875 -1543.0303955078125 -1545.3165283203125 -1547.784912109375 -1550.3529052734375 -1552.95361328125 -1555.589599609375 -1558.286376953125 -1560.9970703125 -1563.6934814453125 -1566.2718505859375 -1568.7935791015625 -1571.2628173828125 -1573.642822265625 -1575.9073486328125 -1578.0081787109375 -1579.9949951171875 -1581.910400390625 -1583.5479736328125 -1585.103759765625 -1586.51171875 -1587.7955322265625 -1588.9290771484375 -1589.946533203125 -1590.8524169921875 -1591.6536865234375 -1592.3651123046875 -1592.9859619140625 -1593.5438232421875 -1594.041748046875 -1594.4940185546875 -1594.91259765625 -1595.305908203125 -1595.68505859375 -1596.056884765625 -1596.43115234375 -1596.8133544921875 -1597.209228515625 -1597.6217041015625 -1598.0616455078125 -1598.5191650390625 -1599.0128173828125 -1599.5341796875 -1600.0872802734375 -1600.6802978515625 -1601.3004150390625 -1601.9521484375 -1602.6356201171875 -1603.3538818359375 -1604.1065673828125 -1604.8907470703125 -1605.7069091796875 -1606.5556640625 -1607.4349365234375 -1608.3526611328125 -1609.303466796875 -1610.2947998046875 -1611.317626953125 -1612.37744140625 -1613.472412109375 -1614.602294921875 -1615.781982421875 -1617.001708984375 -1618.259765625 -1619.5562744140625 -1620.9036865234375 -1622.3052978515625 -1623.7432861328125 -1625.2073974609375 -1626.73583984375 -1628.3287353515625 -1629.951171875 -1631.597900390625 -1633.323486328125 -1635.0909423828125 -1636.8797607421875 -1638.6846923828125 -1640.5137939453125 -1642.3951416015625 -1644.283203125 -1646.115966796875 -1647.905517578125 -1649.645751953125 -1651.309326171875 -1652.89306640625 -1654.203857421875 -1655.30078125 -1656.15283203125 -1656.697021484375 -1656.864013671875 -1656.5509033203125 -1655.8497314453125 -1654.7177734375 -1653.15625 -1651.2613525390625 -1649.2364501953125 -1647.168212890625 -1645.19580078125 -1643.512939453125 -1642.314208984375 -1641.64013671875 -1641.4117431640625 -1641.6336669921875 -1642.3438720703125 -1644.249267578125 -1646.8011474609375 -1649.4393310546875 -1651.755859375 -1653.678955078125 -1655.131103515625 -1656.330810546875 -1657.3958740234375 -1658.3656005859375 -1659.23876953125 -1660.0074462890625 -1660.71240234375 -1661.3580322265625 -1661.943603515625 -1662.470703125 -1662.93115234375 -1663.3427734375 -1663.704345703125 -1664.0146484375 -99999 -99999 -99999 -99999 -99999 -99999 -99999 -99999 -99999 -99999 -99999 -99999 -99999 -99999 -99999 -99999 -99999 -99999 -99999 -99999 -99999 -99999 -99999 -99999 -99999
 -99999 -99999 -99999 -99999 -99999 -99999 -99999 -99999 -99999 -99999 -99999 -99999 -99999 -99999 -99999 -99999 -99999 -99999 -99999 -99999 -99999 -99999 -99999 -99999 -99999 -99999 -99999 -99999 -99999 -99999 -99999 -99999 -99999 -99999 -99999 -99999 -99999 -99999 -99999 -1535.9512939453125 -1534.8438720703125 -1533.9752197265625 -1533.366943359375 -1533.0260009765625 -1533.0322265625 -1533.3896484375 -1534.103515625 -1535.1326904296875 -1536.4678955078125 -1538.17041015625 -1540.101318359375 -1542.2904052734375 -1544.727783203125 -1547.30859375 -1549.996337890625 -1552.7841796875 -1555.694580078125 -1558.66259765625 -1561.621337890625 -1564.5390625 -1567.4268798828125 -1570.301513671875 -1573.10498046875 -1575.759033203125 -1578.299560546875 -1580.742431640625 -1583.093994140625 -1585.1480712890625 -1587.115966796875 -1588.9427490234375 -1590.587158203125 -1592.0673828125 -1593.40771484375 -1594.6041259765625 -1595.66455078125 -1596.5867919921875 -1597.399658203125 -1598.119873046875 -1598.7464599609375 -1599.2908935546875 -1599.784912109375 -1600.23388671875 -1600.6488037109375 -1601.036865234375 -1601.413330078125 -1601.7847900390625 -1602.15966796875 -1602.5439453125 -1602.947509765625 -1603.3731689453125 -1603.8236083984375 -1604.301513671875 -1604.807373046875 -1605.350830078125 -1605.9259033203125 -1606.532470703125 -1607.16796875 -1607.8387451171875 -1608.54736328125 -1609.2850341796875 -1610.059326171875 -1610.857177734375 -1611.689208984375 -1612.5517578125 -1613.4432373046875 -1614.3646240234375 -1615.315185546875 -1616.298095703125 -1617.3094482421875 -1618.35546875 -1619.435302734375 -1620.5478515625 -1621.6990966796875 -1622.8763427734375 -1624.086669921875 -1625.3421630859375 -1626.6356201171875 -1627.9686279296875 -1629.3536376953125 -1630.7601318359375 -1632.1959228515625 -1633.687255859375 -1635.223388671875 -1636.79541015625 -1638.38427734375 -1639.99267578125 -1641.6522216796875 -1643.3330078125 -1645.0274658203125 -1646.7025146484375 -1648.3460693359375 -1649.99755859375 -1651.5982666015625 -1653.145263671875 -1654.520263671875 -1655.767578125 -1656.8736572265625 -1657.7730712890625 -1658.4053955078125 -1658.692626953125 -1658.677490234375 -1658.3037109375 -1657.5743408203125 -1656.485595703125 -1655.1103515625 -1653.5006103515625 -1651.720703125 -1649.9351806640625 -1648.33447265625 -1647.0457763671875 -1646.1134033203125 -1645.599853515625 -1645.5302734375 -1646.075927734375 -1647.2198486328125 -1649.1297607421875 -1651.6488037109375 -1654.2462158203125 -1656.4970703125 -1657.9766845703125 -1659.1273193359375 -1660.1097412109375 -1660.9915771484375 -1661.780029296875 -1662.53173828125 -1663.2442626953125 -1663.90234375 -1664.5050048828125 -1665.045166015625 -1665.5384521484375 -1665.9825439453125 -1666.380126953125 -1666.7288818359375 -1667.028564453125 -99999 -99999 -99999 -99999 -99999 -99999 -99999 -99999 -99999 -99999 -99999 -99999 -99999 -99999 -99999 -99999 -99999 -99999 -99999 -99999 -99999 -99999 -99999 -99999 -99999
 -99999 -99999 -99999 -99999 -99999 -99999 -99999 -99999 -99999 -99999 -99999 -99999 -99999 -99999 -99999 -99999 -99999 -99999 -99999 -99999 -99999 -99999 -99999 -99999 -99999 -99999 -99999 -99999 -99999 -99999 -99999 -99999 -99999 -99999 -99999 -99999 -99999 -99999 -1537.248046875 -1535.7628173828125 -1534.614013671875 -1533.6365966796875 -1532.9698486328125 -1532.6717529296875 -1532.74755859375 -1533.1787109375 -1533.9742431640625 -1535.232666015625 -1536.7967529296875 -1538.718994140625 -1540.9764404296875 -1543.4454345703125 -1546.1119384765625 -1548.94775390625 -1551.9896240234375 -1555.1300048828125 -1558.2989501953125 -1561.5196533203125 -1564.717529296875 -1567.9752197265625 -1571.15185546875 -1574.228271484375 -1577.22314453125 -1580.151123046875 -1582.947265625 -1585.497314453125 -1587.9576416015625 -1590.245361328125 -1592.3250732421875 -1594.239501953125 -1595.9888916015625 -1597.5638427734375 -1598.9541015625 -1600.17333984375 -1601.25390625 -1602.213623046875 -1603.0362548828125 -1603.7412109375 -1604.3602294921875 -1604.9051513671875 -1605.3922119140625 -1605.8226318359375 -1606.22021484375 -1606.5982666015625 -1606.9658203125 -1607.3297119140625 -1607.7020263671875 -1608.0908203125 -1608.4991455078125 -1608.9305419921875 -1609.393310546875 -1609.892333984375 -1610.42529296875 -1610.987060546875 -1611.5809326171875 -1612.2137451171875 -1612.8828125 -1613.581787109375 -1614.310546875 -1615.068359375 -1615.8616943359375 -1616.683349609375 -1617.5308837890625 -1618.404052734375 -1619.3026123046875 -1620.23095703125 -1621.1842041015625 -1622.1712646484375 -1623.1827392578125 -1624.211669921875 -1625.2684326171875 -1626.35302734375 -1627.46484375 -1628.612548828125 -1629.799560546875 -1631.0045166015625 -1632.2427978515625 -1633.5084228515625 -1634.80810546875 -1636.1507568359375 -1637.5244140625 -1638.928466796875 -1640.3446044921875 -1641.79736328125 -1643.28662109375 -1644.79443359375 -1646.3106689453125 -1647.822021484375 -1649.3436279296875 -1650.8660888671875 -1652.358642578125 -1653.81787109375 -1655.17138671875 -1656.47021484375 -1657.66845703125 -1658.736328125 -1659.6160888671875 -1660.2603759765625 -1660.6875 -1660.8582763671875 -1660.7525634765625 -1660.3284912109375 -1659.610595703125 -1658.590576171875 -1657.346923828125 -1655.933837890625 -1654.4732666015625 -1653.05419921875 -1651.743896484375 -1650.6871337890625 -1649.9482421875 -1649.696044921875 -1649.90625 -1650.6468505859375 -1651.940673828125 -1653.8380126953125 -1656.259521484375 -1658.9423828125 -1660.975341796875 -1662.248291015625 -1662.9647216796875 -1663.634521484375 -1664.3526611328125 -1665.060546875 -1665.7435302734375 -1666.3902587890625 -1666.9908447265625 -1667.5521240234375 -1668.0689697265625 -1668.5474853515625 -1669.0081787109375 -1669.3837890625 -1669.70556640625 -1669.9998779296875 -1670.314453125 -99999 -99999 -99999 -99999 -99999 -99999 -99999 -99999 -99999 -99999 -99999 -99999 -99999 -99999 -99999 -99999 -99999 -99999 -99999 -99999 -99999 -99999 -99999 -99999
 -99999 -99999 -99999 -99999 -99999 -99999 -99999 -99999 -99999 -99999 -99999 -99999 -99999 -99999 -99999 -99999 -99999 -99999 -99999 -99999 -99999 -99999 -99999 -99999 -99999 -99999 -99999 -99999 -99999 -99999 -99999 -99999 -99999 -99999 -99999 -99999 -99999 -1538.3209228515625 -1536.52197265625 -1535.1004638671875 -1533.791748046875 -1532.8055419921875 -1532.136962890625 -1531.8204345703125 -1531.9012451171875 -1532.502197265625 -1533.540771484375 -1534.947509765625 -1536.7490234375 -1538.9979248046875 -1541.485107421875 -1544.2298583984375 -1547.281982421875 -1550.4716796875 -1553.7861328125 -1557.197021484375 -1560.7025146484375 -1564.2557373046875 -1567.761962890625 -1571.2454833984375 -1574.6783447265625 -1578.0509033203125 -1581.360595703125 -1584.4237060546875 -1587.4248046875 -1590.1986083984375 -1592.8048095703125 -1595.233642578125 -1597.4796142578125 -1599.5194091796875 -1601.3125 -1602.9400634765625 -1604.3924560546875 -1605.66650390625 -1606.7647705078125 -1607.7020263671875 -1608.5181884765625 -1609.2265625 -1609.8382568359375 -1610.3553466796875 -1610.8160400390625 -1611.231689453125 -1611.6156005859375 -1611.976806640625 -1612.330810546875 -1612.6907958984375 -1613.062255859375 -1613.4508056640625 -1613.86572265625 -1614.314697265625 -1614.79541015625 -1615.308837890625 -1615.8558349609375 -1616.4462890625 -1617.073974609375 -1617.734375 -1618.4266357421875 -1619.1497802734375 -1619.912841796875 -1620.7021484375 -1621.5172119140625 -1622.3607177734375 -1623.2403564453125 -1624.1314697265625 -1625.0308837890625 -1625.9632568359375 -1626.927490234375 -1627.904052734375 -1628.9012451171875 -1629.9215087890625 -1630.96044921875 -1632.02490234375 -1633.1116943359375 -1634.2232666015625 -1635.3577880859375 -1636.5111083984375 -1637.7000732421875 -1638.9134521484375 -1640.1513671875 -1641.4134521484375 -1642.6895751953125 -1644.004150390625 -1645.333984375 -1646.692138671875 -1648.0638427734375 -1649.4256591796875 -1650.811279296875 -1652.1988525390625 -1653.577880859375 -1654.9237060546875 -1656.2257080078125 -1657.4927978515625 -1658.695068359375 -1659.8162841796875 -1660.8035888671875 -1661.6456298828125 -1662.3353271484375 -1662.844970703125 -1663.154541015625 -1663.2047119140625 -1662.9912109375 -1662.5352783203125 -1661.8489990234375 -1660.9495849609375 -1659.8868408203125 -1658.6746826171875 -1657.43798828125 -1656.2493896484375 -1655.183837890625 -1654.4215087890625 -1653.96435546875 -1653.8775634765625 -1654.201904296875 -1654.9892578125 -1656.3443603515625 -1658.2059326171875 -1660.424072265625 -1662.786865234375 -1664.775390625 -1665.663330078125 -1666.278076171875 -1666.8837890625 -1667.5147705078125 -1668.15478515625 -1668.828369140625 -1669.4481201171875 -1669.9998779296875 -1670.603271484375 -1671.0968017578125 -1671.5455322265625 -1671.8836669921875 -1672.271484375 -1672.5950927734375 -1672.8524169921875 -1673.105712890625 -99999 -99999 -99999 -99999 -99999 -99999 -99999 -99999 -99999 -99999 -99999 -99999 -99999 -99999 -99999 -99999 -99999 -99999 -99999 -99999 -99999 -99999 -99999 -99999
 -99999 -99999 -99999 -99999 -99999 -99999 -99999 -99999 -99999 -99999 -99999 -99999 -99999 -99999 -99999 -99999 -99999 -99999 -99999 -99999 -99999 -99999 -99999 -99999 -99999 -99999 -99999 -99999 -99999 -99999 -99999 -99999 -99999 -99999 -99999 -99999 -99999 -1537.184814453125 -1535.4395751953125 -1533.879638671875 -1532.515625 -1531.4296875 -1530.6966552734375 -1530.481689453125 -1530.7169189453125 -1531.4139404296875 -1532.57421875 -1534.25048828125 -1536.302001953125 -1538.85498046875 -1541.741943359375 -1544.8714599609375 -1548.2093505859375 -1551.71923828125 -1555.3826904296875 -1559.1517333984375 -1562.9761962890625 -1566.800537109375 -1570.6307373046875 -1574.4425048828125 -1578.1561279296875 -1581.8153076171875 -1585.2979736328125 -1588.6390380859375 -1591.822021484375 -1594.8302001953125 -1597.65087890625 -1600.2100830078125 -1602.54736328125 -1604.672607421875 -1606.5877685546875 -1608.29931640625 -1609.7515869140625 -1611.0263671875 -1612.1365966796875 -1613.0947265625 -1613.9031982421875 -1614.5711669921875 -1615.1478271484375 -1615.6480712890625 -1616.086181640625 -1616.470947265625 -1616.825927734375 -1617.169189453125 -1617.510009765625 -1617.857177734375 -1618.2237548828125 -1618.6190185546875 -1619.0438232421875 -1619.501220703125 -1619.99365234375 -1620.534423828125 -1621.1146240234375 -1621.731689453125 -1622.384765625 -1623.0731201171875 -1623.81787109375 -1624.5821533203125 -1625.3656005859375 -1626.1893310546875 -1627.032470703125 -1627.89599609375 -1628.7791748046875 -1629.68896484375 -1630.617431640625 -1631.5618896484375 -1632.5218505859375 -1633.49658203125 -1634.4901123046875 -1635.4996337890625 -1636.524169921875 -1637.5640869140625 -1638.6197509765625 -1639.695556640625 -1640.789794921875 -1641.9014892578125 -1643.03076171875 -1644.176025390625 -1645.33544921875 -1646.526123046875 -1647.73828125 -1648.9569091796875 -1650.1822509765625 -1651.4339599609375 -1652.690185546875 -1653.9471435546875 -1655.204345703125 -1656.4443359375 -1657.66943359375 -1658.865478515625 -1660.0225830078125 -1661.1298828125 -1662.1497802734375 -1663.0777587890625 -1663.899169921875 -1664.5977783203125 -1665.1571044921875 -1665.510498046875 -1665.670654296875 -1665.638671875 -1665.4097900390625 -1664.983154296875 -1664.3233642578125 -1663.5001220703125 -1662.5621337890625 -1661.55126953125 -1660.5220947265625 -1659.5775146484375 -1658.7813720703125 -1658.196533203125 -1657.875244140625 -1657.8895263671875 -1658.3714599609375 -1659.2459716796875 -1660.504150390625 -1662.114501953125 -1663.998779296875 -1665.9122314453125 -1667.4251708984375 -1668.464111328125 -1669.1610107421875 -1669.808349609375 -1670.4234619140625 -1671.0693359375 -1671.6927490234375 -1672.283203125 -1672.843505859375 -1673.370361328125 -1673.850830078125 -1674.2789306640625 -1674.66845703125 -1675.0252685546875 -1675.349609375 -1675.639404296875 -1675.89013671875 -1676.1065673828125 -99999 -99999 -99999 -99999 -99999 -99999 -99999 -99999 -99999 -99999 -99999 -99999 -99999 -99999 -99999 -99999 -99999 -99999 -99999 -99999 -99999 -99999 -99999
 -99999 -99999 -99999 -99999 -99999 -99999 -99999 -99999 -99999 -99999 -99999 -99999 -99999 -99999 -99999 -99999 -99999 -99999 -99999 -99999 -99999 -99999 -99999 -99999 -99999 -99999 -99999 -99999 -99999 -99999 -99999 -99999 -99999 -99999 -99999 -99999 -1537.6900634765625 -1535.53662109375 -1533.69775390625 -1532.0240478515625 -1530.626953125 -1529.5550537109375 -1528.8577880859375 -1528.60498046875 -1528.8541259765625 -1529.760498046875 -1531.2501220703125 -1533.2294921875 -1535.63037109375 -1538.4849853515625 -1541.7291259765625 -1545.2021484375 -1548.890625 -1552.802734375 -1556.8294677734375 -1560.9307861328125 -1565.0943603515625 -1569.24267578125 -1573.3973388671875 -1577.5020751953125 -1581.569580078125 -1585.429931640625 -1589.206298828125 -1592.8310546875 -1596.2327880859375 -1599.4163818359375 -1602.37939453125 -1605.1142578125 -1607.6143798828125 -1609.8267822265625 -1611.7803955078125 -1613.5106201171875 -1615.0274658203125 -1616.3421630859375 -1617.431884765625 -1618.344970703125 -1619.1192626953125 -1619.77490234375 -1620.32421875 -1620.7752685546875 -1621.1651611328125 -1621.5166015625 -1621.8446044921875 -1622.1572265625 -1622.4853515625 -1622.8226318359375 -1623.1844482421875 -1623.576416015625 -1624.001953125 -1624.4945068359375 -1625.016845703125 -1625.5794677734375 -1626.1767578125 -1626.841796875 -1627.5306396484375 -1628.255615234375 -1629.0081787109375 -1629.8074951171875 -1630.63671875 -1631.4901123046875 -1632.3641357421875 -1633.2625732421875 -1634.17919921875 -1635.10986328125 -1636.0531005859375 -1637.00732421875 -1637.9761962890625 -1638.95458984375 -1639.94189453125 -1640.9371337890625 -1641.9453125 -1642.9639892578125 -1643.99267578125 -1645.02978515625 -1646.078369140625 -1647.14306640625 -1648.2216796875 -1649.3040771484375 -1650.394287109375 -1651.5123291015625 -1652.640380859375 -1653.77099609375 -1654.9078369140625 -1656.0487060546875 -1657.191162109375 -1658.3388671875 -1659.4664306640625 -1660.5775146484375 -1661.66552734375 -1662.726318359375 -1663.7344970703125 -1664.67529296875 -1665.5457763671875 -1666.33349609375 -1667.0279541015625 -1667.568115234375 -1667.9696044921875 -1668.2242431640625 -1668.3251953125 -1668.2529296875 -1667.9696044921875 -1667.5267333984375 -1666.9437255859375 -1666.235595703125 -1665.4127197265625 -1664.5538330078125 -1663.71875 -1662.9547119140625 -1662.31005859375 -1661.8751220703125 -1661.7376708984375 -1661.8870849609375 -1662.343017578125 -1663.117431640625 -1664.2916259765625 -1665.7174072265625 -1667.259033203125 -1668.78564453125 -1670.126220703125 -1671.072998046875 -1671.806884765625 -1672.437744140625 -1673.0992431640625 -1673.76123046875 -1674.4095458984375 -1675.0294189453125 -1675.597412109375 -1676.10986328125 -1676.57470703125 -1676.9967041015625 -1677.381591796875 -1677.7279052734375 -1678.0440673828125 -1678.3343505859375 -1678.5977783203125 -1678.831298828125 -99999 -99999 -99999 -99999 -99999 -99999 -99999 -99999 -99999 -99999 -99999 -99999 -99999 -99999 -99999 -99999 -99999 -99999 -99999 -99999 -99999 -99999 -99999
 -99999 -99999 -99999 -99999 -99999 -99999 -99999 -99999 -99999 -99999 -99999 -99999 -99999 -99999 -99999 -99999 -99999 -99999 -99999 -99999 -99999 -99999 -99999 -99999 -99999 -99999 -99999 -99999 -99999 -99999 -99999 -99999 -99999 -99999 -99999 -1537.898681640625 -1535.263671875 -1533.1131591796875 -1531.3182373046875 -1529.7652587890625 -1528.350341796875 -1527.1571044921875 -1526.39404296875 -1526.208740234375 -1526.66455078125 -1527.75 -1529.44873046875 -1531.704833984375 -1534.53955078125 -1537.817138671875 -1541.43017578125 -1545.3572998046875 -1549.4801025390625 -1553.7686767578125 -1558.099365234375 -1562.5631103515625 -1567.0841064453125 -1571.605712890625 -1576.094482421875 -1580.5257568359375 -1584.8436279296875 -1589.0498046875 -1593.061767578125 -1596.9215087890625 -1600.568115234375 -1604.003173828125 -1607.15283203125 -1609.997802734375 -1612.5791015625 -1614.896728515625 -1616.953857421875 -1618.73193359375 -1620.237060546875 -1621.5216064453125 -1622.6312255859375 -1623.527099609375 -1624.249267578125 -1624.8792724609375 -1625.357666015625 -1625.75634765625 -1626.0789794921875 -1626.381103515625 -1626.681640625 -1626.9613037109375 -1627.2593994140625 -1627.58251953125 -1627.9381103515625 -1628.331787109375 -1628.76953125 -1629.2398681640625 -1629.783447265625 -1630.379638671875 -1631.0224609375 -1631.70703125 -1632.444580078125 -1633.2235107421875 -1634.035888671875 -1634.8785400390625 -1635.7413330078125 -1636.6395263671875 -1637.556640625 -1638.4886474609375 -1639.4322509765625 -1640.38330078125 -1641.349365234375 -1642.3194580078125 -1643.295166015625 -1644.275390625 -1645.2603759765625 -1646.2476806640625 -1647.23828125 -1648.2322998046875 -1649.2296142578125 -1650.231689453125 -1651.2401123046875 -1652.2547607421875 -1653.2706298828125 -1654.300537109375 -1655.3359375 -1656.369873046875 -1657.4072265625 -1658.4468994140625 -1659.5028076171875 -1660.5478515625 -1661.5809326171875 -1662.6038818359375 -1663.6129150390625 -1664.6224365234375 -1665.5777587890625 -1666.4921875 -1667.3594970703125 -1668.1759033203125 -1668.922607421875 -1669.5638427734375 -1670.0985107421875 -1670.52978515625 -1670.86328125 -1671.025390625 -1671.0404052734375 -1670.89453125 -1670.6278076171875 -1670.23193359375 -1669.678466796875 -1669.0318603515625 -1668.3468017578125 -1667.6363525390625 -1666.9306640625 -1666.3070068359375 -1665.839599609375 -1665.544189453125 -1665.452392578125 -1665.621337890625 -1666.112548828125 -1666.8707275390625 -1667.86572265625 -1669.018310546875 -1670.3358154296875 -1671.6246337890625 -1672.7481689453125 -1673.6514892578125 -1674.369873046875 -1675.027587890625 -1675.6759033203125 -1676.3560791015625 -1677.02880859375 -1677.66357421875 -1678.2415771484375 -1678.7567138671875 -1679.2122802734375 -1679.615234375 -1679.9830322265625 -1680.3260498046875 -1680.647705078125 -1680.9439697265625 -1681.215576171875 -1681.461669921875 -1681.67724609375 -99999 -99999 -99999 -99999 -99999 -99999 -99999 -99999 -99999 -99999 -99999 -99999 -99999 -99999 -99999 -99999 -99999 -99999 -99999 -99999 -99999 -99999
 -99999 -99999 -99999 -99999 -99999 -99999 -99999 -99999 -99999 -99999 -99999 -99999 -99999 -99999 -99999 -99999 -99999 -99999 -99999 -99999 -99999 -99999 -99999 -99999 -99999 -99999 -99999 -99999 -99999 -99999 -99999 -99999 -99999 -99999 -1538.236083984375 -1534.844482421875 -1531.9208984375 -1530.0225830078125 -1528.619140625 -1527.1627197265625 -1525.7222900390625 -1524.4248046875 -1523.56689453125 -1523.33837890625 -1523.8846435546875 -1525.1546630859375 -1527.2989501953125 -1530.0599365234375 -1533.3348388671875 -1536.927490234375 -1541.09375 -1545.4034423828125 -1549.856689453125 -1554.5361328125 -1559.31298828125 -1564.17919921875 -1569.0233154296875 -1573.8218994140625 -1578.6502685546875 -1583.4139404296875 -1588.0386962890625 -1592.5635986328125 -1596.9215087890625 -1601.0650634765625 -1604.8970947265625 -1608.5096435546875 -1611.8358154296875 -1614.8726806640625 -1617.590576171875 -1619.9755859375 -1622.0621337890625 -1623.9146728515625 -1625.4324951171875 -1626.6680908203125 -1627.7098388671875 -1628.5423583984375 -1629.221923828125 -1629.7294921875 -1630.1348876953125 -1630.468017578125 -1630.7498779296875 -1631.007568359375 -1631.244873046875 -1631.4876708984375 -1631.75439453125 -1632.05908203125 -1632.4088134765625 -1632.811279296875 -1633.27099609375 -1633.7867431640625 -1634.3590087890625 -1634.983154296875 -1635.674560546875 -1636.416015625 -1637.2015380859375 -1638.0220947265625 -1638.875732421875 -1639.775390625 -1640.698486328125 -1641.64111328125 -1642.591796875 -1643.5567626953125 -1644.5382080078125 -1645.5252685546875 -1646.5126953125 -1647.4979248046875 -1648.4835205078125 -1649.467041015625 -1650.445556640625 -1651.41845703125 -1652.402099609375 -1653.375244140625 -1654.343017578125 -1655.3076171875 -1656.2725830078125 -1657.2454833984375 -1658.21044921875 -1659.1708984375 -1660.1298828125 -1661.094482421875 -1662.0692138671875 -1663.0247802734375 -1663.972412109375 -1664.912109375 -1665.85693359375 -1666.790771484375 -1667.684326171875 -1668.5462646484375 -1669.3858642578125 -1670.1922607421875 -1670.9395751953125 -1671.648681640625 -1672.25439453125 -1672.7855224609375 -1673.212646484375 -1673.5443115234375 -1673.77197265625 -1673.880126953125 -1673.8385009765625 -1673.67724609375 -1673.4056396484375 -1673.0140380859375 -1672.50146484375 -1671.9346923828125 -1671.32861328125 -1670.693115234375 -1670.115966796875 -1669.6273193359375 -1669.2657470703125 -1669.046142578125 -1669.0101318359375 -1669.22314453125 -1669.6590576171875 -1670.33935546875 -1671.2060546875 -1672.2288818359375 -1673.3424072265625 -1674.4169921875 -1675.3721923828125 -1676.2178955078125 -1676.9468994140625 -1677.5899658203125 -1678.2178955078125 -1678.884033203125 -1679.5736083984375 -1680.232421875 -1680.8160400390625 -1681.31005859375 -1681.73779296875 -1682.12548828125 -1682.48583984375 -1682.8243408203125 -1683.1461181640625 -1683.455810546875 -1683.7510986328125 -1684.019287109375 -1684.256103515625 -1684.4578857421875 -99999 -99999 -99999 -99999 -99999 -99999 -99999 -99999 -99999 -99999 -99999 -99999 -99999 -99999 -99999 -99999 -99999 -99999 -99999 -99999 -99999
 -99999 -99999 -99999 -99999 -99999 -99999 -99999 -99999 -99999 -99999 -99999 -99999 -99999 -99999 -99999 -99999 -99999 -99999 -99999 -99999 -99999 -99999 -99999 -99999 -99999 -99999 -99999 -99999 -99999 -99999 -99999 -99999 -99999 -99999 -1534.78125 -1530.2320556640625 -1527.463623046875 -1526.290283203125 -1525.6656494140625 -1524.5811767578125 -1522.8253173828125 -1521.1937255859375 -1520.1964111328125 -1519.9149169921875 -1520.6787109375 -1522.365478515625 -1524.872802734375 -1528.021240234375 -1531.7559814453125 -1535.957275390625 -1540.49365234375 -1545.297607421875 -1550.2764892578125 -1555.362548828125 -1560.46142578125 -1565.5958251953125 -1570.84326171875 -1576.07568359375 -1581.2249755859375 -1586.296630859375 -1591.308837890625 -1596.0960693359375 -1600.6910400390625 -1605.0731201171875 -1609.236083984375 -1613.09912109375 -1616.5634765625 -1619.7236328125 -1622.5496826171875 -1625.107666015625 -1627.1640625 -1628.964599609375 -1630.4609375 -1631.67138671875 -1632.66357421875 -1633.4283447265625 -1634.0040283203125 -1634.4432373046875 -1634.78369140625 -1635.0504150390625 -1635.2493896484375 -1635.4239501953125 -1635.6025390625 -1635.8126220703125 -1636.0517578125 -1636.336669921875 -1636.679931640625 -1637.087646484375 -1637.5621337890625 -1638.09765625 -1638.7144775390625 -1639.3935546875 -1640.1290283203125 -1640.9129638671875 -1641.7467041015625 -1642.63818359375 -1643.561767578125 -1644.5084228515625 -1645.4752197265625 -1646.4686279296875 -1647.4815673828125 -1648.496826171875 -1649.5093994140625 -1650.5194091796875 -1651.5260009765625 -1652.5377197265625 -1653.5411376953125 -1654.5291748046875 -1655.5098876953125 -1656.4805908203125 -1657.439453125 -1658.3875732421875 -1659.331298828125 -1660.2694091796875 -1661.19189453125 -1662.1046142578125 -1663.010986328125 -1663.922607421875 -1664.8299560546875 -1665.714599609375 -1666.5963134765625 -1667.4710693359375 -1668.34228515625 -1669.1956787109375 -1670.034423828125 -1670.8466796875 -1671.6497802734375 -1672.4171142578125 -1673.129638671875 -1673.8223876953125 -1674.472412109375 -1675.03759765625 -1675.5323486328125 -1675.9586181640625 -1676.3096923828125 -1676.569091796875 -1676.69921875 -1676.73291015625 -1676.6656494140625 -1676.4888916015625 -1676.208984375 -1675.8348388671875 -1675.39697265625 -1674.899658203125 -1674.3660888671875 -1673.8402099609375 -1673.371826171875 -1672.966552734375 -1672.6688232421875 -1672.5142822265625 -1672.5465087890625 -1672.7601318359375 -1673.1458740234375 -1673.730712890625 -1674.4842529296875 -1675.3408203125 -1676.235107421875 -1677.1351318359375 -1678.0079345703125 -1678.7916259765625 -1679.479248046875 -1680.1207275390625 -1680.7442626953125 -1681.3924560546875 -1682.0704345703125 -1682.744384765625 -1683.312255859375 -1683.7691650390625 -1684.1685791015625 -1684.531494140625 -1684.87451171875 -1685.2138671875 -1685.5482177734375 -1685.872314453125 -1686.1861572265625 -1686.48828125 -1686.767578125 -1687.0045166015625 -99999 -99999 -99999 -99999 -99999 -99999 -99999 -99999 -99999 -99999 -99999 -99999 -99999 -99999 -99999 -99999 -99999 -99999 -99999 -99999 -99999
 -99999 -99999 -99999 -99999 -99999 -99999 -99999 -99999 -99999 -99999 -99999 -99999 -99999 -99999 -99999 -99999 -99999 -99999 -99999 -99999 -99999 -99999 -99999 -99999 -99999 -99999 -99999 -99999 -99999 -99999 -99999 -99999 -99999 -99999 -1529.3140869140625 -1524.1512451171875 -1520.7352294921875 -1522.7071533203125 -1523.6761474609375 -1522.1331787109375 -1519.876953125 -1517.579345703125 -1516.236572265625 -1516.01318359375 -1516.9979248046875 -1519.006591796875 -1522.0428466796875 -1525.93359375 -1530.3109130859375 -1534.9688720703125 -1540.076416015625 -1545.264892578125 -1550.5753173828125 -1556.002685546875 -1561.5350341796875 -1567.141357421875 -1572.66162109375 -1578.158935546875 -1583.7091064453125 -1589.103515625 -1594.3837890625 -1599.5833740234375 -1604.5455322265625 -1609.2056884765625 -1613.5467529296875 -1617.5977783203125 -1621.298828125 -1624.685791015625 -1627.547119140625 -1630.0782470703125 -1632.20361328125 -1633.989990234375 -1635.4730224609375 -1636.6298828125 -1637.5147705078125 -1638.1787109375 -1638.672119140625 -1639.027099609375 -1639.240478515625 -1639.38330078125 -1639.5048828125 -1639.6185302734375 -1639.739501953125 -1639.8848876953125 -1640.0836181640625 -1640.3590087890625 -1640.69873046875 -1641.10986328125 -1641.6114501953125 -1642.191650390625 -1642.8455810546875 -1643.564697265625 -1644.353515625 -1645.2061767578125 -1646.124267578125 -1647.068603515625 -1648.050537109375 -1649.064453125 -1650.106689453125 -1651.1600341796875 -1652.2060546875 -1653.2681884765625 -1654.3299560546875 -1655.3868408203125 -1656.4276123046875 -1657.4534912109375 -1658.4676513671875 -1659.46728515625 -1660.4486083984375 -1661.4111328125 -1662.35888671875 -1663.292724609375 -1664.203125 -1665.096923828125 -1665.9820556640625 -1666.8604736328125 -1667.7269287109375 -1668.5797119140625 -1669.3990478515625 -1670.2147216796875 -1671.023681640625 -1671.8199462890625 -1672.6165771484375 -1673.3765869140625 -1674.111572265625 -1674.8170166015625 -1675.5140380859375 -1676.18505859375 -1676.821533203125 -1677.387939453125 -1677.9058837890625 -1678.3831787109375 -1678.7991943359375 -1679.1431884765625 -1679.384765625 -1679.55029296875 -1679.6329345703125 -1679.6259765625 -1679.523193359375 -1679.32421875 -1679.0496826171875 -1678.69677734375 -1678.2872314453125 -1677.841552734375 -1677.3912353515625 -1676.9490966796875 -1676.5413818359375 -1676.20166015625 -1675.972412109375 -1675.869384765625 -1675.9066162109375 -1676.1048583984375 -1676.4581298828125 -1676.95849609375 -1677.56884765625 -1678.2933349609375 -1679.0770263671875 -1679.867919921875 -1680.607666015625 -1681.309814453125 -1681.9739990234375 -1682.604736328125 -1683.2252197265625 -1683.86376953125 -1684.543701171875 -1685.2230224609375 -1685.763427734375 -1686.1431884765625 -1686.47265625 -1686.8092041015625 -1687.1502685546875 -1687.4925537109375 -1687.8394775390625 -1688.194091796875 -1688.545654296875 -1688.8787841796875 -1689.1903076171875 -1689.472900390625 -1689.7109375 -99999 -99999 -99999 -99999 -99999 -99999 -99999 -99999 -99999 -99999 -99999 -99999 -99999 -99999 -99999 -99999 -99999 -99999 -99999 -99999
 -99999 -99999 -99999 -99999 -99999 -99999 -99999 -99999 -99999 -99999 -99999 -99999 -99999 -99999 -99999 -99999 -99999 -99999 -99999 -99999 -99999 -99999 -99999 -99999 -99999 -99999 -99999 -99999 -99999 -99999 -99999 -99999 -99999 -99999 -1523.2042236328125 -1517.12646484375 -1516.0877685546875 -1520.053955078125 -1522.923583984375 -1520.4658203125 -1515.9818115234375 -1513.3089599609375 -1511.77880859375 -1511.4947509765625 -1512.741455078125 -1515.5145263671875 -1519.298095703125 -1523.72119140625 -1528.645263671875 -1534.000244140625 -1539.512939453125 -1545.1802978515625 -1550.997802734375 -1556.8048095703125 -1562.6473388671875 -1568.4967041015625 -1574.3941650390625 -1580.3214111328125 -1586.0927734375 -1591.91455078125 -1597.5653076171875 -1603.0162353515625 -1608.2698974609375 -1613.2598876953125 -1617.9501953125 -1622.2159423828125 -1626.11376953125 -1629.54345703125 -1632.5028076171875 -1635.0794677734375 -1637.270751953125 -1639.0289306640625 -1640.406982421875 -1641.4659423828125 -1642.2662353515625 -1642.8399658203125 -1643.1669921875 -1643.36328125 -1643.47412109375 -1643.5247802734375 -1643.5386962890625 -1643.5380859375 -1643.5885009765625 -1643.6953125 -1643.8629150390625 -1644.1055908203125 -1644.4443359375 -1644.8843994140625 -1645.4029541015625 -1646.0032958984375 -1646.7266845703125 -1647.522216796875 -1648.384521484375 -1649.307373046875 -1650.27294921875 -1651.2999267578125 -1652.3704833984375 -1653.458251953125 -1654.5587158203125 -1655.67041015625 -1656.7977294921875 -1657.918701171875 -1659.0203857421875 -1660.1104736328125 -1661.1859130859375 -1662.2454833984375 -1663.27783203125 -1664.28369140625 -1665.267822265625 -1666.2294921875 -1667.1734619140625 -1668.0811767578125 -1668.963134765625 -1669.8314208984375 -1670.679443359375 -1671.5062255859375 -1672.3062744140625 -1673.08544921875 -1673.851806640625 -1674.6068115234375 -1675.3428955078125 -1676.06689453125 -1676.7528076171875 -1677.424560546875 -1678.082763671875 -1678.7171630859375 -1679.322509765625 -1679.871337890625 -1680.39453125 -1680.8818359375 -1681.322998046875 -1681.70556640625 -1682.0093994140625 -1682.2587890625 -1682.44140625 -1682.5516357421875 -1682.5772705078125 -1682.51708984375 -1682.3809814453125 -1682.17333984375 -1681.9002685546875 -1681.568603515625 -1681.1978759765625 -1680.7945556640625 -1680.3873291015625 -1679.99462890625 -1679.6529541015625 -1679.3780517578125 -1679.1905517578125 -1679.1077880859375 -1679.1424560546875 -1679.3134765625 -1679.6143798828125 -1680.048095703125 -1680.5809326171875 -1681.1907958984375 -1681.8275146484375 -1682.4962158203125 -1683.1644287109375 -1683.80859375 -1684.424560546875 -1685.0194091796875 -1685.6240234375 -1686.2535400390625 -1686.9190673828125 -1687.5933837890625 -1688.0396728515625 -1688.341064453125 -1688.645263671875 -1688.96630859375 -1689.305419921875 -1689.665283203125 -1690.0372314453125 -1690.4173583984375 -1690.801025390625 -1691.1876220703125 -1691.5599365234375 -1691.8843994140625 -1692.161865234375 -99999 -99999 -99999 -99999 -99999 -99999 -99999 -99999 -99999 -99999 -99999 -99999 -99999 -99999 -99999 -99999 -99999 -99999 -99999 -99999
 -99999 -99999 -99999 -99999 -99999 -99999 -99999 -99999 -99999 -99999 -99999 -99999 -99999 -99999 -99999 -99999 -99999 -99999 -99999 -99999 -99999 -99999 -99999 -99999 -99999 -99999 -99999 -99999 -99999 -99999 -99999 -99999 -99999 -99999 -1518.3851318359375 -1514.983154296875 -1515.3829345703125 -1522.233642578125 -1523.54443359375 -1517.363525390625 -1511.409423828125 -1508.181396484375 -1506.448486328125 -1506.46630859375 -1508.384033203125 -1511.7781982421875 -1516.2774658203125 -1521.698486328125 -1527.370849609375 -1533.2220458984375 -1539.23779296875 -1545.3240966796875 -1551.4246826171875 -1557.5531005859375 -1563.75244140625 -1569.954833984375 -1576.1341552734375 -1582.3406982421875 -1588.53466796875 -1594.6387939453125 -1600.630615234375 -1606.48681640625 -1612.13232421875 -1617.3826904296875 -1622.292724609375 -1626.8555908203125 -1630.858642578125 -1634.4425048828125 -1637.5828857421875 -1640.1866455078125 -1642.279052734375 -1643.9622802734375 -1645.302734375 -1646.2640380859375 -1646.8831787109375 -1647.2679443359375 -1647.4730224609375 -1647.5313720703125 -1647.4976806640625 -1647.37646484375 -1647.2752685546875 -1647.1971435546875 -1647.1627197265625 -1647.1937255859375 -1647.3316650390625 -1647.5787353515625 -1647.9278564453125 -1648.3690185546875 -1648.9287109375 -1649.608154296875 -1650.376708984375 -1651.22802734375 -1652.1571044921875 -1653.175537109375 -1654.2462158203125 -1655.3555908203125 -1656.4976806640625 -1657.6644287109375 -1658.865234375 -1660.0528564453125 -1661.2366943359375 -1662.4117431640625 -1663.573974609375 -1664.7200927734375 -1665.8284912109375 -1666.9105224609375 -1667.9669189453125 -1669.00439453125 -1669.9964599609375 -1670.942138671875 -1671.8607177734375 -1672.7529296875 -1673.6104736328125 -1674.440673828125 -1675.2489013671875 -1676.01953125 -1676.768798828125 -1677.499267578125 -1678.2091064453125 -1678.8975830078125 -1679.5489501953125 -1680.189697265625 -1680.809326171875 -1681.4068603515625 -1681.9755859375 -1682.5040283203125 -1683.0125732421875 -1683.4886474609375 -1683.92919921875 -1684.320068359375 -1684.6563720703125 -1684.94921875 -1685.188720703125 -1685.371337890625 -1685.4803466796875 -1685.5185546875 -1685.4930419921875 -1685.4029541015625 -1685.249755859375 -1685.029541015625 -1684.751708984375 -1684.4320068359375 -1684.0826416015625 -1683.7152099609375 -1683.3548583984375 -1683.0123291015625 -1682.7109375 -1682.4664306640625 -1682.2938232421875 -1682.2261962890625 -1682.269775390625 -1682.4180908203125 -1682.6695556640625 -1683.018798828125 -1683.4530029296875 -1683.9688720703125 -1684.5240478515625 -1685.1004638671875 -1685.6763916015625 -1686.242431640625 -1686.8076171875 -1687.3687744140625 -1687.9345703125 -1688.5108642578125 -1689.097412109375 -1689.6484375 -1690.060791015625 -1690.3592529296875 -1690.6700439453125 -1691.000732421875 -1691.353515625 -1691.7265625 -1692.12451171875 -1692.5521240234375 -1692.9864501953125 -1693.4219970703125 -1693.8389892578125 -1694.2314453125 -1694.58154296875 -1694.8350830078125 -99999 -99999 -99999 -99999 -99999 -99999 -99999 -99999 -99999 -99999 -99999 -99999 -99999 -99999 -99999 -99999 -99999 -99999 -99999
 -99999 -99999 -99999 -99999 -99999 -99999 -99999 -99999 -99999 -99999 -99999 -99999 -99999 -99999 -99999 -99999 -99999 -99999 -99999 -99999 -99999 -99999 -99999 -99999 -99999 -99999 -99999 -99999 -99999 -99999 -99999 -99999 -99999 -99999 -1514.837158203125 -1513.9608154296875 -1515.784912109375 -1519.7320556640625 -1518.331298828125 -1508.798095703125 -1505.021484375 -1502.9578857421875 -1501.165771484375 -1500.6571044921875 -1503.24755859375 -1508.209716796875 -1513.87841796875 -1519.96044921875 -1526.2867431640625 -1532.713623046875 -1539.175048828125 -1545.589111328125 -1552.03076171875 -1558.4505615234375 -1564.8983154296875 -1571.344970703125 -1577.8255615234375 -1584.3428955078125 -1590.8682861328125 -1597.3834228515625 -1603.7593994140625 -1609.95703125 -1615.9112548828125 -1621.5831298828125 -1626.8321533203125 -1631.52392578125 -1635.8345947265625 -1639.4832763671875 -1642.6002197265625 -1645.20068359375 -1647.34765625 -1648.9833984375 -1650.0980224609375 -1650.8729248046875 -1651.349365234375 -1651.57666015625 -1651.577392578125 -1651.4322509765625 -1651.221435546875 -1650.9788818359375 -1650.737548828125 -1650.533935546875 -1650.4271240234375 -1650.414794921875 -1650.5084228515625 -1650.7171630859375 -1651.073974609375 -1651.5697021484375 -1652.1839599609375 -1652.910400390625 -1653.74169921875 -1654.6978759765625 -1655.7344970703125 -1656.8380126953125 -1657.998291015625 -1659.20654296875 -1660.46044921875 -1661.7257080078125 -1662.9989013671875 -1664.2720947265625 -1665.541259765625 -1666.785888671875 -1668.01025390625 -1669.2110595703125 -1670.36962890625 -1671.4805908203125 -1672.5562744140625 -1673.5875244140625 -1674.5787353515625 -1675.527099609375 -1676.4373779296875 -1677.3118896484375 -1678.1505126953125 -1678.943115234375 -1679.7047119140625 -1680.4364013671875 -1681.1396484375 -1681.8121337890625 -1682.4525146484375 -1683.06884765625 -1683.660888671875 -1684.22900390625 -1684.766357421875 -1685.2763671875 -1685.759765625 -1686.2152099609375 -1686.64111328125 -1687.0252685546875 -1687.371337890625 -1687.67822265625 -1687.943115234375 -1688.163330078125 -1688.322021484375 -1688.42529296875 -1688.474609375 -1688.4688720703125 -1688.407470703125 -1688.27685546875 -1688.091552734375 -1687.8599853515625 -1687.58740234375 -1687.2806396484375 -1686.9476318359375 -1686.607421875 -1686.2744140625 -1685.961181640625 -1685.682373046875 -1685.47021484375 -1685.3265380859375 -1685.2591552734375 -1685.274658203125 -1685.37890625 -1685.5960693359375 -1685.8909912109375 -1686.2537841796875 -1686.6732177734375 -1687.1328125 -1687.6260986328125 -1688.128173828125 -1688.6331787109375 -1689.13818359375 -1689.6400146484375 -1690.149658203125 -1690.66064453125 -1691.1595458984375 -1691.6220703125 -1691.9854736328125 -1692.290283203125 -1692.601318359375 -1692.935302734375 -1693.2978515625 -1693.70556640625 -1694.1416015625 -1694.6031494140625 -1695.08349609375 -1695.5782470703125 -1696.0692138671875 -1696.5230712890625 -1696.923095703125 -1697.25 -99999 -99999 -99999 -99999 -99999 -99999 -99999 -99999 -99999 -99999 -99999 -99999 -99999 -99999 -99999 -99999 -99999 -99999 -99999
 -99999 -99999 -99999 -99999 -99999 -99999 -99999 -99999 -99999 -99999 -99999 -99999 -99999 -99999 -99999 -99999 -99999 -99999 -99999 -99999 -99999 -99999 -99999 -99999 -99999 -99999 -99999 -99999 -99999 -99999 -99999 -99999 -99999 -1512.08642578125 -1511.1654052734375 -1510.9212646484375 -1511.4940185546875 -1512.4154052734375 -1508.47314453125 -1503.2191162109375 -1500.8009033203125 -1500.0369873046875 -1493.146240234375 -1494.1146240234375 -1499.0540771484375 -1505.3189697265625 -1512.0205078125 -1518.8843994140625 -1525.783935546875 -1532.5687255859375 -1539.388916015625 -1546.12060546875 -1552.7833251953125 -1559.420654296875 -1566.0584716796875 -1572.742919921875 -1579.438720703125 -1586.283203125 -1593.166015625 -1600.0355224609375 -1606.84033203125 -1613.5006103515625 -1619.8157958984375 -1625.878173828125 -1631.3741455078125 -1636.3343505859375 -1640.74267578125 -1644.564208984375 -1647.81689453125 -1650.4285888671875 -1652.3504638671875 -1653.81298828125 -1654.8253173828125 -1655.4422607421875 -1655.6773681640625 -1655.6328125 -1655.4139404296875 -1655.0721435546875 -1654.65673828125 -1654.23876953125 -1653.85205078125 -1653.5394287109375 -1653.3243408203125 -1653.2313232421875 -1653.3121337890625 -1653.54052734375 -1653.9150390625 -1654.433837890625 -1655.0936279296875 -1655.923828125 -1656.86767578125 -1657.9134521484375 -1659.04931640625 -1660.260498046875 -1661.5499267578125 -1662.87890625 -1664.23583984375 -1665.6109619140625 -1666.98388671875 -1668.3546142578125 -1669.711669921875 -1671.0411376953125 -1672.3115234375 -1673.5546875 -1674.76025390625 -1675.9150390625 -1677.0130615234375 -1678.0625 -1679.063720703125 -1680.01708984375 -1680.919921875 -1681.767333984375 -1682.5723876953125 -1683.3367919921875 -1684.0626220703125 -1684.7501220703125 -1685.394287109375 -1686.0068359375 -1686.5889892578125 -1687.14208984375 -1687.66650390625 -1688.154541015625 -1688.616455078125 -1689.05126953125 -1689.4581298828125 -1689.833740234375 -1690.170654296875 -1690.4749755859375 -1690.744873046875 -1690.979736328125 -1691.1649169921875 -1691.3028564453125 -1691.396728515625 -1691.4449462890625 -1691.446533203125 -1691.3837890625 -1691.2725830078125 -1691.115966796875 -1690.91650390625 -1690.675048828125 -1690.3924560546875 -1690.087890625 -1689.7696533203125 -1689.4462890625 -1689.1300048828125 -1688.84228515625 -1688.590576171875 -1688.384765625 -1688.2337646484375 -1688.1614990234375 -1688.1719970703125 -1688.255859375 -1688.411376953125 -1688.6356201171875 -1688.9395751953125 -1689.2904052734375 -1689.675537109375 -1690.087158203125 -1690.516357421875 -1690.959716796875 -1691.4027099609375 -1691.8463134765625 -1692.2950439453125 -1692.7403564453125 -1693.16455078125 -1693.5467529296875 -1693.884521484375 -1694.1903076171875 -1694.4735107421875 -1694.8048095703125 -1695.1810302734375 -1695.605224609375 -1696.07080078125 -1696.5716552734375 -1697.1112060546875 -1697.669921875 -1698.2310791015625 -1698.7735595703125 -1699.2509765625 -1699.629638671875 -1699.892822265625 -99999 -99999 -99999 -99999 -99999 -99999 -99999 -99999 -99999 -99999 -99999 -99999 -99999 -99999 -99999 -99999 -99999 -99999
 -99999 -99999 -99999 -99999 -99999 -99999 -99999 -99999 -99999 -99999 -99999 -99999 -99999 -99999 -99999 -99999 -99999 -99999 -99999 -99999 -99999 -99999 -99999 -99999 -99999 -99999 -99999 -99999 -99999 -99999 -99999 -99999 -99999 -1506.8924560546875 -1506.2958984375 -1505.947509765625 -1505.694091796875 -1504.38916015625 -1501.83154296875 -1498.1751708984375 -1497.4254150390625 -1491.8955078125 -1484.0458984375 -1488.6669921875 -1496.40673828125 -1503.9315185546875 -1511.3519287109375 -1518.6817626953125 -1525.93115234375 -1533.0361328125 -1540.0374755859375 -1546.933349609375 -1553.72021484375 -1560.478515625 -1567.2650146484375 -1574.1092529296875 -1581.043701171875 -1588.177978515625 -1595.4197998046875 -1602.608642578125 -1609.876220703125 -1616.9613037109375 -1623.8038330078125 -1630.128173828125 -1636.018310546875 -1641.330322265625 -1645.9774169921875 -1649.8607177734375 -1652.9873046875 -1655.5245361328125 -1657.4300537109375 -1658.75439453125 -1659.493408203125 -1659.793212890625 -1659.764404296875 -1659.473388671875 -1659.0230712890625 -1658.4117431640625 -1657.76123046875 -1657.1317138671875 -1656.56396484375 -1656.13671875 -1655.842041015625 -1655.7081298828125 -1655.7440185546875 -1655.9552001953125 -1656.361572265625 -1656.9674072265625 -1657.73095703125 -1658.640625 -1659.681396484375 -1660.8392333984375 -1662.1226806640625 -1663.480224609375 -1664.8966064453125 -1666.349853515625 -1667.8287353515625 -1669.34375 -1670.8370361328125 -1672.306884765625 -1673.7349853515625 -1675.140869140625 -1676.505859375 -1677.80322265625 -1679.0526123046875 -1680.2447509765625 -1681.3785400390625 -1682.450439453125 -1683.455078125 -1684.39794921875 -1685.2855224609375 -1686.119873046875 -1686.903076171875 -1687.633056640625 -1688.308349609375 -1688.94482421875 -1689.5418701171875 -1690.1048583984375 -1690.6259765625 -1691.1072998046875 -1691.5555419921875 -1691.9808349609375 -1692.376953125 -1692.733154296875 -1693.057373046875 -1693.3507080078125 -1693.6112060546875 -1693.8511962890625 -1694.0411376953125 -1694.190673828125 -1694.3033447265625 -1694.38037109375 -1694.4241943359375 -1694.40771484375 -1694.346435546875 -1694.2449951171875 -1694.104736328125 -1693.92431640625 -1693.6953125 -1693.4373779296875 -1693.156005859375 -1692.8538818359375 -1692.5390625 -1692.22705078125 -1691.9259033203125 -1691.6456298828125 -1691.3975830078125 -1691.199462890625 -1691.0574951171875 -1690.9722900390625 -1690.9473876953125 -1690.9970703125 -1691.120361328125 -1691.301025390625 -1691.5322265625 -1691.8079833984375 -1692.1331787109375 -1692.4832763671875 -1692.84765625 -1693.2205810546875 -1693.598876953125 -1693.9935302734375 -1694.384765625 -1694.765625 -1695.1309814453125 -1695.4761962890625 -1695.7908935546875 -1696.0751953125 -1696.35791015625 -1696.6568603515625 -1697.006591796875 -1697.45361328125 -1697.9501953125 -1698.4886474609375 -1699.0736083984375 -1699.69873046875 -1700.3392333984375 -1700.9681396484375 -1701.533935546875 -1702.0023193359375 -1702.3262939453125 -99999 -99999 -99999 -99999 -99999 -99999 -99999 -99999 -99999 -99999 -99999 -99999 -99999 -99999 -99999 -99999 -99999 -99999
 -99999 -99999 -99999 -99999 -99999 -99999 -99999 -99999 -99999 -99999 -99999 -99999 -99999 -99999 -99999 -99999 -99999 -99999 -99999 -99999 -99999 -99999 -99999 -99999 -99999 -99999 -99999 -99999 -99999 -99999 -99999 -99999 -99999 -1501.2447509765625 -1500.915771484375 -1500.4580078125 -1499.7720947265625 -1498.4755859375 -1496.20166015625 -1493.9307861328125 -1490.774658203125 -1485.4110107421875 -1484.2691650390625 -1488.4649658203125 -1496.415283203125 -1504.26953125 -1511.826416015625 -1519.280029296875 -1526.62451171875 -1533.829345703125 -1540.970703125 -1547.94873046875 -1554.8084716796875 -1561.612060546875 -1568.4427490234375 -1575.3792724609375 -1582.5413818359375 -1589.8687744140625 -1597.49755859375 -1605.2119140625 -1613.0001220703125 -1620.5516357421875 -1627.8387451171875 -1634.719482421875 -1640.893310546875 -1646.3922119140625 -1651.1885986328125 -1655.1904296875 -1658.4014892578125 -1660.8372802734375 -1662.4857177734375 -1663.5052490234375 -1663.99267578125 -1664.0345458984375 -1663.7440185546875 -1663.081787109375 -1662.2642822265625 -1661.3642578125 -1660.4854736328125 -1659.6685791015625 -1658.927001953125 -1658.339599609375 -1657.93017578125 -1657.746337890625 -1657.7723388671875 -1658.03173828125 -1658.49755859375 -1659.1607666015625 -1660.0069580078125 -1661.032958984375 -1662.2327880859375 -1663.55419921875 -1664.9776611328125 -1666.458251953125 -1668.0321044921875 -1669.67138671875 -1671.2777099609375 -1672.8936767578125 -1674.51513671875 -1676.1124267578125 -1677.6463623046875 -1679.1341552734375 -1680.5753173828125 -1681.953125 -1683.264404296875 -1684.4884033203125 -1685.64501953125 -1686.7293701171875 -1687.74462890625 -1688.6900634765625 -1689.567626953125 -1690.3795166015625 -1691.126220703125 -1691.8172607421875 -1692.4593505859375 -1693.05615234375 -1693.5960693359375 -1694.0892333984375 -1694.5416259765625 -1694.9625244140625 -1695.3551025390625 -1695.70751953125 -1696.0224609375 -1696.3048095703125 -1696.5635986328125 -1696.796875 -1696.9791259765625 -1697.130615234375 -1697.250732421875 -1697.3448486328125 -1697.4024658203125 -1697.40869140625 -1697.3795166015625 -1697.31494140625 -1697.2174072265625 -1697.076904296875 -1696.892578125 -1696.67724609375 -1696.4334716796875 -1696.1636962890625 -1695.8701171875 -1695.5628662109375 -1695.2513427734375 -1694.9420166015625 -1694.641357421875 -1694.3673095703125 -1694.12744140625 -1693.9246826171875 -1693.769287109375 -1693.672607421875 -1693.6343994140625 -1693.65087890625 -1693.7196044921875 -1693.849853515625 -1694.037109375 -1694.258544921875 -1694.5135498046875 -1694.7972412109375 -1695.1065673828125 -1695.4337158203125 -1695.759765625 -1696.0909423828125 -1696.423828125 -1696.76123046875 -1697.08642578125 -1697.3887939453125 -1697.6773681640625 -1697.9554443359375 -1698.2308349609375 -1698.52001953125 -1698.876220703125 -1699.30224609375 -1699.793212890625 -1700.3458251953125 -1700.96826171875 -1701.6712646484375 -1702.4217529296875 -1703.162353515625 -1703.809814453125 -1704.3426513671875 -1704.71044921875 -1704.8973388671875 -99999 -99999 -99999 -99999 -99999 -99999 -99999 -99999 -99999 -99999 -99999 -99999 -99999 -99999 -99999 -99999 -99999
 -99999 -99999 -99999 -99999 -99999 -99999 -99999 -99999 -99999 -99999 -99999 -99999 -99999 -99999 -99999 -99999 -99999 -99999 -99999 -99999 -99999 -99999 -99999 -99999 -99999 -99999 -99999 -99999 -99999 -99999 -99999 -99999 -99999 -1495.489501953125 -1495.31494140625 -1494.93603515625 -1494.3333740234375 -1493.256103515625 -1491.480712890625 -1489.5435791015625 -1487.4852294921875 -1485.562255859375 -1485.4293212890625 -1490.5623779296875 -1497.731201171875 -1505.4322509765625 -1512.95263671875 -1520.3758544921875 -1527.7469482421875 -1535.014892578125 -1542.1798095703125 -1549.1689453125 -1556.015869140625 -1562.772705078125 -1569.565185546875 -1576.521484375 -1583.8037109375 -1591.50830078125 -1599.516357421875 -1607.70458984375 -1615.9251708984375 -1624.1116943359375 -1631.9447021484375 -1639.2698974609375 -1645.9222412109375 -1651.807861328125 -1656.680419921875 -1660.741455078125 -1663.8118896484375 -1666.0697021484375 -1667.5731201171875 -1668.3404541015625 -1668.5238037109375 -1668.1055908203125 -1667.3150634765625 -1666.316650390625 -1665.2166748046875 -1664.0286865234375 -1662.81787109375 -1661.7142333984375 -1660.7977294921875 -1660.099365234375 -1659.6112060546875 -1659.38037109375 -1659.4034423828125 -1659.6923828125 -1660.21484375 -1660.9847412109375 -1661.9869384765625 -1663.1724853515625 -1664.50439453125 -1665.9586181640625 -1667.5606689453125 -1669.260009765625 -1670.99072265625 -1672.7628173828125 -1674.5625 -1676.3370361328125 -1678.0711669921875 -1679.780029296875 -1681.448974609375 -1683.0538330078125 -1684.567626953125 -1686.001220703125 -1687.36083984375 -1688.6361083984375 -1689.829345703125 -1690.9287109375 -1691.950439453125 -1692.8878173828125 -1693.747802734375 -1694.537109375 -1695.2537841796875 -1695.9140625 -1696.5087890625 -1697.0460205078125 -1697.5323486328125 -1697.9794921875 -1698.385986328125 -1698.7340087890625 -1699.0458984375 -1699.326416015625 -1699.5828857421875 -1699.8045654296875 -1699.97900390625 -1700.1239013671875 -1700.2440185546875 -1700.3404541015625 -1700.3990478515625 -1700.413818359375 -1700.3980712890625 -1700.35546875 -1700.2828369140625 -1700.168701171875 -1700.0150146484375 -1699.8319091796875 -1699.6219482421875 -1699.38427734375 -1699.1158447265625 -1698.826171875 -1698.52294921875 -1698.21142578125 -1697.89697265625 -1697.5875244140625 -1697.2918701171875 -1697.015625 -1696.7723388671875 -1696.5643310546875 -1696.4012451171875 -1696.28173828125 -1696.2105712890625 -1696.200927734375 -1696.2410888671875 -1696.3253173828125 -1696.4495849609375 -1696.6163330078125 -1696.8262939453125 -1697.0596923828125 -1697.30615234375 -1697.568359375 -1697.8485107421875 -1698.1416015625 -1698.4337158203125 -1698.72021484375 -1699.00439453125 -1699.2862548828125 -1699.560546875 -1699.8291015625 -1700.1058349609375 -1700.403564453125 -1700.74609375 -1701.158203125 -1701.6279296875 -1702.1690673828125 -1702.8179931640625 -1703.594970703125 -1704.4354248046875 -1705.30859375 -1706.0909423828125 -1706.7149658203125 -1707.112548828125 -1707.3135986328125 -1707.2664794921875 -99999 -99999 -99999 -99999 -99999 -99999 -99999 -99999 -99999 -99999 -99999 -99999 -99999 -99999 -99999 -99999
 -99999 -99999 -99999 -99999 -99999 -99999 -99999 -99999 -99999 -99999 -99999 -99999 -99999 -99999 -99999 -99999 -99999 -99999 -99999 -99999 -99999 -99999 -99999 -99999 -99999 -99999 -99999 -99999 -99999 -99999 -99999 -99999 -99999 -1489.614990234375 -1489.7647705078125 -1489.446533203125 -1489.047119140625 -1488.380859375 -1487.5997314453125 -1486.5213623046875 -1485.52392578125 -1485.3536376953125 -1487.6416015625 -1492.1512451171875 -1498.84765625 -1506.325927734375 -1514.0162353515625 -1521.5372314453125 -1528.98193359375 -1536.3065185546875 -1543.50439453125 -1550.5150146484375 -1557.2501220703125 -1563.84619140625 -1570.5704345703125 -1577.4835205078125 -1584.910888671875 -1592.8489990234375 -1601.260986328125 -1610.1060791015625 -1619.12451171875 -1627.8759765625 -1636.3973388671875 -1644.1763916015625 -1651.1351318359375 -1657.280029296875 -1662.34033203125 -1666.4359130859375 -1669.463134765625 -1671.4940185546875 -1672.6756591796875 -1672.9615478515625 -1672.759033203125 -1671.9312744140625 -1670.7532958984375 -1669.3507080078125 -1667.7132568359375 -1666.1156005859375 -1664.6710205078125 -1663.3575439453125 -1662.2266845703125 -1661.35400390625 -1660.789794921875 -1660.5458984375 -1660.575927734375 -1660.9259033203125 -1661.574951171875 -1662.4832763671875 -1663.6107177734375 -1664.9298095703125 -1666.4791259765625 -1668.178955078125 -1669.9610595703125 -1671.832763671875 -1673.78369140625 -1675.72314453125 -1677.6669921875 -1679.614501953125 -1681.5380859375 -1683.3890380859375 -1685.1505126953125 -1686.8414306640625 -1688.45703125 -1689.97607421875 -1691.3912353515625 -1692.70068359375 -1693.922119140625 -1695.0411376953125 -1696.0660400390625 -1696.9921875 -1697.8427734375 -1698.614501953125 -1699.2952880859375 -1699.907470703125 -1700.457275390625 -1700.9522705078125 -1701.3922119140625 -1701.765869140625 -1702.0946044921875 -1702.3902587890625 -1702.6494140625 -1702.8668212890625 -1703.03662109375 -1703.1763916015625 -1703.2957763671875 -1703.3858642578125 -1703.4375 -1703.450439453125 -1703.4383544921875 -1703.4046630859375 -1703.3416748046875 -1703.238525390625 -1703.101318359375 -1702.939697265625 -1702.753173828125 -1702.539306640625 -1702.291259765625 -1702.0201416015625 -1701.732177734375 -1701.4293212890625 -1701.1148681640625 -1700.7916259765625 -1700.4697265625 -1700.156494140625 -1699.857421875 -1699.5780029296875 -1699.3265380859375 -1699.10546875 -1698.9283447265625 -1698.793212890625 -1698.70166015625 -1698.6531982421875 -1698.646484375 -1698.69580078125 -1698.783935546875 -1698.90478515625 -1699.0513916015625 -1699.2265625 -1699.4342041015625 -1699.658447265625 -1699.8916015625 -1700.1319580078125 -1700.3836669921875 -1700.644775390625 -1700.9061279296875 -1701.1644287109375 -1701.425537109375 -1701.694091796875 -1701.9744873046875 -1702.2769775390625 -1702.6212158203125 -1703.0057373046875 -1703.445068359375 -1703.9638671875 -1704.59375 -1705.4591064453125 -1706.5006103515625 -1707.49951171875 -1708.3748779296875 -1709.07275390625 -1709.508056640625 -1709.6878662109375 -1709.6033935546875 -99999 -99999 -99999 -99999 -99999 -99999 -99999 -99999 -99999 -99999 -99999 -99999 -99999 -99999 -99999 -99999
 -99999 -99999 -99999 -99999 -99999 -99999 -99999 -99999 -99999 -99999 -99999 -99999 -99999 -99999 -99999 -99999 -99999 -99999 -99999 -99999 -99999 -99999 -99999 -99999 -99999 -99999 -99999 -99999 -99999 -99999 -99999 -99999 -99999 -1483.614013671875 -1484.007080078125 -1484.2655029296875 -1484.2928466796875 -1484.1484375 -1483.92919921875 -1483.8802490234375 -1484.48193359375 -1485.864501953125 -1488.7158203125 -1493.4041748046875 -1499.7618408203125 -1506.9681396484375 -1514.5997314453125 -1522.379638671875 -1530 -1537.4808349609375 -1544.865478515625 -1551.821533203125 -1558.4954833984375 -1564.8994140625 -1571.32861328125 -1578.1529541015625 -1585.655029296875 -1593.956787109375 -1602.944091796875 -1612.4036865234375 -1622.068603515625 -1631.7049560546875 -1640.797607421875 -1649.2440185546875 -1656.759033203125 -1663.0487060546875 -1668.3216552734375 -1672.3106689453125 -1674.9931640625 -1676.7655029296875 -1677.6458740234375 -1677.5067138671875 -1676.6767578125 -1675.384033203125 -1673.768798828125 -1671.860107421875 -1669.7969970703125 -1667.86328125 -1666.002197265625 -1664.3609619140625 -1663.09228515625 -1662.119384765625 -1661.4627685546875 -1661.1900634765625 -1661.2955322265625 -1661.7542724609375 -1662.505859375 -1663.531494140625 -1664.8909912109375 -1666.46728515625 -1668.2042236328125 -1670.0743408203125 -1672.1187744140625 -1674.209228515625 -1676.339599609375 -1678.5233154296875 -1680.7060546875 -1682.8089599609375 -1684.861572265625 -1686.850830078125 -1688.77392578125 -1690.587158203125 -1692.274658203125 -1693.860595703125 -1695.337646484375 -1696.701904296875 -1697.94677734375 -1699.0723876953125 -1700.1007080078125 -1701.0321044921875 -1701.85498046875 -1702.5865478515625 -1703.2379150390625 -1703.8179931640625 -1704.3245849609375 -1704.7528076171875 -1705.1268310546875 -1705.4525146484375 -1705.7320556640625 -1705.9586181640625 -1706.134033203125 -1706.28125 -1706.397216796875 -1706.4818115234375 -1706.524169921875 -1706.530517578125 -1706.52001953125 -1706.482666015625 -1706.4185791015625 -1706.314697265625 -1706.1829833984375 -1706.0328369140625 -1705.8570556640625 -1705.6561279296875 -1705.419677734375 -1705.1627197265625 -1704.888671875 -1704.5963134765625 -1704.2874755859375 -1703.9615478515625 -1703.6304931640625 -1703.298828125 -1702.9693603515625 -1702.64697265625 -1702.3380126953125 -1702.051025390625 -1701.7911376953125 -1701.560302734375 -1701.36279296875 -1701.200927734375 -1701.085205078125 -1701.01171875 -1700.977294921875 -1700.9791259765625 -1701.013671875 -1701.0941162109375 -1701.204345703125 -1701.340087890625 -1701.4937744140625 -1701.6656494140625 -1701.8648681640625 -1702.076416015625 -1702.2984619140625 -1702.526123046875 -1702.7646484375 -1703.0147705078125 -1703.2728271484375 -1703.5413818359375 -1703.8330078125 -1704.1505126953125 -1704.4993896484375 -1704.8824462890625 -1705.3028564453125 -1705.7598876953125 -1706.3663330078125 -1707.3465576171875 -1708.5233154296875 -1709.721435546875 -1710.7425537109375 -1711.4586181640625 -1711.882568359375 -1712.034423828125 -1711.8985595703125 -1711.4989013671875 -99999 -99999 -99999 -99999 -99999 -99999 -99999 -99999 -99999 -99999 -99999 -99999 -99999 -99999 -99999
 -99999 -99999 -99999 -99999 -99999 -99999 -99999 -99999 -99999 -99999 -99999 -99999 -99999 -99999 -99999 -99999 -99999 -99999 -99999 -99999 -99999 -99999 -99999 -99999 -99999 -99999 -99999 -99999 -99999 -99999 -99999 -99999 -99999 -1477.80908203125 -1478.5341796875 -1479.1370849609375 -1479.6488037109375 -1480.2073974609375 -1480.8916015625 -1481.8123779296875 -1483.2655029296875 -1485.5391845703125 -1489.165771484375 -1494.1175537109375 -1500.27880859375 -1507.3184814453125 -1514.9266357421875 -1522.716064453125 -1530.509033203125 -1538.3089599609375 -1545.9024658203125 -1553.229248046875 -1559.6029052734375 -1565.6201171875 -1571.886962890625 -1578.5589599609375 -1586.131591796875 -1594.7598876953125 -1604.1923828125 -1614.67822265625 -1625.244873046875 -1635.770263671875 -1645.7891845703125 -1654.62646484375 -1662.4608154296875 -1669.137939453125 -1674.271240234375 -1678.1669921875 -1680.9052734375 -1682.1990966796875 -1682.4189453125 -1681.8193359375 -1680.5299072265625 -1678.651123046875 -1676.27001953125 -1673.8148193359375 -1671.3834228515625 -1668.9180908203125 -1666.7625732421875 -1664.89453125 -1663.3502197265625 -1662.22314453125 -1661.594970703125 -1661.3636474609375 -1661.5146484375 -1662.04150390625 -1663.0118408203125 -1664.2969970703125 -1665.841064453125 -1667.6126708984375 -1669.6015625 -1671.746826171875 -1674.0350341796875 -1676.4207763671875 -1678.8111572265625 -1681.1915283203125 -1683.5496826171875 -1685.8653564453125 -1688.1405029296875 -1690.267822265625 -1692.3038330078125 -1694.225341796875 -1696.03173828125 -1697.7069091796875 -1699.2227783203125 -1700.6180419921875 -1701.8944091796875 -1703.0491943359375 -1704.0703125 -1704.9727783203125 -1705.7779541015625 -1706.490966796875 -1707.1070556640625 -1707.6279296875 -1708.0771484375 -1708.4620361328125 -1708.7874755859375 -1709.04443359375 -1709.2467041015625 -1709.4090576171875 -1709.531982421875 -1709.6181640625 -1709.65478515625 -1709.66259765625 -1709.6448974609375 -1709.5999755859375 -1709.52880859375 -1709.416259765625 -1709.2864990234375 -1709.13427734375 -1708.9588623046875 -1708.760009765625 -1708.5260009765625 -1708.2783203125 -1708.0107421875 -1707.7244873046875 -1707.41943359375 -1707.09423828125 -1706.76171875 -1706.4212646484375 -1706.075927734375 -1705.728515625 -1705.3851318359375 -1705.05419921875 -1704.737060546875 -1704.437744140625 -1704.160888671875 -1703.914306640625 -1703.702392578125 -1703.523193359375 -1703.3782958984375 -1703.2677001953125 -1703.19921875 -1703.169921875 -1703.1732177734375 -1703.20751953125 -1703.266357421875 -1703.3607177734375 -1703.48046875 -1703.6209716796875 -1703.780029296875 -1703.9525146484375 -1704.14990234375 -1704.3619384765625 -1704.5875244140625 -1704.8272705078125 -1705.088134765625 -1705.3721923828125 -1705.68017578125 -1706.016357421875 -1706.387939453125 -1706.80322265625 -1707.2447509765625 -1707.719970703125 -1708.333740234375 -1709.3555908203125 -1710.7501220703125 -1712.038818359375 -1713.1142578125 -1713.90625 -1714.3369140625 -1714.350341796875 -1714.06103515625 -1713.567626953125 -99999 -99999 -99999 -99999 -99999 -99999 -99999 -99999 -99999 -99999 -99999 -99999 -99999 -99999 -99999
 -99999 -99999 -99999 -99999 -99999 -99999 -99999 -99999 -99999 -99999 -99999 -99999 -99999 -99999 -99999 -99999 -99999 -99999 -99999 -99999 -99999 -99999 -99999 -99999 -99999 -99999 -99999 -99999 -99999 -99999 -99999 -99999 -1470.7625732421875 -1471.9857177734375 -1473.0867919921875 -1474.2127685546875 -1475.29052734375 -1476.4644775390625 -1477.8345947265625 -1479.5206298828125 -1481.9244384765625 -1485.1387939453125 -1489.256103515625 -1494.40234375 -1500.608642578125 -1507.5111083984375 -1514.9317626953125 -1522.7037353515625 -1530.6077880859375 -1538.510986328125 -1546.4744873046875 -1553.77099609375 -1560.2977294921875 -1566.0191650390625 -1571.92041015625 -1578.476318359375 -1586.0472412109375 -1595.0572509765625 -1605.5391845703125 -1616.8515625 -1628.6898193359375 -1640.0853271484375 -1650.7974853515625 -1660.4969482421875 -1668.859130859375 -1675.387451171875 -1680.79443359375 -1684.336669921875 -1686.5050048828125 -1687.4462890625 -1687.276123046875 -1686.0443115234375 -1683.9149169921875 -1681.31298828125 -1678.396240234375 -1675.3167724609375 -1672.198974609375 -1669.3553466796875 -1666.79296875 -1664.6575927734375 -1663.01025390625 -1661.8203125 -1661.097900390625 -1660.862548828125 -1661.2088623046875 -1661.9715576171875 -1663.1077880859375 -1664.58349609375 -1666.4007568359375 -1668.5076904296875 -1670.766357421875 -1673.237548828125 -1675.8106689453125 -1678.4329833984375 -1681.08203125 -1683.7313232421875 -1686.341064453125 -1688.857421875 -1691.277587890625 -1693.5994873046875 -1695.8050537109375 -1697.8343505859375 -1699.716064453125 -1701.4578857421875 -1703.058837890625 -1704.512451171875 -1705.788330078125 -1706.934814453125 -1707.9580078125 -1708.86376953125 -1709.642822265625 -1710.30126953125 -1710.8692626953125 -1711.3531494140625 -1711.759521484375 -1712.077392578125 -1712.3291015625 -1712.5262451171875 -1712.67333984375 -1712.774658203125 -1712.819091796875 -1712.8304443359375 -1712.8094482421875 -1712.758056640625 -1712.6781005859375 -1712.5594482421875 -1712.42138671875 -1712.2606201171875 -1712.07763671875 -1711.8707275390625 -1711.6373291015625 -1711.386962890625 -1711.1180419921875 -1710.831298828125 -1710.5245361328125 -1710.200927734375 -1709.8653564453125 -1709.51904296875 -1709.1641845703125 -1708.8011474609375 -1708.4378662109375 -1708.0771484375 -1707.7218017578125 -1707.37548828125 -1707.042724609375 -1706.732666015625 -1706.4443359375 -1706.1805419921875 -1705.9434814453125 -1705.7391357421875 -1705.5728759765625 -1705.4385986328125 -1705.3363037109375 -1705.265869140625 -1705.2301025390625 -1705.229736328125 -1705.2569580078125 -1705.31005859375 -1705.387451171875 -1705.4921875 -1705.62255859375 -1705.7735595703125 -1705.9447021484375 -1706.135986328125 -1706.35498046875 -1706.5980224609375 -1706.865966796875 -1707.161865234375 -1707.4945068359375 -1707.8743896484375 -1708.2974853515625 -1708.7664794921875 -1709.284912109375 -1709.888916015625 -1710.6773681640625 -1711.7816162109375 -1713.1102294921875 -1714.5015869140625 -1715.650634765625 -1716.3294677734375 -1716.6221923828125 -1716.500244140625 -1716.1490478515625 -1715.5948486328125 -1714.766845703125 -99999 -99999 -99999 -99999 -99999 -99999 -99999 -99999 -99999 -99999 -99999 -99999 -99999 -99999
 -99999 -99999 -99999 -99999 -99999 -99999 -99999 -99999 -99999 -99999 -99999 -99999 -99999 -99999 -99999 -99999 -99999 -99999 -99999 -99999 -99999 -99999 -99999 -99999 -99999 -99999 -99999 -99999 -99999 -99999 -99999 -99999 -1464.7047119140625 -1466.2523193359375 -1467.774658203125 -1469.3619384765625 -1470.9595947265625 -1472.69482421875 -1474.7828369140625 -1477.3074951171875 -1480.368896484375 -1484.0750732421875 -1488.5799560546875 -1494.0777587890625 -1500.2900390625 -1507.25341796875 -1514.6885986328125 -1522.399169921875 -1530.2403564453125 -1538.1514892578125 -1545.899169921875 -1553.3741455078125 -1559.854248046875 -1565.7886962890625 -1571.7745361328125 -1578.0982666015625 -1585.621337890625 -1595.1265869140625 -1606.3533935546875 -1619.229248046875 -1632.4246826171875 -1645.0672607421875 -1656.5267333984375 -1666.6900634765625 -1675.3211669921875 -1681.97412109375 -1686.9664306640625 -1690.542236328125 -1692.4820556640625 -1692.81005859375 -1691.7479248046875 -1689.723876953125 -1686.914794921875 -1683.546630859375 -1679.84521484375 -1676.059814453125 -1672.456787109375 -1669.0732421875 -1666.1494140625 -1663.724609375 -1661.8243408203125 -1660.558837890625 -1659.961181640625 -1659.8995361328125 -1660.3460693359375 -1661.2677001953125 -1662.68212890625 -1664.5225830078125 -1666.664794921875 -1669.0550537109375 -1671.6827392578125 -1674.4730224609375 -1677.3582763671875 -1680.2884521484375 -1683.244384765625 -1686.16259765625 -1689.0164794921875 -1691.7850341796875 -1694.41357421875 -1696.8902587890625 -1699.2144775390625 -1701.3863525390625 -1703.3975830078125 -1705.2081298828125 -1706.8382568359375 -1708.310791015625 -1709.6304931640625 -1710.803466796875 -1711.8017578125 -1712.66552734375 -1713.420166015625 -1714.0599365234375 -1714.5799560546875 -1715.015625 -1715.3519287109375 -1715.606689453125 -1715.793701171875 -1715.9244384765625 -1716.004150390625 -1716.0361328125 -1716.0133056640625 -1715.9573974609375 -1715.869873046875 -1715.75341796875 -1715.60546875 -1715.428466796875 -1715.23095703125 -1715.0050048828125 -1714.773681640625 -1714.51171875 -1714.2298583984375 -1713.9334716796875 -1713.6221923828125 -1713.2926025390625 -1712.94921875 -1712.5960693359375 -1712.231689453125 -1711.85888671875 -1711.4794921875 -1711.0977783203125 -1710.7161865234375 -1710.3370361328125 -1709.9669189453125 -1709.607666015625 -1709.26220703125 -1708.9332275390625 -1708.6240234375 -1708.3450927734375 -1708.091796875 -1707.865478515625 -1707.66748046875 -1707.5010986328125 -1707.3721923828125 -1707.2728271484375 -1707.2022705078125 -1707.1600341796875 -1707.149658203125 -1707.1707763671875 -1707.21728515625 -1707.2890625 -1707.3857421875 -1707.5118408203125 -1707.667236328125 -1707.8492431640625 -1708.059326171875 -1708.2994384765625 -1708.5791015625 -1708.9034423828125 -1709.2723388671875 -1709.691162109375 -1710.166015625 -1710.720703125 -1711.370849609375 -1712.1405029296875 -1713.065185546875 -1714.2010498046875 -1715.5635986328125 -1716.9295654296875 -1718.117431640625 -1718.67236328125 -1718.741455078125 -1718.4559326171875 -1717.9200439453125 -1717.166259765625 -1716.2427978515625 -99999 -99999 -99999 -99999 -99999 -99999 -99999 -99999 -99999 -99999 -99999 -99999 -99999 -99999
 -99999 -99999 -99999 -99999 -99999 -99999 -99999 -99999 -99999 -99999 -99999 -99999 -99999 -99999 -99999 -99999 -99999 -99999 -99999 -99999 -99999 -99999 -99999 -99999 -99999 -99999 -99999 -99999 -99999 -99999 -99999 -99999 -1458.658935546875 -1460.5704345703125 -1462.49853515625 -1464.421142578125 -1466.5556640625 -1468.96240234375 -1471.6710205078125 -1474.711669921875 -1478.28125 -1482.639892578125 -1487.6259765625 -1493.2767333984375 -1499.7159423828125 -1506.6553955078125 -1513.996337890625 -1521.6802978515625 -1529.48779296875 -1537.2843017578125 -1544.912353515625 -1552.0694580078125 -1558.8360595703125 -1565.1427001953125 -1571.131591796875 -1577.391357421875 -1584.416259765625 -1594.3597412109375 -1607.288818359375 -1622.037353515625 -1636.6920166015625 -1650.40576171875 -1662.748291015625 -1673.3604736328125 -1681.889404296875 -1688.84716796875 -1693.8905029296875 -1696.8621826171875 -1697.988037109375 -1697.619140625 -1695.927978515625 -1693.1634521484375 -1689.378662109375 -1685.0274658203125 -1680.4610595703125 -1675.8858642578125 -1671.55419921875 -1667.77099609375 -1664.439208984375 -1661.826904296875 -1659.9041748046875 -1658.64990234375 -1658.0506591796875 -1658.0975341796875 -1658.8211669921875 -1660.117919921875 -1661.8680419921875 -1664.017578125 -1666.4793701171875 -1669.26708984375 -1672.3292236328125 -1675.4500732421875 -1678.7255859375 -1682.027099609375 -1685.31640625 -1688.5335693359375 -1691.633056640625 -1694.631103515625 -1697.4815673828125 -1700.169677734375 -1702.65625 -1704.928955078125 -1707.012451171875 -1708.907470703125 -1710.619873046875 -1712.1318359375 -1713.4537353515625 -1714.609619140625 -1715.5970458984375 -1716.431884765625 -1717.1226806640625 -1717.6993408203125 -1718.1749267578125 -1718.54052734375 -1718.8076171875 -1719.0003662109375 -1719.1260986328125 -1719.1956787109375 -1719.20166015625 -1719.1546630859375 -1719.068603515625 -1718.9473876953125 -1718.8013916015625 -1718.615966796875 -1718.40283203125 -1718.1680908203125 -1717.9134521484375 -1717.6475830078125 -1717.35205078125 -1717.04052734375 -1716.7164306640625 -1716.3896484375 -1716.036865234375 -1715.6702880859375 -1715.278076171875 -1714.9078369140625 -1714.510498046875 -1714.110107421875 -1713.702392578125 -1713.30224609375 -1712.9036865234375 -1712.5076904296875 -1712.1175537109375 -1711.7393798828125 -1711.379150390625 -1711.0357666015625 -1710.7117919921875 -1710.408935546875 -1710.1290283203125 -1709.883056640625 -1709.6636962890625 -1709.4713134765625 -1709.306396484375 -1709.1702880859375 -1709.0723876953125 -1709 -1708.954833984375 -1708.9365234375 -1708.9481201171875 -1708.9945068359375 -1709.0675048828125 -1709.1695556640625 -1709.302001953125 -1709.4696044921875 -1709.677978515625 -1709.927001953125 -1710.21923828125 -1710.5589599609375 -1710.952880859375 -1711.4227294921875 -1711.970947265625 -1712.6051025390625 -1713.339599609375 -1714.1990966796875 -1715.2498779296875 -1716.4559326171875 -1717.841552734375 -1719.284423828125 -1720.4534912109375 -1720.90478515625 -1720.684814453125 -1720.13330078125 -1719.40283203125 -1718.5361328125 -1717.549072265625 -1716.447265625 -99999 -99999 -99999 -99999 -99999 -99999 -99999 -99999 -99999 -99999 -99999 -99999 -99999
 -99999 -99999 -99999 -99999 -99999 -99999 -99999 -99999 -99999 -99999 -99999 -99999 -99999 -99999 -99999 -99999 -99999 -99999 -99999 -99999 -99999 -99999 -99999 -99999 -99999 -99999 -99999 -99999 -99999 -99999 -99999 -99999 -1452.682861328125 -1454.84033203125 -1457.1435546875 -1459.5858154296875 -1462.2100830078125 -1465.0235595703125 -1468.20361328125 -1471.9061279296875 -1476.0821533203125 -1480.780517578125 -1486.068603515625 -1492.0943603515625 -1498.598388671875 -1505.6104736328125 -1513.0716552734375 -1520.7310791015625 -1528.4915771484375 -1536.2796630859375 -1543.796142578125 -1551.105712890625 -1557.9326171875 -1564.4056396484375 -1570.7705078125 -1576.999267578125 -1583.666259765625 -1593.76708984375 -1609.0267333984375 -1626.459716796875 -1642.3807373046875 -1656.81640625 -1669.4967041015625 -1680.149658203125 -1689.02392578125 -1695.7198486328125 -1700.108154296875 -1702.77685546875 -1703.45849609375 -1702.4334716796875 -1699.6492919921875 -1695.709228515625 -1690.9501953125 -1685.66357421875 -1680.3245849609375 -1674.9161376953125 -1669.9573974609375 -1665.6063232421875 -1661.9478759765625 -1659.0745849609375 -1657.0101318359375 -1655.80126953125 -1655.4298095703125 -1655.805908203125 -1656.822265625 -1658.4134521484375 -1660.4791259765625 -1663.1075439453125 -1666.08740234375 -1669.3131103515625 -1672.731689453125 -1676.3472900390625 -1680.0274658203125 -1683.6328125 -1687.2550048828125 -1690.82080078125 -1694.25439453125 -1697.5242919921875 -1700.55322265625 -1703.4075927734375 -1706.0526123046875 -1708.4808349609375 -1710.67333984375 -1712.6297607421875 -1714.40087890625 -1715.9071044921875 -1717.2191162109375 -1718.3408203125 -1719.30078125 -1720.109130859375 -1720.7706298828125 -1721.2899169921875 -1721.6859130859375 -1721.9832763671875 -1722.1925048828125 -1722.3280029296875 -1722.3746337890625 -1722.357421875 -1722.28955078125 -1722.1802978515625 -1722.0384521484375 -1721.84326171875 -1721.61865234375 -1721.369140625 -1721.1026611328125 -1720.8194580078125 -1720.50390625 -1720.17333984375 -1719.828857421875 -1719.47705078125 -1719.1121826171875 -1718.7276611328125 -1718.3338623046875 -1717.931640625 -1717.52685546875 -1717.113037109375 -1716.6942138671875 -1716.27490234375 -1715.846435546875 -1715.4228515625 -1715.001953125 -1714.5823974609375 -1714.182373046875 -1713.783447265625 -1713.40869140625 -1713.04052734375 -1712.6986083984375 -1712.3795166015625 -1712.0819091796875 -1711.807373046875 -1711.5570068359375 -1711.3404541015625 -1711.1513671875 -1710.9874267578125 -1710.8497314453125 -1710.738525390625 -1710.666259765625 -1710.619873046875 -1710.6004638671875 -1710.6103515625 -1710.65234375 -1710.7359619140625 -1710.853759765625 -1711.0103759765625 -1711.2086181640625 -1711.4541015625 -1711.753173828125 -1712.117919921875 -1712.5484619140625 -1713.050537109375 -1713.63671875 -1714.3209228515625 -1715.090576171875 -1716.0677490234375 -1717.152587890625 -1718.386474609375 -1719.727783203125 -1721.1220703125 -1722.43212890625 -1722.4644775390625 -1722.0167236328125 -1721.354736328125 -1720.545166015625 -1719.609619140625 -1718.550537109375 -1717.4022216796875 -99999 -99999 -99999 -99999 -99999 -99999 -99999 -99999 -99999 -99999 -99999 -99999 -99999
 -99999 -99999 -99999 -99999 -99999 -99999 -99999 -99999 -99999 -99999 -99999 -99999 -99999 -99999 -99999 -99999 -99999 -99999 -99999 -99999 -99999 -99999 -99999 -99999 -99999 -99999 -99999 -99999 -99999 -99999 -99999 -99999 -1446.6864013671875 -1449.249267578125 -1451.832275390625 -1454.5716552734375 -1457.5980224609375 -1460.9837646484375 -1464.7110595703125 -1468.8056640625 -1473.3505859375 -1478.5081787109375 -1484.2322998046875 -1490.4207763671875 -1497.1568603515625 -1504.32421875 -1511.81005859375 -1519.5120849609375 -1527.3231201171875 -1535.152099609375 -1542.7890625 -1550.2296142578125 -1557.45849609375 -1564.4659423828125 -1571.1748046875 -1577.7630615234375 -1585.107421875 -1595.361328125 -1613.045166015625 -1632.1541748046875 -1649.1971435546875 -1663.4326171875 -1676.0889892578125 -1686.773193359375 -1695.68017578125 -1702.2889404296875 -1706.5101318359375 -1708.6719970703125 -1708.365966796875 -1706.2293701171875 -1702.5174560546875 -1697.6600341796875 -1691.890625 -1685.3973388671875 -1678.8348388671875 -1672.70556640625 -1667.1519775390625 -1662.1739501953125 -1658.2947998046875 -1655.2879638671875 -1653.31298828125 -1652.267333984375 -1652.091796875 -1652.7562255859375 -1654.0885009765625 -1656.2215576171875 -1658.8714599609375 -1661.95068359375 -1665.323974609375 -1668.9847412109375 -1672.997314453125 -1676.9825439453125 -1681.0982666015625 -1685.22216796875 -1689.2823486328125 -1693.1114501953125 -1696.8050537109375 -1700.3424072265625 -1703.66015625 -1706.7393798828125 -1709.5025634765625 -1712.0325927734375 -1714.3673095703125 -1716.341552734375 -1718.10302734375 -1719.6324462890625 -1720.9547119140625 -1722.0633544921875 -1722.9957275390625 -1723.7396240234375 -1724.328125 -1724.78515625 -1725.1243896484375 -1725.36328125 -1725.4832763671875 -1725.5234375 -1725.4967041015625 -1725.4193115234375 -1725.2904052734375 -1725.0958251953125 -1724.8660888671875 -1724.608154296875 -1724.33154296875 -1724.027587890625 -1723.6905517578125 -1723.33740234375 -1722.9737548828125 -1722.6024169921875 -1722.2139892578125 -1721.8076171875 -1721.392822265625 -1720.97412109375 -1720.5509033203125 -1720.1163330078125 -1719.6729736328125 -1719.226318359375 -1718.7811279296875 -1718.336181640625 -1717.88818359375 -1717.441650390625 -1716.9998779296875 -1716.5693359375 -1716.1553955078125 -1715.728271484375 -1715.3392333984375 -1714.9649658203125 -1714.604736328125 -1714.259033203125 -1713.9300537109375 -1713.643310546875 -1713.3719482421875 -1713.1185302734375 -1712.8941650390625 -1712.7020263671875 -1712.5391845703125 -1712.4002685546875 -1712.2869873046875 -1712.2010498046875 -1712.154541015625 -1712.1400146484375 -1712.1568603515625 -1712.2095947265625 -1712.3013916015625 -1712.4466552734375 -1712.6363525390625 -1712.8831787109375 -1713.187744140625 -1713.5592041015625 -1714.006591796875 -1714.53076171875 -1715.1085205078125 -1715.8643798828125 -1716.697509765625 -1717.642333984375 -1718.6878662109375 -1719.8565673828125 -1721.10693359375 -1722.2589111328125 -1723.0128173828125 -1723.2205810546875 -1722.7847900390625 -1722.1522216796875 -1721.2818603515625 -1720.310302734375 -1719.2567138671875 -1718.10595703125 -1716.86669921875 -99999 -99999 -99999 -99999 -99999 -99999 -99999 -99999 -99999 -99999 -99999 -99999
 -99999 -99999 -99999 -99999 -99999 -99999 -99999 -99999 -99999 -99999 -99999 -99999 -99999 -99999 -99999 -99999 -99999 -99999 -99999 -99999 -99999 -99999 -99999 -99999 -99999 -99999 -99999 -99999 -99999 -99999 -99999 -99999 -1440.663818359375 -1443.4649658203125 -1446.3929443359375 -1449.618896484375 -1453.013427734375 -1456.727783203125 -1460.7969970703125 -1465.3905029296875 -1470.452392578125 -1475.9605712890625 -1481.935546875 -1488.380859375 -1495.3671875 -1502.654296875 -1510.27978515625 -1518.1326904296875 -1526.091796875 -1534.0703125 -1541.9794921875 -1549.76904296875 -1557.36962890625 -1564.881103515625 -1572.7572021484375 -1580.701904296875 -1589.7515869140625 -1602.7144775390625 -1619.994140625 -1639.3121337890625 -1655.82568359375 -1669.7587890625 -1682.3687744140625 -1693.2921142578125 -1701.96337890625 -1708.34033203125 -1712.3218994140625 -1713.867431640625 -1712.697998046875 -1709.6304931640625 -1704.916015625 -1698.533447265625 -1691.341552734375 -1683.8397216796875 -1676.45263671875 -1669.373779296875 -1663.04736328125 -1657.7265625 -1653.5213623046875 -1650.5174560546875 -1648.6763916015625 -1647.87109375 -1647.959228515625 -1649.1651611328125 -1651.043212890625 -1653.6231689453125 -1656.7144775390625 -1660.30126953125 -1664.3746337890625 -1668.6663818359375 -1673.0570068359375 -1677.6812744140625 -1682.2486572265625 -1686.7266845703125 -1691.1376953125 -1695.412109375 -1699.5020751953125 -1703.27587890625 -1706.7808837890625 -1710.028564453125 -1712.9927978515625 -1715.641357421875 -1717.9925537109375 -1720.0621337890625 -1721.848876953125 -1723.3778076171875 -1724.6871337890625 -1725.750244140625 -1726.6158447265625 -1727.301025390625 -1727.833740234375 -1728.2308349609375 -1728.470703125 -1728.6072998046875 -1728.65771484375 -1728.633056640625 -1728.5357666015625 -1728.3592529296875 -1728.135986328125 -1727.883056640625 -1727.5968017578125 -1727.2742919921875 -1726.9158935546875 -1726.5400390625 -1726.1573486328125 -1725.7598876953125 -1725.3431396484375 -1724.909912109375 -1724.47119140625 -1724.03125 -1723.5838623046875 -1723.1243896484375 -1722.657470703125 -1722.1900634765625 -1721.723388671875 -1721.2542724609375 -1720.7796630859375 -1720.3052978515625 -1719.83642578125 -1719.3736572265625 -1718.9161376953125 -1718.4632568359375 -1718.0196533203125 -1717.5916748046875 -1717.1785888671875 -1716.78515625 -1716.4036865234375 -1716.03759765625 -1715.68798828125 -1715.38330078125 -1715.080078125 -1714.801513671875 -1714.5592041015625 -1714.3238525390625 -1714.1351318359375 -1713.966064453125 -1713.8209228515625 -1713.705078125 -1713.619140625 -1713.5650634765625 -1713.55517578125 -1713.5865478515625 -1713.65869140625 -1713.7791748046875 -1713.9576416015625 -1714.198486328125 -1714.4908447265625 -1714.84912109375 -1715.2879638671875 -1715.8489990234375 -1716.4757080078125 -1717.189453125 -1718.005126953125 -1718.92041015625 -1719.9215087890625 -1720.9461669921875 -1721.9312744140625 -1722.813232421875 -1723.3927001953125 -1723.4713134765625 -1723.1636962890625 -1722.5303955078125 -1721.654052734375 -1720.6876220703125 -1719.65966796875 -1718.5509033203125 -1717.3450927734375 -1716.0401611328125 -99999 -99999 -99999 -99999 -99999 -99999 -99999 -99999 -99999 -99999 -99999
 -99999 -99999 -99999 -99999 -99999 -99999 -99999 -99999 -99999 -99999 -99999 -99999 -99999 -99999 -99999 -99999 -99999 -99999 -99999 -99999 -99999 -99999 -99999 -99999 -99999 -99999 -99999 -99999 -99999 -99999 -99999 -99999 -1434.6707763671875 -1437.654296875 -1440.8697509765625 -1444.3770751953125 -1448.1549072265625 -1452.2760009765625 -1456.834228515625 -1461.7740478515625 -1467.1363525390625 -1472.9412841796875 -1479.3201904296875 -1486.09619140625 -1493.2882080078125 -1500.7608642578125 -1508.572998046875 -1516.5738525390625 -1524.6793212890625 -1532.9306640625 -1541.1463623046875 -1549.376953125 -1557.781982421875 -1566.326904296875 -1574.989990234375 -1584.66748046875 -1595.9871826171875 -1609.88427734375 -1626.7237548828125 -1644.894775390625 -1660.810791015625 -1674.8782958984375 -1687.6455078125 -1698.8765869140625 -1707.300537109375 -1713.5450439453125 -1717.2021484375 -1717.95751953125 -1716.08349609375 -1711.8328857421875 -1705.6693115234375 -1698.2679443359375 -1689.93505859375 -1681.0079345703125 -1672.3963623046875 -1664.457763671875 -1657.4747314453125 -1651.87060546875 -1647.654296875 -1644.663330078125 -1642.9224853515625 -1642.6142578125 -1643.33642578125 -1644.9488525390625 -1647.331298828125 -1650.477294921875 -1654.369140625 -1658.6197509765625 -1663.1788330078125 -1667.996826171875 -1673.0865478515625 -1678.1529541015625 -1683.2271728515625 -1688.311279296875 -1693.1588134765625 -1697.7586669921875 -1702.1319580078125 -1706.2381591796875 -1710.042236328125 -1713.4610595703125 -1716.5765380859375 -1719.316162109375 -1721.70263671875 -1723.8043212890625 -1725.6273193359375 -1727.1337890625 -1728.3795166015625 -1729.3900146484375 -1730.2044677734375 -1730.8316650390625 -1731.259521484375 -1731.5472412109375 -1731.716796875 -1731.7828369140625 -1731.7464599609375 -1731.6114501953125 -1731.4197998046875 -1731.17919921875 -1730.89306640625 -1730.557861328125 -1730.1815185546875 -1729.791015625 -1729.38232421875 -1728.95654296875 -1728.5072021484375 -1728.043212890625 -1727.58056640625 -1727.110595703125 -1726.634033203125 -1726.14453125 -1725.6510009765625 -1725.1610107421875 -1724.6683349609375 -1724.17333984375 -1723.671630859375 -1723.1717529296875 -1722.6773681640625 -1722.1849365234375 -1721.6954345703125 -1721.2073974609375 -1720.7286376953125 -1720.2611083984375 -1719.80322265625 -1719.35595703125 -1718.9200439453125 -1718.5025634765625 -1718.103759765625 -1717.7222900390625 -1717.3583984375 -1717.01220703125 -1716.692138671875 -1716.4000244140625 -1716.124755859375 -1715.858642578125 -1715.63818359375 -1715.4400634765625 -1715.2657470703125 -1715.11376953125 -1714.9871826171875 -1714.9083251953125 -1714.8663330078125 -1714.8656005859375 -1714.904541015625 -1714.9942626953125 -1715.1541748046875 -1715.3719482421875 -1715.677001953125 -1716.0260009765625 -1716.4669189453125 -1716.9903564453125 -1717.6048583984375 -1718.3001708984375 -1719.075439453125 -1719.9085693359375 -1720.7860107421875 -1721.6763916015625 -1722.508544921875 -1723.1702880859375 -1723.5189208984375 -1723.537841796875 -1723.2091064453125 -1722.56982421875 -1721.6968994140625 -1720.80517578125 -1719.8319091796875 -1718.76513671875 -1717.599853515625 -1716.3348388671875 -99999 -99999 -99999 -99999 -99999 -99999 -99999 -99999 -99999 -99999 -99999
 -99999 -99999 -99999 -99999 -99999 -99999 -99999 -99999 -99999 -99999 -99999 -99999 -99999 -99999 -99999 -99999 -99999 -99999 -99999 -99999 -99999 -99999 -99999 -99999 -99999 -99999 -99999 -99999 -99999 -99999 -99999 -1425.6429443359375 -1428.623779296875 -1431.8668212890625 -1435.3436279296875 -1439.0948486328125 -1443.1773681640625 -1447.629638671875 -1452.5152587890625 -1457.7783203125 -1463.580322265625 -1469.787841796875 -1476.41162109375 -1483.4022216796875 -1490.802490234375 -1498.5689697265625 -1506.547607421875 -1514.8250732421875 -1523.2470703125 -1531.7891845703125 -1540.4237060546875 -1549.2259521484375 -1558.1640625 -1567.4075927734375 -1577.2369384765625 -1588.3433837890625 -1600.6639404296875 -1615.0384521484375 -1631.2342529296875 -1648.19091796875 -1663.868408203125 -1678.3416748046875 -1692.1143798828125 -1702.6268310546875 -1711.1365966796875 -1717.2786865234375 -1720.5545654296875 -1721.149658203125 -1718.6466064453125 -1713.166259765625 -1705.58349609375 -1696.4176025390625 -1686.54833984375 -1676.64501953125 -1666.6812744140625 -1657.953125 -1650.5823974609375 -1644.819091796875 -1640.2952880859375 -1637.7088623046875 -1636.587646484375 -1636.664794921875 -1637.8304443359375 -1640.131103515625 -1643.359375 -1647.2261962890625 -1651.6302490234375 -1656.4969482421875 -1661.8594970703125 -1667.4041748046875 -1672.99560546875 -1678.7847900390625 -1684.3876953125 -1689.8638916015625 -1695.16650390625 -1700.2452392578125 -1704.9998779296875 -1709.33203125 -1713.371826171875 -1717.006591796875 -1720.1639404296875 -1723.017578125 -1725.520263671875 -1727.6326904296875 -1729.3858642578125 -1730.860595703125 -1732.0760498046875 -1733.035888671875 -1733.73876953125 -1734.2501220703125 -1734.6029052734375 -1734.81396484375 -1734.8812255859375 -1734.8251953125 -1734.6893310546875 -1734.4815673828125 -1734.2117919921875 -1733.8739013671875 -1733.4930419921875 -1733.08642578125 -1732.653564453125 -1732.1988525390625 -1731.7144775390625 -1731.2230224609375 -1730.7255859375 -1730.220703125 -1729.7095947265625 -1729.1845703125 -1728.664306640625 -1728.1431884765625 -1727.6202392578125 -1727.095703125 -1726.564697265625 -1726.0411376953125 -1725.5185546875 -1724.9976806640625 -1724.47802734375 -1723.95947265625 -1723.4505615234375 -1722.9476318359375 -1722.45166015625 -1721.9630126953125 -1721.4844970703125 -1721.021728515625 -1720.5716552734375 -1720.135498046875 -1719.713623046875 -1719.3101806640625 -1718.92822265625 -1718.564208984375 -1718.2188720703125 -1717.8907470703125 -1717.5870361328125 -1717.307373046875 -1717.0489501953125 -1716.8126220703125 -1716.5970458984375 -1716.4178466796875 -1716.26806640625 -1716.1502685546875 -1716.0675048828125 -1716.0252685546875 -1716.041748046875 -1716.1129150390625 -1716.2381591796875 -1716.4276123046875 -1716.6900634765625 -1717.0399169921875 -1717.462890625 -1717.9599609375 -1718.532470703125 -1719.1768798828125 -1719.89453125 -1720.6519775390625 -1721.4263916015625 -1722.1630859375 -1722.7889404296875 -1723.2587890625 -1723.4969482421875 -1723.462158203125 -1723.1065673828125 -1722.45068359375 -1721.6141357421875 -1720.7353515625 -1719.8160400390625 -1718.8272705078125 -1717.6951904296875 -1716.43701171875 -1715.163330078125 -99999 -99999 -99999 -99999 -99999 -99999 -99999 -99999 -99999 -99999
 -99999 -99999 -99999 -99999 -99999 -99999 -99999 -99999 -99999 -99999 -99999 -99999 -99999 -99999 -99999 -99999 -99999 -99999 -99999 -99999 -99999 -99999 -99999 -99999 -99999 -99999 -99999 -99999 -99999 -99999 -99999 -1419.486572265625 -1422.6485595703125 -1426.033447265625 -1429.6519775390625 -1433.6824951171875 -1438.0911865234375 -1442.892333984375 -1448.031494140625 -1453.7291259765625 -1459.7598876953125 -1466.2274169921875 -1473.1318359375 -1480.5062255859375 -1488.177734375 -1496.1343994140625 -1504.416259765625 -1512.9044189453125 -1521.589111328125 -1530.4320068359375 -1539.510009765625 -1548.74755859375 -1558.40625 -1568.5439453125 -1579.2939453125 -1591.0509033203125 -1604.201904296875 -1618.6544189453125 -1634.1348876953125 -1650.0316162109375 -1665.4520263671875 -1679.923095703125 -1693.3929443359375 -1704.587158203125 -1712.5623779296875 -1719.005126953125 -1723.8226318359375 -1723.1405029296875 -1718.9207763671875 -1712.35009765625 -1703.23486328125 -1693.0701904296875 -1681.8897705078125 -1670.1627197265625 -1659.4564208984375 -1649.707275390625 -1641.7095947265625 -1636.034423828125 -1632.1446533203125 -1629.91748046875 -1629.1890869140625 -1629.9404296875 -1632.0396728515625 -1635.0728759765625 -1638.9168701171875 -1643.4593505859375 -1648.74755859375 -1654.453369140625 -1660.449462890625 -1666.6409912109375 -1672.9835205078125 -1679.3062744140625 -1685.5308837890625 -1691.6207275390625 -1697.388427734375 -1702.81396484375 -1707.8953857421875 -1712.60986328125 -1716.8284912109375 -1720.6005859375 -1723.990966796875 -1726.860595703125 -1729.3338623046875 -1731.4482421875 -1733.2242431640625 -1734.6568603515625 -1735.7408447265625 -1736.5882568359375 -1737.2115478515625 -1737.639892578125 -1737.8782958984375 -1737.948974609375 -1737.904052734375 -1737.7608642578125 -1737.5330810546875 -1737.2144775390625 -1736.839111328125 -1736.4234619140625 -1735.9736328125 -1735.4931640625 -1734.9771728515625 -1734.452392578125 -1733.9161376953125 -1733.3712158203125 -1732.819580078125 -1732.25927734375 -1731.7020263671875 -1731.143798828125 -1730.5853271484375 -1730.02587890625 -1729.4674072265625 -1728.9127197265625 -1728.35986328125 -1727.80908203125 -1727.2591552734375 -1726.7147216796875 -1726.175048828125 -1725.6400146484375 -1725.1103515625 -1724.5858154296875 -1724.072998046875 -1723.5692138671875 -1723.075439453125 -1722.5926513671875 -1722.1220703125 -1721.6697998046875 -1721.2322998046875 -1720.81005859375 -1720.4039306640625 -1720.0155029296875 -1719.649169921875 -1719.3004150390625 -1718.9698486328125 -1718.657470703125 -1718.36572265625 -1718.099365234375 -1717.8551025390625 -1717.6346435546875 -1717.43994140625 -1717.2816162109375 -1717.16552734375 -1717.0909423828125 -1717.0628662109375 -1717.0865478515625 -1717.1856689453125 -1717.353759765625 -1717.58984375 -1717.896240234375 -1718.275634765625 -1718.7454833984375 -1719.2802734375 -1719.8707275390625 -1720.506591796875 -1721.1602783203125 -1721.8116455078125 -1722.407958984375 -1722.9073486328125 -1723.265380859375 -1723.3863525390625 -1723.244140625 -1722.8616943359375 -1722.2607421875 -1721.4876708984375 -1720.6103515625 -1719.7122802734375 -1718.731689453125 -1717.64111328125 -1716.4300537109375 -1715.2684326171875 -99999 -99999 -99999 -99999 -99999 -99999 -99999 -99999 -99999 -99999
 -99999 -99999 -99999 -99999 -99999 -99999 -99999 -99999 -99999 -99999 -99999 -99999 -99999 -99999 -99999 -99999 -99999 -99999 -99999 -99999 -99999 -99999 -99999 -99999 -99999 -99999 -99999 -99999 -99999 -99999 -99999 -1413.3709716796875 -1416.58935546875 -1420.139892578125 -1424.0252685546875 -1428.241455078125 -1432.8277587890625 -1437.81591796875 -1443.3582763671875 -1449.2418212890625 -1455.65869140625 -1462.544189453125 -1469.732177734375 -1477.3057861328125 -1485.2049560546875 -1493.4937744140625 -1501.976806640625 -1510.7125244140625 -1519.7135009765625 -1528.904052734375 -1538.3153076171875 -1548.146728515625 -1558.266845703125 -1568.867919921875 -1580.0797119140625 -1592.5421142578125 -1605.7359619140625 -1619.925537109375 -1635.040771484375 -1650.4320068359375 -1665.181640625 -1679.5477294921875 -1692.44970703125 -1702.860107421875 -1711.9364013671875 -1719.6409912109375 -1723.889892578125 -1723.3236083984375 -1717.574951171875 -1709.2574462890625 -1699.3941650390625 -1687.6326904296875 -1674.8905029296875 -1661.722900390625 -1649.7972412109375 -1639.740234375 -1631.6806640625 -1625.828857421875 -1622.40087890625 -1621.0390625 -1621.1263427734375 -1622.7169189453125 -1625.5665283203125 -1629.463134765625 -1634.3016357421875 -1639.7786865234375 -1645.7811279296875 -1652.207763671875 -1658.991943359375 -1665.998291015625 -1673.0361328125 -1680.0325927734375 -1686.87109375 -1693.461181640625 -1699.7513427734375 -1705.691162109375 -1711.073486328125 -1716.1142578125 -1720.504638671875 -1724.3966064453125 -1727.82275390625 -1730.798095703125 -1733.3397216796875 -1735.3857421875 -1737.0517578125 -1738.3712158203125 -1739.3839111328125 -1740.161376953125 -1740.6396484375 -1740.912109375 -1741.023193359375 -1740.9940185546875 -1740.8443603515625 -1740.571533203125 -1740.2203369140625 -1739.80810546875 -1739.3453369140625 -1738.8433837890625 -1738.2923583984375 -1737.7274169921875 -1737.1556396484375 -1736.564697265625 -1735.9749755859375 -1735.373046875 -1734.7705078125 -1734.168701171875 -1733.568359375 -1732.9715576171875 -1732.3775634765625 -1731.7869873046875 -1731.199951171875 -1730.6165771484375 -1730.0382080078125 -1729.4639892578125 -1728.8939208984375 -1728.328369140625 -1727.7677001953125 -1727.21435546875 -1726.66748046875 -1726.1279296875 -1725.5963134765625 -1725.073486328125 -1724.5640869140625 -1724.066162109375 -1723.58056640625 -1723.1080322265625 -1722.6494140625 -1722.21044921875 -1721.7867431640625 -1721.3785400390625 -1720.986328125 -1720.611572265625 -1720.2572021484375 -1719.9193115234375 -1719.598388671875 -1719.2950439453125 -1719.0135498046875 -1718.7579345703125 -1718.527587890625 -1718.3262939453125 -1718.158203125 -1718.0372314453125 -1717.97216796875 -1717.9622802734375 -1718.0126953125 -1718.1278076171875 -1718.327392578125 -1718.60595703125 -1718.9527587890625 -1719.364013671875 -1719.833984375 -1720.36474609375 -1720.922119140625 -1721.482666015625 -1722.0223388671875 -1722.51416015625 -1722.8819580078125 -1723.0943603515625 -1723.132080078125 -1722.9774169921875 -1722.6162109375 -1722.00927734375 -1721.2705078125 -1720.4410400390625 -1719.5443115234375 -1718.574462890625 -1717.4713134765625 -1716.291748046875 -1714.971435546875 -99999 -99999 -99999 -99999 -99999 -99999 -99999 -99999 -99999 -99999
 -99999 -99999 -99999 -99999 -99999 -99999 -99999 -99999 -99999 -99999 -99999 -99999 -99999 -99999 -99999 -99999 -99999 -99999 -99999 -99999 -99999 -99999 -99999 -99999 -99999 -99999 -99999 -99999 -99999 -99999 -99999 -1407.2977294921875 -1410.6688232421875 -1414.2965087890625 -1418.25 -1422.6282958984375 -1427.47216796875 -1432.7784423828125 -1438.522216796875 -1444.704833984375 -1451.4140625 -1458.5032958984375 -1465.9482421875 -1473.8603515625 -1482.08154296875 -1490.540771484375 -1499.31787109375 -1508.3306884765625 -1517.5709228515625 -1527.010009765625 -1536.8043212890625 -1546.8570556640625 -1557.331787109375 -1568.4066162109375 -1580.057373046875 -1592.555419921875 -1605.805908203125 -1619.728759765625 -1634.25927734375 -1648.82470703125 -1663.1124267578125 -1676.7147216796875 -1688.8392333984375 -1699.530517578125 -1708.676513671875 -1716.1661376953125 -1722.53271484375 -1718.8740234375 -1712.206298828125 -1703.6475830078125 -1692.9754638671875 -1680.158935546875 -1665.7012939453125 -1651.1051025390625 -1638.047119140625 -1627.0985107421875 -1619.55517578125 -1614.5355224609375 -1611.7957763671875 -1611.31103515625 -1612.6990966796875 -1615.3680419921875 -1619.168212890625 -1623.80615234375 -1629.677001953125 -1635.9254150390625 -1642.7376708984375 -1650.0765380859375 -1657.7010498046875 -1665.47607421875 -1673.2259521484375 -1680.9500732421875 -1688.4754638671875 -1695.631591796875 -1702.37353515625 -1708.689208984375 -1714.5345458984375 -1719.697021484375 -1724.352294921875 -1728.4583740234375 -1731.995361328125 -1734.900634765625 -1737.3643798828125 -1739.3499755859375 -1740.962158203125 -1742.1949462890625 -1743.0406494140625 -1743.614990234375 -1743.9630126953125 -1744.1138916015625 -1744.1043701171875 -1743.9075927734375 -1743.6068115234375 -1743.2191162109375 -1742.7596435546875 -1742.252197265625 -1741.6795654296875 -1741.0787353515625 -1740.45654296875 -1739.8189697265625 -1739.1802978515625 -1738.5240478515625 -1737.8680419921875 -1737.2197265625 -1736.57373046875 -1735.9317626953125 -1735.2921142578125 -1734.66015625 -1734.0338134765625 -1733.41552734375 -1732.804443359375 -1732.1973876953125 -1731.5958251953125 -1730.999755859375 -1730.4112548828125 -1729.82861328125 -1729.2510986328125 -1728.6798095703125 -1728.115234375 -1727.5606689453125 -1727.014404296875 -1726.4771728515625 -1725.949951171875 -1725.4334716796875 -1724.9329833984375 -1724.4453125 -1723.9710693359375 -1723.5108642578125 -1723.06494140625 -1722.6397705078125 -1722.228515625 -1721.831787109375 -1721.4493408203125 -1721.081787109375 -1720.7357177734375 -1720.40234375 -1720.0848388671875 -1719.7850341796875 -1719.5087890625 -1719.267333984375 -1719.0557861328125 -1718.883544921875 -1718.7572021484375 -1718.6927490234375 -1718.703369140625 -1718.7818603515625 -1718.9306640625 -1719.1495361328125 -1719.448486328125 -1719.8177490234375 -1720.2342529296875 -1720.6856689453125 -1721.1578369140625 -1721.644287109375 -1722.0791015625 -1722.44482421875 -1722.716064453125 -1722.8675537109375 -1722.8515625 -1722.622802734375 -1722.226318359375 -1721.6748046875 -1720.9854736328125 -1720.1683349609375 -1719.2650146484375 -1718.2740478515625 -1717.1871337890625 -1716.0155029296875 -1714.8326416015625 -99999 -99999 -99999 -99999 -99999 -99999 -99999 -99999 -99999 -99999
 -99999 -99999 -99999 -99999 -99999 -99999 -99999 -99999 -99999 -99999 -99999 -99999 -99999 -99999 -99999 -99999 -99999 -99999 -99999 -99999 -99999 -99999 -99999 -99999 -99999 -99999 -99999 -99999 -99999 -99999 -99999 -1401.3765869140625 -1404.726806640625 -1408.4404296875 -1412.5594482421875 -1417.0870361328125 -1422.0443115234375 -1427.5611572265625 -1433.517333984375 -1440.0400390625 -1446.96826171875 -1454.35888671875 -1462.1566162109375 -1470.2772216796875 -1478.7120361328125 -1487.403076171875 -1496.4329833984375 -1505.6231689453125 -1515.098388671875 -1524.8194580078125 -1534.7374267578125 -1545.0765380859375 -1555.8421630859375 -1567.02392578125 -1578.6561279296875 -1591.1434326171875 -1604.1632080078125 -1617.7559814453125 -1631.435302734375 -1645.5899658203125 -1659.0330810546875 -1671.68408203125 -1683.27197265625 -1693.4390869140625 -1701.779541015625 -1708.0782470703125 -1711.6190185546875 -1708.9713134765625 -1702.9847412109375 -1694.979248046875 -1684.6036376953125 -1670.791259765625 -1653.94677734375 -1637.338134765625 -1623.1787109375 -1612.9942626953125 -1605.919921875 -1602.1024169921875 -1600.97900390625 -1601.829345703125 -1604.0386962890625 -1607.6358642578125 -1612.56884765625 -1618.46435546875 -1624.9794921875 -1632.1787109375 -1639.982421875 -1648.12353515625 -1656.490234375 -1665.0577392578125 -1673.681640625 -1682.0484619140625 -1690.2518310546875 -1698.0404052734375 -1705.412841796875 -1712.1878662109375 -1718.2315673828125 -1723.7720947265625 -1728.560791015625 -1732.69384765625 -1736.2020263671875 -1739.1636962890625 -1741.5736083984375 -1743.4827880859375 -1744.875732421875 -1745.9063720703125 -1746.6185302734375 -1747.054931640625 -1747.2532958984375 -1747.1995849609375 -1746.9959716796875 -1746.666748046875 -1746.2449951171875 -1745.73779296875 -1745.1427001953125 -1744.506103515625 -1743.8380126953125 -1743.15966796875 -1742.4613037109375 -1741.7459716796875 -1741.030029296875 -1740.3167724609375 -1739.6187744140625 -1738.922119140625 -1738.22900390625 -1737.544921875 -1736.8770751953125 -1736.2176513671875 -1735.5650634765625 -1734.921875 -1734.2855224609375 -1733.65771484375 -1733.0408935546875 -1732.4281005859375 -1731.8214111328125 -1731.220947265625 -1730.628173828125 -1730.044677734375 -1729.4661865234375 -1728.895263671875 -1728.332275390625 -1727.780517578125 -1727.2408447265625 -1726.7105712890625 -1726.1917724609375 -1725.685302734375 -1725.1954345703125 -1724.720947265625 -1724.25927734375 -1723.8114013671875 -1723.3770751953125 -1722.961669921875 -1722.5596923828125 -1722.16845703125 -1721.7884521484375 -1721.4197998046875 -1721.072998046875 -1720.738037109375 -1720.417724609375 -1720.118408203125 -1719.84716796875 -1719.629638671875 -1719.4537353515625 -1719.3326416015625 -1719.275146484375 -1719.293212890625 -1719.4019775390625 -1719.58154296875 -1719.8258056640625 -1720.12646484375 -1720.4814453125 -1720.879638671875 -1721.2744140625 -1721.6544189453125 -1721.9998779296875 -1722.2918701171875 -1722.4857177734375 -1722.5325927734375 -1722.4449462890625 -1722.2138671875 -1721.817626953125 -1721.2591552734375 -1720.5689697265625 -1719.775634765625 -1718.8878173828125 -1717.8974609375 -1716.79736328125 -1715.666748046875 -1714.296142578125 -1712.847900390625 -99999 -99999 -99999 -99999 -99999 -99999 -99999 -99999 -99999
 -99999 -99999 -99999 -99999 -99999 -99999 -99999 -99999 -99999 -99999 -99999 -99999 -99999 -99999 -99999 -99999 -99999 -99999 -99999 -99999 -99999 -99999 -99999 -99999 -99999 -99999 -99999 -99999 -99999 -99999 -99999 -1395.558837890625 -1398.9432373046875 -1402.64208984375 -1406.870849609375 -1411.494384765625 -1416.631103515625 -1422.328857421875 -1428.5697021484375 -1435.2728271484375 -1442.44287109375 -1450.1256103515625 -1458.1551513671875 -1466.5062255859375 -1475.2227783203125 -1484.180908203125 -1493.3367919921875 -1502.736328125 -1512.3382568359375 -1522.1827392578125 -1532.2489013671875 -1542.6956787109375 -1553.495361328125 -1564.7259521484375 -1576.3837890625 -1588.5906982421875 -1601.2486572265625 -1614.178466796875 -1627.4027099609375 -1640.3968505859375 -1652.995361328125 -1664.671630859375 -1675.4281005859375 -1684.6815185546875 -1692.173828125 -1697.314453125 -1698.7760009765625 -1696.88525390625 -1691.5201416015625 -1683.8563232421875 -1673.678466796875 -1658.6859130859375 -1639.7235107421875 -1621.2021484375 -1606.671875 -1597.3057861328125 -1592.1519775390625 -1589.8294677734375 -1590.0404052734375 -1591.960693359375 -1595.77099609375 -1600.6873779296875 -1606.5821533203125 -1613.184814453125 -1620.4925537109375 -1628.761962890625 -1637.2518310546875 -1646.2861328125 -1655.6309814453125 -1665.1162109375 -1674.3900146484375 -1683.6512451171875 -1692.5032958984375 -1700.8226318359375 -1708.6568603515625 -1715.8760986328125 -1722.3128662109375 -1728.009521484375 -1732.960205078125 -1737.2332763671875 -1740.6964111328125 -1743.60888671875 -1745.8253173828125 -1747.5386962890625 -1748.80322265625 -1749.6759033203125 -1750.19970703125 -1750.385009765625 -1750.3516845703125 -1750.1405029296875 -1749.7958984375 -1749.3092041015625 -1748.706298828125 -1748.0411376953125 -1747.3377685546875 -1746.6109619140625 -1745.844970703125 -1745.0587158203125 -1744.2705078125 -1743.493896484375 -1742.7274169921875 -1741.960693359375 -1741.203369140625 -1740.45947265625 -1739.7362060546875 -1739.027099609375 -1738.3243408203125 -1737.6353759765625 -1736.9632568359375 -1736.299072265625 -1735.6470947265625 -1735.005126953125 -1734.368896484375 -1733.740478515625 -1733.122802734375 -1732.5113525390625 -1731.905029296875 -1731.3052978515625 -1730.713134765625 -1730.1314697265625 -1729.5572509765625 -1728.99072265625 -1728.4334716796875 -1727.8880615234375 -1727.3572998046875 -1726.837890625 -1726.330322265625 -1725.8358154296875 -1725.357666015625 -1724.8958740234375 -1724.4461669921875 -1724.0078125 -1723.58056640625 -1723.1678466796875 -1722.767333984375 -1722.372314453125 -1721.983642578125 -1721.6026611328125 -1721.242431640625 -1720.90283203125 -1720.57861328125 -1720.28515625 -1720.033447265625 -1719.861083984375 -1719.75390625 -1719.7178955078125 -1719.758544921875 -1719.87548828125 -1720.0782470703125 -1720.3350830078125 -1720.6259765625 -1720.9378662109375 -1721.259521484375 -1721.5771484375 -1721.846923828125 -1722.0347900390625 -1722.138671875 -1722.1396484375 -1722.0120849609375 -1721.732421875 -1721.308837890625 -1720.7611083984375 -1720.08447265625 -1719.294677734375 -1718.39697265625 -1717.3990478515625 -1716.3074951171875 -1715.177490234375 -1713.787841796875 -1712.3636474609375 -99999 -99999 -99999 -99999 -99999 -99999 -99999 -99999 -99999
 -99999 -99999 -99999 -99999 -99999 -99999 -99999 -99999 -99999 -99999 -99999 -99999 -99999 -99999 -99999 -99999 -99999 -99999 -99999 -99999 -99999 -99999 -99999 -99999 -99999 -99999 -99999 -99999 -99999 -99999 -99999 -1389.9373779296875 -1393.353515625 -1397.1158447265625 -1401.3184814453125 -1406.024169921875 -1411.296142578125 -1417.1319580078125 -1423.507568359375 -1430.496826171875 -1437.9852294921875 -1445.86376953125 -1454.1656494140625 -1462.7691650390625 -1471.642822265625 -1480.742431640625 -1490.055419921875 -1499.580810546875 -1509.28173828125 -1519.2073974609375 -1529.327392578125 -1539.7635498046875 -1550.4696044921875 -1561.503662109375 -1572.9703369140625 -1584.6497802734375 -1596.9515380859375 -1609.3486328125 -1621.73828125 -1633.8095703125 -1645.63720703125 -1656.3338623046875 -1665.91015625 -1674.31103515625 -1680.2200927734375 -1683.85986328125 -1684.8935546875 -1682.5848388671875 -1677.4881591796875 -1669.94677734375 -1659.00830078125 -1642.5771484375 -1621.4384765625 -1601.9967041015625 -1588.8443603515625 -1581.162109375 -1577.90283203125 -1577.703857421875 -1579.5306396484375 -1583.5841064453125 -1588.4498291015625 -1594.1878662109375 -1600.80908203125 -1608.4539794921875 -1616.8145751953125 -1625.5574951171875 -1635.121337890625 -1644.9520263671875 -1655.051513671875 -1665.2705078125 -1675.5609130859375 -1685.439208984375 -1694.973388671875 -1704.0899658203125 -1712.46044921875 -1720.0118408203125 -1726.8306884765625 -1732.6876220703125 -1737.7232666015625 -1741.9915771484375 -1745.398193359375 -1748.1195068359375 -1750.189697265625 -1751.7379150390625 -1752.774658203125 -1753.350830078125 -1753.6048583984375 -1753.6080322265625 -1753.3975830078125 -1752.971435546875 -1752.3873291015625 -1751.7122802734375 -1750.987060546875 -1750.206298828125 -1749.36474609375 -1748.4974365234375 -1747.6304931640625 -1746.7767333984375 -1745.925537109375 -1745.0728759765625 -1744.234619140625 -1743.4202880859375 -1742.6292724609375 -1741.8543701171875 -1741.093017578125 -1740.35009765625 -1739.6287841796875 -1738.924560546875 -1738.2313232421875 -1737.5523681640625 -1736.8863525390625 -1736.23046875 -1735.5850830078125 -1734.947265625 -1734.316162109375 -1733.691650390625 -1733.0765380859375 -1732.4681396484375 -1731.86572265625 -1731.2694091796875 -1730.680419921875 -1730.103515625 -1729.53564453125 -1728.9769287109375 -1728.42822265625 -1727.89208984375 -1727.37255859375 -1726.865966796875 -1726.3714599609375 -1725.8895263671875 -1725.42236328125 -1724.9700927734375 -1724.5284423828125 -1724.0931396484375 -1723.66357421875 -1723.2415771484375 -1722.8272705078125 -1722.4178466796875 -1722.00537109375 -1721.5992431640625 -1721.218994140625 -1720.873046875 -1720.56494140625 -1720.304931640625 -1720.114501953125 -1720.0272216796875 -1720.0230712890625 -1720.0948486328125 -1720.2318115234375 -1720.4197998046875 -1720.66162109375 -1720.92236328125 -1721.1756591796875 -1721.3973388671875 -1721.5806884765625 -1721.709228515625 -1721.7564697265625 -1721.68505859375 -1721.49560546875 -1721.1885986328125 -1720.7506103515625 -1720.19287109375 -1719.5068359375 -1718.71484375 -1717.8172607421875 -1716.81494140625 -1715.7159423828125 -1714.65478515625 -1713.1900634765625 -1711.7646484375 -99999 -99999 -99999 -99999 -99999 -99999 -99999 -99999 -99999
 -99999 -99999 -99999 -99999 -99999 -99999 -99999 -99999 -99999 -99999 -99999 -99999 -99999 -99999 -99999 -99999 -99999 -99999 -99999 -99999 -99999 -99999 -99999 -99999 -99999 -99999 -99999 -99999 -99999 -99999 -99999 -1384.5706787109375 -1387.984130859375 -1391.73779296875 -1395.9378662109375 -1400.6904296875 -1405.9942626953125 -1412.040283203125 -1418.646240234375 -1425.849365234375 -1433.53857421875 -1441.6202392578125 -1450.134521484375 -1458.9444580078125 -1468.0015869140625 -1477.2669677734375 -1486.668701171875 -1496.234130859375 -1505.984375 -1515.880126953125 -1525.952880859375 -1536.1846923828125 -1546.7962646484375 -1557.627685546875 -1568.6614990234375 -1579.843994140625 -1591.566162109375 -1603.1121826171875 -1614.6112060546875 -1625.86181640625 -1636.4320068359375 -1646.2816162109375 -1654.94921875 -1662.0518798828125 -1666.98681640625 -1669.82080078125 -1670.015869140625 -1667.1617431640625 -1661.31982421875 -1652.5029296875 -1640.15087890625 -1623.2996826171875 -1602.338134765625 -1584.0069580078125 -1572.340087890625 -1567.090087890625 -1565.8245849609375 -1567.5186767578125 -1571.3363037109375 -1576.311767578125 -1581.8785400390625 -1588.8609619140625 -1596.27783203125 -1604.4437255859375 -1613.357666015625 -1622.90625 -1633.204833984375 -1643.8487548828125 -1654.9417724609375 -1666.173095703125 -1677.0595703125 -1687.97119140625 -1698.1824951171875 -1707.736083984375 -1716.681884765625 -1724.6187744140625 -1731.662109375 -1737.7591552734375 -1742.86279296875 -1746.980224609375 -1750.2684326171875 -1752.8453369140625 -1754.683837890625 -1755.8900146484375 -1756.6416015625 -1756.9854736328125 -1757.00830078125 -1756.7154541015625 -1756.1988525390625 -1755.5621337890625 -1754.818359375 -1753.98876953125 -1753.064453125 -1752.105712890625 -1751.1590576171875 -1750.2047119140625 -1749.2510986328125 -1748.29248046875 -1747.3572998046875 -1746.45751953125 -1745.5780029296875 -1744.7197265625 -1743.8822021484375 -1743.0732421875 -1742.2930908203125 -1741.5328369140625 -1740.7918701171875 -1740.0693359375 -1739.3658447265625 -1738.6785888671875 -1738.003662109375 -1737.33935546875 -1736.6829833984375 -1736.039306640625 -1735.402587890625 -1734.772216796875 -1734.1475830078125 -1733.5281982421875 -1732.916748046875 -1732.312255859375 -1731.7144775390625 -1731.123291015625 -1730.5396728515625 -1729.969482421875 -1729.4100341796875 -1728.8616943359375 -1728.3243408203125 -1727.8001708984375 -1727.2939453125 -1726.800537109375 -1726.3197021484375 -1725.8489990234375 -1725.3890380859375 -1724.9395751953125 -1724.494873046875 -1724.05224609375 -1723.6038818359375 -1723.153564453125 -1722.7056884765625 -1722.26025390625 -1721.8184814453125 -1721.3836669921875 -1720.9949951171875 -1720.6746826171875 -1720.425537109375 -1720.260009765625 -1720.186767578125 -1720.2125244140625 -1720.3084716796875 -1720.4542236328125 -1720.6275634765625 -1720.80810546875 -1720.994384765625 -1721.1580810546875 -1721.281494140625 -1721.325439453125 -1721.2900390625 -1721.16455078125 -1720.936767578125 -1720.6004638671875 -1720.1300048828125 -1719.550048828125 -1718.8526611328125 -1718.0537109375 -1717.1544189453125 -1716.141845703125 -1715.1275634765625 -1713.8468017578125 -1712.4993896484375 -1711.0703125 -99999 -99999 -99999 -99999 -99999 -99999 -99999 -99999 -99999
 -99999 -99999 -99999 -99999 -99999 -99999 -99999 -99999 -99999 -99999 -99999 -99999 -99999 -99999 -99999 -99999 -99999 -99999 -99999 -99999 -99999 -99999 -99999 -99999 -99999 -99999 -99999 -99999 -99999 -99999 -1376.4542236328125 -1379.500244140625 -1382.8736572265625 -1386.6021728515625 -1390.86962890625 -1395.6710205078125 -1401.0242919921875 -1407.1739501953125 -1413.940185546875 -1421.2767333984375 -1429.253173828125 -1437.6304931640625 -1446.2620849609375 -1455.2447509765625 -1464.412109375 -1473.728759765625 -1483.1859130859375 -1492.7347412109375 -1502.45849609375 -1512.2327880859375 -1522.1387939453125 -1532.14111328125 -1542.42724609375 -1552.935302734375 -1563.5511474609375 -1574.29052734375 -1585.0794677734375 -1596.03125 -1606.777587890625 -1616.8841552734375 -1626.54931640625 -1635.323486328125 -1642.737060546875 -1648.616455078125 -1652.6500244140625 -1654.6846923828125 -1653.952880859375 -1650.4405517578125 -1643.8768310546875 -1634.9515380859375 -1621.989013671875 -1605.53955078125 -1587.429443359375 -1571.4163818359375 -1560.4730224609375 -1554.69384765625 -1556.911376953125 -1560.283203125 -1565.0194091796875 -1570.7535400390625 -1577.29541015625 -1584.548828125 -1592.4755859375 -1601.1104736328125 -1610.6925048828125 -1620.98779296875 -1631.935302734375 -1643.412109375 -1655.242919921875 -1667.2559814453125 -1679.1318359375 -1690.6444091796875 -1701.724609375 -1712.0882568359375 -1721.398193359375 -1729.8497314453125 -1737.1129150390625 -1743.1324462890625 -1748.23193359375 -1752.3438720703125 -1755.4224853515625 -1757.69921875 -1759.2347412109375 -1760.1265869140625 -1760.5338134765625 -1760.54052734375 -1760.253173828125 -1759.64990234375 -1758.89697265625 -1758.0277099609375 -1757.0003662109375 -1755.964111328125 -1754.90673828125 -1753.8328857421875 -1752.753173828125 -1751.6656494140625 -1750.6231689453125 -1749.6063232421875 -1748.6156005859375 -1747.6519775390625 -1746.7181396484375 -1745.8294677734375 -1744.9696044921875 -1744.1378173828125 -1743.3333740234375 -1742.55712890625 -1741.80859375 -1741.07958984375 -1740.3685302734375 -1739.67431640625 -1738.9957275390625 -1738.328125 -1737.6729736328125 -1737.0240478515625 -1736.382080078125 -1735.746826171875 -1735.117431640625 -1734.4931640625 -1733.873779296875 -1733.258544921875 -1732.650634765625 -1732.0504150390625 -1731.457763671875 -1730.87353515625 -1730.2974853515625 -1729.736328125 -1729.1881103515625 -1728.652587890625 -1728.1300048828125 -1727.620361328125 -1727.128662109375 -1726.6483154296875 -1726.177490234375 -1725.713623046875 -1725.2518310546875 -1724.7908935546875 -1724.3248291015625 -1723.8511962890625 -1723.36328125 -1722.8585205078125 -1722.357177734375 -1721.8660888671875 -1721.39990234375 -1720.972412109375 -1720.6383056640625 -1720.4248046875 -1720.3077392578125 -1720.2779541015625 -1720.316162109375 -1720.4071044921875 -1720.5283203125 -1720.6571044921875 -1720.7791748046875 -1720.857421875 -1720.8974609375 -1720.8802490234375 -1720.7916259765625 -1720.6190185546875 -1720.330078125 -1719.9384765625 -1719.4434814453125 -1718.845947265625 -1718.1424560546875 -1717.324951171875 -1716.3985595703125 -1715.4422607421875 -1714.3570556640625 -1713.0330810546875 -1711.7109375 -1710.295166015625 -99999 -99999 -99999 -99999 -99999 -99999 -99999 -99999 -99999
 -99999 -99999 -99999 -99999 -99999 -99999 -99999 -99999 -99999 -99999 -99999 -99999 -99999 -99999 -99999 -99999 -99999 -99999 -99999 -99999 -99999 -99999 -99999 -99999 -99999 -99999 -99999 -99999 -99999 -99999 -1371.73046875 -1374.8018798828125 -1378.1781005859375 -1381.8807373046875 -1386.031494140625 -1390.81591796875 -1396.384033203125 -1402.4979248046875 -1409.522216796875 -1417.17041015625 -1425.2337646484375 -1433.733642578125 -1442.5877685546875 -1451.6199951171875 -1460.8812255859375 -1470.24072265625 -1479.6942138671875 -1489.1805419921875 -1498.731689453125 -1508.35107421875 -1518.033935546875 -1527.786865234375 -1537.579833984375 -1547.6553955078125 -1557.705078125 -1567.8333740234375 -1577.860107421875 -1587.9453125 -1597.7587890625 -1607.0826416015625 -1615.716796875 -1623.50341796875 -1629.851806640625 -1635.0272216796875 -1638.1578369140625 -1639.028564453125 -1637.6549072265625 -1633.89208984375 -1627.463134765625 -1617.7989501953125 -1605.9013671875 -1591.878662109375 -1576.3607177734375 -1563.6136474609375 -1554.1512451171875 -1551.1280517578125 -1552.38671875 -1555.71728515625 -1560.625 -1567.2786865234375 -1574.3212890625 -1581.7386474609375 -1589.809814453125 -1598.7391357421875 -1608.6064453125 -1619.3336181640625 -1631.0001220703125 -1643.326904296875 -1656.134521484375 -1668.92724609375 -1681.728759765625 -1694.2103271484375 -1705.986572265625 -1717.00341796875 -1726.7667236328125 -1735.4068603515625 -1742.788818359375 -1749.20166015625 -1754.1290283203125 -1757.943115234375 -1760.757080078125 -1762.5760498046875 -1763.6453857421875 -1764.1903076171875 -1764.2513427734375 -1763.867431640625 -1763.1768798828125 -1762.306396484375 -1761.28515625 -1760.166015625 -1758.9713134765625 -1757.7353515625 -1756.5 -1755.2730712890625 -1754.08203125 -1752.918701171875 -1751.7877197265625 -1750.690673828125 -1749.64599609375 -1748.64501953125 -1747.6827392578125 -1746.7581787109375 -1745.8714599609375 -1745.029296875 -1744.2181396484375 -1743.43505859375 -1742.6778564453125 -1741.9464111328125 -1741.2384033203125 -1740.54638671875 -1739.8681640625 -1739.2017822265625 -1738.546875 -1737.8997802734375 -1737.256591796875 -1736.6195068359375 -1735.98876953125 -1735.35986328125 -1734.7352294921875 -1734.1143798828125 -1733.498046875 -1732.886474609375 -1732.2818603515625 -1731.686767578125 -1731.1007080078125 -1730.525146484375 -1729.960693359375 -1729.412353515625 -1728.8795166015625 -1728.360595703125 -1727.8553466796875 -1727.3631591796875 -1726.8848876953125 -1726.413330078125 -1725.9443359375 -1725.4736328125 -1724.9927978515625 -1724.49462890625 -1723.976806640625 -1723.43896484375 -1722.8831787109375 -1722.304931640625 -1721.750244140625 -1721.2467041015625 -1720.82763671875 -1720.5225830078125 -1720.3604736328125 -1720.301025390625 -1720.2987060546875 -1720.3355712890625 -1720.3951416015625 -1720.45068359375 -1720.4974365234375 -1720.5150146484375 -1720.49169921875 -1720.41064453125 -1720.2440185546875 -1719.99951171875 -1719.669189453125 -1719.2484130859375 -1718.7249755859375 -1718.08447265625 -1717.3460693359375 -1716.512939453125 -1715.6038818359375 -1714.6488037109375 -1713.412109375 -1712.1900634765625 -1710.852783203125 -1709.4185791015625 -99999 -99999 -99999 -99999 -99999 -99999 -99999 -99999 -99999
 -99999 -99999 -99999 -99999 -99999 -99999 -99999 -99999 -99999 -99999 -99999 -99999 -99999 -99999 -99999 -99999 -99999 -99999 -99999 -99999 -99999 -99999 -99999 -99999 -99999 -99999 -99999 -99999 -99999 -99999 -1367.4754638671875 -1370.5267333984375 -1373.821533203125 -1377.617431640625 -1381.755859375 -1386.564453125 -1391.9910888671875 -1398.2691650390625 -1405.4696044921875 -1413.2479248046875 -1421.56787109375 -1430.2393798828125 -1439.1776123046875 -1448.289306640625 -1457.54443359375 -1466.8570556640625 -1476.2152099609375 -1485.586181640625 -1494.87060546875 -1504.2789306640625 -1513.629150390625 -1523.0025634765625 -1532.3892822265625 -1541.8309326171875 -1551.3328857421875 -1560.7943115234375 -1570.1732177734375 -1579.3411865234375 -1588.29736328125 -1596.810546875 -1604.3564453125 -1611.1007080078125 -1616.65966796875 -1621.0611572265625 -1623.4815673828125 -1623.8148193359375 -1622.0611572265625 -1618.090576171875 -1612.000732421875 -1603.2027587890625 -1592.4566650390625 -1580.731201171875 -1568.57421875 -1558.654296875 -1552.0594482421875 -1548.5364990234375 -1549.4921875 -1553.0072021484375 -1558.749267578125 -1565.6685791015625 -1572.7591552734375 -1579.985107421875 -1588.0115966796875 -1596.7689208984375 -1607.1219482421875 -1618.6309814453125 -1630.856201171875 -1644.00244140625 -1657.5760498046875 -1671.3477783203125 -1684.9486083984375 -1698.1810302734375 -1710.90234375 -1722.3828125 -1732.7540283203125 -1741.815673828125 -1749.3184814453125 -1755.408935546875 -1760.3018798828125 -1763.7264404296875 -1766.00390625 -1767.4844970703125 -1768.214599609375 -1768.237548828125 -1767.7672119140625 -1766.9793701171875 -1765.94873046875 -1764.7418212890625 -1763.406005859375 -1762.014404296875 -1760.611572265625 -1759.1949462890625 -1757.8133544921875 -1756.46484375 -1755.1561279296875 -1753.9017333984375 -1752.706298828125 -1751.5615234375 -1750.4671630859375 -1749.422607421875 -1748.436767578125 -1747.5010986328125 -1746.607177734375 -1745.752197265625 -1744.933349609375 -1744.155029296875 -1743.40576171875 -1742.6800537109375 -1741.9752197265625 -1741.2882080078125 -1740.6197509765625 -1739.9617919921875 -1739.3121337890625 -1738.6689453125 -1738.0308837890625 -1737.395263671875 -1736.763671875 -1736.134033203125 -1735.5052490234375 -1734.87841796875 -1734.2550048828125 -1733.6353759765625 -1733.020751953125 -1732.412353515625 -1731.8128662109375 -1731.2254638671875 -1730.6500244140625 -1730.0877685546875 -1729.539794921875 -1729.010009765625 -1728.498046875 -1728 -1727.514404296875 -1727.03857421875 -1726.5682373046875 -1726.093505859375 -1725.60693359375 -1725.1016845703125 -1724.570556640625 -1723.996337890625 -1723.3870849609375 -1722.752685546875 -1722.1077880859375 -1721.47412109375 -1720.960693359375 -1720.6217041015625 -1720.41748046875 -1720.307861328125 -1720.255615234375 -1720.23876953125 -1720.2313232421875 -1720.2215576171875 -1720.1981201171875 -1720.1455078125 -1720.040771484375 -1719.8814697265625 -1719.6595458984375 -1719.3675537109375 -1718.9842529296875 -1718.5008544921875 -1717.9295654296875 -1717.2686767578125 -1716.5223388671875 -1715.7156982421875 -1714.8009033203125 -1713.6572265625 -1712.4913330078125 -1711.2425537109375 -1709.9053955078125 -1708.4810791015625 -99999 -99999 -99999 -99999 -99999 -99999 -99999 -99999 -99999
 -99999 -99999 -99999 -99999 -99999 -99999 -99999 -99999 -99999 -99999 -99999 -99999 -99999 -99999 -99999 -99999 -99999 -99999 -99999 -99999 -99999 -99999 -99999 -99999 -99999 -99999 -99999 -99999 -99999 -99999 -1363.60888671875 -1366.7391357421875 -1370.1290283203125 -1373.82568359375 -1377.887939453125 -1382.558837890625 -1388.143798828125 -1394.6431884765625 -1401.9979248046875 -1410.013427734375 -1418.409423828125 -1427.112548828125 -1436.0921630859375 -1445.166748046875 -1454.40185546875 -1463.6534423828125 -1472.8463134765625 -1481.9949951171875 -1491.063232421875 -1500.07421875 -1509.001708984375 -1517.904296875 -1526.8133544921875 -1535.5528564453125 -1544.451171875 -1553.26904296875 -1561.866943359375 -1570.2489013671875 -1578.404052734375 -1585.9254150390625 -1592.8096923828125 -1598.9310302734375 -1603.7166748046875 -1607.0770263671875 -1608.9508056640625 -1609.2430419921875 -1607.65673828125 -1603.673583984375 -1597.9124755859375 -1590.330322265625 -1581.491455078125 -1571.6182861328125 -1562.559814453125 -1554.8486328125 -1549.255859375 -1547.5255126953125 -1548.560302734375 -1552.116455078125 -1557.9647216796875 -1565.55029296875 -1572.3043212890625 -1579.1583251953125 -1586.8026123046875 -1595.84375 -1606.2554931640625 -1618.2147216796875 -1631.2628173828125 -1645.2421875 -1659.6339111328125 -1674.287109375 -1688.9033203125 -1703.021240234375 -1716.5040283203125 -1728.755126953125 -1739.52734375 -1748.625244140625 -1756.474365234375 -1762.4591064453125 -1766.6656494140625 -1769.7552490234375 -1771.69189453125 -1772.4942626953125 -1772.5179443359375 -1771.9996337890625 -1771.0628662109375 -1769.8575439453125 -1768.37646484375 -1766.7884521484375 -1765.1533203125 -1763.5054931640625 -1761.9022216796875 -1760.3367919921875 -1758.7764892578125 -1757.3250732421875 -1755.9317626953125 -1754.604248046875 -1753.3424072265625 -1752.151123046875 -1751.0341796875 -1749.97705078125 -1748.9755859375 -1748.0264892578125 -1747.128662109375 -1746.2850341796875 -1745.4801025390625 -1744.70947265625 -1743.9691162109375 -1743.2550048828125 -1742.569091796875 -1741.8994140625 -1741.2430419921875 -1740.59716796875 -1739.957763671875 -1739.3258056640625 -1738.6961669921875 -1738.06689453125 -1737.4365234375 -1736.80859375 -1736.1785888671875 -1735.5482177734375 -1734.9180908203125 -1734.2894287109375 -1733.665771484375 -1733.0465087890625 -1732.4345703125 -1731.8314208984375 -1731.2408447265625 -1730.6671142578125 -1730.109130859375 -1729.5679931640625 -1729.0445556640625 -1728.5404052734375 -1728.0548095703125 -1727.581298828125 -1727.1143798828125 -1726.648193359375 -1726.1702880859375 -1725.6669921875 -1725.12744140625 -1724.5433349609375 -1723.9090576171875 -1723.2254638671875 -1722.498291015625 -1721.7701416015625 -1721.1302490234375 -1720.6947021484375 -1720.4937744140625 -1720.345458984375 -1720.22998046875 -1720.135986328125 -1720.05419921875 -1719.97802734375 -1719.871337890625 -1719.7354736328125 -1719.5614013671875 -1719.3416748046875 -1719.0513916015625 -1718.6824951171875 -1718.2403564453125 -1717.7208251953125 -1717.11865234375 -1716.4090576171875 -1715.6993408203125 -1714.7392578125 -1713.7396240234375 -1712.663818359375 -1711.501708984375 -1710.2523193359375 -1708.89794921875 -1707.4503173828125 -99999 -99999 -99999 -99999 -99999 -99999 -99999 -99999 -99999
 -99999 -99999 -99999 -99999 -99999 -99999 -99999 -99999 -99999 -99999 -99999 -99999 -99999 -99999 -99999 -99999 -99999 -99999 -99999 -99999 -99999 -99999 -99999 -99999 -99999 -99999 -99999 -99999 -99999 -99999 -1360.304443359375 -1363.4423828125 -1366.8782958984375 -1370.634521484375 -1374.800537109375 -1379.405029296875 -1384.71435546875 -1391.3238525390625 -1399.178466796875 -1407.30419921875 -1415.7613525390625 -1424.483154296875 -1433.4111328125 -1442.426513671875 -1451.508544921875 -1460.5911865234375 -1469.590087890625 -1478.52978515625 -1487.1900634765625 -1495.8109130859375 -1504.3232421875 -1512.6405029296875 -1520.9051513671875 -1529.0296630859375 -1537.225830078125 -1545.279541015625 -1553.27783203125 -1561.032470703125 -1568.2855224609375 -1575.006591796875 -1581.2291259765625 -1586.52978515625 -1590.7178955078125 -1593.85009765625 -1595.4608154296875 -1595.4320068359375 -1593.7252197265625 -1590.4312744140625 -1585.6773681640625 -1579.4393310546875 -1572.2447509765625 -1564.33642578125 -1557.025634765625 -1551.6295166015625 -1547.9027099609375 -1546.486083984375 -1547.7779541015625 -1551.6849365234375 -1557.5196533203125 -1564.3580322265625 -1571.4859619140625 -1578.5819091796875 -1585.9356689453125 -1594.68017578125 -1605.720458984375 -1618.732177734375 -1632.453369140625 -1647.191650390625 -1662.45751953125 -1677.916015625 -1693.40625 -1708.469970703125 -1722.68359375 -1735.61376953125 -1746.93798828125 -1756.6500244140625 -1764.0064697265625 -1769.6832275390625 -1773.692626953125 -1775.9830322265625 -1777.068359375 -1777.237060546875 -1776.6673583984375 -1775.6241455078125 -1774.02587890625 -1772.23974609375 -1770.3433837890625 -1768.427978515625 -1766.53515625 -1764.6376953125 -1762.8116455078125 -1761.0712890625 -1759.4744873046875 -1757.8662109375 -1756.3914794921875 -1755.0185546875 -1753.727294921875 -1752.512939453125 -1751.3712158203125 -1750.30029296875 -1749.2982177734375 -1748.364501953125 -1747.4827880859375 -1746.648681640625 -1745.8572998046875 -1745.1046142578125 -1744.3917236328125 -1743.7042236328125 -1743.0377197265625 -1742.3863525390625 -1741.748779296875 -1741.1239013671875 -1740.503662109375 -1739.8857421875 -1739.265869140625 -1738.6456298828125 -1738.021728515625 -1737.3955078125 -1736.7666015625 -1736.134033203125 -1735.500244140625 -1734.8642578125 -1734.2291259765625 -1733.5965576171875 -1732.9735107421875 -1732.357666015625 -1731.752685546875 -1731.16162109375 -1730.587646484375 -1730.037353515625 -1729.5078125 -1728.999267578125 -1728.510986328125 -1728.0413818359375 -1727.5828857421875 -1727.1309814453125 -1726.6717529296875 -1726.19287109375 -1725.6715087890625 -1725.089111328125 -1724.43603515625 -1723.7193603515625 -1722.9560546875 -1722.1673583984375 -1721.444580078125 -1720.974853515625 -1720.6512451171875 -1720.40673828125 -1720.2215576171875 -1720.051025390625 -1719.8797607421875 -1719.705322265625 -1719.51806640625 -1719.3192138671875 -1719.06494140625 -1718.7568359375 -1718.3948974609375 -1717.973388671875 -1717.48583984375 -1716.9005126953125 -1716.236083984375 -1715.5655517578125 -1714.703857421875 -1713.739013671875 -1712.7364501953125 -1711.6436767578125 -1710.452880859375 -1709.171630859375 -1707.8087158203125 -1706.3653564453125 -99999 -99999 -99999 -99999 -99999 -99999 -99999 -99999 -99999
 -99999 -99999 -99999 -99999 -99999 -99999 -99999 -99999 -99999 -99999 -99999 -99999 -99999 -99999 -99999 -99999 -99999 -99999 -99999 -99999 -99999 -99999 -99999 -99999 -99999 -99999 -99999 -99999 -99999 -99999 -1357.2646484375 -1360.6102294921875 -1364.200439453125 -1368.122802734375 -1372.3851318359375 -1377.0802001953125 -1382.3466796875 -1389.2681884765625 -1397.1658935546875 -1405.2752685546875 -1413.675537109375 -1422.2518310546875 -1431.0634765625 -1439.994873046875 -1448.9144287109375 -1457.8216552734375 -1466.5609130859375 -1475.10302734375 -1483.39892578125 -1491.4764404296875 -1499.4100341796875 -1507.1519775390625 -1514.847900390625 -1522.44140625 -1529.7689208984375 -1537.1348876953125 -1544.370849609375 -1551.34326171875 -1557.990478515625 -1564.2401123046875 -1569.8145751953125 -1574.45654296875 -1578.3028564453125 -1581.053466796875 -1582.4853515625 -1582.559326171875 -1581.29541015625 -1578.576171875 -1574.5450439453125 -1569.422119140625 -1563.7049560546875 -1558.0889892578125 -1553.0982666015625 -1548.7457275390625 -1546.1585693359375 -1545.991455078125 -1547.822998046875 -1551.4615478515625 -1557.0009765625 -1563.5601806640625 -1570.6722412109375 -1577.931640625 -1585.26611328125 -1594.3729248046875 -1606.35400390625 -1619.9365234375 -1634.474365234375 -1649.9072265625 -1665.8758544921875 -1682.3189697265625 -1698.7012939453125 -1714.6866455078125 -1729.875732421875 -1743.3709716796875 -1755.140625 -1764.8289794921875 -1772.24267578125 -1777.28857421875 -1780.46240234375 -1782.1123046875 -1782.5206298828125 -1781.9483642578125 -1780.4459228515625 -1778.5540771484375 -1776.405029296875 -1774.210693359375 -1771.921630859375 -1769.612060546875 -1767.3912353515625 -1765.289306640625 -1763.328857421875 -1761.46630859375 -1759.729248046875 -1758.086181640625 -1756.5711669921875 -1755.1556396484375 -1753.833984375 -1752.612060546875 -1751.4703369140625 -1750.4156494140625 -1749.429931640625 -1748.508056640625 -1747.644775390625 -1746.8355712890625 -1746.0804443359375 -1745.36279296875 -1744.6763916015625 -1744.0130615234375 -1743.3758544921875 -1742.7589111328125 -1742.1519775390625 -1741.5489501953125 -1740.946044921875 -1740.346923828125 -1739.7459716796875 -1739.1397705078125 -1738.525390625 -1737.900634765625 -1737.2762451171875 -1736.642822265625 -1736.00341796875 -1735.360595703125 -1734.7177734375 -1734.0738525390625 -1733.4334716796875 -1732.799560546875 -1732.1807861328125 -1731.5765380859375 -1730.9886474609375 -1730.421875 -1729.8787841796875 -1729.3663330078125 -1728.8775634765625 -1728.4146728515625 -1727.9715576171875 -1727.5413818359375 -1727.105712890625 -1726.6544189453125 -1726.168212890625 -1725.6175537109375 -1724.971435546875 -1724.240966796875 -1723.45361328125 -1722.653564453125 -1721.9072265625 -1721.309326171875 -1720.8883056640625 -1720.533447265625 -1720.220703125 -1719.938232421875 -1719.6861572265625 -1719.44091796875 -1719.1627197265625 -1718.8577880859375 -1718.5213623046875 -1718.1524658203125 -1717.7332763671875 -1717.230712890625 -1716.665771484375 -1716.0501708984375 -1715.35546875 -1714.6024169921875 -1713.66748046875 -1712.71923828125 -1711.67529296875 -1710.5465087890625 -1709.3388671875 -1708.0458984375 -1706.669921875 -1705.2010498046875 -1703.655029296875 -99999 -99999 -99999 -99999 -99999 -99999 -99999 -99999
 -99999 -99999 -99999 -99999 -99999 -99999 -99999 -99999 -99999 -99999 -99999 -99999 -99999 -99999 -99999 -99999 -99999 -99999 -99999 -99999 -99999 -99999 -99999 -99999 -99999 -99999 -99999 -99999 -99999 -99999 -1354.593994140625 -1358.2030029296875 -1361.9786376953125 -1366.044677734375 -1370.5799560546875 -1375.655029296875 -1381.3812255859375 -1388.2484130859375 -1395.892578125 -1403.82177734375 -1412.013427734375 -1420.430908203125 -1429.048828125 -1437.751953125 -1446.4681396484375 -1455.1729736328125 -1463.63232421875 -1471.8607177734375 -1479.836181640625 -1487.277587890625 -1494.558837890625 -1501.71240234375 -1508.5618896484375 -1515.34033203125 -1522.2098388671875 -1528.947509765625 -1535.4356689453125 -1541.7945556640625 -1547.8804931640625 -1553.4051513671875 -1558.412109375 -1562.79736328125 -1566.3172607421875 -1568.802978515625 -1570.2091064453125 -1570.5491943359375 -1569.6068115234375 -1567.5333251953125 -1564.5009765625 -1560.8699951171875 -1556.7508544921875 -1552.6005859375 -1548.6646728515625 -1546.270751953125 -1545.1541748046875 -1545.55126953125 -1547.71630859375 -1551.5499267578125 -1556.963134765625 -1563.374755859375 -1570.5125732421875 -1577.9866943359375 -1586.1258544921875 -1595.6455078125 -1608.437255859375 -1622.3232421875 -1637.3316650390625 -1653.244384765625 -1669.831787109375 -1686.841552734375 -1704.243896484375 -1721.2225341796875 -1737.301025390625 -1751.856201171875 -1764.0528564453125 -1773.554443359375 -1780.656982421875 -1785.1021728515625 -1787.5400390625 -1788.3045654296875 -1787.4688720703125 -1785.7786865234375 -1783.6148681640625 -1781.13037109375 -1778.3653564453125 -1775.51904296875 -1772.7674560546875 -1770.2252197265625 -1767.8045654296875 -1765.5196533203125 -1763.3948974609375 -1761.4306640625 -1759.5877685546875 -1757.9599609375 -1756.4229736328125 -1754.99853515625 -1753.6790771484375 -1752.46826171875 -1751.345703125 -1750.3094482421875 -1749.345458984375 -1748.4559326171875 -1747.6368408203125 -1746.87060546875 -1746.14697265625 -1745.4613037109375 -1744.8170166015625 -1744.2032470703125 -1743.6072998046875 -1743.0184326171875 -1742.4385986328125 -1741.869384765625 -1741.3006591796875 -1740.7254638671875 -1740.1397705078125 -1739.5469970703125 -1738.94677734375 -1738.3353271484375 -1737.710693359375 -1737.0770263671875 -1736.435791015625 -1735.785400390625 -1735.1298828125 -1734.4736328125 -1733.8211669921875 -1733.173583984375 -1732.5330810546875 -1731.9058837890625 -1731.3023681640625 -1730.7227783203125 -1730.16845703125 -1729.6444091796875 -1729.15234375 -1728.6949462890625 -1728.261474609375 -1727.850341796875 -1727.454833984375 -1727.059326171875 -1726.6180419921875 -1726.10693359375 -1725.4864501953125 -1724.72900390625 -1723.9114990234375 -1723.0946044921875 -1722.3240966796875 -1721.65966796875 -1721.0892333984375 -1720.61474609375 -1720.21630859375 -1719.8509521484375 -1719.4832763671875 -1719.11962890625 -1718.7589111328125 -1718.3861083984375 -1717.9796142578125 -1717.5137939453125 -1717.0032958984375 -1716.4462890625 -1715.848388671875 -1715.192138671875 -1714.4359130859375 -1713.546875 -1712.6270751953125 -1711.631103515625 -1710.5589599609375 -1709.4072265625 -1708.1781005859375 -1706.85400390625 -1705.45556640625 -1703.978271484375 -1702.4232177734375 -99999 -99999 -99999 -99999 -99999 -99999 -99999 -99999
 -99999 -99999 -99999 -99999 -99999 -99999 -99999 -99999 -99999 -99999 -99999 -99999 -99999 -99999 -99999 -99999 -99999 -99999 -99999 -99999 -99999 -99999 -99999 -99999 -99999 -99999 -99999 -99999 -99999 -1348.7313232421875 -1352.26953125 -1356.0390625 -1360.14501953125 -1364.447265625 -1369.2581787109375 -1374.5853271484375 -1380.5523681640625 -1387.373291015625 -1394.7474365234375 -1402.56494140625 -1410.5560302734375 -1418.794677734375 -1427.232666015625 -1435.8076171875 -1444.3446044921875 -1452.752685546875 -1461.020263671875 -1468.7816162109375 -1476.13330078125 -1483.1156005859375 -1489.684814453125 -1496.0010986328125 -1502.274169921875 -1508.4449462890625 -1514.385498046875 -1520.3807373046875 -1526.3775634765625 -1532.1295166015625 -1537.659423828125 -1542.7978515625 -1547.5498046875 -1551.52978515625 -1554.7996826171875 -1557.19482421875 -1558.705322265625 -1559.2607421875 -1558.8975830078125 -1557.752197265625 -1555.572021484375 -1552.9864501953125 -1550.0445556640625 -1547.5482177734375 -1545.468017578125 -1544.0687255859375 -1543.824462890625 -1544.9974365234375 -1547.8232421875 -1551.9761962890625 -1557.4481201171875 -1563.9761962890625 -1571.237548828125 -1579.2115478515625 -1588.2705078125 -1599.1790771484375 -1611.759033203125 -1625.7677001953125 -1641.1246337890625 -1657.5457763671875 -1674.4189453125 -1692.062255859375 -1710.2489013671875 -1728.513671875 -1745.6038818359375 -1761.0953369140625 -1773.5963134765625 -1782.92822265625 -1789.5621337890625 -1793.2352294921875 -1794.2763671875 -1793.6429443359375 -1791.9031982421875 -1789.359375 -1786.1708984375 -1782.6788330078125 -1779.3848876953125 -1776.1807861328125 -1773.115478515625 -1770.2352294921875 -1767.58984375 -1765.211669921875 -1763.02392578125 -1761.0086669921875 -1759.194580078125 -1757.5006103515625 -1755.959228515625 -1754.55322265625 -1753.263671875 -1752.07666015625 -1750.980224609375 -1749.982177734375 -1749.0718994140625 -1748.2313232421875 -1747.4505615234375 -1746.7235107421875 -1746.0579833984375 -1745.4361572265625 -1744.838623046875 -1744.26318359375 -1743.7059326171875 -1743.1710205078125 -1742.641357421875 -1742.10205078125 -1741.559326171875 -1741.010498046875 -1740.455322265625 -1739.885009765625 -1739.295166015625 -1738.6922607421875 -1738.0738525390625 -1737.442138671875 -1736.7978515625 -1736.1414794921875 -1735.4783935546875 -1734.8095703125 -1734.13671875 -1733.4686279296875 -1732.8118896484375 -1732.1680908203125 -1731.5406494140625 -1730.93603515625 -1730.366455078125 -1729.8331298828125 -1729.3338623046875 -1728.87353515625 -1728.4520263671875 -1728.063232421875 -1727.693115234375 -1727.3299560546875 -1726.96826171875 -1726.5673828125 -1725.9378662109375 -1725.1597900390625 -1724.2991943359375 -1723.4383544921875 -1722.6234130859375 -1721.8994140625 -1721.260498046875 -1720.6929931640625 -1720.166259765625 -1719.68212890625 -1719.237548828125 -1718.7987060546875 -1718.3489990234375 -1717.8670654296875 -1717.366455078125 -1716.8389892578125 -1716.268798828125 -1715.6400146484375 -1715.0355224609375 -1714.206787109375 -1713.3818359375 -1712.49267578125 -1711.5350341796875 -1710.506591796875 -1709.4036865234375 -1708.21142578125 -1706.9464111328125 -1705.6041259765625 -1704.189208984375 -1702.6976318359375 -1701.12548828125 -99999 -99999 -99999 -99999 -99999 -99999 -99999 -99999
 -99999 -99999 -99999 -99999 -99999 -99999 -99999 -99999 -99999 -99999 -99999 -99999 -99999 -99999 -99999 -99999 -99999 -99999 -99999 -99999 -99999 -99999 -99999 -99999 -99999 -99999 -99999 -99999 -99999 -1346.4752197265625 -1350.1724853515625 -1354.110595703125 -1358.4205322265625 -1363.0118408203125 -1368.0140380859375 -1373.606689453125 -1379.77685546875 -1386.5455322265625 -1393.7811279296875 -1401.396240234375 -1409.2626953125 -1417.317626953125 -1425.5467529296875 -1433.911376953125 -1442.2899169921875 -1450.5244140625 -1458.4285888671875 -1465.8826904296875 -1472.7900390625 -1479.0286865234375 -1484.739013671875 -1490.16064453125 -1495.6859130859375 -1501.056884765625 -1506.5322265625 -1511.9591064453125 -1517.34521484375 -1522.5667724609375 -1527.6651611328125 -1532.457763671875 -1536.82275390625 -1540.5927734375 -1543.8040771484375 -1546.364990234375 -1548.1097412109375 -1548.9820556640625 -1549.0709228515625 -1548.4798583984375 -1547.36767578125 -1546.0667724609375 -1544.4442138671875 -1542.9705810546875 -1541.9403076171875 -1541.746826171875 -1542.7095947265625 -1544.7611083984375 -1548.030517578125 -1552.502685546875 -1558.234130859375 -1565.1390380859375 -1572.980712890625 -1581.624267578125 -1591.7432861328125 -1602.9951171875 -1615.8206787109375 -1630.0902099609375 -1645.7685546875 -1662.3818359375 -1679.325927734375 -1697.0233154296875 -1716.37841796875 -1735.74072265625 -1754.310791015625 -1770.378173828125 -1783.568115234375 -1793.07861328125 -1798.46923828125 -1800.6824951171875 -1800.5596923828125 -1798.816162109375 -1795.5299072265625 -1791.6358642578125 -1787.6455078125 -1783.6260986328125 -1779.705078125 -1775.9468994140625 -1772.6033935546875 -1769.595458984375 -1766.856689453125 -1764.3720703125 -1762.1571044921875 -1760.1661376953125 -1758.3443603515625 -1756.6993408203125 -1755.2042236328125 -1753.8306884765625 -1752.56982421875 -1751.43408203125 -1750.404296875 -1749.46142578125 -1748.596435546875 -1747.8031005859375 -1747.0958251953125 -1746.443115234375 -1745.8323974609375 -1745.2591552734375 -1744.7171630859375 -1744.21484375 -1743.717529296875 -1743.2239990234375 -1742.7325439453125 -1742.239990234375 -1741.7452392578125 -1741.2274169921875 -1740.6937255859375 -1740.1436767578125 -1739.576171875 -1738.9881591796875 -1738.375244140625 -1737.7440185546875 -1737.0994873046875 -1736.437744140625 -1735.7613525390625 -1735.078125 -1734.391845703125 -1733.7060546875 -1733.0223388671875 -1732.3505859375 -1731.70263671875 -1731.0789794921875 -1730.484375 -1729.926513671875 -1729.4171142578125 -1728.9554443359375 -1728.5338134765625 -1728.1485595703125 -1727.801513671875 -1727.4781494140625 -1727.1646728515625 -1726.80859375 -1726.3109130859375 -1725.42822265625 -1724.5313720703125 -1723.65478515625 -1722.818603515625 -1722.0380859375 -1721.3126220703125 -1720.666748046875 -1720.0682373046875 -1719.5040283203125 -1718.954833984375 -1718.4053955078125 -1717.869873046875 -1717.319580078125 -1716.7470703125 -1716.1318359375 -1715.5467529296875 -1714.8109130859375 -1714.0489501953125 -1713.2120361328125 -1712.342529296875 -1711.411376953125 -1710.410888671875 -1709.3297119140625 -1708.179443359375 -1706.9605712890625 -1705.67236328125 -1704.3076171875 -1702.86376953125 -1701.3465576171875 -1699.76220703125 -99999 -99999 -99999 -99999 -99999 -99999 -99999 -99999
 -99999 -99999 -99999 -99999 -99999 -99999 -99999 -99999 -99999 -99999 -99999 -99999 -99999 -99999 -99999 -99999 -99999 -99999 -99999 -99999 -99999 -99999 -99999 -99999 -99999 -99999 -99999 -99999 -99999 -1344.309326171875 -1348.2099609375 -1352.3973388671875 -1356.9451904296875 -1361.7047119140625 -1366.966064453125 -1372.706298828125 -1378.88037109375 -1385.56982421875 -1392.7574462890625 -1400.2869873046875 -1407.9727783203125 -1415.8980712890625 -1423.955322265625 -1432.1058349609375 -1440.2867431640625 -1448.378662109375 -1456.1337890625 -1463.219482421875 -1469.3798828125 -1474.8555908203125 -1479.8475341796875 -1484.506103515625 -1488.99267578125 -1493.60693359375 -1498.4324951171875 -1503.289306640625 -1508.2406005859375 -1513.115234375 -1517.899658203125 -1522.4176025390625 -1526.556884765625 -1530.2593994140625 -1533.461181640625 -1536.0882568359375 -1538.104248046875 -1539.233642578125 -1539.998291015625 -1540.1119384765625 -1539.8685302734375 -1539.4305419921875 -1538.9581298828125 -1538.6351318359375 -1538.917236328125 -1539.768798828125 -1541.488037109375 -1544.171142578125 -1548.0855712890625 -1553.3358154296875 -1559.4476318359375 -1566.6832275390625 -1574.890625 -1584.3529052734375 -1594.995849609375 -1606.89111328125 -1620.2557373046875 -1634.9468994140625 -1650.8411865234375 -1667.5042724609375 -1684.3494873046875 -1702.56689453125 -1722.771240234375 -1743.674560546875 -1763.35107421875 -1780.892333984375 -1793.6827392578125 -1803.340576171875 -1807.57470703125 -1808.0162353515625 -1806.2127685546875 -1802.455810546875 -1797.927978515625 -1793.0447998046875 -1788.0606689453125 -1783.2457275390625 -1778.8695068359375 -1774.91455078125 -1771.3570556640625 -1768.19775390625 -1765.46533203125 -1763.046142578125 -1760.864501953125 -1758.9073486328125 -1757.16845703125 -1755.574951171875 -1754.1217041015625 -1752.824951171875 -1751.649658203125 -1750.5770263671875 -1749.600341796875 -1748.7132568359375 -1747.93701171875 -1747.2293701171875 -1746.5841064453125 -1745.993896484375 -1745.45458984375 -1744.96728515625 -1744.4993896484375 -1744.049560546875 -1743.611572265625 -1743.1829833984375 -1742.7509765625 -1742.303955078125 -1741.8433837890625 -1741.3662109375 -1740.87060546875 -1740.3448486328125 -1739.79296875 -1739.21728515625 -1738.6181640625 -1737.9940185546875 -1737.342529296875 -1736.6734619140625 -1735.9908447265625 -1735.294921875 -1734.586669921875 -1733.878173828125 -1733.173583984375 -1732.4781494140625 -1731.7972412109375 -1731.1385498046875 -1730.521728515625 -1729.9447021484375 -1729.412109375 -1728.9276123046875 -1728.5018310546875 -1728.1224365234375 -1727.7728271484375 -1727.4443359375 -1727.1265869140625 -1726.7716064453125 -1726.2122802734375 -1725.441162109375 -1724.5792236328125 -1723.7069091796875 -1722.8585205078125 -1722.051513671875 -1721.2882080078125 -1720.5682373046875 -1719.880859375 -1719.2330322265625 -1718.605224609375 -1717.9847412109375 -1717.3631591796875 -1716.7171630859375 -1716.0587158203125 -1715.420654296875 -1714.6727294921875 -1713.8812255859375 -1713.0614013671875 -1712.196533203125 -1711.2698974609375 -1710.2747802734375 -1709.2200927734375 -1708.1033935546875 -1706.9234619140625 -1705.6688232421875 -1704.337646484375 -1702.9405517578125 -1701.4781494140625 -1699.950927734375 -1698.34912109375 -99999 -99999 -99999 -99999 -99999 -99999 -99999 -99999
 -99999 -99999 -99999 -99999 -99999 -99999 -99999 -99999 -99999 -99999 -99999 -99999 -99999 -99999 -99999 -99999 -99999 -99999 -99999 -99999 -99999 -99999 -99999 -99999 -99999 -99999 -99999 -99999 -99999 -1342.3143310546875 -1346.3856201171875 -1350.7122802734375 -1355.325927734375 -1360.445556640625 -1365.748291015625 -1371.5701904296875 -1377.9013671875 -1384.5994873046875 -1391.6649169921875 -1399.03466796875 -1406.6907958984375 -1414.45849609375 -1422.3446044921875 -1430.2392578125 -1438.2384033203125 -1446.2525634765625 -1453.8590087890625 -1460.5418701171875 -1466.207763671875 -1470.80322265625 -1474.671630859375 -1478.394287109375 -1482.157470703125 -1486.0594482421875 -1490.1953125 -1494.5477294921875 -1499.17529296875 -1503.7606201171875 -1508.2779541015625 -1512.609619140625 -1516.6826171875 -1520.4344482421875 -1523.6488037109375 -1526.361083984375 -1528.5880126953125 -1530.33642578125 -1531.6258544921875 -1532.40771484375 -1532.96337890625 -1533.4119873046875 -1533.886962890625 -1534.552978515625 -1535.8214111328125 -1537.49658203125 -1540.15673828125 -1543.75390625 -1548.3218994140625 -1553.8709716796875 -1560.493408203125 -1568.3642578125 -1577.1571044921875 -1587.1669921875 -1598.584716796875 -1611.1611328125 -1624.8253173828125 -1640.048828125 -1656.171875 -1673.109130859375 -1690.77001953125 -1709.5924072265625 -1730.2396240234375 -1751.477783203125 -1772.1722412109375 -1790.3525390625 -1804.802734375 -1812.466064453125 -1815.6680908203125 -1814.5584716796875 -1810.338623046875 -1805.0653076171875 -1798.8505859375 -1792.7847900390625 -1787.0255126953125 -1781.684326171875 -1776.9453125 -1772.7637939453125 -1769.263916015625 -1766.2020263671875 -1763.5181884765625 -1761.14794921875 -1759.0374755859375 -1757.27685546875 -1755.609375 -1754.139892578125 -1752.8016357421875 -1751.58203125 -1750.473388671875 -1749.4725341796875 -1748.59765625 -1747.809814453125 -1747.1026611328125 -1746.4696044921875 -1745.9090576171875 -1745.415771484375 -1744.96484375 -1744.548095703125 -1744.1575927734375 -1743.7874755859375 -1743.423095703125 -1743.05615234375 -1742.6810302734375 -1742.292724609375 -1741.8828125 -1741.4439697265625 -1740.978271484375 -1740.4840087890625 -1739.9603271484375 -1739.3997802734375 -1738.8062744140625 -1738.18505859375 -1737.5379638671875 -1736.864501953125 -1736.1697998046875 -1735.4573974609375 -1734.7335205078125 -1734.0029296875 -1733.2698974609375 -1732.544189453125 -1731.8341064453125 -1731.1463623046875 -1730.488525390625 -1729.8701171875 -1729.3172607421875 -1728.81982421875 -1728.3748779296875 -1727.97607421875 -1727.61376953125 -1727.26171875 -1726.8963623046875 -1726.47607421875 -1725.951416015625 -1725.247802734375 -1724.44091796875 -1723.6041259765625 -1722.76220703125 -1721.9327392578125 -1721.1319580078125 -1720.36376953125 -1719.620849609375 -1718.8985595703125 -1718.19140625 -1717.4898681640625 -1716.78515625 -1716.068603515625 -1715.3531494140625 -1714.6175537109375 -1713.7718505859375 -1712.9398193359375 -1712.0584716796875 -1711.12255859375 -1710.1361083984375 -1709.096435546875 -1708.00146484375 -1706.8355712890625 -1705.6029052734375 -1704.3095703125 -1702.9549560546875 -1701.53857421875 -1700.043212890625 -1698.482421875 -1696.8612060546875 -99999 -99999 -99999 -99999 -99999 -99999 -99999 -99999
 -99999 -99999 -99999 -99999 -99999 -99999 -99999 -99999 -99999 -99999 -99999 -99999 -99999 -99999 -99999 -99999 -99999 -99999 -99999 -99999 -99999 -99999 -99999 -99999 -99999 -99999 -99999 -99999 -99999 -1340.3155517578125 -1344.50244140625 -1349.0244140625 -1353.83984375 -1358.9547119140625 -1364.4786376953125 -1370.3753662109375 -1376.6451416015625 -1383.3302001953125 -1390.35107421875 -1397.64453125 -1405.150390625 -1412.8377685546875 -1420.5902099609375 -1428.368896484375 -1436.15625 -1444.15771484375 -1451.81005859375 -1458.5394287109375 -1463.06396484375 -1466.3792724609375 -1469.1328125 -1471.887939453125 -1474.849365234375 -1478.1734619140625 -1481.8616943359375 -1485.87060546875 -1490.134033203125 -1494.5194091796875 -1498.9647216796875 -1503.2620849609375 -1507.2962646484375 -1511.01904296875 -1514.3787841796875 -1517.3397216796875 -1519.8846435546875 -1521.9619140625 -1523.715576171875 -1525.214599609375 -1526.525634765625 -1527.6611328125 -1529.0279541015625 -1530.6751708984375 -1532.727294921875 -1535.3056640625 -1538.779052734375 -1542.9622802734375 -1548.0242919921875 -1554.47705078125 -1561.6683349609375 -1569.9991455078125 -1579.3006591796875 -1590.0362548828125 -1601.7930908203125 -1614.7391357421875 -1629.1378173828125 -1644.6832275390625 -1661.3641357421875 -1678.954833984375 -1697.4371337890625 -1717.2222900390625 -1737.922119140625 -1759.3802490234375 -1780.52490234375 -1800.377685546875 -1814.5758056640625 -1823.3665771484375 -1823.233642578125 -1818.5489501953125 -1812.076904296875 -1804.8699951171875 -1797.593505859375 -1790.6634521484375 -1784.22265625 -1778.5452880859375 -1773.775390625 -1769.7205810546875 -1766.28515625 -1763.3623046875 -1760.9149169921875 -1758.736328125 -1756.9039306640625 -1755.265625 -1753.7744140625 -1752.41552734375 -1751.177001953125 -1750.0543212890625 -1749.068603515625 -1748.18115234375 -1747.3883056640625 -1746.6856689453125 -1746.071533203125 -1745.5518798828125 -1745.0948486328125 -1744.692138671875 -1744.333740234375 -1744.0068359375 -1743.7119140625 -1743.4267578125 -1743.1434326171875 -1742.8507080078125 -1742.5389404296875 -1742.208984375 -1741.852294921875 -1741.46533203125 -1741.0399169921875 -1740.5723876953125 -1740.068603515625 -1739.5283203125 -1738.9522705078125 -1738.338623046875 -1737.6842041015625 -1737.006591796875 -1736.3033447265625 -1735.5782470703125 -1734.836669921875 -1734.0810546875 -1733.3216552734375 -1732.56396484375 -1731.8140869140625 -1731.0897216796875 -1730.3948974609375 -1729.7418212890625 -1729.1407470703125 -1728.6014404296875 -1728.143798828125 -1727.7353515625 -1727.3511962890625 -1726.972412109375 -1726.57958984375 -1726.1278076171875 -1725.56787109375 -1724.9080810546875 -1724.1619873046875 -1723.354248046875 -1722.520751953125 -1721.6871337890625 -1720.86083984375 -1720.046875 -1719.253662109375 -1718.4727783203125 -1717.6971435546875 -1716.9227294921875 -1716.158935546875 -1715.384765625 -1714.6190185546875 -1713.713623046875 -1712.8492431640625 -1711.94140625 -1710.994140625 -1710.004150390625 -1708.9697265625 -1707.87109375 -1706.715087890625 -1705.505126953125 -1704.23974609375 -1702.9171142578125 -1701.517578125 -1700.058837890625 -1698.5421142578125 -1696.9674072265625 -1695.330322265625 -99999 -99999 -99999 -99999 -99999 -99999 -99999 -99999
 -99999 -99999 -99999 -99999 -99999 -99999 -99999 -99999 -99999 -99999 -99999 -99999 -99999 -99999 -99999 -99999 -99999 -99999 -99999 -99999 -99999 -99999 -99999 -99999 -99999 -99999 -99999 -99999 -99999 -1338.342529296875 -1342.6866455078125 -1347.280029296875 -1352.15966796875 -1357.4962158203125 -1362.945068359375 -1368.86669921875 -1375.2103271484375 -1381.8226318359375 -1388.7266845703125 -1395.8951416015625 -1403.3995361328125 -1410.84912109375 -1418.531494140625 -1426.2529296875 -1434.0135498046875 -1441.84716796875 -1449.7276611328125 -1455.9569091796875 -1459.491455078125 -1461.3909912109375 -1463.010498046875 -1464.82958984375 -1467.0552978515625 -1469.8717041015625 -1473.228271484375 -1477.083251953125 -1481.2601318359375 -1485.5780029296875 -1489.9376220703125 -1494.2178955078125 -1498.34326171875 -1502.20361328125 -1505.685546875 -1508.843994140625 -1511.6834716796875 -1514.1778564453125 -1516.3941650390625 -1518.3599853515625 -1520.3123779296875 -1522.3004150390625 -1524.41943359375 -1526.7110595703125 -1529.5218505859375 -1533.0069580078125 -1537.04736328125 -1541.9921875 -1547.8692626953125 -1554.6336669921875 -1562.3890380859375 -1571.181640625 -1581.1212158203125 -1592.20068359375 -1604.5640869140625 -1618.1171875 -1632.79443359375 -1648.959228515625 -1666.0609130859375 -1684.202880859375 -1703.3092041015625 -1723.575927734375 -1744.8050537109375 -1766.2362060546875 -1787.6612548828125 -1807.736328125 -1823.7440185546875 -1830.01171875 -1826.7786865234375 -1819.2532958984375 -1810.9039306640625 -1802.55859375 -1794.092041015625 -1786.5433349609375 -1779.726318359375 -1774.0355224609375 -1769.3519287109375 -1765.536865234375 -1762.5341796875 -1759.9271240234375 -1757.87841796875 -1756.060302734375 -1754.45263671875 -1752.9920654296875 -1751.648681640625 -1750.431396484375 -1749.349609375 -1748.363525390625 -1747.4736328125 -1746.6744384765625 -1745.987060546875 -1745.4090576171875 -1744.913818359375 -1744.49462890625 -1744.1290283203125 -1743.836669921875 -1743.5950927734375 -1743.381591796875 -1743.186279296875 -1742.977783203125 -1742.7818603515625 -1742.5738525390625 -1742.343505859375 -1742.08349609375 -1741.772705078125 -1741.4315185546875 -1741.0484619140625 -1740.621826171875 -1740.1483154296875 -1739.6231689453125 -1739.054443359375 -1738.4459228515625 -1737.79931640625 -1737.1163330078125 -1736.405029296875 -1735.6632080078125 -1734.9014892578125 -1734.12451171875 -1733.340087890625 -1732.5540771484375 -1731.7703857421875 -1731.0001220703125 -1730.2509765625 -1729.549560546875 -1728.9071044921875 -1728.336669921875 -1727.84619140625 -1727.416259765625 -1727.019287109375 -1726.6187744140625 -1726.1884765625 -1725.7080078125 -1725.1595458984375 -1724.510009765625 -1723.7752685546875 -1722.989501953125 -1722.1683349609375 -1721.3262939453125 -1720.482421875 -1719.6370849609375 -1718.7945556640625 -1717.954833984375 -1717.12060546875 -1716.29150390625 -1715.517578125 -1714.5843505859375 -1713.704833984375 -1712.796630859375 -1711.8602294921875 -1710.8924560546875 -1709.8956298828125 -1708.838134765625 -1707.735107421875 -1706.5858154296875 -1705.388916015625 -1704.1409912109375 -1702.821533203125 -1701.4488525390625 -1700.0223388671875 -1698.5404052734375 -1696.9971923828125 -1695.386474609375 -1693.721435546875 -99999 -99999 -99999 -99999 -99999 -99999 -99999 -99999
 -99999 -99999 -99999 -99999 -99999 -99999 -99999 -99999 -99999 -99999 -99999 -99999 -99999 -99999 -99999 -99999 -99999 -99999 -99999 -99999 -99999 -99999 -99999 -99999 -99999 -99999 -99999 -99999 -99999 -1336.3197021484375 -1340.7415771484375 -1345.4324951171875 -1350.4215087890625 -1355.7010498046875 -1361.3538818359375 -1367.197509765625 -1373.406982421875 -1379.971923828125 -1386.8106689453125 -1393.8450927734375 -1401.053466796875 -1408.443603515625 -1415.9107666015625 -1423.41455078125 -1431.0174560546875 -1438.709716796875 -1446.05029296875 -1452.499755859375 -1454.4573974609375 -1455.0994873046875 -1455.796630859375 -1456.9447021484375 -1458.790771484375 -1461.318603515625 -1464.521240234375 -1468.3101806640625 -1472.490478515625 -1476.88232421875 -1481.3382568359375 -1485.6861572265625 -1489.8699951171875 -1493.78759765625 -1497.4891357421875 -1500.917236328125 -1503.968994140625 -1506.7860107421875 -1509.45556640625 -1512.0496826171875 -1514.528076171875 -1516.984619140625 -1519.7327880859375 -1522.9010009765625 -1526.458251953125 -1530.4964599609375 -1535.2254638671875 -1540.8087158203125 -1547.1229248046875 -1554.466552734375 -1562.811279296875 -1572.15966796875 -1582.4368896484375 -1594.2056884765625 -1606.8131103515625 -1620.6810302734375 -1635.8408203125 -1652.155029296875 -1669.35595703125 -1688.065673828125 -1707.5675048828125 -1727.88427734375 -1749.1151123046875 -1770.5428466796875 -1791.142822265625 -1810.9779052734375 -1826.6307373046875 -1832.3453369140625 -1823.4593505859375 -1814.9473876953125 -1806.1619873046875 -1797.1414794921875 -1788.3094482421875 -1780.1724853515625 -1773.369384765625 -1767.897216796875 -1763.9091796875 -1760.685546875 -1758.2415771484375 -1756.23828125 -1754.58837890625 -1753.086181640625 -1751.698486328125 -1750.46826171875 -1749.3555908203125 -1748.3167724609375 -1747.3504638671875 -1746.4625244140625 -1745.69287109375 -1745.0316162109375 -1744.464599609375 -1743.984375 -1743.5826416015625 -1743.29052734375 -1743.0714111328125 -1742.9051513671875 -1742.764404296875 -1742.642333984375 -1742.560546875 -1742.4776611328125 -1742.383056640625 -1742.2481689453125 -1742.083251953125 -1741.8929443359375 -1741.65869140625 -1741.3773193359375 -1741.0289306640625 -1740.6322021484375 -1740.183837890625 -1739.684326171875 -1739.13427734375 -1738.5303955078125 -1737.8809814453125 -1737.1954345703125 -1736.4735107421875 -1735.721435546875 -1734.9456787109375 -1734.1490478515625 -1733.337158203125 -1732.51806640625 -1731.70068359375 -1730.8970947265625 -1730.1065673828125 -1729.341064453125 -1728.6185302734375 -1727.9967041015625 -1727.486572265625 -1727.0572509765625 -1726.637939453125 -1726.2117919921875 -1725.762939453125 -1725.265380859375 -1724.68603515625 -1724.0377197265625 -1723.3231201171875 -1722.5435791015625 -1721.7230224609375 -1720.8721923828125 -1720.004150390625 -1719.125 -1718.248779296875 -1717.3675537109375 -1716.4730224609375 -1715.6239013671875 -1714.682373046875 -1713.736572265625 -1712.7877197265625 -1711.824462890625 -1710.83544921875 -1709.7955322265625 -1708.720703125 -1707.608642578125 -1706.4609375 -1705.26513671875 -1704.007080078125 -1702.701904296875 -1701.3482666015625 -1699.9444580078125 -1698.4822998046875 -1696.9571533203125 -1695.3809814453125 -1693.753173828125 -1692.06640625 -99999 -99999 -99999 -99999 -99999 -99999 -99999 -99999
 -99999 -99999 -99999 -99999 -99999 -99999 -99999 -99999 -99999 -99999 -99999 -99999 -99999 -99999 -99999 -99999 -99999 -99999 -99999 -99999 -99999 -99999 -99999 -99999 -99999 -99999 -99999 -99999 -99999 -1334.2403564453125 -1338.7576904296875 -1343.4801025390625 -1348.4937744140625 -1353.7752685546875 -1359.379638671875 -1365.2291259765625 -1371.3951416015625 -1377.8287353515625 -1384.480712890625 -1391.3272705078125 -1398.3621826171875 -1405.4417724609375 -1412.6409912109375 -1419.900634765625 -1426.968994140625 -1433.7728271484375 -1440.0863037109375 -1445.234619140625 -1446.9111328125 -1447.3182373046875 -1447.7911376953125 -1448.585205078125 -1450.017822265625 -1452.457763671875 -1455.7740478515625 -1459.65869140625 -1464.06005859375 -1468.608154296875 -1473.1943359375 -1477.6458740234375 -1481.9364013671875 -1485.98828125 -1489.827392578125 -1493.3599853515625 -1496.7315673828125 -1499.9527587890625 -1502.927734375 -1505.8277587890625 -1508.826171875 -1511.9959716796875 -1515.389404296875 -1518.9781494140625 -1523.021728515625 -1527.8043212890625 -1533.19140625 -1539.2401123046875 -1546.1920166015625 -1554.0301513671875 -1562.7869873046875 -1572.438232421875 -1583.2755126953125 -1595.256103515625 -1608.2490234375 -1622.407470703125 -1637.79443359375 -1654.2867431640625 -1671.7138671875 -1690.3175048828125 -1709.6666259765625 -1729.86865234375 -1750.36181640625 -1770.6676025390625 -1790.0692138671875 -1807.2247314453125 -1820.26513671875 -1820.9564208984375 -1814.535400390625 -1806.7635498046875 -1798.5196533203125 -1789.45751953125 -1780.2989501953125 -1771.7879638671875 -1765.5107421875 -1760.826416015625 -1757.6844482421875 -1755.4537353515625 -1753.80615234375 -1752.29443359375 -1750.9959716796875 -1749.8922119140625 -1748.8780517578125 -1747.8958740234375 -1746.9259033203125 -1746.015869140625 -1745.198486328125 -1744.4603271484375 -1743.803466796875 -1743.2327880859375 -1742.757568359375 -1742.4190673828125 -1742.175537109375 -1742.0068359375 -1741.891845703125 -1741.832763671875 -1741.8450927734375 -1741.8768310546875 -1741.900390625 -1741.9046630859375 -1741.89794921875 -1741.8756103515625 -1741.8128662109375 -1741.686767578125 -1741.504150390625 -1741.270751953125 -1740.980224609375 -1740.628662109375 -1740.2037353515625 -1739.7210693359375 -1739.181884765625 -1738.5875244140625 -1737.9444580078125 -1737.2520751953125 -1736.5220947265625 -1735.7596435546875 -1734.966064453125 -1734.150634765625 -1733.3212890625 -1732.4830322265625 -1731.63623046875 -1730.789794921875 -1729.9510498046875 -1729.135009765625 -1728.3541259765625 -1727.633056640625 -1727.0963134765625 -1726.66259765625 -1726.233642578125 -1725.7918701171875 -1725.307373046875 -1724.776611328125 -1724.18701171875 -1723.5301513671875 -1722.8065185546875 -1722.0224609375 -1721.1947021484375 -1720.331298828125 -1719.446044921875 -1718.5408935546875 -1717.616943359375 -1716.6805419921875 -1715.7723388671875 -1714.8250732421875 -1713.8140869140625 -1712.8343505859375 -1711.8321533203125 -1710.7911376953125 -1709.7232666015625 -1708.63134765625 -1707.5087890625 -1706.34326171875 -1705.1256103515625 -1703.86767578125 -1702.5701904296875 -1701.227783203125 -1699.8297119140625 -1698.375244140625 -1696.8736572265625 -1695.3204345703125 -1693.722412109375 -1692.0626220703125 -1690.3441162109375 -1688.58349609375 -99999 -99999 -99999 -99999 -99999 -99999 -99999
 -99999 -99999 -99999 -99999 -99999 -99999 -99999 -99999 -99999 -99999 -99999 -99999 -99999 -99999 -99999 -99999 -99999 -99999 -99999 -99999 -99999 -99999 -99999 -99999 -99999 -99999 -99999 -99999 -1327.7655029296875 -1332.09375 -1336.643798828125 -1341.41357421875 -1346.412109375 -1351.6668701171875 -1357.2286376953125 -1362.99462890625 -1369.030029296875 -1375.3582763671875 -1381.828857421875 -1388.44091796875 -1395.132568359375 -1401.97265625 -1408.7008056640625 -1415.3184814453125 -1421.81884765625 -1427.9237060546875 -1433.15478515625 -1436.6102294921875 -1438.4757080078125 -1439.04736328125 -1439.41650390625 -1439.9080810546875 -1441.084228515625 -1443.5850830078125 -1447.0469970703125 -1451.46728515625 -1456.133544921875 -1460.8748779296875 -1465.5753173828125 -1470.1444091796875 -1474.5797119140625 -1478.7208251953125 -1482.66015625 -1486.3780517578125 -1489.9632568359375 -1493.3470458984375 -1496.68359375 -1500.083740234375 -1503.4664306640625 -1506.9959716796875 -1510.7816162109375 -1515.0579833984375 -1519.7554931640625 -1524.9627685546875 -1530.7606201171875 -1537.3348388671875 -1544.772705078125 -1552.9219970703125 -1562.1368408203125 -1572.3004150390625 -1583.4285888671875 -1595.678955078125 -1608.90771484375 -1623.1756591796875 -1638.6263427734375 -1655.075439453125 -1672.36083984375 -1690.6448974609375 -1709.5413818359375 -1728.660888671875 -1747.9727783203125 -1766.3885498046875 -1783.629638671875 -1797.7900390625 -1806.995849609375 -1809.25048828125 -1804.276123046875 -1797.137451171875 -1789.4210205078125 -1780.7030029296875 -1770.2540283203125 -1761.70068359375 -1756.123046875 -1753.19677734375 -1751.431640625 -1750.07275390625 -1749.0533447265625 -1748.28955078125 -1747.56640625 -1746.773193359375 -1745.977294921875 -1745.1873779296875 -1744.4329833984375 -1743.691162109375 -1742.97216796875 -1742.3201904296875 -1741.75048828125 -1741.317138671875 -1740.9906005859375 -1740.7586669921875 -1740.62060546875 -1740.577392578125 -1740.6407470703125 -1740.74951171875 -1740.8699951171875 -1741.0074462890625 -1741.158203125 -1741.31005859375 -1741.4197998046875 -1741.472900390625 -1741.4813232421875 -1741.442138671875 -1741.34375 -1741.1654052734375 -1740.910888671875 -1740.591552734375 -1740.2032470703125 -1739.745849609375 -1739.2156982421875 -1738.6260986328125 -1737.9853515625 -1737.2899169921875 -1736.551513671875 -1735.7781982421875 -1734.9749755859375 -1734.14892578125 -1733.2996826171875 -1732.43798828125 -1731.572998046875 -1730.7073974609375 -1729.84423828125 -1728.980224609375 -1728.1163330078125 -1727.3411865234375 -1726.757568359375 -1726.3001708984375 -1725.837158203125 -1725.3546142578125 -1724.84130859375 -1724.2830810546875 -1723.664306640625 -1722.9803466796875 -1722.2388916015625 -1721.443359375 -1720.603515625 -1719.720947265625 -1718.803955078125 -1717.8643798828125 -1716.9091796875 -1715.9442138671875 -1715.0045166015625 -1713.9346923828125 -1712.910888671875 -1711.8560791015625 -1710.7833251953125 -1709.6932373046875 -1708.57666015625 -1707.4222412109375 -1706.2254638671875 -1704.9984130859375 -1703.737548828125 -1702.4373779296875 -1701.0853271484375 -1699.684326171875 -1698.242431640625 -1696.75634765625 -1695.22412109375 -1693.6300048828125 -1691.9945068359375 -1690.30322265625 -1688.5712890625 -1686.7906494140625 -99999 -99999 -99999 -99999 -99999 -99999 -99999
 -99999 -99999 -99999 -99999 -99999 -99999 -99999 -99999 -99999 -99999 -99999 -99999 -99999 -99999 -99999 -99999 -99999 -99999 -99999 -99999 -99999 -99999 -99999 -99999 -99999 -99999 -99999 -99999 -1325.5010986328125 -1329.8355712890625 -1334.4129638671875 -1339.18212890625 -1344.1773681640625 -1349.3974609375 -1354.8697509765625 -1360.5828857421875 -1366.4320068359375 -1372.509521484375 -1378.7650146484375 -1385.1219482421875 -1391.5467529296875 -1398.0081787109375 -1404.2889404296875 -1410.3985595703125 -1416.1583251953125 -1421.2449951171875 -1425.4764404296875 -1428.5411376953125 -1430.317138671875 -1430.9844970703125 -1431.0926513671875 -1431.21826171875 -1432.1744384765625 -1434.476806640625 -1438.9798583984375 -1443.9237060546875 -1448.829833984375 -1453.88916015625 -1458.68603515625 -1463.3143310546875 -1467.7572021484375 -1471.9847412109375 -1476.0242919921875 -1479.8612060546875 -1483.567138671875 -1487.1693115234375 -1490.7852783203125 -1494.4053955078125 -1498.1458740234375 -1502.1612548828125 -1506.42822265625 -1511.0567626953125 -1516.121337890625 -1521.7811279296875 -1528.1500244140625 -1535.1395263671875 -1542.9127197265625 -1551.626953125 -1561.0946044921875 -1571.44091796875 -1582.7376708984375 -1595.2606201171875 -1608.566162109375 -1622.82958984375 -1638.3038330078125 -1654.53369140625 -1671.566650390625 -1689.3165283203125 -1707.3463134765625 -1725.673583984375 -1743.6295166015625 -1760.08251953125 -1775.4163818359375 -1786.5450439453125 -1793.7423095703125 -1795.338623046875 -1792.470947265625 -1786.731689453125 -1779.323486328125 -1769.7078857421875 -1758.9130859375 -1750.236083984375 -1746.6536865234375 -1745.385986328125 -1745.093505859375 -1745.101806640625 -1744.8914794921875 -1744.5506591796875 -1744.153076171875 -1743.6903076171875 -1743.1888427734375 -1742.5814208984375 -1741.931640625 -1741.2796630859375 -1740.654052734375 -1740.109375 -1739.6533203125 -1739.3046875 -1739.069580078125 -1738.9666748046875 -1739.0087890625 -1739.124755859375 -1739.30810546875 -1739.543701171875 -1739.831787109375 -1740.1436767578125 -1740.41552734375 -1740.663818359375 -1740.8779296875 -1741.055419921875 -1741.168701171875 -1741.193359375 -1741.149658203125 -1741.0343017578125 -1740.841552734375 -1740.55908203125 -1740.189453125 -1739.7486572265625 -1739.2398681640625 -1738.6575927734375 -1738.010498046875 -1737.310546875 -1736.566162109375 -1735.7890625 -1734.97265625 -1734.1317138671875 -1733.2738037109375 -1732.4036865234375 -1731.5255126953125 -1730.6434326171875 -1729.76611328125 -1728.8946533203125 -1728.028076171875 -1727.207275390625 -1726.5299072265625 -1725.999267578125 -1725.478759765625 -1724.947265625 -1724.3798828125 -1723.7681884765625 -1723.1109619140625 -1722.4013671875 -1721.639404296875 -1720.8172607421875 -1719.94677734375 -1719.0379638671875 -1718.09765625 -1717.1300048828125 -1716.1268310546875 -1715.16015625 -1714.0750732421875 -1712.9989013671875 -1711.91845703125 -1710.817626953125 -1709.694580078125 -1708.5372314453125 -1707.34765625 -1706.1361083984375 -1704.893310546875 -1703.61767578125 -1702.293701171875 -1700.930908203125 -1699.532958984375 -1698.094970703125 -1696.615966796875 -1695.0804443359375 -1693.502685546875 -1691.8807373046875 -1690.21435546875 -1688.5035400390625 -1686.737060546875 -1684.927490234375 -99999 -99999 -99999 -99999 -99999 -99999 -99999
 -99999 -99999 -99999 -99999 -99999 -99999 -99999 -99999 -99999 -99999 -99999 -99999 -99999 -99999 -99999 -99999 -99999 -99999 -99999 -99999 -99999 -99999 -99999 -99999 -99999 -99999 -99999 -99999 -1323.1507568359375 -1327.5230712890625 -1332.0870361328125 -1336.8187255859375 -1341.7452392578125 -1346.9010009765625 -1352.2694091796875 -1357.8717041015625 -1363.55029296875 -1369.42041015625 -1375.4327392578125 -1381.5125732421875 -1387.535400390625 -1393.5352783203125 -1399.4110107421875 -1404.95556640625 -1410.0487060546875 -1414.58642578125 -1418.352294921875 -1421.00537109375 -1422.5145263671875 -1423.3095703125 -1423.550048828125 -1423.503173828125 -1423.4324951171875 -1426.912841796875 -1431.8873291015625 -1437.268310546875 -1442.5611572265625 -1447.69091796875 -1452.5478515625 -1457.201171875 -1461.601318359375 -1465.8009033203125 -1469.853759765625 -1473.7587890625 -1477.5816650390625 -1481.345458984375 -1485.1353759765625 -1488.97900390625 -1493.0343017578125 -1497.3397216796875 -1501.9051513671875 -1506.913330078125 -1512.460205078125 -1518.5306396484375 -1525.2012939453125 -1532.5032958984375 -1540.654052734375 -1549.5789794921875 -1559.2655029296875 -1569.961181640625 -1581.4686279296875 -1593.995849609375 -1607.3792724609375 -1621.61962890625 -1636.7816162109375 -1652.699462890625 -1669.2518310546875 -1686.25830078125 -1703.3365478515625 -1720.3521728515625 -1736.712890625 -1751.67724609375 -1764.7308349609375 -1774.388671875 -1780.76123046875 -1782.876708984375 -1780.7149658203125 -1775.4952392578125 -1768.245361328125 -1759.110595703125 -1748.084228515625 -1739.387451171875 -1737.7813720703125 -1739.481689453125 -1740.239013671875 -1740.8145751953125 -1741.1259765625 -1741.2137451171875 -1741.1295166015625 -1740.86474609375 -1740.4876708984375 -1740.0145263671875 -1739.4686279296875 -1738.8897705078125 -1738.32568359375 -1737.8316650390625 -1737.4395751953125 -1737.1806640625 -1737.0928955078125 -1737.137939453125 -1737.2999267578125 -1737.5570068359375 -1737.9207763671875 -1738.3438720703125 -1738.7762451171875 -1739.20947265625 -1739.629150390625 -1740.0347900390625 -1740.3582763671875 -1740.621337890625 -1740.8175048828125 -1740.940673828125 -1740.9805908203125 -1740.9091796875 -1740.7525634765625 -1740.5108642578125 -1740.1842041015625 -1739.760498046875 -1739.2489013671875 -1738.669189453125 -1738.027099609375 -1737.326904296875 -1736.572998046875 -1735.7802734375 -1734.9580078125 -1734.1121826171875 -1733.2467041015625 -1732.3675537109375 -1731.4835205078125 -1730.5987548828125 -1729.7154541015625 -1728.83203125 -1727.958984375 -1727.136474609375 -1726.4056396484375 -1725.7574462890625 -1725.1397705078125 -1724.5355224609375 -1723.9102783203125 -1723.2528076171875 -1722.5552978515625 -1721.7977294921875 -1720.9915771484375 -1720.13916015625 -1719.24365234375 -1718.3084716796875 -1717.3243408203125 -1716.312744140625 -1715.30517578125 -1714.23779296875 -1713.1180419921875 -1712.00732421875 -1710.875 -1709.708251953125 -1708.5211181640625 -1707.3095703125 -1706.071533203125 -1704.8056640625 -1703.4952392578125 -1702.1573486328125 -1700.7861328125 -1699.380126953125 -1697.93798828125 -1696.443115234375 -1694.9130859375 -1693.3441162109375 -1691.7294921875 -1690.0792236328125 -1688.37353515625 -1686.62744140625 -1684.8408203125 -1683.01416015625 -99999 -99999 -99999 -99999 -99999 -99999 -99999
 -99999 -99999 -99999 -99999 -99999 -99999 -99999 -99999 -99999 -99999 -99999 -99999 -99999 -99999 -99999 -99999 -99999 -99999 -99999 -99999 -99999 -99999 -99999 -99999 -99999 -99999 -99999 -99999 -1320.753662109375 -1325.0859375 -1329.5968017578125 -1334.3280029296875 -1339.2115478515625 -1344.26416015625 -1349.4808349609375 -1354.873046875 -1360.46142578125 -1366.0643310546875 -1371.8072509765625 -1377.5799560546875 -1383.302978515625 -1388.919189453125 -1394.3387451171875 -1399.3935546875 -1404.168212890625 -1408.098388671875 -1411.3433837890625 -1413.82861328125 -1415.567626953125 -1416.63720703125 -1417.172119140625 -1417.6651611328125 -1418.896240234375 -1421.6722412109375 -1426.6385498046875 -1431.96142578125 -1437.201904296875 -1442.2750244140625 -1447.1383056640625 -1451.680419921875 -1456.0517578125 -1460.21240234375 -1464.19091796875 -1468.0765380859375 -1471.9287109375 -1475.78515625 -1479.687744140625 -1483.75634765625 -1488.0360107421875 -1492.5072021484375 -1497.44970703125 -1502.7821044921875 -1508.572265625 -1514.844970703125 -1521.89990234375 -1529.62841796875 -1537.88427734375 -1547.1121826171875 -1557.0908203125 -1567.8753662109375 -1579.366455078125 -1591.9970703125 -1605.2054443359375 -1619.240966796875 -1634.1328125 -1649.6448974609375 -1665.5172119140625 -1681.8201904296875 -1698.13916015625 -1713.691162109375 -1728.9642333984375 -1742.4420166015625 -1753.6837158203125 -1762.6917724609375 -1767.75341796875 -1769.7088623046875 -1768.58203125 -1764.7706298828125 -1758.724609375 -1750.5335693359375 -1741.6614990234375 -1735.66845703125 -1734.848388671875 -1735.5301513671875 -1736.8167724609375 -1737.7401123046875 -1738.1763916015625 -1738.38134765625 -1738.4090576171875 -1738.290283203125 -1738.023681640625 -1737.5799560546875 -1737.0638427734375 -1736.5096435546875 -1735.9605712890625 -1735.494873046875 -1735.18115234375 -1735.0228271484375 -1735.026611328125 -1735.1905517578125 -1735.5347900390625 -1735.989990234375 -1736.5150146484375 -1737.107177734375 -1737.6915283203125 -1738.2989501953125 -1738.859619140625 -1739.3720703125 -1739.826416015625 -1740.2130126953125 -1740.4962158203125 -1740.6866455078125 -1740.78564453125 -1740.7906494140625 -1740.6978759765625 -1740.4759521484375 -1740.160888671875 -1739.75634765625 -1739.267333984375 -1738.693359375 -1738.03564453125 -1737.3232421875 -1736.5615234375 -1735.7679443359375 -1734.9365234375 -1734.080322265625 -1733.20947265625 -1732.3282470703125 -1731.440673828125 -1730.5511474609375 -1729.65966796875 -1728.758544921875 -1727.8663330078125 -1727.0120849609375 -1726.2310791015625 -1725.5101318359375 -1724.818603515625 -1724.1368408203125 -1723.447509765625 -1722.7227783203125 -1721.9630126953125 -1721.162841796875 -1720.3199462890625 -1719.4315185546875 -1718.4888916015625 -1717.50830078125 -1716.492431640625 -1715.4556884765625 -1714.40576171875 -1713.246337890625 -1712.11083984375 -1710.942626953125 -1709.7503662109375 -1708.5340576171875 -1707.2933349609375 -1706.027587890625 -1704.7249755859375 -1703.395751953125 -1702.037353515625 -1700.6490478515625 -1699.22705078125 -1697.76318359375 -1696.2655029296875 -1694.7305908203125 -1693.1649169921875 -1691.5516357421875 -1689.8968505859375 -1688.204833984375 -1686.4736328125 -1684.7047119140625 -1682.8922119140625 -1681.0352783203125 -99999 -99999 -99999 -99999 -99999 -99999 -99999
 -99999 -99999 -99999 -99999 -99999 -99999 -99999 -99999 -99999 -99999 -99999 -99999 -99999 -99999 -99999 -99999 -99999 -99999 -99999 -99999 -99999 -99999 -99999 -99999 -99999 -99999 -99999 -99999 -1318.2613525390625 -1322.5799560546875 -1327.057861328125 -1331.68505859375 -1336.466064453125 -1341.4415283203125 -1346.545166015625 -1351.7694091796875 -1357.107177734375 -1362.563720703125 -1367.9989013671875 -1373.4649658203125 -1378.8988037109375 -1384.12841796875 -1389.1329345703125 -1393.8382568359375 -1398.168701171875 -1401.999267578125 -1405.0675048828125 -1407.4984130859375 -1409.2640380859375 -1410.6485595703125 -1411.8299560546875 -1413.066650390625 -1414.9058837890625 -1418.302490234375 -1422.697021484375 -1427.69287109375 -1432.823486328125 -1437.802978515625 -1442.4837646484375 -1446.9156494140625 -1451.0538330078125 -1455.0660400390625 -1458.9722900390625 -1462.81689453125 -1466.6524658203125 -1470.514892578125 -1474.51904296875 -1478.6732177734375 -1483.05322265625 -1487.7620849609375 -1492.8428955078125 -1498.3836669921875 -1504.4892578125 -1511.1397705078125 -1518.3814697265625 -1526.215087890625 -1534.7220458984375 -1544.17041015625 -1554.16162109375 -1565.0379638671875 -1576.6539306640625 -1589.0235595703125 -1602.2784423828125 -1616.1046142578125 -1630.558349609375 -1645.5914306640625 -1660.915283203125 -1676.3114013671875 -1691.534912109375 -1706.2958984375 -1720.09375 -1732.298828125 -1742.6490478515625 -1750.95703125 -1755.614013671875 -1757.8349609375 -1757.4256591796875 -1754.702392578125 -1749.9627685546875 -1743.9879150390625 -1738.2628173828125 -1734.4046630859375 -1732.4898681640625 -1733.251953125 -1734.55029296875 -1735.3668212890625 -1735.7042236328125 -1735.9205322265625 -1735.9976806640625 -1735.9219970703125 -1735.6876220703125 -1735.296142578125 -1734.767578125 -1734.1663818359375 -1733.5997314453125 -1733.1400146484375 -1732.8372802734375 -1732.7315673828125 -1732.8878173828125 -1733.239013671875 -1733.747314453125 -1734.38037109375 -1735.087158203125 -1735.8638916015625 -1736.6405029296875 -1737.402587890625 -1738.11572265625 -1738.756591796875 -1739.3201904296875 -1739.79833984375 -1740.1849365234375 -1740.474365234375 -1740.6370849609375 -1740.6829833984375 -1740.6212158203125 -1740.4522705078125 -1740.1778564453125 -1739.7786865234375 -1739.2789306640625 -1738.6973876953125 -1738.04248046875 -1737.3258056640625 -1736.550048828125 -1735.736328125 -1734.8966064453125 -1734.036865234375 -1733.161865234375 -1732.2745361328125 -1731.3798828125 -1730.47509765625 -1729.5594482421875 -1728.635986328125 -1727.729248046875 -1726.85888671875 -1726.02783203125 -1725.2347412109375 -1724.4783935546875 -1723.7239990234375 -1722.9586181640625 -1722.173095703125 -1721.3594970703125 -1720.51025390625 -1719.6087646484375 -1718.6671142578125 -1717.68603515625 -1716.6739501953125 -1715.6148681640625 -1714.5682373046875 -1713.380859375 -1712.216552734375 -1711.024658203125 -1709.8065185546875 -1708.5626220703125 -1707.29638671875 -1705.9935302734375 -1704.6650390625 -1703.3101806640625 -1701.9283447265625 -1700.5194091796875 -1699.0706787109375 -1697.592041015625 -1696.0826416015625 -1694.5418701171875 -1692.96484375 -1691.345703125 -1689.6912841796875 -1688.0030517578125 -1686.2802734375 -1684.5157470703125 -1682.7108154296875 -1680.87109375 -1678.9967041015625 -99999 -99999 -99999 -99999 -99999 -99999 -99999
 -99999 -99999 -99999 -99999 -99999 -99999 -99999 -99999 -99999 -99999 -99999 -99999 -99999 -99999 -99999 -99999 -99999 -99999 -99999 -99999 -99999 -99999 -99999 -99999 -99999 -99999 -99999 -99999 -1315.7396240234375 -1319.9593505859375 -1324.3818359375 -1328.9573974609375 -1333.6650390625 -1338.500244140625 -1343.4239501953125 -1348.517822265625 -1353.665283203125 -1358.888427734375 -1364.108154296875 -1369.262939453125 -1374.348388671875 -1379.31005859375 -1384.05615234375 -1388.4412841796875 -1392.408203125 -1395.9593505859375 -1399.0616455078125 -1401.6328125 -1403.7266845703125 -1405.4349365234375 -1407.076416015625 -1409.00634765625 -1411.536865234375 -1414.814697265625 -1419.037353515625 -1423.920166015625 -1428.927734375 -1433.8421630859375 -1438.395263671875 -1442.589111328125 -1446.4554443359375 -1450.3460693359375 -1454.128662109375 -1457.881591796875 -1461.65380859375 -1465.4962158203125 -1469.4764404296875 -1473.692626953125 -1478.2081298828125 -1483.062255859375 -1488.28564453125 -1494.01318359375 -1500.289794921875 -1507.0430908203125 -1514.4405517578125 -1522.5836181640625 -1531.314453125 -1540.677490234375 -1550.8939208984375 -1561.704833984375 -1573.207763671875 -1585.540283203125 -1598.48828125 -1612.0389404296875 -1626.121826171875 -1640.612548828125 -1655.3597412109375 -1669.903564453125 -1684.4844970703125 -1698.23876953125 -1711.111572265625 -1722.5667724609375 -1731.9478759765625 -1739.35986328125 -1744.5926513671875 -1747.370361328125 -1747.4732666015625 -1745.685546875 -1742.6431884765625 -1738.716552734375 -1734.80419921875 -1731.9205322265625 -1730.93017578125 -1731.1248779296875 -1732.052978515625 -1732.94287109375 -1733.3607177734375 -1733.6593017578125 -1733.8023681640625 -1733.802978515625 -1733.5924072265625 -1733.1566162109375 -1732.547607421875 -1731.8594970703125 -1731.194091796875 -1730.6962890625 -1730.440185546875 -1730.44970703125 -1730.7203369140625 -1731.2265625 -1731.9102783203125 -1732.7789306640625 -1733.7161865234375 -1734.6839599609375 -1735.635986328125 -1736.525390625 -1737.3941650390625 -1738.1717529296875 -1738.8648681640625 -1739.445556640625 -1739.9061279296875 -1740.2576904296875 -1740.4951171875 -1740.61572265625 -1740.5999755859375 -1740.4501953125 -1740.179931640625 -1739.798828125 -1739.3138427734375 -1738.7269287109375 -1738.04931640625 -1737.30712890625 -1736.5162353515625 -1735.6953125 -1734.8458251953125 -1733.9744873046875 -1733.090576171875 -1732.195068359375 -1731.2867431640625 -1730.364990234375 -1729.420654296875 -1728.4794921875 -1727.55078125 -1726.6451416015625 -1725.7799072265625 -1724.9351806640625 -1724.104248046875 -1723.2783203125 -1722.4522705078125 -1721.608642578125 -1720.7254638671875 -1719.81005859375 -1718.859619140625 -1717.874755859375 -1716.8441162109375 -1715.827880859375 -1714.68408203125 -1713.51953125 -1712.3306884765625 -1711.1180419921875 -1709.8785400390625 -1708.61376953125 -1707.3092041015625 -1705.9786376953125 -1704.6224365234375 -1703.244140625 -1701.8377685546875 -1700.394287109375 -1698.9237060546875 -1697.4256591796875 -1695.9024658203125 -1694.3427734375 -1692.7493896484375 -1691.1199951171875 -1689.464111328125 -1687.7774658203125 -1686.0489501953125 -1684.284423828125 -1682.488037109375 -1680.65966796875 -1678.799072265625 -1676.895751953125 -99999 -99999 -99999 -99999 -99999 -99999 -99999
 -99999 -99999 -99999 -99999 -99999 -99999 -99999 -99999 -99999 -99999 -99999 -99999 -99999 -99999 -99999 -99999 -99999 -99999 -99999 -99999 -99999 -99999 -99999 -99999 -99999 -99999 -99999 -99999 -1313.0858154296875 -1317.33984375 -1321.6573486328125 -1326.11865234375 -1330.7242431640625 -1335.460205078125 -1340.27685546875 -1345.146728515625 -1350.08056640625 -1355.0943603515625 -1360.1136474609375 -1365.002685546875 -1369.876708984375 -1374.5491943359375 -1378.97998046875 -1383.123779296875 -1386.9969482421875 -1390.45166015625 -1393.4495849609375 -1396.1119384765625 -1398.4998779296875 -1400.608642578125 -1402.82080078125 -1405.140380859375 -1407.9521484375 -1411.479248046875 -1415.62255859375 -1420.2156982421875 -1425.1563720703125 -1430.1168212890625 -1434.525390625 -1438.44677734375 -1442.19384765625 -1445.8648681640625 -1449.51806640625 -1453.19921875 -1456.9068603515625 -1460.70068359375 -1464.6715087890625 -1468.86572265625 -1473.3775634765625 -1478.296142578125 -1483.6810302734375 -1489.496826171875 -1495.88623046875 -1502.8990478515625 -1510.4598388671875 -1518.6220703125 -1527.3974609375 -1536.85693359375 -1547.0145263671875 -1557.8431396484375 -1569.3984375 -1581.39501953125 -1594.2235107421875 -1607.4478759765625 -1621.0311279296875 -1635.03466796875 -1649.12353515625 -1663.0831298828125 -1676.72998046875 -1689.7740478515625 -1701.876220703125 -1712.69140625 -1721.727783203125 -1728.970458984375 -1734.0263671875 -1736.97705078125 -1738.216552734375 -1737.869873046875 -1735.857666015625 -1733.4375 -1731.2286376953125 -1729.5284423828125 -1728.68310546875 -1728.86865234375 -1729.594482421875 -1730.351318359375 -1731.0123291015625 -1731.47021484375 -1731.6881103515625 -1731.7618408203125 -1731.60205078125 -1731.14697265625 -1730.4249267578125 -1729.6016845703125 -1728.8150634765625 -1728.2432861328125 -1727.9697265625 -1728.0574951171875 -1728.47265625 -1729.2255859375 -1730.1795654296875 -1731.26708984375 -1732.381103515625 -1733.5345458984375 -1734.6795654296875 -1735.76123046875 -1736.7440185546875 -1737.642578125 -1738.4285888671875 -1739.107177734375 -1739.671142578125 -1740.1046142578125 -1740.3931884765625 -1740.5513916015625 -1740.5771484375 -1740.472412109375 -1740.22705078125 -1739.8511962890625 -1739.34765625 -1738.7423095703125 -1738.0517578125 -1737.292236328125 -1736.4830322265625 -1735.6353759765625 -1734.7689208984375 -1733.888427734375 -1732.99560546875 -1732.0885009765625 -1731.1534423828125 -1730.201904296875 -1729.2403564453125 -1728.282470703125 -1727.3348388671875 -1726.4000244140625 -1725.4810791015625 -1724.5780029296875 -1723.69921875 -1722.8150634765625 -1721.9129638671875 -1720.993896484375 -1720.05419921875 -1719.091552734375 -1718.081787109375 -1717.0299072265625 -1715.981689453125 -1714.8419189453125 -1713.65625 -1712.4573974609375 -1711.23291015625 -1709.9716796875 -1708.6697998046875 -1707.3399658203125 -1705.98388671875 -1704.608642578125 -1703.198486328125 -1701.754150390625 -1700.2843017578125 -1698.791259765625 -1697.2777099609375 -1695.7259521484375 -1694.1387939453125 -1692.5313720703125 -1690.8880615234375 -1689.230224609375 -1687.5252685546875 -1685.7894287109375 -1684.0247802734375 -1682.232421875 -1680.4105224609375 -1678.54638671875 -1676.6529541015625 -1674.730224609375 -99999 -99999 -99999 -99999 -99999 -99999 -99999
 -99999 -99999 -99999 -99999 -99999 -99999 -99999 -99999 -99999 -99999 -99999 -99999 -99999 -99999 -99999 -99999 -99999 -99999 -99999 -99999 -99999 -99999 -99999 -99999 -99999 -99999 -99999 -99999 -1310.4244384765625 -1314.6075439453125 -1318.8779296875 -1323.254638671875 -1327.7408447265625 -1332.31298828125 -1336.9869384765625 -1341.7410888671875 -1346.5189208984375 -1351.286376953125 -1356.0390625 -1360.81298828125 -1365.3614501953125 -1369.816650390625 -1374.0924072265625 -1378.110595703125 -1381.787841796875 -1385.2034912109375 -1388.2943115234375 -1391.069091796875 -1393.623046875 -1396.12646484375 -1398.69140625 -1401.452392578125 -1404.56591796875 -1408.0595703125 -1412.133056640625 -1416.6163330078125 -1421.3226318359375 -1426.012939453125 -1430.4510498046875 -1434.3095703125 -1438.033935546875 -1441.646484375 -1445.2078857421875 -1448.743408203125 -1452.374267578125 -1456.06494140625 -1459.980224609375 -1464.16455078125 -1468.6668701171875 -1473.640380859375 -1479.0509033203125 -1485.0069580078125 -1491.462646484375 -1498.5478515625 -1506.19921875 -1514.440673828125 -1523.30859375 -1532.7379150390625 -1542.8837890625 -1553.6307373046875 -1564.980712890625 -1576.8787841796875 -1589.3221435546875 -1602.2891845703125 -1615.62744140625 -1629.03369140625 -1642.677490234375 -1656.0892333984375 -1669.0526123046875 -1681.4796142578125 -1692.822265625 -1703.0628662109375 -1711.84912109375 -1718.9453125 -1724.4249267578125 -1727.9329833984375 -1729.7730712890625 -1730.2791748046875 -1729.9019775390625 -1728.9058837890625 -1727.55517578125 -1726.594970703125 -1726.393310546875 -1726.6287841796875 -1727.2237548828125 -1727.97119140625 -1728.6593017578125 -1729.2005615234375 -1729.5986328125 -1729.8099365234375 -1729.7259521484375 -1729.2977294921875 -1728.3504638671875 -1727.282470703125 -1726.3526611328125 -1725.7073974609375 -1725.4381103515625 -1725.6663818359375 -1726.3187255859375 -1727.2823486328125 -1728.446533203125 -1729.7816162109375 -1731.181396484375 -1732.560546875 -1733.8424072265625 -1735.048095703125 -1736.1640625 -1737.1878662109375 -1738.08544921875 -1738.8311767578125 -1739.458251953125 -1739.955078125 -1740.3187255859375 -1740.539306640625 -1740.595458984375 -1740.5159912109375 -1740.280029296875 -1739.90771484375 -1739.40185546875 -1738.779052734375 -1738.064208984375 -1737.2640380859375 -1736.419189453125 -1735.5545654296875 -1734.6739501953125 -1733.7802734375 -1732.867431640625 -1731.93212890625 -1730.977783203125 -1730.0084228515625 -1729.0286865234375 -1728.044921875 -1727.063720703125 -1726.097412109375 -1725.1448974609375 -1724.1953125 -1723.2431640625 -1722.2874755859375 -1721.3341064453125 -1720.3642578125 -1719.3560791015625 -1718.315673828125 -1717.2451171875 -1716.1666259765625 -1715.0423583984375 -1713.822021484375 -1712.6134033203125 -1711.3619384765625 -1710.068603515625 -1708.7440185546875 -1707.3963623046875 -1706.021728515625 -1704.608154296875 -1703.1614990234375 -1701.68896484375 -1700.19970703125 -1698.685302734375 -1697.1319580078125 -1695.550537109375 -1693.94677734375 -1692.3216552734375 -1690.669189453125 -1688.976318359375 -1687.25732421875 -1685.5140380859375 -1683.7471923828125 -1681.9508056640625 -1680.1162109375 -1678.255126953125 -1676.3680419921875 -1674.4541015625 -1672.509033203125 -99999 -99999 -99999 -99999 -99999 -99999 -99999
 -99999 -99999 -99999 -99999 -99999 -99999 -99999 -99999 -99999 -99999 -99999 -99999 -99999 -99999 -99999 -99999 -99999 -99999 -99999 -99999 -99999 -99999 -99999 -99999 -99999 -99999 -99999 -1303.733642578125 -1307.7186279296875 -1311.820556640625 -1316.058349609375 -1320.3016357421875 -1324.6944580078125 -1329.1689453125 -1333.7003173828125 -1338.27099609375 -1342.8560791015625 -1347.476318359375 -1352.0738525390625 -1356.6085205078125 -1361.0179443359375 -1365.283447265625 -1369.3546142578125 -1373.2371826171875 -1376.8778076171875 -1380.2724609375 -1383.4111328125 -1386.365966796875 -1389.179931640625 -1391.906494140625 -1394.6923828125 -1397.7021484375 -1401.0115966796875 -1404.685791015625 -1408.66064453125 -1412.916015625 -1417.4068603515625 -1421.9002685546875 -1426.1427001953125 -1430.1259765625 -1433.8997802734375 -1437.508056640625 -1441.0487060546875 -1444.514892578125 -1448.0321044921875 -1451.6451416015625 -1455.455810546875 -1459.5283203125 -1464.036376953125 -1468.987060546875 -1474.426513671875 -1480.453857421875 -1487.024169921875 -1494.09619140625 -1501.848876953125 -1510.145751953125 -1518.9893798828125 -1528.4072265625 -1538.4290771484375 -1549.1358642578125 -1560.2884521484375 -1571.9801025390625 -1584.185546875 -1596.81005859375 -1609.6854248046875 -1622.7008056640625 -1635.8228759765625 -1648.72021484375 -1661.2335205078125 -1673.1182861328125 -1684.0718994140625 -1694.0517578125 -1702.562255859375 -1709.854736328125 -1715.49462890625 -1719.42626953125 -1722.273681640625 -1723.6748046875 -1724.1318359375 -1724.062255859375 -1723.9583740234375 -1723.864990234375 -1723.9239501953125 -1724.3236083984375 -1724.9716796875 -1725.705078125 -1726.407470703125 -1726.9892578125 -1727.434814453125 -1727.7186279296875 -1727.813720703125 -1727.3189697265625 -1726.222900390625 -1724.990966796875 -1723.86962890625 -1723.0897216796875 -1722.88134765625 -1723.25732421875 -1724.10205078125 -1725.4061279296875 -1726.94580078125 -1728.5347900390625 -1730.1109619140625 -1731.650146484375 -1733.1241455078125 -1734.4869384765625 -1735.7005615234375 -1736.786376953125 -1737.754150390625 -1738.5982666015625 -1739.31005859375 -1739.8563232421875 -1740.264404296875 -1740.5316162109375 -1740.6385498046875 -1740.5897216796875 -1740.3612060546875 -1739.9903564453125 -1739.476806640625 -1738.820556640625 -1738.0545654296875 -1737.2276611328125 -1736.3536376953125 -1735.4539794921875 -1734.5474853515625 -1733.6341552734375 -1732.7017822265625 -1731.746337890625 -1730.76708984375 -1729.771240234375 -1728.7677001953125 -1727.7625732421875 -1726.7584228515625 -1725.7509765625 -1724.742919921875 -1723.7432861328125 -1722.7464599609375 -1721.7440185546875 -1720.7144775390625 -1719.6649169921875 -1718.60107421875 -1717.51123046875 -1716.389404296875 -1715.275146484375 -1714.0206298828125 -1712.7813720703125 -1711.50048828125 -1710.1904296875 -1708.8514404296875 -1707.4813232421875 -1706.0670166015625 -1704.61962890625 -1703.151123046875 -1701.6585693359375 -1700.1402587890625 -1698.5806884765625 -1696.9957275390625 -1695.3907470703125 -1693.7691650390625 -1692.1170654296875 -1690.4290771484375 -1688.7176513671875 -1686.988037109375 -1685.23388671875 -1683.45166015625 -1681.63525390625 -1679.7958984375 -1677.9351806640625 -1676.049072265625 -1674.1329345703125 -1672.19384765625 -1670.2440185546875 -99999 -99999 -99999 -99999 -99999 -99999 -99999
 -99999 -99999 -99999 -99999 -99999 -99999 -99999 -99999 -99999 -99999 -99999 -99999 -99999 -99999 -99999 -99999 -99999 -99999 -99999 -99999 -99999 -99999 -99999 -99999 -99999 -99999 -99999 -1301.0775146484375 -1305.0164794921875 -1309.0416259765625 -1313.1478271484375 -1317.3890380859375 -1321.62548828125 -1325.94970703125 -1330.3577880859375 -1334.8016357421875 -1339.2662353515625 -1343.6871337890625 -1348.083984375 -1352.439697265625 -1356.755615234375 -1360.8533935546875 -1364.8089599609375 -1368.6168212890625 -1372.2186279296875 -1375.634033203125 -1378.835205078125 -1381.92041015625 -1384.8875732421875 -1387.868896484375 -1390.92724609375 -1394.119384765625 -1397.5367431640625 -1401.23876953125 -1405.181640625 -1409.3287353515625 -1413.5950927734375 -1417.832275390625 -1421.9813232421875 -1425.959716796875 -1429.7623291015625 -1433.4613037109375 -1437.0023193359375 -1440.4512939453125 -1443.8790283203125 -1447.3758544921875 -1451.06982421875 -1455.094970703125 -1459.475830078125 -1464.384033203125 -1469.8941650390625 -1475.975830078125 -1482.568115234375 -1489.6951904296875 -1497.4405517578125 -1505.7109375 -1514.5087890625 -1523.9185791015625 -1533.8057861328125 -1544.2911376953125 -1555.343505859375 -1566.8546142578125 -1578.7508544921875 -1591.0574951171875 -1603.6304931640625 -1616.31396484375 -1628.9976806640625 -1641.5185546875 -1653.5792236328125 -1665.0308837890625 -1675.799560546875 -1685.5245361328125 -1693.9757080078125 -1701.170166015625 -1707.1905517578125 -1711.88330078125 -1715.240966796875 -1717.53662109375 -1718.9976806640625 -1719.8521728515625 -1720.362548828125 -1720.8154296875 -1721.37451171875 -1722.0572509765625 -1722.781982421875 -1723.5302734375 -1724.233154296875 -1724.8197021484375 -1725.2408447265625 -1725.4722900390625 -1725.4736328125 -1724.9774169921875 -1723.8968505859375 -1722.5611572265625 -1721.3382568359375 -1720.4915771484375 -1720.19775390625 -1720.8349609375 -1722.15869140625 -1723.7860107421875 -1725.5797119140625 -1727.433837890625 -1729.2830810546875 -1730.9951171875 -1732.5616455078125 -1734.00390625 -1735.3162841796875 -1736.4921875 -1737.51806640625 -1738.3973388671875 -1739.16064453125 -1739.7830810546875 -1740.2574462890625 -1740.55517578125 -1740.6912841796875 -1740.6700439453125 -1740.4776611328125 -1740.1038818359375 -1739.5526123046875 -1738.8699951171875 -1738.0780029296875 -1737.1864013671875 -1736.2459716796875 -1735.3194580078125 -1734.3929443359375 -1733.4609375 -1732.500244140625 -1731.515380859375 -1730.51416015625 -1729.49853515625 -1728.4720458984375 -1727.4307861328125 -1726.3861083984375 -1725.34423828125 -1724.3011474609375 -1723.25537109375 -1722.1905517578125 -1721.120849609375 -1720.0411376953125 -1718.9423828125 -1717.8170166015625 -1716.64892578125 -1715.502197265625 -1714.2474365234375 -1712.9697265625 -1711.6751708984375 -1710.3468017578125 -1708.9849853515625 -1707.573486328125 -1706.132568359375 -1704.6666259765625 -1703.17236328125 -1701.6495361328125 -1700.0831298828125 -1698.4971923828125 -1696.8909912109375 -1695.26025390625 -1693.5977783203125 -1691.9112548828125 -1690.1988525390625 -1688.47265625 -1686.72119140625 -1684.942138671875 -1683.133056640625 -1681.3079833984375 -1679.4610595703125 -1677.591796875 -1675.6937255859375 -1673.7691650390625 -1671.8543701171875 -1669.8662109375 -1667.88330078125 -1665.850830078125 -99999 -99999 -99999 -99999 -99999 -99999
 -99999 -99999 -99999 -99999 -99999 -99999 -99999 -99999 -99999 -99999 -99999 -99999 -99999 -99999 -99999 -99999 -99999 -99999 -99999 -99999 -99999 -99999 -99999 -99999 -99999 -99999 -99999 -1298.4061279296875 -1302.275634765625 -1306.2391357421875 -1310.2755126953125 -1314.3951416015625 -1318.564453125 -1322.776123046875 -1327.0484619140625 -1331.3262939453125 -1335.6439208984375 -1339.945556640625 -1344.214111328125 -1348.431640625 -1352.5390625 -1356.6171875 -1360.46630859375 -1364.191162109375 -1367.774658203125 -1371.212158203125 -1374.5147705078125 -1377.732421875 -1380.8785400390625 -1384.012939453125 -1387.218017578125 -1390.540283203125 -1394.068115234375 -1397.7938232421875 -1401.72607421875 -1405.728759765625 -1409.84228515625 -1413.9542236328125 -1417.998779296875 -1421.912353515625 -1425.70849609375 -1429.4041748046875 -1433.0103759765625 -1436.5467529296875 -1439.8953857421875 -1443.3118896484375 -1446.82666015625 -1450.71484375 -1455.099853515625 -1459.9871826171875 -1465.4266357421875 -1471.4967041015625 -1478.2022705078125 -1485.4306640625 -1493.065673828125 -1501.3245849609375 -1510.09033203125 -1519.3485107421875 -1529.0882568359375 -1539.38525390625 -1550.2138671875 -1561.4462890625 -1573.1668701171875 -1585.110595703125 -1597.412841796875 -1609.7752685546875 -1622.124755859375 -1634.2501220703125 -1646.0535888671875 -1657.2899169921875 -1667.9111328125 -1677.404052734375 -1686.046875 -1693.5301513671875 -1699.6961669921875 -1704.7176513671875 -1708.7099609375 -1711.830078125 -1714.11083984375 -1715.756591796875 -1716.9381103515625 -1717.984130859375 -1718.8843994140625 -1719.7708740234375 -1720.6397705078125 -1721.45849609375 -1722.146728515625 -1722.684814453125 -1723.04931640625 -1723.212158203125 -1723.030029296875 -1722.4173583984375 -1721.4029541015625 -1720.1593017578125 -1718.8653564453125 -1717.7266845703125 -1717.6832275390625 -1718.652099609375 -1720.3463134765625 -1722.41357421875 -1724.6158447265625 -1726.697021484375 -1728.671875 -1730.5103759765625 -1732.1915283203125 -1733.6910400390625 -1735.028564453125 -1736.231689453125 -1737.3170166015625 -1738.2633056640625 -1739.0653076171875 -1739.717041015625 -1740.2286376953125 -1740.5931396484375 -1740.790771484375 -1740.78271484375 -1740.5855712890625 -1740.2137451171875 -1739.6724853515625 -1738.9490966796875 -1738.07080078125 -1737.1224365234375 -1736.1317138671875 -1735.1463623046875 -1734.2060546875 -1733.2464599609375 -1732.2630615234375 -1731.256591796875 -1730.2296142578125 -1729.1767578125 -1728.1160888671875 -1727.0467529296875 -1725.9703369140625 -1724.88671875 -1723.789794921875 -1722.6920166015625 -1721.5843505859375 -1720.4642333984375 -1719.322509765625 -1718.15234375 -1716.9625244140625 -1715.7698974609375 -1714.5177001953125 -1713.2027587890625 -1711.8846435546875 -1710.532470703125 -1709.128173828125 -1707.6978759765625 -1706.2357177734375 -1704.742431640625 -1703.2158203125 -1701.6480712890625 -1700.0599365234375 -1698.4461669921875 -1696.807861328125 -1695.14013671875 -1693.4423828125 -1691.7286376953125 -1689.991455078125 -1688.234130859375 -1686.4490966796875 -1684.6419677734375 -1682.818115234375 -1680.974609375 -1679.1112060546875 -1677.2200927734375 -1675.309814453125 -1673.3807373046875 -1671.4422607421875 -1669.4722900390625 -1667.46630859375 -1665.4547119140625 -1663.420166015625 -99999 -99999 -99999 -99999 -99999 -99999
 -99999 -99999 -99999 -99999 -99999 -99999 -99999 -99999 -99999 -99999 -99999 -99999 -99999 -99999 -99999 -99999 -99999 -99999 -99999 -99999 -99999 -99999 -99999 -99999 -99999 -99999 -99999 -1295.75390625 -1299.559326171875 -1303.4366455078125 -1307.38134765625 -1311.403564453125 -1315.506103515625 -1319.5924072265625 -1323.7420654296875 -1327.91748046875 -1332.1007080078125 -1336.2698974609375 -1340.404541015625 -1344.4912109375 -1348.5093994140625 -1352.4490966796875 -1356.2808837890625 -1360.045166015625 -1363.578857421875 -1367.04541015625 -1370.414306640625 -1373.72119140625 -1376.99658203125 -1380.2830810546875 -1383.6328125 -1387.090087890625 -1390.6728515625 -1394.3900146484375 -1398.240234375 -1402.26318359375 -1406.22314453125 -1410.214111328125 -1414.14599609375 -1417.994873046875 -1421.7586669921875 -1425.4420166015625 -1429.052734375 -1432.5753173828125 -1436.01904296875 -1439.4197998046875 -1442.7991943359375 -1446.48828125 -1450.7513427734375 -1455.6102294921875 -1461.1939697265625 -1467.3311767578125 -1474.01904296875 -1481.1551513671875 -1488.8333740234375 -1497.0177001953125 -1505.582275390625 -1514.73583984375 -1524.4150390625 -1534.42822265625 -1545.014892578125 -1556.0657958984375 -1567.485595703125 -1579.1829833984375 -1591.2086181640625 -1603.2918701171875 -1615.3857421875 -1627.318115234375 -1638.9302978515625 -1649.978515625 -1660.300048828125 -1670.051025390625 -1678.63818359375 -1686.20263671875 -1692.890380859375 -1698.54296875 -1703.004638671875 -1706.595947265625 -1709.492431640625 -1711.8187255859375 -1713.68505859375 -1715.2449951171875 -1716.4537353515625 -1717.6015625 -1718.59326171875 -1719.45751953125 -1720.17431640625 -1720.720458984375 -1720.9974365234375 -1721.005126953125 -1720.7183837890625 -1720.1102294921875 -1719.17578125 -1717.9486083984375 -1716.6065673828125 -1715.396240234375 -1715.1339111328125 -1716.7437744140625 -1719.1416015625 -1721.5859375 -1723.991943359375 -1726.289794921875 -1728.4146728515625 -1730.27880859375 -1731.960205078125 -1733.4765625 -1734.845703125 -1736.0703125 -1737.15283203125 -1738.1103515625 -1738.95849609375 -1739.67724609375 -1740.23974609375 -1740.624755859375 -1740.845703125 -1740.8912353515625 -1740.751220703125 -1740.3685302734375 -1739.7735595703125 -1739.0103759765625 -1738.104736328125 -1737.0816650390625 -1735.9688720703125 -1734.968017578125 -1733.998779296875 -1733.01904296875 -1732.00390625 -1730.9560546875 -1729.8900146484375 -1728.8082275390625 -1727.7132568359375 -1726.6044921875 -1725.4864501953125 -1724.3603515625 -1723.22509765625 -1722.079833984375 -1720.917236328125 -1719.738037109375 -1718.5390625 -1717.3173828125 -1716.07666015625 -1714.822265625 -1713.47119140625 -1712.125244140625 -1710.73583984375 -1709.3135986328125 -1707.8577880859375 -1706.368896484375 -1704.8419189453125 -1703.279052734375 -1701.68701171875 -1700.0670166015625 -1698.4205322265625 -1696.741943359375 -1695.0380859375 -1693.3126220703125 -1691.5621337890625 -1689.7947998046875 -1687.9989013671875 -1686.1849365234375 -1684.352783203125 -1682.5028076171875 -1680.6353759765625 -1678.7435302734375 -1676.835693359375 -1674.91064453125 -1672.9808349609375 -1671.030029296875 -1669.035888671875 -1667.029052734375 -1665.0120849609375 -1662.9749755859375 -1660.9200439453125 -99999 -99999 -99999 -99999 -99999 -99999
 -99999 -99999 -99999 -99999 -99999 -99999 -99999 -99999 -99999 -99999 -99999 -99999 -99999 -99999 -99999 -99999 -99999 -99999 -99999 -99999 -99999 -99999 -99999 -99999 -99999 -99999 -99999 -1293.0948486328125 -1296.840576171875 -1300.6531982421875 -1304.5235595703125 -1308.4456787109375 -1312.41845703125 -1316.4698486328125 -1320.48193359375 -1324.5513916015625 -1328.6192626953125 -1332.6778564453125 -1336.711181640625 -1340.7032470703125 -1344.6396484375 -1348.4932861328125 -1352.2701416015625 -1355.978515625 -1359.611328125 -1363.0770263671875 -1366.5279541015625 -1369.9212646484375 -1373.3031005859375 -1376.714111328125 -1380.1676025390625 -1383.69091796875 -1387.3197021484375 -1391.071044921875 -1394.906494140625 -1398.8148193359375 -1402.77392578125 -1406.6436767578125 -1410.5087890625 -1414.3052978515625 -1418.000732421875 -1421.6322021484375 -1425.20654296875 -1428.72265625 -1432.21826171875 -1435.56982421875 -1438.963623046875 -1442.558349609375 -1446.5770263671875 -1451.510986328125 -1457.14111328125 -1463.3062744140625 -1470.0732421875 -1477.3004150390625 -1484.8370361328125 -1492.838134765625 -1501.363037109375 -1510.2369384765625 -1519.6513671875 -1529.5294189453125 -1539.76953125 -1550.621337890625 -1561.80126953125 -1573.2772216796875 -1585.044677734375 -1596.940673828125 -1608.8214111328125 -1620.625732421875 -1632.06787109375 -1643.0545654296875 -1653.4578857421875 -1663.1846923828125 -1672.166015625 -1679.9912109375 -1686.718994140625 -1692.7716064453125 -1697.753662109375 -1702.105712890625 -1705.5150146484375 -1708.2874755859375 -1710.6070556640625 -1712.5548095703125 -1714.189697265625 -1715.6063232421875 -1716.6973876953125 -1717.6611328125 -1718.377197265625 -1718.87548828125 -1719.1395263671875 -1719.153076171875 -1718.8594970703125 -1718.223876953125 -1717.3515625 -1716.298583984375 -1715.1552734375 -1714.157470703125 -1714.113525390625 -1715.9842529296875 -1718.703369140625 -1721.362060546875 -1723.916748046875 -1726.2796630859375 -1728.406005859375 -1730.286865234375 -1731.9439697265625 -1733.3946533203125 -1734.7052001953125 -1735.902587890625 -1737.0078125 -1738.00439453125 -1738.85986328125 -1739.5928955078125 -1740.195556640625 -1740.6553955078125 -1740.947265625 -1741.0072021484375 -1740.8614501953125 -1740.5001220703125 -1739.920654296875 -1739.12353515625 -1738.12158203125 -1737.04736328125 -1735.9395751953125 -1734.846435546875 -1733.8206787109375 -1732.7698974609375 -1731.69873046875 -1730.60791015625 -1729.500244140625 -1728.3787841796875 -1727.241455078125 -1726.093994140625 -1724.9366455078125 -1723.769287109375 -1722.59130859375 -1721.3955078125 -1720.183837890625 -1718.95361328125 -1717.70263671875 -1716.4227294921875 -1715.1461181640625 -1713.7750244140625 -1712.391845703125 -1710.978271484375 -1709.5306396484375 -1708.0487060546875 -1706.53076171875 -1704.969970703125 -1703.377197265625 -1701.75390625 -1700.10107421875 -1698.4183349609375 -1696.7027587890625 -1694.96044921875 -1693.202392578125 -1691.408935546875 -1689.6083984375 -1687.77978515625 -1685.93212890625 -1684.067626953125 -1682.18896484375 -1680.288330078125 -1678.3717041015625 -1676.4403076171875 -1674.494384765625 -1672.5347900390625 -1670.5767822265625 -1668.5601806640625 -1666.552490234375 -1664.5264892578125 -1662.4854736328125 -1660.4295654296875 -1658.3585205078125 -99999 -99999 -99999 -99999 -99999 -99999
 -99999 -99999 -99999 -99999 -99999 -99999 -99999 -99999 -99999 -99999 -99999 -99999 -99999 -99999 -99999 -99999 -99999 -99999 -99999 -99999 -99999 -99999 -99999 -99999 -99999 -99999 -99999 -1290.4661865234375 -1294.1534423828125 -1297.8778076171875 -1301.6822509765625 -1305.5303955078125 -1309.416015625 -1313.3468017578125 -1317.30810546875 -1321.25 -1325.2158203125 -1329.186279296875 -1333.137451171875 -1337.0384521484375 -1340.9012451171875 -1344.7127685546875 -1348.4666748046875 -1352.1419677734375 -1355.7813720703125 -1359.3299560546875 -1362.83056640625 -1366.3031005859375 -1369.781005859375 -1373.2672119140625 -1376.8009033203125 -1380.414794921875 -1384.1024169921875 -1387.8465576171875 -1391.66845703125 -1395.54248046875 -1399.4444580078125 -1403.3125 -1407.1085205078125 -1410.8314208984375 -1414.4984130859375 -1418.091796875 -1421.6326904296875 -1425.0830078125 -1428.4898681640625 -1431.86669921875 -1435.2379150390625 -1438.662109375 -1442.7113037109375 -1447.6798095703125 -1453.5557861328125 -1459.8997802734375 -1466.5914306640625 -1473.6846923828125 -1481.15771484375 -1488.940673828125 -1497.201904296875 -1505.9593505859375 -1515.0582275390625 -1524.645751953125 -1534.6884765625 -1545.304931640625 -1556.161865234375 -1567.4827880859375 -1579.025146484375 -1590.7939453125 -1602.574951171875 -1614.2445068359375 -1625.7325439453125 -1636.7281494140625 -1647.142333984375 -1656.90185546875 -1666.1336669921875 -1674.2969970703125 -1681.502197265625 -1687.924072265625 -1693.330078125 -1697.90625 -1701.9066162109375 -1705.2410888671875 -1707.9573974609375 -1710.1900634765625 -1712.083251953125 -1713.6915283203125 -1714.995849609375 -1716.0120849609375 -1716.802734375 -1717.3548583984375 -1717.613037109375 -1717.5977783203125 -1717.341552734375 -1716.865966796875 -1716.1754150390625 -1715.3729248046875 -1714.64208984375 -1714.0933837890625 -1714.662841796875 -1716.495361328125 -1719.0208740234375 -1721.6380615234375 -1724.2320556640625 -1726.666015625 -1728.773193359375 -1730.49658203125 -1731.9840087890625 -1733.3397216796875 -1734.599609375 -1735.77294921875 -1736.842529296875 -1737.8250732421875 -1738.716064453125 -1739.503173828125 -1740.140625 -1740.623046875 -1740.9454345703125 -1741.08837890625 -1741.021240234375 -1740.66796875 -1740.0333251953125 -1739.169189453125 -1738.141357421875 -1737.0037841796875 -1735.8739013671875 -1734.7332763671875 -1733.600341796875 -1732.4716796875 -1731.342529296875 -1730.19921875 -1729.0394287109375 -1727.8709716796875 -1726.6937255859375 -1725.5115966796875 -1724.315185546875 -1723.1043701171875 -1721.88037109375 -1720.64111328125 -1719.3897705078125 -1718.1070556640625 -1716.7969970703125 -1715.4847412109375 -1714.1134033203125 -1712.689453125 -1711.251953125 -1709.783935546875 -1708.2740478515625 -1706.719482421875 -1705.13037109375 -1703.507568359375 -1701.858642578125 -1700.1680908203125 -1698.4432373046875 -1696.6915283203125 -1694.9144287109375 -1693.1221923828125 -1691.29443359375 -1689.44384765625 -1687.5755615234375 -1685.690673828125 -1683.7982177734375 -1681.8773193359375 -1679.94287109375 -1677.9954833984375 -1676.0361328125 -1674.068603515625 -1672.0889892578125 -1670.106201171875 -1668.077392578125 -1666.0433349609375 -1664.005615234375 -1661.9559326171875 -1659.8961181640625 -1657.8173828125 -1655.7249755859375 -99999 -99999 -99999 -99999 -99999 -99999
 -99999 -99999 -99999 -99999 -99999 -99999 -99999 -99999 -99999 -99999 -99999 -99999 -99999 -99999 -99999 -99999 -99999 -99999 -99999 -99999 -99999 -99999 -99999 -99999 -99999 -99999 -99999 -1287.85791015625 -1291.4913330078125 -1295.16943359375 -1298.8812255859375 -1302.6390380859375 -1306.45068359375 -1310.2994384765625 -1314.18115234375 -1318.04345703125 -1321.919189453125 -1325.7919921875 -1329.6549072265625 -1333.5111083984375 -1337.3204345703125 -1341.0870361328125 -1344.8074951171875 -1348.491943359375 -1352.1297607421875 -1355.7222900390625 -1359.3355712890625 -1362.8541259765625 -1366.3935546875 -1369.9764404296875 -1373.5946044921875 -1377.2559814453125 -1380.9786376953125 -1384.763916015625 -1388.591552734375 -1392.4451904296875 -1396.30517578125 -1400.145751953125 -1403.9788818359375 -1407.658203125 -1411.2928466796875 -1414.857666015625 -1418.356201171875 -1421.7926025390625 -1425.1705322265625 -1428.5089111328125 -1431.8182373046875 -1435.1962890625 -1439.083251953125 -1444.4468994140625 -1450.5841064453125 -1456.9794921875 -1463.6689453125 -1470.5911865234375 -1477.8411865234375 -1485.4136962890625 -1493.33740234375 -1501.796142578125 -1510.66064453125 -1519.9791259765625 -1529.75 -1540.0330810546875 -1550.8111572265625 -1561.8851318359375 -1573.2911376953125 -1584.8968505859375 -1596.625244140625 -1608.27587890625 -1619.7789306640625 -1630.8935546875 -1641.437255859375 -1651.468017578125 -1660.70654296875 -1669.295654296875 -1676.826904296875 -1683.5028076171875 -1689.4375 -1694.511962890625 -1698.8165283203125 -1702.4698486328125 -1705.5595703125 -1708.1690673828125 -1710.3135986328125 -1712.0533447265625 -1713.4664306640625 -1714.6546630859375 -1715.4898681640625 -1716.022705078125 -1716.3486328125 -1716.438720703125 -1716.2562255859375 -1715.888916015625 -1715.4351806640625 -1714.9461669921875 -1714.6412353515625 -1714.6864013671875 -1715.5396728515625 -1717.28759765625 -1719.536376953125 -1722.126220703125 -1724.7735595703125 -1727.2337646484375 -1729.2227783203125 -1730.724853515625 -1732.0487060546875 -1733.284912109375 -1734.444091796875 -1735.5625 -1736.6270751953125 -1737.615966796875 -1738.5167236328125 -1739.3070068359375 -1739.98583984375 -1740.538330078125 -1740.911376953125 -1741.094970703125 -1741.05810546875 -1740.76708984375 -1740.149658203125 -1739.2158203125 -1738.1029052734375 -1736.9285888671875 -1735.715576171875 -1734.4991455078125 -1733.303955078125 -1732.1031494140625 -1730.8992919921875 -1729.695556640625 -1728.4921875 -1727.289306640625 -1726.0716552734375 -1724.8447265625 -1723.6085205078125 -1722.363525390625 -1721.10791015625 -1719.8232421875 -1718.5169677734375 -1717.1864013671875 -1715.840576171875 -1714.47216796875 -1713.0150146484375 -1711.564453125 -1710.0650634765625 -1708.5223388671875 -1706.9425048828125 -1705.3294677734375 -1703.6873779296875 -1701.9932861328125 -1700.2633056640625 -1698.5028076171875 -1696.71923828125 -1694.91455078125 -1693.0667724609375 -1691.1949462890625 -1689.30322265625 -1687.4007568359375 -1685.482421875 -1683.535888671875 -1681.5762939453125 -1679.604736328125 -1677.629150390625 -1675.6395263671875 -1673.631591796875 -1671.6392822265625 -1669.6016845703125 -1667.5601806640625 -1665.5101318359375 -1663.458251953125 -1661.3983154296875 -1659.320556640625 -1657.2332763671875 -1655.1361083984375 -1653.0291748046875 -99999 -99999 -99999 -99999 -99999 -99999
 -99999 -99999 -99999 -99999 -99999 -99999 -99999 -99999 -99999 -99999 -99999 -99999 -99999 -99999 -99999 -99999 -99999 -99999 -99999 -99999 -99999 -99999 -99999 -99999 -99999 -99999 -1281.7972412109375 -1285.3087158203125 -1288.8646240234375 -1292.472900390625 -1296.1356201171875 -1299.8310546875 -1303.553955078125 -1307.304443359375 -1311.0902099609375 -1314.919189453125 -1318.6932373046875 -1322.509765625 -1326.31787109375 -1330.0972900390625 -1333.860595703125 -1337.6058349609375 -1341.320068359375 -1345.001708984375 -1348.659912109375 -1352.302978515625 -1355.929931640625 -1359.5989990234375 -1363.1854248046875 -1366.8284912109375 -1370.50390625 -1374.2401123046875 -1378.0191650390625 -1381.8389892578125 -1385.6820068359375 -1389.544677734375 -1393.4078369140625 -1397.2457275390625 -1401.040771484375 -1404.8135986328125 -1408.424072265625 -1412.001220703125 -1415.5084228515625 -1418.956787109375 -1422.3638916015625 -1425.7529296875 -1429.1416015625 -1432.57421875 -1436.8787841796875 -1442.2593994140625 -1448.43017578125 -1454.78515625 -1461.2420654296875 -1467.9930419921875 -1475.0146484375 -1482.33935546875 -1489.949462890625 -1498.0460205078125 -1506.5535888671875 -1515.4893798828125 -1525.0350341796875 -1534.9979248046875 -1545.5523681640625 -1556.5057373046875 -1567.825927734375 -1579.383544921875 -1591.04736328125 -1602.741943359375 -1614.2822265625 -1625.5972900390625 -1636.321044921875 -1646.60302734375 -1656.1524658203125 -1664.891845703125 -1672.9451904296875 -1679.9107666015625 -1686.1219482421875 -1691.541015625 -1696.17431640625 -1700.2899169921875 -1703.6041259765625 -1706.4189453125 -1708.7586669921875 -1710.6993408203125 -1712.2615966796875 -1713.4595947265625 -1714.3939208984375 -1715.0355224609375 -1715.4151611328125 -1715.519775390625 -1715.4957275390625 -1715.3370361328125 -1715.0797119140625 -1714.8958740234375 -1714.927490234375 -1715.3671875 -1716.35205078125 -1717.9853515625 -1720.1302490234375 -1722.5877685546875 -1725.181640625 -1727.750732421875 -1729.6273193359375 -1730.8648681640625 -1731.965087890625 -1733.0787353515625 -1734.1944580078125 -1735.28759765625 -1736.3291015625 -1737.317138671875 -1738.228515625 -1739.042724609375 -1739.7430419921875 -1740.3123779296875 -1740.72802734375 -1740.984619140625 -1741.033203125 -1740.8082275390625 -1740.2066650390625 -1739.1470947265625 -1737.93212890625 -1736.6878662109375 -1735.42919921875 -1734.1436767578125 -1732.864013671875 -1731.595703125 -1730.3482666015625 -1729.1041259765625 -1727.853271484375 -1726.6021728515625 -1725.349609375 -1724.095703125 -1722.8316650390625 -1721.546630859375 -1720.244873046875 -1718.9248046875 -1717.5850830078125 -1716.215576171875 -1714.8446044921875 -1713.368896484375 -1711.886962890625 -1710.3631591796875 -1708.8011474609375 -1707.2076416015625 -1705.5765380859375 -1703.8865966796875 -1702.158935546875 -1700.3985595703125 -1698.613525390625 -1696.7955322265625 -1694.9256591796875 -1693.043212890625 -1691.12744140625 -1689.2076416015625 -1687.2598876953125 -1685.2835693359375 -1683.29345703125 -1681.2967529296875 -1679.293701171875 -1677.2733154296875 -1675.2371826171875 -1673.1968994140625 -1671.156005859375 -1669.103271484375 -1667.029052734375 -1664.9647216796875 -1662.8914794921875 -1660.804443359375 -1658.711181640625 -1656.6129150390625 -1654.5089111328125 -1652.39453125 -1650.2672119140625 -99999 -99999 -99999 -99999 -99999 -99999
 -99999 -99999 -99999 -99999 -99999 -99999 -99999 -99999 -99999 -99999 -99999 -99999 -99999 -99999 -99999 -99999 -99999 -99999 -99999 -99999 -99999 -99999 -99999 -99999 -99999 -99999 -1279.330322265625 -1282.7979736328125 -1286.3079833984375 -1289.8565673828125 -1293.44287109375 -1297.0550537109375 -1300.720947265625 -1304.4144287109375 -1308.1236572265625 -1311.8514404296875 -1315.611572265625 -1319.3359375 -1323.075439453125 -1326.8209228515625 -1330.5555419921875 -1334.275390625 -1337.980712890625 -1341.677001953125 -1345.359375 -1349.0328369140625 -1352.7099609375 -1356.4168701171875 -1360.1241455078125 -1363.8326416015625 -1367.5985107421875 -1371.389404296875 -1375.2138671875 -1379.074462890625 -1382.9710693359375 -1386.871826171875 -1390.7567138671875 -1394.6168212890625 -1398.4390869140625 -1402.23388671875 -1405.9208984375 -1409.53515625 -1413.1153564453125 -1416.634765625 -1420.11962890625 -1423.6009521484375 -1427.2393798828125 -1431.16455078125 -1435.639404296875 -1441.047119140625 -1446.976318359375 -1453.139892578125 -1459.4649658203125 -1465.9254150390625 -1472.6044921875 -1479.5751953125 -1486.9122314453125 -1494.552490234375 -1502.7440185546875 -1511.41259765625 -1520.656005859375 -1530.3529052734375 -1540.616455078125 -1551.4619140625 -1562.6650390625 -1574.23486328125 -1585.9669189453125 -1597.7105712890625 -1609.40283203125 -1620.847900390625 -1631.909912109375 -1642.3370361328125 -1652.16943359375 -1661.306640625 -1669.6690673828125 -1676.9251708984375 -1683.5374755859375 -1689.1878662109375 -1694.1566162109375 -1698.4356689453125 -1702.0513916015625 -1705.1107177734375 -1707.57080078125 -1709.614990234375 -1711.27392578125 -1712.56787109375 -1713.5555419921875 -1714.2315673828125 -1714.69384765625 -1714.9453125 -1715.0322265625 -1715.0260009765625 -1715.0238037109375 -1715.0355224609375 -1715.333740234375 -1715.9849853515625 -1717.057861328125 -1718.630615234375 -1720.5623779296875 -1722.85888671875 -1725.294189453125 -1727.6744384765625 -1729.3883056640625 -1730.5828857421875 -1731.655517578125 -1732.743408203125 -1733.8267822265625 -1734.906005859375 -1735.951171875 -1736.9307861328125 -1737.8375244140625 -1738.6552734375 -1739.3707275390625 -1739.959716796875 -1740.3883056640625 -1740.658935546875 -1740.740234375 -1740.6522216796875 -1740.014892578125 -1738.8846435546875 -1737.580810546875 -1736.2596435546875 -1734.921142578125 -1733.5909423828125 -1732.2728271484375 -1730.966064453125 -1729.6649169921875 -1728.373779296875 -1727.095947265625 -1725.820068359375 -1724.5411376953125 -1723.251953125 -1721.9532470703125 -1720.64404296875 -1719.317138671875 -1717.96435546875 -1716.576904296875 -1715.1832275390625 -1713.722412109375 -1712.216064453125 -1710.685302734375 -1709.1160888671875 -1707.504638671875 -1705.831787109375 -1704.1173095703125 -1702.3712158203125 -1700.588623046875 -1698.7647705078125 -1696.8907470703125 -1694.982666015625 -1693.0667724609375 -1691.11474609375 -1689.142578125 -1687.1358642578125 -1685.115478515625 -1683.090087890625 -1681.0518798828125 -1678.9937744140625 -1676.921630859375 -1674.846923828125 -1672.78515625 -1670.6988525390625 -1668.615234375 -1666.502685546875 -1664.4051513671875 -1662.2972412109375 -1660.1871337890625 -1658.0782470703125 -1655.96435546875 -1653.8426513671875 -1651.7130126953125 -1649.5802001953125 -1647.4420166015625 -99999 -99999 -99999 -99999 -99999 -99999
 -99999 -99999 -99999 -99999 -99999 -99999 -99999 -99999 -99999 -99999 -99999 -99999 -99999 -99999 -99999 -99999 -99999 -99999 -99999 -99999 -99999 -99999 -99999 -99999 -99999 -99999 -1276.9439697265625 -1280.3499755859375 -1283.7899169921875 -1287.2843017578125 -1290.816162109375 -1294.383056640625 -1297.966064453125 -1301.5792236328125 -1305.231689453125 -1308.9027099609375 -1312.5975341796875 -1316.2843017578125 -1319.979248046875 -1323.6800537109375 -1327.3809814453125 -1331.0875244140625 -1334.79443359375 -1338.4996337890625 -1342.209228515625 -1345.935791015625 -1349.6668701171875 -1353.4141845703125 -1357.210693359375 -1361.012451171875 -1364.8245849609375 -1368.690185546875 -1372.6015625 -1376.52783203125 -1380.4727783203125 -1384.418212890625 -1388.3614501953125 -1392.292724609375 -1396.1688232421875 -1399.9962158203125 -1403.81787109375 -1407.501220703125 -1411.1492919921875 -1414.7779541015625 -1418.43701171875 -1422.156494140625 -1425.9952392578125 -1430.131591796875 -1434.79833984375 -1440.04931640625 -1445.83056640625 -1451.8583984375 -1458.0135498046875 -1464.3101806640625 -1470.7291259765625 -1477.3697509765625 -1484.21875 -1491.4932861328125 -1499.3250732421875 -1507.540283203125 -1516.5079345703125 -1526.1063232421875 -1536.1259765625 -1546.82421875 -1557.9202880859375 -1569.458984375 -1581.31982421875 -1593.1981201171875 -1605.103271484375 -1616.84033203125 -1628.128662109375 -1638.9595947265625 -1649.0191650390625 -1658.3267822265625 -1666.9744873046875 -1674.6666259765625 -1681.468994140625 -1687.48876953125 -1692.739990234375 -1697.15283203125 -1700.9046630859375 -1704.0887451171875 -1706.7347412109375 -1708.8892822265625 -1710.5782470703125 -1711.917724609375 -1712.955078125 -1713.708984375 -1714.236328125 -1714.5516357421875 -1714.7462158203125 -1714.8780517578125 -1715.0137939453125 -1715.2994384765625 -1715.7496337890625 -1716.5198974609375 -1717.6400146484375 -1719.1346435546875 -1720.94775390625 -1722.987060546875 -1725.07666015625 -1727.1016845703125 -1728.776123046875 -1730.0716552734375 -1731.2076416015625 -1732.25439453125 -1733.3470458984375 -1734.4302978515625 -1735.4798583984375 -1736.4603271484375 -1737.3369140625 -1738.13623046875 -1738.8465576171875 -1739.448486328125 -1739.86865234375 -1740.070556640625 -1740.085693359375 -1739.9058837890625 -1739.2861328125 -1738.1827392578125 -1736.886962890625 -1735.5474853515625 -1734.1942138671875 -1732.8394775390625 -1731.4898681640625 -1730.1551513671875 -1728.8349609375 -1727.52490234375 -1726.22119140625 -1724.9189453125 -1723.6185302734375 -1722.312744140625 -1720.996826171875 -1719.6622314453125 -1718.3021240234375 -1716.9169921875 -1715.51123046875 -1714.066162109375 -1712.55224609375 -1711.019775390625 -1709.44091796875 -1707.80078125 -1706.118408203125 -1704.3941650390625 -1702.6270751953125 -1700.8095703125 -1698.937255859375 -1697.0367431640625 -1695.103515625 -1693.1444091796875 -1691.14013671875 -1689.103759765625 -1687.0596923828125 -1684.998779296875 -1682.922607421875 -1680.8221435546875 -1678.7093505859375 -1676.599853515625 -1674.484130859375 -1672.3636474609375 -1670.23193359375 -1668.1005859375 -1665.9674072265625 -1663.827392578125 -1661.69384765625 -1659.559814453125 -1657.4241943359375 -1655.2833251953125 -1653.1387939453125 -1650.99658203125 -1648.8525390625 -1646.702392578125 -1644.5472412109375 -99999 -99999 -99999 -99999 -99999 -99999
 -99999 -99999 -99999 -99999 -99999 -99999 -99999 -99999 -99999 -99999 -99999 -99999 -99999 -99999 -99999 -99999 -99999 -99999 -99999 -99999 -99999 -99999 -99999 -99999 -99999 -99999 -1274.599609375 -1277.963623046875 -1281.362548828125 -1284.7955322265625 -1288.2550048828125 -1291.7611083984375 -1295.2978515625 -1298.8585205078125 -1302.4456787109375 -1306.04638671875 -1309.681640625 -1313.337646484375 -1316.995849609375 -1320.66552734375 -1324.35009765625 -1328.0439453125 -1331.751220703125 -1335.4759521484375 -1339.2177734375 -1342.9781494140625 -1346.760009765625 -1350.5853271484375 -1354.4365234375 -1358.334716796875 -1362.244140625 -1366.1884765625 -1370.1649169921875 -1374.1651611328125 -1378.1939697265625 -1382.2403564453125 -1386.248291015625 -1390.244140625 -1394.2125244140625 -1398.15576171875 -1402.10986328125 -1405.8634033203125 -1409.6685791015625 -1413.443115234375 -1417.2432861328125 -1421.115234375 -1425.17578125 -1429.5230712890625 -1434.2744140625 -1439.4476318359375 -1444.975341796875 -1450.8236083984375 -1456.894287109375 -1463.0899658203125 -1469.2293701171875 -1475.5374755859375 -1482.11083984375 -1488.94140625 -1496.2977294921875 -1504.32080078125 -1512.8026123046875 -1522.04345703125 -1531.9959716796875 -1542.5438232421875 -1553.66015625 -1565.2490234375 -1577.140869140625 -1589.3072509765625 -1601.434814453125 -1613.4034423828125 -1625.1641845703125 -1636.11669921875 -1646.62451171875 -1656.3807373046875 -1665.172607421875 -1673.257080078125 -1680.2498779296875 -1686.36328125 -1691.73046875 -1696.3187255859375 -1700.315185546875 -1703.541015625 -1706.2001953125 -1708.399169921875 -1710.1854248046875 -1711.5731201171875 -1712.605712890625 -1713.3787841796875 -1713.9483642578125 -1714.3543701171875 -1714.65576171875 -1714.880859375 -1715.173583984375 -1715.5728759765625 -1716.1529541015625 -1716.97119140625 -1718.062255859375 -1719.4459228515625 -1721.099609375 -1722.933837890625 -1724.8154296875 -1726.6239013671875 -1728.2015380859375 -1729.53515625 -1730.6947021484375 -1731.771728515625 -1732.8392333984375 -1733.8851318359375 -1734.9461669921875 -1735.89501953125 -1736.73486328125 -1737.4832763671875 -1738.1826171875 -1738.7608642578125 -1739.13232421875 -1739.2666015625 -1739.1383056640625 -1738.7548828125 -1738.050537109375 -1737.0345458984375 -1735.8438720703125 -1734.5501708984375 -1733.2139892578125 -1731.8642578125 -1730.5172119140625 -1729.177490234375 -1727.8475341796875 -1726.5277099609375 -1725.21533203125 -1723.9053955078125 -1722.5943603515625 -1721.275146484375 -1719.941650390625 -1718.589111328125 -1717.2127685546875 -1715.8095703125 -1714.381103515625 -1712.8717041015625 -1711.341064453125 -1709.751953125 -1708.1158447265625 -1706.4310302734375 -1704.6976318359375 -1702.904052734375 -1701.054931640625 -1699.165771484375 -1697.23583984375 -1695.267578125 -1693.24853515625 -1691.2008056640625 -1689.128662109375 -1687.03466796875 -1684.9210205078125 -1682.77587890625 -1680.62744140625 -1678.471923828125 -1676.3089599609375 -1674.14013671875 -1671.9630126953125 -1669.8001708984375 -1667.6119384765625 -1665.429443359375 -1663.257568359375 -1661.0867919921875 -1658.91748046875 -1656.7451171875 -1654.578125 -1652.4141845703125 -1650.251220703125 -1648.0885009765625 -1645.92041015625 -1643.7540283203125 -1641.588623046875 -1639.4200439453125 -99999 -99999 -99999 -99999 -99999
 -99999 -99999 -99999 -99999 -99999 -99999 -99999 -99999 -99999 -99999 -99999 -99999 -99999 -99999 -99999 -99999 -99999 -99999 -99999 -99999 -99999 -99999 -99999 -99999 -99999 -99999 -1272.33447265625 -1275.6451416015625 -1278.9910888671875 -1282.3760986328125 -1285.79150390625 -1289.2371826171875 -1292.7158203125 -1296.2169189453125 -1299.75244140625 -1303.312744140625 -1306.8955078125 -1310.4990234375 -1314.157470703125 -1317.7799072265625 -1321.4473876953125 -1325.140869140625 -1328.8568115234375 -1332.59716796875 -1336.364501953125 -1340.177490234375 -1344.024658203125 -1347.9083251953125 -1351.8302001953125 -1355.798095703125 -1359.848876953125 -1363.848876953125 -1367.9329833984375 -1372.035888671875 -1376.153564453125 -1380.279541015625 -1384.404296875 -1388.525390625 -1392.60693359375 -1396.656005859375 -1400.6763916015625 -1404.6546630859375 -1408.5965576171875 -1412.5357666015625 -1416.5194091796875 -1420.5877685546875 -1424.8165283203125 -1429.2889404296875 -1433.998291015625 -1439.08447265625 -1444.5098876953125 -1450.1219482421875 -1456.001708984375 -1462.0150146484375 -1468.0850830078125 -1474.205078125 -1480.329833984375 -1486.866943359375 -1493.7393798828125 -1501.34619140625 -1509.7086181640625 -1518.7008056640625 -1528.3634033203125 -1538.7789306640625 -1549.9210205078125 -1561.4996337890625 -1573.68017578125 -1586.0633544921875 -1598.4666748046875 -1610.8306884765625 -1622.8125 -1634.341796875 -1645.045166015625 -1654.9810791015625 -1664.1956787109375 -1672.366455078125 -1679.582763671875 -1686.003662109375 -1691.4736328125 -1696.107177734375 -1700.041259765625 -1703.36279296875 -1706.1263427734375 -1708.3013916015625 -1710.0191650390625 -1711.391845703125 -1712.4647216796875 -1713.28173828125 -1713.85546875 -1714.2886962890625 -1714.645263671875 -1714.971923828125 -1715.3447265625 -1715.809326171875 -1716.4173583984375 -1717.2498779296875 -1718.3421630859375 -1719.650634765625 -1721.1451416015625 -1722.780517578125 -1724.462158203125 -1726.0955810546875 -1727.603271484375 -1728.965576171875 -1730.1888427734375 -1731.2938232421875 -1732.336181640625 -1733.3765869140625 -1734.4044189453125 -1735.3458251953125 -1735.993896484375 -1736.6588134765625 -1737.326904296875 -1737.9320068359375 -1738.3427734375 -1738.2564697265625 -1737.906005859375 -1737.3828125 -1736.6341552734375 -1735.6768798828125 -1734.5201416015625 -1733.2803955078125 -1731.99072265625 -1730.6744384765625 -1729.3497314453125 -1728.0242919921875 -1726.704345703125 -1725.3900146484375 -1724.080078125 -1722.77197265625 -1721.458740234375 -1720.1356201171875 -1718.7977294921875 -1717.43994140625 -1716.0462646484375 -1714.632080078125 -1713.1529541015625 -1711.6260986328125 -1710.0537109375 -1708.4296875 -1706.7520751953125 -1705.0067138671875 -1703.2008056640625 -1701.3426513671875 -1699.4344482421875 -1697.478515625 -1695.462890625 -1693.4097900390625 -1691.320068359375 -1689.201904296875 -1687.0560302734375 -1684.8760986328125 -1682.6854248046875 -1680.4818115234375 -1678.2679443359375 -1676.044677734375 -1673.813720703125 -1671.601318359375 -1669.360107421875 -1667.1328125 -1664.907470703125 -1662.6885986328125 -1660.4737548828125 -1658.26171875 -1656.05810546875 -1653.859130859375 -1651.664306640625 -1649.470947265625 -1647.2869873046875 -1645.1029052734375 -1642.92236328125 -1640.7432861328125 -1638.565185546875 -1636.387451171875 -99999 -99999 -99999 -99999 -99999
 -99999 -99999 -99999 -99999 -99999 -99999 -99999 -99999 -99999 -99999 -99999 -99999 -99999 -99999 -99999 -99999 -99999 -99999 -99999 -99999 -99999 -99999 -99999 -99999 -99999 -99999 -1270.1456298828125 -1273.4100341796875 -1276.7108154296875 -1280.041015625 -1283.4053955078125 -1286.8033447265625 -1290.2298583984375 -1293.6861572265625 -1297.1656494140625 -1300.681396484375 -1304.2261962890625 -1307.7979736328125 -1311.4017333984375 -1315.041015625 -1318.68603515625 -1322.3739013671875 -1326.0963134765625 -1329.8656005859375 -1333.6761474609375 -1337.530517578125 -1341.430908203125 -1345.3818359375 -1349.3958740234375 -1353.4581298828125 -1357.5814208984375 -1361.7431640625 -1365.9031982421875 -1370.1202392578125 -1374.3548583984375 -1378.6094970703125 -1382.867919921875 -1387.11376953125 -1391.34716796875 -1395.544677734375 -1399.716064453125 -1403.8878173828125 -1407.9808349609375 -1412.099609375 -1416.2586669921875 -1420.4892578125 -1424.8282470703125 -1429.3848876953125 -1434.1748046875 -1439.1884765625 -1444.4102783203125 -1449.8597412109375 -1455.5079345703125 -1461.267822265625 -1467.22314453125 -1473.1536865234375 -1479.133056640625 -1485.2257080078125 -1491.7578125 -1499.0771484375 -1507.00732421875 -1515.76513671875 -1525.4598388671875 -1535.690673828125 -1546.755859375 -1558.5361328125 -1570.8875732421875 -1583.5377197265625 -1596.33935546875 -1609.0498046875 -1621.5570068359375 -1633.3212890625 -1644.4649658203125 -1654.798828125 -1664.0577392578125 -1672.60888671875 -1679.859130859375 -1686.1917724609375 -1691.716552734375 -1696.38623046875 -1700.4708251953125 -1703.6490478515625 -1706.28369140625 -1708.441162109375 -1710.1778564453125 -1711.53271484375 -1712.5164794921875 -1713.2808837890625 -1713.8707275390625 -1714.3302001953125 -1714.7027587890625 -1715.0789794921875 -1715.4544677734375 -1715.959716796875 -1716.61279296875 -1717.4329833984375 -1718.43310546875 -1719.6258544921875 -1721.020263671875 -1722.5087890625 -1724.04052734375 -1725.5660400390625 -1727.029541015625 -1728.36572265625 -1729.6060791015625 -1730.76220703125 -1731.8480224609375 -1732.8812255859375 -1733.87890625 -1734.6116943359375 -1735.1302490234375 -1735.6021728515625 -1736.337646484375 -1737.006103515625 -1737.235107421875 -1737.0391845703125 -1736.486328125 -1735.8343505859375 -1735.0057373046875 -1734.042724609375 -1732.964599609375 -1731.7943115234375 -1730.550048828125 -1729.2794189453125 -1727.9931640625 -1726.69921875 -1725.4027099609375 -1724.1080322265625 -1722.814208984375 -1721.5177001953125 -1720.2149658203125 -1718.900390625 -1717.562255859375 -1716.197265625 -1714.8095703125 -1713.365234375 -1711.8646240234375 -1710.322265625 -1708.724853515625 -1707.052978515625 -1705.3148193359375 -1703.5155029296875 -1701.6558837890625 -1699.738525390625 -1697.7490234375 -1695.70751953125 -1693.62060546875 -1691.48583984375 -1689.3270263671875 -1687.12060546875 -1684.8907470703125 -1682.6414794921875 -1680.376953125 -1678.1025390625 -1675.8170166015625 -1673.528564453125 -1671.244873046875 -1668.960693359375 -1666.668701171875 -1664.3909912109375 -1662.1214599609375 -1659.8599853515625 -1657.6055908203125 -1655.359130859375 -1653.12060546875 -1650.89208984375 -1648.672119140625 -1646.4576416015625 -1644.25 -1642.0482177734375 -1639.8531494140625 -1637.6627197265625 -1635.4754638671875 -1633.2908935546875 -99999 -99999 -99999 -99999 -99999
 -99999 -99999 -99999 -99999 -99999 -99999 -99999 -99999 -99999 -99999 -99999 -99999 -99999 -99999 -99999 -99999 -99999 -99999 -99999 -99999 -99999 -99999 -99999 -99999 -99999 -99999 -1268.0391845703125 -1271.252685546875 -1274.5169677734375 -1277.806640625 -1281.1239013671875 -1284.46875 -1287.8458251953125 -1291.2603759765625 -1294.7030029296875 -1298.1722412109375 -1301.67431640625 -1305.214111328125 -1308.792236328125 -1312.4097900390625 -1316.0577392578125 -1319.7508544921875 -1323.4918212890625 -1327.281005859375 -1331.121337890625 -1335.0262451171875 -1338.994140625 -1343.030029296875 -1347.12646484375 -1351.2769775390625 -1355.4906005859375 -1359.786376953125 -1364.07177734375 -1368.431640625 -1372.818115234375 -1377.22412109375 -1381.6458740234375 -1386.0213623046875 -1390.427978515625 -1394.8131103515625 -1399.1781005859375 -1403.5047607421875 -1407.8104248046875 -1412.1217041015625 -1416.4229736328125 -1420.82421875 -1425.326416015625 -1429.9669189453125 -1434.7252197265625 -1439.6995849609375 -1444.864990234375 -1450.127685546875 -1455.552001953125 -1461.08154296875 -1466.715576171875 -1472.45947265625 -1478.282958984375 -1484.1536865234375 -1490.28076171875 -1497.296630859375 -1505.2850341796875 -1513.8131103515625 -1523.100341796875 -1533.2222900390625 -1544.3902587890625 -1556.1767578125 -1568.758544921875 -1581.770263671875 -1595.0487060546875 -1608.2554931640625 -1621.1099853515625 -1633.4285888671875 -1644.8316650390625 -1655.3380126953125 -1665.00439453125 -1673.4368896484375 -1680.83642578125 -1687.328857421875 -1692.837158203125 -1697.346435546875 -1701.16748046875 -1704.3404541015625 -1706.940673828125 -1708.981201171875 -1710.542724609375 -1711.776123046875 -1712.732666015625 -1713.459716796875 -1713.994140625 -1714.40576171875 -1714.7677001953125 -1715.121826171875 -1715.5286865234375 -1716.01611328125 -1716.6177978515625 -1717.4010009765625 -1718.364013671875 -1719.478271484375 -1720.7252197265625 -1722.08203125 -1723.5263671875 -1724.95556640625 -1726.3521728515625 -1727.6959228515625 -1728.9674072265625 -1730.14453125 -1731.244873046875 -1732.263427734375 -1733.162353515625 -1733.8631591796875 -1734.1297607421875 -1734.584228515625 -1735.337646484375 -1736.0269775390625 -1736.001220703125 -1735.45166015625 -1734.7850341796875 -1734.033447265625 -1733.199951171875 -1732.25634765625 -1731.207275390625 -1730.0902099609375 -1728.9197998046875 -1727.70947265625 -1726.462158203125 -1725.2103271484375 -1723.951904296875 -1722.689208984375 -1721.4229736328125 -1720.1455078125 -1718.861572265625 -1717.5606689453125 -1716.2431640625 -1714.8834228515625 -1713.477294921875 -1712.0340576171875 -1710.5338134765625 -1708.9610595703125 -1707.32080078125 -1705.612548828125 -1703.8349609375 -1701.9893798828125 -1700.0533447265625 -1698.0535888671875 -1695.9918212890625 -1693.880126953125 -1691.7108154296875 -1689.495361328125 -1687.2410888671875 -1684.9549560546875 -1682.6470947265625 -1680.326416015625 -1677.98095703125 -1675.6285400390625 -1673.2796630859375 -1670.9161376953125 -1668.5924072265625 -1666.222412109375 -1663.8946533203125 -1661.566650390625 -1659.249267578125 -1656.9427490234375 -1654.64794921875 -1652.3724365234375 -1650.102783203125 -1647.8446044921875 -1645.5965576171875 -1643.361083984375 -1641.1375732421875 -1638.921142578125 -1636.712646484375 -1634.51123046875 -1632.316650390625 -1630.12744140625 -99999 -99999 -99999 -99999 -99999
 -99999 -99999 -99999 -99999 -99999 -99999 -99999 -99999 -99999 -99999 -99999 -99999 -99999 -99999 -99999 -99999 -99999 -99999 -99999 -99999 -99999 -99999 -99999 -99999 -99999 -99999 -1265.994873046875 -1269.202880859375 -1272.4114990234375 -1275.6539306640625 -1278.9366455078125 -1282.244140625 -1285.5775146484375 -1288.940185546875 -1292.338134765625 -1295.7781982421875 -1299.2490234375 -1302.7584228515625 -1306.3079833984375 -1309.9049072265625 -1313.55419921875 -1317.252197265625 -1321.0047607421875 -1324.8214111328125 -1328.7108154296875 -1332.6690673828125 -1336.7003173828125 -1340.8011474609375 -1344.9912109375 -1349.2666015625 -1353.61669921875 -1358.01904296875 -1362.470947265625 -1366.9837646484375 -1371.5078125 -1376.0616455078125 -1380.670166015625 -1385.2696533203125 -1389.8780517578125 -1394.42236328125 -1398.9715576171875 -1403.538330078125 -1408.0115966796875 -1412.5296630859375 -1417.0611572265625 -1421.6314697265625 -1426.2313232421875 -1430.939453125 -1435.7843017578125 -1440.7281494140625 -1445.755615234375 -1450.909912109375 -1456.155029296875 -1461.468017578125 -1466.905517578125 -1472.3829345703125 -1477.9390869140625 -1483.59912109375 -1489.4920654296875 -1496.514404296875 -1504.2611083984375 -1512.665283203125 -1521.7435302734375 -1531.5782470703125 -1542.5850830078125 -1554.7015380859375 -1567.6646728515625 -1581.1053466796875 -1594.8389892578125 -1608.5240478515625 -1621.8900146484375 -1634.54052734375 -1646.330810546875 -1657.1121826171875 -1666.85888671875 -1675.3814697265625 -1682.7498779296875 -1688.920166015625 -1694.314697265625 -1698.8009033203125 -1702.487548828125 -1705.4571533203125 -1707.78662109375 -1709.655029296875 -1711.1258544921875 -1712.2520751953125 -1713.0745849609375 -1713.6717529296875 -1714.1292724609375 -1714.48974609375 -1714.81005859375 -1715.11865234375 -1715.48291015625 -1715.9405517578125 -1716.52001953125 -1717.2330322265625 -1718.0870361328125 -1719.1170654296875 -1720.28466796875 -1721.54296875 -1722.8651123046875 -1724.224853515625 -1725.5926513671875 -1726.9173583984375 -1728.189697265625 -1729.4007568359375 -1730.5321044921875 -1731.5484619140625 -1732.4136962890625 -1733.0906982421875 -1733.6494140625 -1734.207275390625 -1734.9439697265625 -1735.0032958984375 -1734.310302734375 -1733.5697021484375 -1732.83642578125 -1732.056640625 -1731.2098388671875 -1730.297119140625 -1729.316650390625 -1728.258056640625 -1727.1358642578125 -1725.9818115234375 -1724.800537109375 -1723.59912109375 -1722.376708984375 -1721.1468505859375 -1719.9154052734375 -1718.674560546875 -1717.4205322265625 -1716.1402587890625 -1714.8297119140625 -1713.4892578125 -1712.09814453125 -1710.6463623046875 -1709.130615234375 -1707.5452880859375 -1705.8826904296875 -1704.140869140625 -1702.3013916015625 -1700.383544921875 -1698.3896484375 -1696.3267822265625 -1694.185546875 -1691.987548828125 -1689.71923828125 -1687.4215087890625 -1685.093017578125 -1682.7254638671875 -1680.3251953125 -1677.9107666015625 -1675.4874267578125 -1673.0784912109375 -1670.663330078125 -1668.2259521484375 -1665.822509765625 -1663.4180908203125 -1661.025634765625 -1658.646484375 -1656.2908935546875 -1653.948974609375 -1651.6156005859375 -1649.3028564453125 -1647.000732421875 -1644.719970703125 -1642.451904296875 -1640.1959228515625 -1637.9527587890625 -1635.7216796875 -1633.5047607421875 -1631.2960205078125 -1629.094970703125 -1626.89111328125 -99999 -99999 -99999 -99999 -99999
 -99999 -99999 -99999 -99999 -99999 -99999 -99999 -99999 -99999 -99999 -99999 -99999 -99999 -99999 -99999 -99999 -99999 -99999 -99999 -99999 -99999 -99999 -99999 -99999 -99999 -1260.922607421875 -1264.0604248046875 -1267.2225341796875 -1270.41357421875 -1273.6171875 -1276.85107421875 -1280.1112060546875 -1283.410888671875 -1286.7415771484375 -1290.1015625 -1293.50146484375 -1296.930908203125 -1300.4193115234375 -1303.95068359375 -1307.5355224609375 -1311.176513671875 -1314.88916015625 -1318.6553955078125 -1322.5006103515625 -1326.425048828125 -1330.425537109375 -1334.53076171875 -1338.7362060546875 -1343.0322265625 -1347.4031982421875 -1351.8487548828125 -1356.42626953125 -1361.0267333984375 -1365.6943359375 -1370.4359130859375 -1375.2159423828125 -1379.988525390625 -1384.7637939453125 -1389.5775146484375 -1394.3990478515625 -1399.20556640625 -1403.9503173828125 -1408.6832275390625 -1413.3992919921875 -1418.0838623046875 -1422.8126220703125 -1427.5908203125 -1432.4312744140625 -1437.3111572265625 -1442.25439453125 -1447.2476806640625 -1452.3416748046875 -1457.46240234375 -1462.6143798828125 -1467.8206787109375 -1473.1209716796875 -1478.5213623046875 -1484.052001953125 -1489.9581298828125 -1496.94482421875 -1504.6661376953125 -1512.5570068359375 -1521.0648193359375 -1530.6983642578125 -1541.710693359375 -1554.01220703125 -1567.31640625 -1581.295654296875 -1595.5736083984375 -1609.76171875 -1623.65625 -1636.7225341796875 -1648.809326171875 -1659.7652587890625 -1669.6466064453125 -1678.0234375 -1685.265380859375 -1691.3973388671875 -1696.5052490234375 -1700.7415771484375 -1704.0831298828125 -1706.79248046875 -1708.9437255859375 -1710.63134765625 -1711.8668212890625 -1712.77197265625 -1713.443115234375 -1713.9368896484375 -1714.301025390625 -1714.5557861328125 -1714.7833251953125 -1715.045654296875 -1715.3348388671875 -1715.7156982421875 -1716.2210693359375 -1716.8751220703125 -1717.6676025390625 -1718.5926513671875 -1719.6380615234375 -1720.810791015625 -1722.0687255859375 -1723.36474609375 -1724.67919921875 -1725.99609375 -1727.283203125 -1728.5115966796875 -1729.6553955078125 -1730.68310546875 -1731.5780029296875 -1732.32177734375 -1732.9971923828125 -1733.7911376953125 -1734.0645751953125 -1733.4794921875 -1732.3619384765625 -1731.535400390625 -1730.716796875 -1729.936279296875 -1729.1207275390625 -1728.239501953125 -1727.297119140625 -1726.300537109375 -1725.25439453125 -1724.1573486328125 -1723.0184326171875 -1721.8614501953125 -1720.693603515625 -1719.5137939453125 -1718.3177490234375 -1717.106689453125 -1715.8853759765625 -1714.640869140625 -1713.3543701171875 -1712.0308837890625 -1710.654296875 -1709.21142578125 -1707.6905517578125 -1706.090087890625 -1704.390869140625 -1702.6014404296875 -1700.7203369140625 -1698.7537841796875 -1696.6932373046875 -1694.5277099609375 -1692.3096923828125 -1690.0233154296875 -1687.68994140625 -1685.29443359375 -1682.8533935546875 -1680.3858642578125 -1677.912353515625 -1675.4307861328125 -1672.9268798828125 -1670.401611328125 -1667.9356689453125 -1665.44482421875 -1662.9669189453125 -1660.5108642578125 -1658.0771484375 -1655.6551513671875 -1653.24755859375 -1650.8582763671875 -1648.49658203125 -1646.1524658203125 -1643.8275146484375 -1641.5179443359375 -1639.225830078125 -1636.955078125 -1634.7000732421875 -1632.45849609375 -1630.230224609375 -1628.0255126953125 -1625.805908203125 -1623.6298828125 -99999 -99999 -99999 -99999 -99999
 -99999 -99999 -99999 -99999 -99999 -99999 -99999 -99999 -99999 -99999 -99999 -99999 -99999 -99999 -99999 -99999 -99999 -99999 -99999 -99999 -99999 -99999 -99999 -99999 -99999 -1259.1053466796875 -1262.2066650390625 -1265.340087890625 -1268.50244140625 -1271.672607421875 -1274.874755859375 -1278.10595703125 -1281.3612060546875 -1284.64599609375 -1287.9736328125 -1291.3427734375 -1294.7557373046875 -1298.204345703125 -1301.710693359375 -1305.286376953125 -1308.9229736328125 -1312.6409912109375 -1316.421142578125 -1320.28857421875 -1324.2613525390625 -1328.334716796875 -1332.516357421875 -1336.7896728515625 -1341.1622314453125 -1345.6859130859375 -1350.311767578125 -1355.0126953125 -1359.8197021484375 -1364.6785888671875 -1369.581298828125 -1374.52685546875 -1379.56103515625 -1384.6141357421875 -1389.6712646484375 -1394.6871337890625 -1399.6888427734375 -1404.7330322265625 -1409.674072265625 -1414.6212158203125 -1419.5762939453125 -1424.50732421875 -1429.435791015625 -1434.36865234375 -1439.357177734375 -1444.3712158203125 -1449.397705078125 -1454.4007568359375 -1459.4346923828125 -1464.5181884765625 -1469.6522216796875 -1474.826416015625 -1480.153076171875 -1485.7161865234375 -1491.7174072265625 -1498.419189453125 -1505.843017578125 -1513.4207763671875 -1521.5302734375 -1530.5213623046875 -1541.5391845703125 -1554.3394775390625 -1568.31201171875 -1582.8594970703125 -1597.64794921875 -1612.449951171875 -1626.8433837890625 -1640.2091064453125 -1652.5499267578125 -1663.658935546875 -1673.37890625 -1681.623779296875 -1688.7037353515625 -1694.515380859375 -1699.162109375 -1703.015869140625 -1706.08056640625 -1708.5201416015625 -1710.3095703125 -1711.65283203125 -1712.6590576171875 -1713.39404296875 -1713.90673828125 -1714.197509765625 -1714.3857421875 -1714.532470703125 -1714.6722412109375 -1714.835205078125 -1715.0257568359375 -1715.35595703125 -1715.772216796875 -1716.319580078125 -1717.012939453125 -1717.8648681640625 -1718.837158203125 -1719.91259765625 -1721.0740966796875 -1722.3153076171875 -1723.602294921875 -1724.901123046875 -1726.1910400390625 -1727.4498291015625 -1728.6195068359375 -1729.655517578125 -1730.5467529296875 -1731.259521484375 -1731.83349609375 -1732.223388671875 -1732.2274169921875 -1731.444091796875 -1730.457275390625 -1729.4306640625 -1728.5780029296875 -1727.7803955078125 -1726.9580078125 -1726.1181640625 -1725.2320556640625 -1724.2777099609375 -1723.2744140625 -1722.231689453125 -1721.1578369140625 -1720.0538330078125 -1718.922119140625 -1717.7774658203125 -1716.62744140625 -1715.4654541015625 -1714.273681640625 -1713.0645751953125 -1711.8243408203125 -1710.5198974609375 -1709.1585693359375 -1707.72607421875 -1706.20361328125 -1704.585693359375 -1702.8616943359375 -1701.042236328125 -1699.1082763671875 -1697.0606689453125 -1694.91357421875 -1692.6962890625 -1690.395751953125 -1688.0054931640625 -1685.5511474609375 -1683.05908203125 -1680.542236328125 -1677.999755859375 -1675.4185791015625 -1672.84765625 -1670.2589111328125 -1667.68896484375 -1665.1090087890625 -1662.5673828125 -1660.04052734375 -1657.5255126953125 -1655.0279541015625 -1652.5533447265625 -1650.1160888671875 -1647.7005615234375 -1645.29833984375 -1642.9193115234375 -1640.5677490234375 -1638.2410888671875 -1635.9334716796875 -1633.6444091796875 -1631.3741455078125 -1629.12353515625 -1626.8912353515625 -1624.6590576171875 -1622.465576171875 -1620.2713623046875 -99999 -99999 -99999 -99999 -99999
 -99999 -99999 -99999 -99999 -99999 -99999 -99999 -99999 -99999 -99999 -99999 -99999 -99999 -99999 -99999 -99999 -99999 -99999 -99999 -99999 -99999 -99999 -99999 -99999 -99999 -1257.384521484375 -1260.46484375 -1263.564208984375 -1266.6832275390625 -1269.8671875 -1273.00390625 -1276.1983642578125 -1279.4267578125 -1282.68505859375 -1285.9749755859375 -1289.301513671875 -1292.6856689453125 -1296.1220703125 -1299.606201171875 -1303.15869140625 -1306.7869873046875 -1310.5068359375 -1314.3035888671875 -1318.21337890625 -1322.2271728515625 -1326.34521484375 -1330.585205078125 -1334.97509765625 -1339.484619140625 -1344.1170654296875 -1348.860107421875 -1353.7308349609375 -1358.7220458984375 -1363.7696533203125 -1368.9434814453125 -1374.1767578125 -1379.41357421875 -1384.6923828125 -1389.98291015625 -1395.3382568359375 -1400.5980224609375 -1405.8826904296875 -1411.15087890625 -1416.3206787109375 -1421.4656982421875 -1426.6005859375 -1431.7412109375 -1436.8660888671875 -1441.948974609375 -1447.037353515625 -1452.107177734375 -1457.1290283203125 -1462.17236328125 -1467.24267578125 -1472.314208984375 -1477.5074462890625 -1482.8436279296875 -1488.406494140625 -1494.331298828125 -1500.8436279296875 -1507.7730712890625 -1515.0128173828125 -1522.493408203125 -1531.1951904296875 -1542.5985107421875 -1556.0322265625 -1570.458740234375 -1585.466796875 -1600.8192138671875 -1616.077392578125 -1630.88134765625 -1644.753662109375 -1657.498046875 -1668.6307373046875 -1678.1431884765625 -1686.1673583984375 -1692.716796875 -1697.9649658203125 -1702.3636474609375 -1705.818115234375 -1708.342041015625 -1710.2777099609375 -1711.7530517578125 -1712.83837890625 -1713.5950927734375 -1714.0078125 -1714.2569580078125 -1714.39599609375 -1714.448974609375 -1714.447998046875 -1714.4217529296875 -1714.455322265625 -1714.5841064453125 -1714.791748046875 -1715.107177734375 -1715.5909423828125 -1716.18896484375 -1716.9246826171875 -1717.7940673828125 -1718.8045654296875 -1719.9066162109375 -1721.0836181640625 -1722.3175048828125 -1723.59814453125 -1724.8934326171875 -1726.165771484375 -1727.3787841796875 -1728.444091796875 -1729.242919921875 -1729.847900390625 -1730.2767333984375 -1730.4090576171875 -1730.130126953125 -1729.4615478515625 -1728.5208740234375 -1727.509521484375 -1726.5675048828125 -1725.643310546875 -1724.8187255859375 -1723.9849853515625 -1723.1171875 -1722.2125244140625 -1721.2659912109375 -1720.2620849609375 -1719.2244873046875 -1718.159912109375 -1717.0814208984375 -1715.9830322265625 -1714.8603515625 -1713.745361328125 -1712.60986328125 -1711.4344482421875 -1710.2220458984375 -1708.9598388671875 -1707.6285400390625 -1706.19921875 -1704.676513671875 -1703.054931640625 -1701.30810546875 -1699.4339599609375 -1697.4373779296875 -1695.3328857421875 -1693.1273193359375 -1690.7989501953125 -1688.3785400390625 -1685.89892578125 -1683.3636474609375 -1680.7813720703125 -1678.136962890625 -1675.478759765625 -1672.8360595703125 -1670.1597900390625 -1667.4906005859375 -1664.847412109375 -1662.2166748046875 -1659.595458984375 -1656.995361328125 -1654.435302734375 -1651.8990478515625 -1649.3853759765625 -1646.89697265625 -1644.4361572265625 -1642.012451171875 -1639.612548828125 -1637.2369384765625 -1634.885498046875 -1632.560791015625 -1630.2620849609375 -1627.9832763671875 -1625.703369140625 -1623.494873046875 -1621.2650146484375 -1619.0599365234375 -1616.869140625 -99999 -99999 -99999 -99999 -99999
 -99999 -99999 -99999 -99999 -99999 -99999 -99999 -99999 -99999 -99999 -99999 -99999 -99999 -99999 -99999 -99999 -99999 -99999 -99999 -99999 -99999 -99999 -99999 -99999 -99999 -1255.7567138671875 -1258.8133544921875 -1261.8922119140625 -1264.990966796875 -1268.11962890625 -1271.2537841796875 -1274.4205322265625 -1277.6109619140625 -1280.8333740234375 -1284.0980224609375 -1287.4010009765625 -1290.748046875 -1294.154052734375 -1297.6180419921875 -1301.1634521484375 -1304.785888671875 -1308.49169921875 -1312.305908203125 -1316.2320556640625 -1320.2833251953125 -1324.475341796875 -1328.806884765625 -1333.2730712890625 -1337.8763427734375 -1342.653076171875 -1347.596435546875 -1352.65673828125 -1357.82421875 -1363.145263671875 -1368.5146484375 -1373.9671630859375 -1379.5211181640625 -1385.1103515625 -1390.6898193359375 -1396.27783203125 -1401.873291015625 -1407.43408203125 -1412.9180908203125 -1418.3709716796875 -1423.836181640625 -1429.20166015625 -1434.5260009765625 -1439.8143310546875 -1445.070068359375 -1450.254638671875 -1455.419677734375 -1460.5484619140625 -1465.6683349609375 -1470.7633056640625 -1475.9078369140625 -1481.132080078125 -1486.5125732421875 -1492.1055908203125 -1497.9564208984375 -1504.2083740234375 -1510.84912109375 -1517.8162841796875 -1525.06884765625 -1533.331787109375 -1545.484619140625 -1559.4405517578125 -1574.4429931640625 -1589.6708984375 -1605.38037109375 -1621.210205078125 -1636.6195068359375 -1650.892578125 -1663.4407958984375 -1674.7265625 -1683.708740234375 -1691.3126220703125 -1697.2509765625 -1702.3099365234375 -1705.861083984375 -1708.6123046875 -1710.716796875 -1712.2760009765625 -1713.3575439453125 -1713.9830322265625 -1714.3857421875 -1714.5850830078125 -1714.6260986328125 -1714.5340576171875 -1714.3544921875 -1714.19287109375 -1714.05078125 -1713.95556640625 -1713.9285888671875 -1714.0181884765625 -1714.2626953125 -1714.6239013671875 -1715.1279296875 -1715.793701171875 -1716.5767822265625 -1717.4835205078125 -1718.4986572265625 -1719.62841796875 -1720.8233642578125 -1722.068359375 -1723.3470458984375 -1724.6436767578125 -1725.8963623046875 -1726.967529296875 -1727.7689208984375 -1728.194580078125 -1728.391357421875 -1728.34521484375 -1728.011962890625 -1727.3934326171875 -1726.5576171875 -1725.6014404296875 -1724.6278076171875 -1723.676025390625 -1722.77685546875 -1721.8895263671875 -1721.028564453125 -1720.14013671875 -1719.2164306640625 -1718.2557373046875 -1717.2637939453125 -1716.2269287109375 -1715.1826171875 -1714.1197509765625 -1713.061279296875 -1711.98046875 -1710.881103515625 -1709.7601318359375 -1708.589111328125 -1707.3524169921875 -1706.043212890625 -1704.648681640625 -1703.1378173828125 -1701.487060546875 -1699.7066650390625 -1697.7996826171875 -1695.7657470703125 -1693.5640869140625 -1691.25146484375 -1688.8353271484375 -1686.3321533203125 -1683.74755859375 -1681.0736083984375 -1678.3748779296875 -1675.6478271484375 -1672.9068603515625 -1670.1456298828125 -1667.3834228515625 -1664.641357421875 -1661.90234375 -1659.1998291015625 -1656.525634765625 -1653.8778076171875 -1651.2579345703125 -1648.6650390625 -1646.114013671875 -1643.59375 -1641.1046142578125 -1638.6451416015625 -1636.2159423828125 -1633.8245849609375 -1631.4599609375 -1629.1236572265625 -1626.817138671875 -1624.52294921875 -1622.2589111328125 -1620.01806640625 -1617.7994384765625 -1615.5972900390625 -1613.40966796875 -99999 -99999 -99999 -99999 -99999
 -99999 -99999 -99999 -99999 -99999 -99999 -99999 -99999 -99999 -99999 -99999 -99999 -99999 -99999 -99999 -99999 -99999 -99999 -99999 -99999 -99999 -99999 -99999 -99999 -99999 -1254.2352294921875 -1257.271728515625 -1260.32568359375 -1263.400390625 -1266.4986572265625 -1269.6217041015625 -1272.755615234375 -1275.9241943359375 -1279.1202392578125 -1282.34814453125 -1285.6158447265625 -1288.9488525390625 -1292.3214111328125 -1295.7637939453125 -1299.2772216796875 -1302.88916015625 -1306.6107177734375 -1310.44091796875 -1314.3822021484375 -1318.4833984375 -1322.7171630859375 -1327.097900390625 -1331.66455078125 -1336.4217529296875 -1341.3511962890625 -1346.4296875 -1351.663818359375 -1357.090087890625 -1362.615234375 -1368.266357421875 -1374.025146484375 -1379.8402099609375 -1385.71533203125 -1391.61962890625 -1397.5738525390625 -1403.4595947265625 -1409.3106689453125 -1415.14453125 -1420.898681640625 -1426.585205078125 -1432.220947265625 -1437.8145751953125 -1443.32568359375 -1448.78369140625 -1454.102294921875 -1459.396240234375 -1464.6475830078125 -1469.869873046875 -1475.0889892578125 -1480.3702392578125 -1485.7200927734375 -1491.195068359375 -1496.8016357421875 -1502.742431640625 -1508.9649658203125 -1515.5257568359375 -1522.600341796875 -1530.2489013671875 -1539.3533935546875 -1551.668212890625 -1565.4451904296875 -1579.9898681640625 -1595.244140625 -1611.22216796875 -1627.7637939453125 -1643.50439453125 -1657.9722900390625 -1670.9697265625 -1681.3707275390625 -1690.42529296875 -1697.4404296875 -1702.5421142578125 -1706.5223388671875 -1709.5238037109375 -1711.73291015625 -1713.2373046875 -1714.2252197265625 -1714.8458251953125 -1715.1273193359375 -1715.1904296875 -1715.091064453125 -1714.8299560546875 -1714.51220703125 -1714.1629638671875 -1713.8092041015625 -1713.472900390625 -1713.23974609375 -1713.1024169921875 -1713.0772705078125 -1713.1773681640625 -1713.4276123046875 -1713.857666015625 -1714.4141845703125 -1715.121337890625 -1715.95849609375 -1716.9061279296875 -1717.951904296875 -1719.0780029296875 -1720.28564453125 -1721.5335693359375 -1722.806396484375 -1724.079833984375 -1725.30322265625 -1725.9085693359375 -1726.2242431640625 -1726.3245849609375 -1726.228759765625 -1725.86767578125 -1725.26318359375 -1724.4974365234375 -1723.6241455078125 -1722.6927490234375 -1721.7457275390625 -1720.8099365234375 -1719.8924560546875 -1718.991455078125 -1718.0982666015625 -1717.186767578125 -1716.2373046875 -1715.270263671875 -1714.27099609375 -1713.265625 -1712.2423095703125 -1711.2105712890625 -1710.1749267578125 -1709.11767578125 -1708.0322265625 -1706.906005859375 -1705.72509765625 -1704.4500732421875 -1703.05810546875 -1701.5472412109375 -1699.90576171875 -1698.1207275390625 -1696.143310546875 -1694.0140380859375 -1691.7498779296875 -1689.35595703125 -1686.8348388671875 -1684.19482421875 -1681.4854736328125 -1678.718994140625 -1675.9090576171875 -1673.0560302734375 -1670.1893310546875 -1667.348876953125 -1664.4957275390625 -1661.67138671875 -1658.8701171875 -1656.0955810546875 -1653.35009765625 -1650.6439208984375 -1647.978271484375 -1645.3486328125 -1642.7542724609375 -1640.19384765625 -1637.678466796875 -1635.198974609375 -1632.7518310546875 -1630.336181640625 -1627.9522705078125 -1625.5916748046875 -1623.2843017578125 -1620.9949951171875 -1618.73291015625 -1616.492431640625 -1614.2728271484375 -1612.072998046875 -1609.894775390625 -1607.7308349609375 -99999 -99999 -99999 -99999
 -99999 -99999 -99999 -99999 -99999 -99999 -99999 -99999 -99999 -99999 -99999 -99999 -99999 -99999 -99999 -99999 -99999 -99999 -99999 -99999 -99999 -99999 -99999 -99999 -99999 -1252.812744140625 -1255.8360595703125 -1258.8756103515625 -1261.93212890625 -1265.00634765625 -1268.1024169921875 -1271.2430419921875 -1274.359375 -1277.5316162109375 -1280.7374267578125 -1283.98095703125 -1287.2706298828125 -1290.620361328125 -1294.0361328125 -1297.5411376953125 -1301.1365966796875 -1304.8319091796875 -1308.649658203125 -1312.62060546875 -1316.7415771484375 -1321.039794921875 -1325.526123046875 -1330.202880859375 -1335.0450439453125 -1340.0908203125 -1345.3837890625 -1350.860595703125 -1356.4918212890625 -1362.286376953125 -1368.2271728515625 -1374.27099609375 -1380.4056396484375 -1386.6168212890625 -1392.876220703125 -1399.13330078125 -1405.397216796875 -1411.581787109375 -1417.7281494140625 -1423.815185546875 -1429.808349609375 -1435.7308349609375 -1441.56787109375 -1447.3359375 -1452.9508056640625 -1458.5189208984375 -1464.0023193359375 -1469.4346923828125 -1474.8199462890625 -1480.22998046875 -1485.6513671875 -1491.13623046875 -1496.7598876953125 -1502.5858154296875 -1508.6015625 -1515.0455322265625 -1522.0106201171875 -1529.448974609375 -1537.8123779296875 -1547.9942626953125 -1559.5401611328125 -1572.805419921875 -1586.9957275390625 -1601.6854248046875 -1618.406005859375 -1635.6756591796875 -1652.1187744140625 -1667.1131591796875 -1679.407470703125 -1689.646240234375 -1697.567138671875 -1703.5230712890625 -1707.9775390625 -1711.2059326171875 -1713.4124755859375 -1714.8304443359375 -1715.6207275390625 -1716.04638671875 -1716.1656494140625 -1716.0810546875 -1715.8192138671875 -1715.419921875 -1714.9202880859375 -1714.3404541015625 -1713.769287109375 -1713.22216796875 -1712.732666015625 -1712.3238525390625 -1712.0172119140625 -1711.88134765625 -1711.8875732421875 -1712.040771484375 -1712.342529296875 -1712.7982177734375 -1713.4346923828125 -1714.193359375 -1715.0635986328125 -1716.044677734375 -1717.1239013671875 -1718.2552490234375 -1719.433837890625 -1720.64208984375 -1721.838623046875 -1722.869384765625 -1723.615966796875 -1723.9830322265625 -1724.0496826171875 -1723.9150390625 -1723.5855712890625 -1723.0736083984375 -1722.395263671875 -1721.5789794921875 -1720.705810546875 -1719.7984619140625 -1718.8748779296875 -1717.946533203125 -1717.025390625 -1716.1043701171875 -1715.1798095703125 -1714.2493896484375 -1713.2974853515625 -1712.3226318359375 -1711.3316650390625 -1710.3321533203125 -1709.33251953125 -1708.3297119140625 -1707.3179931640625 -1706.28515625 -1705.200927734375 -1704.050048828125 -1702.8126220703125 -1701.4686279296875 -1699.9825439453125 -1698.306640625 -1696.46484375 -1694.4549560546875 -1692.27783203125 -1689.917236328125 -1687.3880615234375 -1684.7412109375 -1681.994384765625 -1679.1654052734375 -1676.266845703125 -1673.3260498046875 -1670.36083984375 -1667.40673828125 -1664.446533203125 -1661.508056640625 -1658.5933837890625 -1655.71435546875 -1652.876708984375 -1650.0780029296875 -1647.3193359375 -1644.5982666015625 -1641.927490234375 -1639.303466796875 -1636.7188720703125 -1634.1727294921875 -1631.6640625 -1629.2001953125 -1626.756591796875 -1624.365478515625 -1622.0213623046875 -1619.699462890625 -1617.405029296875 -1615.1376953125 -1612.898681640625 -1610.6878662109375 -1608.49755859375 -1606.3262939453125 -1604.16796875 -99999 -99999 -99999 -99999
 -99999 -99999 -99999 -99999 -99999 -99999 -99999 -99999 -99999 -99999 -99999 -99999 -99999 -99999 -99999 -99999 -99999 -99999 -99999 -99999 -99999 -99999 -99999 -99999 -99999 -1251.50830078125 -1254.5172119140625 -1257.5416259765625 -1260.5863037109375 -1263.647705078125 -1266.72314453125 -1269.8232421875 -1272.9471435546875 -1276.0914306640625 -1279.2640380859375 -1282.4814453125 -1285.74658203125 -1289.0682373046875 -1292.45166015625 -1295.912841796875 -1299.49169921875 -1303.190185546875 -1307.017333984375 -1310.9864501953125 -1315.1351318359375 -1319.481201171875 -1324.006591796875 -1328.74365234375 -1333.7672119140625 -1338.9942626953125 -1344.4581298828125 -1350.1334228515625 -1356.0037841796875 -1362.11865234375 -1368.3297119140625 -1374.7032470703125 -1381.2091064453125 -1387.803955078125 -1394.439208984375 -1401.0841064453125 -1407.687255859375 -1414.254150390625 -1420.7027587890625 -1427.13720703125 -1433.49267578125 -1439.7471923828125 -1445.87255859375 -1451.8211669921875 -1457.7823486328125 -1463.5308837890625 -1469.236328125 -1474.90478515625 -1480.53369140625 -1486.1290283203125 -1491.77294921875 -1497.4930419921875 -1503.275390625 -1509.357666015625 -1515.7220458984375 -1522.5753173828125 -1529.703857421875 -1537.7108154296875 -1546.7833251953125 -1556.8326416015625 -1568.7425537109375 -1581.545654296875 -1595.0618896484375 -1609.9532470703125 -1627.02978515625 -1644.9674072265625 -1661.96533203125 -1676.98291015625 -1688.899169921875 -1698.3055419921875 -1705.3580322265625 -1710.4029541015625 -1713.7093505859375 -1715.722900390625 -1716.8975830078125 -1717.4405517578125 -1717.6427001953125 -1717.573486328125 -1717.289794921875 -1716.860595703125 -1716.233154296875 -1715.517822265625 -1714.7542724609375 -1713.953857421875 -1713.15380859375 -1712.39013671875 -1711.7320556640625 -1711.1683349609375 -1710.733154296875 -1710.440673828125 -1710.3009033203125 -1710.3638916015625 -1710.5960693359375 -1710.9815673828125 -1711.5120849609375 -1712.1787109375 -1713.000244140625 -1713.93212890625 -1714.9136962890625 -1715.9898681640625 -1717.0968017578125 -1718.2144775390625 -1719.3126220703125 -1720.3304443359375 -1721.006103515625 -1721.4136962890625 -1721.5794677734375 -1721.5328369140625 -1721.2481689453125 -1720.7796630859375 -1720.1759033203125 -1719.4627685546875 -1718.665771484375 -1717.798828125 -1716.9129638671875 -1716.0145263671875 -1715.090087890625 -1714.1619873046875 -1713.23095703125 -1712.29248046875 -1711.3414306640625 -1710.372802734375 -1709.393798828125 -1708.4130859375 -1707.438232421875 -1706.4652099609375 -1705.49169921875 -1704.49853515625 -1703.46923828125 -1702.3817138671875 -1701.1802978515625 -1699.848876953125 -1698.364990234375 -1696.7086181640625 -1694.8587646484375 -1692.7777099609375 -1690.478759765625 -1688.0068359375 -1685.37451171875 -1682.6109619140625 -1679.7166748046875 -1676.733642578125 -1673.7027587890625 -1670.6357421875 -1667.5675048828125 -1664.47509765625 -1661.413818359375 -1658.3941650390625 -1655.3995361328125 -1652.44482421875 -1649.5357666015625 -1646.673828125 -1643.8759765625 -1641.12109375 -1638.412841796875 -1635.750244140625 -1633.1368408203125 -1630.5740966796875 -1628.046875 -1625.5665283203125 -1623.1329345703125 -1620.7296142578125 -1618.3646240234375 -1616.0341796875 -1613.741455078125 -1611.481201171875 -1609.2484130859375 -1607.04150390625 -1604.858154296875 -1602.6986083984375 -1600.560546875 -99999 -99999 -99999 -99999
 -99999 -99999 -99999 -99999 -99999 -99999 -99999 -99999 -99999 -99999 -99999 -99999 -99999 -99999 -99999 -99999 -99999 -99999 -99999 -99999 -99999 -99999 -99999 -99999 -99999 -1250.3072509765625 -1253.31005859375 -1256.328369140625 -1259.36083984375 -1262.4078369140625 -1265.4755859375 -1268.55224609375 -1271.6710205078125 -1274.7899169921875 -1277.944580078125 -1281.1319580078125 -1284.358642578125 -1287.6456298828125 -1291.003662109375 -1294.4542236328125 -1297.989990234375 -1301.644287109375 -1305.4561767578125 -1309.4383544921875 -1313.5804443359375 -1317.96533203125 -1322.5867919921875 -1327.4456787109375 -1332.5599365234375 -1337.9306640625 -1343.560546875 -1349.508056640625 -1355.678466796875 -1362.0372314453125 -1368.6302490234375 -1375.3905029296875 -1382.24755859375 -1389.14794921875 -1396.206298828125 -1403.2431640625 -1410.2313232421875 -1417.2213134765625 -1424.1282958984375 -1430.9879150390625 -1437.5843505859375 -1444.151611328125 -1450.565673828125 -1456.86181640625 -1463.0537109375 -1469.1065673828125 -1475.1156005859375 -1480.9661865234375 -1486.8028564453125 -1492.6148681640625 -1498.5179443359375 -1504.484375 -1510.6162109375 -1516.9688720703125 -1523.6380615234375 -1530.751708984375 -1538.374267578125 -1546.92529296875 -1556.401611328125 -1567.088623046875 -1578.791259765625 -1591.723876953125 -1605.522705078125 -1620.548828125 -1637.869873046875 -1655.84033203125 -1673.2161865234375 -1687.5413818359375 -1699.14794921875 -1707.85986328125 -1713.499755859375 -1716.885009765625 -1718.7513427734375 -1719.51513671875 -1719.763916015625 -1719.6473388671875 -1719.3409423828125 -1718.8096923828125 -1718.0869140625 -1717.2664794921875 -1716.356201171875 -1715.4078369140625 -1714.3934326171875 -1713.324951171875 -1712.3369140625 -1711.36865234375 -1710.4951171875 -1709.74072265625 -1709.1617431640625 -1708.760986328125 -1708.531005859375 -1708.4759521484375 -1708.5927734375 -1708.90576171875 -1709.3834228515625 -1710.0020751953125 -1710.7406005859375 -1711.58349609375 -1712.53369140625 -1713.5518798828125 -1714.58740234375 -1715.677978515625 -1716.710205078125 -1717.6163330078125 -1718.3345947265625 -1718.7994384765625 -1719.002685546875 -1718.9910888671875 -1718.7989501953125 -1718.443359375 -1717.9144287109375 -1717.26611328125 -1716.5445556640625 -1715.77294921875 -1714.916259765625 -1714.0411376953125 -1713.1431884765625 -1712.2276611328125 -1711.2984619140625 -1710.3572998046875 -1709.4053955078125 -1708.4423828125 -1707.4661865234375 -1706.49169921875 -1705.53564453125 -1704.5926513671875 -1703.654541015625 -1702.6998291015625 -1701.71044921875 -1700.66015625 -1699.5169677734375 -1698.24853515625 -1696.7845458984375 -1695.1075439453125 -1693.193115234375 -1691.0421142578125 -1688.6761474609375 -1686.1025390625 -1683.31005859375 -1680.368896484375 -1677.3204345703125 -1674.2056884765625 -1671.0225830078125 -1667.81640625 -1664.6263427734375 -1661.442626953125 -1658.2764892578125 -1655.1492919921875 -1652.06689453125 -1649.0631103515625 -1646.08837890625 -1643.181640625 -1640.331298828125 -1637.5333251953125 -1634.7999267578125 -1632.1175537109375 -1629.4796142578125 -1626.8629150390625 -1624.3524169921875 -1621.86474609375 -1619.412841796875 -1617.0068359375 -1614.6412353515625 -1612.314208984375 -1610.0216064453125 -1607.761474609375 -1605.534423828125 -1603.33984375 -1601.1724853515625 -1599.027587890625 -1596.902587890625 -99999 -99999 -99999 -99999
 -99999 -99999 -99999 -99999 -99999 -99999 -99999 -99999 -99999 -99999 -99999 -99999 -99999 -99999 -99999 -99999 -99999 -99999 -99999 -99999 -99999 -99999 -99999 -99999 -1246.2294921875 -1249.2164306640625 -1252.21337890625 -1255.227294921875 -1258.2557373046875 -1261.2991943359375 -1264.356689453125 -1267.4306640625 -1270.536865234375 -1273.6295166015625 -1276.7606201171875 -1279.92724609375 -1283.1318359375 -1286.3837890625 -1289.6962890625 -1293.097412109375 -1296.608154296875 -1300.2449951171875 -1304.030517578125 -1307.984619140625 -1312.1453857421875 -1316.5640869140625 -1321.219970703125 -1326.149169921875 -1331.390625 -1336.939697265625 -1342.8145751953125 -1348.975341796875 -1355.3770751953125 -1362.135498046875 -1369.0377197265625 -1376.1097412109375 -1383.4169921875 -1390.8607177734375 -1398.3021240234375 -1405.76513671875 -1413.2490234375 -1420.58642578125 -1427.857177734375 -1435.0477294921875 -1442.1214599609375 -1449.0321044921875 -1455.7559814453125 -1462.4288330078125 -1468.8621826171875 -1475.1995849609375 -1481.4102783203125 -1487.54345703125 -1493.65380859375 -1499.7515869140625 -1505.9566650390625 -1512.1724853515625 -1518.5780029296875 -1525.23193359375 -1532.2576904296875 -1539.7591552734375 -1547.9259033203125 -1556.873779296875 -1566.6868896484375 -1577.50830078125 -1589.5933837890625 -1602.751953125 -1616.9307861328125 -1632.6146240234375 -1649.6424560546875 -1667.5550537109375 -1684.5570068359375 -1698.7135009765625 -1709.456787109375 -1716.866943359375 -1720.7757568359375 -1722.266357421875 -1722.7332763671875 -1722.5963134765625 -1722.1181640625 -1721.318359375 -1720.39697265625 -1719.4422607421875 -1718.4569091796875 -1717.41162109375 -1716.249755859375 -1715.0386962890625 -1713.775146484375 -1712.4791259765625 -1711.2177734375 -1710.0423583984375 -1709.0152587890625 -1708.113037109375 -1707.3704833984375 -1706.8128662109375 -1706.4718017578125 -1706.3448486328125 -1706.4049072265625 -1706.643798828125 -1707.0408935546875 -1707.6029052734375 -1708.30029296875 -1709.10693359375 -1709.9984130859375 -1710.9635009765625 -1711.9815673828125 -1713.040771484375 -1714.037109375 -1714.9161376953125 -1715.6263427734375 -1716.1221923828125 -1716.371337890625 -1716.442138671875 -1716.3084716796875 -1716.04150390625 -1715.6160888671875 -1715.0528564453125 -1714.381103515625 -1713.6563720703125 -1712.8682861328125 -1712.0316162109375 -1711.166748046875 -1710.2784423828125 -1709.3675537109375 -1708.4356689453125 -1707.4874267578125 -1706.5260009765625 -1705.5528564453125 -1704.5816650390625 -1703.6383056640625 -1702.7120361328125 -1701.794189453125 -1700.87451171875 -1699.9366455078125 -1698.937744140625 -1697.839111328125 -1696.5989990234375 -1695.167236328125 -1693.5013427734375 -1691.5430908203125 -1689.3526611328125 -1686.834228515625 -1684.08154296875 -1681.1363525390625 -1678.0596923828125 -1674.8695068359375 -1671.5789794921875 -1668.24365234375 -1664.90234375 -1661.56005859375 -1658.2462158203125 -1654.9931640625 -1651.7939453125 -1648.6441650390625 -1645.552001953125 -1642.5234375 -1639.5767822265625 -1636.6915283203125 -1633.8680419921875 -1631.1016845703125 -1628.391357421875 -1625.727294921875 -1623.142578125 -1620.5906982421875 -1618.0899658203125 -1615.6353759765625 -1613.224609375 -1610.8543701171875 -1608.52734375 -1606.23681640625 -1603.9915771484375 -1601.774169921875 -1599.5908203125 -1597.4361572265625 -1595.3045654296875 -1593.201904296875 -99999 -99999 -99999 -99999
 -99999 -99999 -99999 -99999 -99999 -99999 -99999 -99999 -99999 -99999 -99999 -99999 -99999 -99999 -99999 -99999 -99999 -99999 -99999 -99999 -99999 -99999 -99999 -99999 -1245.2431640625 -1248.230712890625 -1251.228271484375 -1254.2440185546875 -1257.2724609375 -1260.31396484375 -1263.368896484375 -1266.4376220703125 -1269.5428466796875 -1272.6195068359375 -1275.735595703125 -1278.8741455078125 -1282.044921875 -1285.2684326171875 -1288.5545654296875 -1291.905029296875 -1295.3592529296875 -1298.948974609375 -1302.706298828125 -1306.635986328125 -1310.7833251953125 -1315.19921875 -1319.9127197265625 -1324.937255859375 -1330.2911376953125 -1335.99365234375 -1342.0462646484375 -1348.4630126953125 -1355.2459716796875 -1362.2447509765625 -1369.59326171875 -1377.181640625 -1384.8958740234375 -1392.6551513671875 -1400.564208984375 -1408.5408935546875 -1416.3773193359375 -1424.2506103515625 -1432.051025390625 -1439.6337890625 -1447.0484619140625 -1454.323486328125 -1461.4066162109375 -1468.2843017578125 -1475.080810546875 -1481.7523193359375 -1488.232421875 -1494.682373046875 -1501.0662841796875 -1507.3909912109375 -1513.7496337890625 -1520.30517578125 -1527.0933837890625 -1534.0147705078125 -1541.4063720703125 -1549.368896484375 -1557.7939453125 -1567.0352783203125 -1577.1473388671875 -1588.322509765625 -1600.5537109375 -1613.9459228515625 -1628.409423828125 -1644.1875 -1660.7723388671875 -1678.16796875 -1694.6243896484375 -1708.3966064453125 -1719.2288818359375 -1724.8160400390625 -1726.4052734375 -1726.6336669921875 -1725.9500732421875 -1724.6591796875 -1723.25390625 -1721.9715576171875 -1720.7943115234375 -1719.62890625 -1718.418701171875 -1717.1329345703125 -1715.7943115234375 -1714.360595703125 -1712.8297119140625 -1711.3531494140625 -1709.9117431640625 -1708.5263671875 -1707.2530517578125 -1706.1561279296875 -1705.302490234375 -1704.6446533203125 -1704.203369140625 -1703.9805908203125 -1703.9727783203125 -1704.1708984375 -1704.5299072265625 -1705.04736328125 -1705.6964111328125 -1706.469970703125 -1707.342529296875 -1708.293212890625 -1709.306640625 -1710.314697265625 -1711.274658203125 -1712.1251220703125 -1712.826904296875 -1713.3349609375 -1713.6737060546875 -1713.8404541015625 -1713.7515869140625 -1713.542724609375 -1713.198486328125 -1712.73828125 -1712.1512451171875 -1711.4881591796875 -1710.7650146484375 -1709.9923095703125 -1709.17431640625 -1708.3094482421875 -1707.419189453125 -1706.5076904296875 -1705.5772705078125 -1704.628662109375 -1703.6630859375 -1702.6981201171875 -1701.7613525390625 -1700.838134765625 -1699.92822265625 -1699.0263671875 -1698.11279296875 -1697.1639404296875 -1696.138427734375 -1694.9556884765625 -1693.5570068359375 -1691.87109375 -1689.8975830078125 -1687.57177734375 -1684.9287109375 -1682.0426025390625 -1678.93701171875 -1675.6263427734375 -1672.2366943359375 -1668.7867431640625 -1665.287841796875 -1661.8045654296875 -1658.3624267578125 -1654.954833984375 -1651.5792236328125 -1648.2899169921875 -1645.0655517578125 -1641.9298095703125 -1638.8629150390625 -1635.8701171875 -1632.9471435546875 -1630.09716796875 -1627.307861328125 -1624.55126953125 -1621.9285888671875 -1619.317138671875 -1616.759033203125 -1614.2496337890625 -1611.789794921875 -1609.3770751953125 -1607.005615234375 -1604.6864013671875 -1602.4046630859375 -1600.16650390625 -1597.9605712890625 -1595.7896728515625 -1593.6563720703125 -1591.5498046875 -1589.465087890625 -99999 -99999 -99999 -99999
 -99999 -99999 -99999 -99999 -99999 -99999 -99999 -99999 -99999 -99999 -99999 -99999 -99999 -99999 -99999 -99999 -99999 -99999 -99999 -99999 -99999 -99999 -99999 -99999 -1244.35791015625 -1247.3509521484375 -1250.3560791015625 -1253.37646484375 -1256.4091796875 -1259.4544677734375 -1262.5135498046875 -1265.5830078125 -1268.71142578125 -1271.754638671875 -1274.8590087890625 -1277.9827880859375 -1281.131591796875 -1284.312255859375 -1287.5404052734375 -1290.860595703125 -1294.272705078125 -1297.7982177734375 -1301.4886474609375 -1305.383544921875 -1309.537109375 -1313.9107666015625 -1318.66796875 -1323.7630615234375 -1329.1875 -1335.0721435546875 -1341.386474609375 -1348.0732421875 -1355.0985107421875 -1362.55029296875 -1370.276611328125 -1378.1796875 -1386.402099609375 -1394.825439453125 -1403.18701171875 -1411.634765625 -1420.0556640625 -1428.3057861328125 -1436.4608154296875 -1444.5040283203125 -1452.3546142578125 -1459.9696044921875 -1467.4478759765625 -1474.740966796875 -1481.790283203125 -1488.701416015625 -1495.4666748046875 -1502.1690673828125 -1508.7650146484375 -1515.368896484375 -1522.1083984375 -1528.8790283203125 -1535.8802490234375 -1543.1695556640625 -1550.8758544921875 -1558.991943359375 -1567.754150390625 -1577.23583984375 -1587.6337890625 -1598.9730224609375 -1611.2244873046875 -1624.485595703125 -1638.9619140625 -1654.2559814453125 -1670.164306640625 -1686.3590087890625 -1701.7022705078125 -1715.3900146484375 -1726.807373046875 -1731.2362060546875 -1730.496826171875 -1728.9541015625 -1727.03076171875 -1725.130615234375 -1723.338623046875 -1721.7569580078125 -1720.4329833984375 -1719.2044677734375 -1717.9278564453125 -1716.5706787109375 -1715.0623779296875 -1713.427490234375 -1711.745849609375 -1709.9990234375 -1708.2642822265625 -1706.6849365234375 -1705.2564697265625 -1704.0025634765625 -1702.962646484375 -1702.172119140625 -1701.680908203125 -1701.4114990234375 -1701.3525390625 -1701.50830078125 -1701.83544921875 -1702.33447265625 -1702.965576171875 -1703.716796875 -1704.59521484375 -1705.55126953125 -1706.552734375 -1707.5462646484375 -1708.48876953125 -1709.32666015625 -1710.0291748046875 -1710.564453125 -1710.9354248046875 -1711.13671875 -1711.1763916015625 -1711.0435791015625 -1710.7669677734375 -1710.3748779296875 -1709.8829345703125 -1709.3062744140625 -1708.6365966796875 -1707.90625 -1707.128662109375 -1706.3125 -1705.46240234375 -1704.572998046875 -1703.6622314453125 -1702.733642578125 -1701.796142578125 -1700.854248046875 -1699.9141845703125 -1698.9803466796875 -1698.051025390625 -1697.150146484375 -1696.260986328125 -1695.3507080078125 -1694.369140625 -1693.259521484375 -1691.947021484375 -1690.2730712890625 -1688.2230224609375 -1685.8074951171875 -1683.0167236328125 -1679.8748779296875 -1676.5338134765625 -1673.078125 -1669.4835205078125 -1665.849365234375 -1662.22216796875 -1658.6041259765625 -1655.0013427734375 -1651.470458984375 -1648.03076171875 -1644.6636962890625 -1641.380859375 -1638.18212890625 -1635.078125 -1632.0631103515625 -1629.1201171875 -1626.2452392578125 -1623.4541015625 -1620.7177734375 -1618.0433349609375 -1615.4241943359375 -1612.863037109375 -1610.3497314453125 -1607.883544921875 -1605.47119140625 -1603.1065673828125 -1600.7908935546875 -1598.5172119140625 -1596.2862548828125 -1594.1011962890625 -1591.952880859375 -1589.8363037109375 -1587.747314453125 -1585.6868896484375 -99999 -99999 -99999 -99999
 -99999 -99999 -99999 -99999 -99999 -99999 -99999 -99999 -99999 -99999 -99999 -99999 -99999 -99999 -99999 -99999 -99999 -99999 -99999 -99999 -99999 -99999 -99999 -99999 -1243.5731201171875 -1246.5780029296875 -1249.5955810546875 -1252.6202392578125 -1255.666259765625 -1258.7227783203125 -1261.7894287109375 -1264.8653564453125 -1267.9644775390625 -1271.0296630859375 -1274.1417236328125 -1277.2476806640625 -1280.373046875 -1283.526611328125 -1286.7198486328125 -1289.96826171875 -1293.3095703125 -1296.784423828125 -1300.4219970703125 -1304.252685546875 -1308.322509765625 -1312.6978759765625 -1317.4505615234375 -1322.5831298828125 -1328.177490234375 -1334.2041015625 -1340.70947265625 -1347.59814453125 -1355.0758056640625 -1362.8135986328125 -1371.0255126953125 -1379.51708984375 -1388.222900390625 -1397.0452880859375 -1406.01171875 -1414.976806640625 -1423.8419189453125 -1432.6834716796875 -1441.4100341796875 -1449.8526611328125 -1458.0947265625 -1466.088134765625 -1473.8759765625 -1481.44384765625 -1488.824951171875 -1496.01611328125 -1503.06591796875 -1510.0391845703125 -1516.9034423828125 -1523.7769775390625 -1530.6678466796875 -1537.7171630859375 -1544.98681640625 -1552.486328125 -1560.37158203125 -1568.78759765625 -1577.6776123046875 -1587.340576171875 -1597.8690185546875 -1609.1639404296875 -1621.2532958984375 -1634.392333984375 -1648.3270263671875 -1662.91748046875 -1677.86865234375 -1692.6849365234375 -1706.519287109375 -1718.962646484375 -1728.7828369140625 -1731.7352294921875 -1730.582763671875 -1728.85107421875 -1726.640625 -1724.0833740234375 -1722.0045166015625 -1720.5775146484375 -1719.3931884765625 -1718.2911376953125 -1717.117919921875 -1715.732666015625 -1714.0994873046875 -1712.2747802734375 -1710.32861328125 -1708.3719482421875 -1706.4501953125 -1704.616943359375 -1702.9237060546875 -1701.5167236328125 -1700.379150390625 -1699.5030517578125 -1698.8963623046875 -1698.5885009765625 -1698.5504150390625 -1698.6993408203125 -1699.0106201171875 -1699.4708251953125 -1700.101318359375 -1700.8875732421875 -1701.777099609375 -1702.7396240234375 -1703.7391357421875 -1704.72705078125 -1705.6552734375 -1706.494384765625 -1707.219970703125 -1707.803466796875 -1708.2208251953125 -1708.4637451171875 -1708.55810546875 -1708.510986328125 -1708.330078125 -1708.01220703125 -1707.57763671875 -1707.055908203125 -1706.45751953125 -1705.7947998046875 -1705.0628662109375 -1704.2811279296875 -1703.4625244140625 -1702.6124267578125 -1701.7403564453125 -1700.8411865234375 -1699.928466796875 -1699.0087890625 -1698.0859375 -1697.1533203125 -1696.2066650390625 -1695.268310546875 -1694.34814453125 -1693.4705810546875 -1692.5709228515625 -1691.534423828125 -1690.2662353515625 -1688.6688232421875 -1686.60107421875 -1683.967041015625 -1680.9290771484375 -1677.6068115234375 -1674.07177734375 -1670.3526611328125 -1666.5758056640625 -1662.7713623046875 -1658.94287109375 -1655.1934814453125 -1651.4993896484375 -1647.8775634765625 -1644.330810546875 -1640.8873291015625 -1637.56591796875 -1634.3370361328125 -1631.1971435546875 -1628.1356201171875 -1625.1451416015625 -1622.3189697265625 -1619.5133056640625 -1616.77880859375 -1614.1007080078125 -1611.4755859375 -1608.9027099609375 -1606.390869140625 -1603.9267578125 -1601.5177001953125 -1599.1533203125 -1596.8406982421875 -1594.5819091796875 -1592.3707275390625 -1590.1995849609375 -1588.0662841796875 -1585.9742431640625 -1583.9049072265625 -1581.8779296875 -99999 -99999 -99999 -99999
 -99999 -99999 -99999 -99999 -99999 -99999 -99999 -99999 -99999 -99999 -99999 -99999 -99999 -99999 -99999 -99999 -99999 -99999 -99999 -99999 -99999 -99999 -99999 -99999 -1242.886474609375 -1245.9046630859375 -1248.9342041015625 -1251.979248046875 -1255.0382080078125 -1258.10888671875 -1261.1932373046875 -1264.284912109375 -1267.39990234375 -1270.491943359375 -1273.5810546875 -1276.682861328125 -1279.7906494140625 -1282.907470703125 -1286.05322265625 -1289.2586669921875 -1292.5279541015625 -1295.9102783203125 -1299.4345703125 -1303.21533203125 -1307.259765625 -1311.5804443359375 -1316.3111572265625 -1321.5146484375 -1327.140625 -1333.2880859375 -1340.02587890625 -1347.3126220703125 -1355.0316162109375 -1363.2763671875 -1371.9671630859375 -1380.8865966796875 -1390.1053466796875 -1399.63037109375 -1409.08642578125 -1418.6552734375 -1428.09716796875 -1437.418212890625 -1446.5928955078125 -1455.48095703125 -1464.1407470703125 -1472.5499267578125 -1480.7486572265625 -1488.6104736328125 -1496.2723388671875 -1503.7371826171875 -1511.00146484375 -1518.16552734375 -1525.2703857421875 -1532.3516845703125 -1539.4603271484375 -1546.7296142578125 -1554.1810302734375 -1561.8817138671875 -1569.9912109375 -1578.4168701171875 -1587.4970703125 -1597.2188720703125 -1607.562744140625 -1618.546630859375 -1630.4632568359375 -1643.00537109375 -1656.15673828125 -1669.834716796875 -1683.3753662109375 -1696.5238037109375 -1708.501220703125 -1718.8568115234375 -1725.56396484375 -1728.6204833984375 -1728.7498779296875 -1727.4559326171875 -1724.345458984375 -1721.5621337890625 -1719.5947265625 -1718.4788818359375 -1717.85986328125 -1717.1080322265625 -1716.0406494140625 -1714.677490234375 -1712.902587890625 -1710.90869140625 -1708.7586669921875 -1706.52587890625 -1704.297607421875 -1702.245361328125 -1700.39013671875 -1698.77734375 -1697.451904296875 -1696.5191650390625 -1695.9222412109375 -1695.6094970703125 -1695.5509033203125 -1695.717529296875 -1696.0501708984375 -1696.5269775390625 -1697.1656494140625 -1697.9622802734375 -1698.877197265625 -1699.8656005859375 -1700.8709716796875 -1701.86279296875 -1702.8118896484375 -1703.677490234375 -1704.41015625 -1705.0142822265625 -1705.4815673828125 -1705.8067626953125 -1705.9718017578125 -1705.9713134765625 -1705.8450927734375 -1705.6026611328125 -1705.2535400390625 -1704.797119140625 -1704.245361328125 -1703.6259765625 -1702.947509765625 -1702.2178955078125 -1701.4393310546875 -1700.6217041015625 -1699.7786865234375 -1698.9154052734375 -1698.03857421875 -1697.1492919921875 -1696.2481689453125 -1695.33349609375 -1694.40185546875 -1693.4437255859375 -1692.486083984375 -1691.557861328125 -1690.6556396484375 -1689.7357177734375 -1688.6605224609375 -1687.0439453125 -1684.8338623046875 -1682.065673828125 -1678.813720703125 -1675.152587890625 -1671.3592529296875 -1667.4261474609375 -1663.444580078125 -1659.4742431640625 -1655.531005859375 -1651.6365966796875 -1647.8123779296875 -1644.1009521484375 -1640.5009765625 -1637.0086669921875 -1633.62451171875 -1630.3575439453125 -1627.1925048828125 -1624.1539306640625 -1621.2025146484375 -1618.3297119140625 -1615.5223388671875 -1612.7762451171875 -1610.08984375 -1607.4691162109375 -1604.901611328125 -1602.3851318359375 -1599.9161376953125 -1597.5040283203125 -1595.1546630859375 -1592.85546875 -1590.60498046875 -1588.40185546875 -1586.2528076171875 -1584.1380615234375 -1582.07568359375 -1580.0333251953125 -1578.05029296875 -99999 -99999 -99999 -99999
 -99999 -99999 -99999 -99999 -99999 -99999 -99999 -99999 -99999 -99999 -99999 -99999 -99999 -99999 -99999 -99999 -99999 -99999 -99999 -99999 -99999 -99999 -99999 -99999 -1242.298583984375 -1245.3306884765625 -1248.379150390625 -1251.4407958984375 -1254.5218505859375 -1257.616455078125 -1260.7210693359375 -1263.83349609375 -1266.9527587890625 -1270.1527099609375 -1273.177490234375 -1276.281494140625 -1279.3780517578125 -1282.473876953125 -1285.57861328125 -1288.70654296875 -1291.9029541015625 -1295.210205078125 -1298.662353515625 -1302.31298828125 -1306.2054443359375 -1310.509521484375 -1315.1136474609375 -1320.338134765625 -1326.1259765625 -1332.457763671875 -1339.377685546875 -1346.8751220703125 -1355.00146484375 -1363.7520751953125 -1372.8472900390625 -1382.443359375 -1392.324951171875 -1402.3626708984375 -1412.451904296875 -1422.5894775390625 -1432.655517578125 -1442.5439453125 -1452.15673828125 -1461.5665283203125 -1470.6632080078125 -1479.418701171875 -1487.9051513671875 -1496.129638671875 -1504.00732421875 -1511.7008056640625 -1519.2137451171875 -1526.593994140625 -1533.8582763671875 -1541.1064453125 -1548.40234375 -1555.810791015625 -1563.39306640625 -1571.19091796875 -1579.2962646484375 -1587.9090576171875 -1596.880126953125 -1606.412109375 -1616.6368408203125 -1627.2537841796875 -1638.6971435546875 -1650.5987548828125 -1662.8780517578125 -1675.1724853515625 -1687.370849609375 -1698.7818603515625 -1709.310546875 -1717.60546875 -1723.138671875 -1725.9693603515625 -1725.91259765625 -1724.0340576171875 -1720.930908203125 -1717.5233154296875 -1716.0341796875 -1716.1322021484375 -1716.094482421875 -1715.81396484375 -1715.0103759765625 -1713.5155029296875 -1711.649658203125 -1709.4166259765625 -1706.9398193359375 -1704.41796875 -1701.9393310546875 -1699.5865478515625 -1697.4749755859375 -1695.734130859375 -1694.3275146484375 -1693.2979736328125 -1692.634033203125 -1692.3480224609375 -1692.4061279296875 -1692.6575927734375 -1693.0242919921875 -1693.4605712890625 -1694.1334228515625 -1694.98828125 -1695.92919921875 -1696.93212890625 -1697.9664306640625 -1698.9849853515625 -1699.9462890625 -1700.8284912109375 -1701.6124267578125 -1702.281494140625 -1702.7755126953125 -1703.130615234375 -1703.3497314453125 -1703.435546875 -1703.3883056640625 -1703.188232421875 -1702.884765625 -1702.4866943359375 -1702.00341796875 -1701.4381103515625 -1700.7947998046875 -1700.1004638671875 -1699.3621826171875 -1698.5867919921875 -1697.7779541015625 -1696.94482421875 -1696.0972900390625 -1695.238037109375 -1694.36865234375 -1693.4830322265625 -1692.5721435546875 -1691.6463623046875 -1690.69140625 -1689.70361328125 -1688.7642822265625 -1687.8787841796875 -1686.85888671875 -1685.427734375 -1683.2562255859375 -1680.0296630859375 -1676.368896484375 -1672.4652099609375 -1668.3856201171875 -1664.26611328125 -1660.1173095703125 -1655.979248046875 -1651.8948974609375 -1647.8876953125 -1643.988037109375 -1640.187255859375 -1636.5045166015625 -1632.978759765625 -1629.5865478515625 -1626.27880859375 -1623.131103515625 -1620.1033935546875 -1617.1446533203125 -1614.2637939453125 -1611.4617919921875 -1608.7288818359375 -1606.0494384765625 -1603.4200439453125 -1600.8431396484375 -1598.328369140625 -1595.870361328125 -1593.4644775390625 -1591.1116943359375 -1588.8125 -1586.581787109375 -1584.4058837890625 -1582.2576904296875 -1580.1904296875 -1578.160888671875 -1576.1607666015625 -1574.1903076171875 -99999 -99999 -99999 -99999
 -99999 -99999 -99999 -99999 -99999 -99999 -99999 -99999 -99999 -99999 -99999 -99999 -99999 -99999 -99999 -99999 -99999 -99999 -99999 -99999 -99999 -99999 -99999 -1238.7799072265625 -1241.8096923828125 -1244.857177734375 -1247.9317626953125 -1251.01904296875 -1254.1220703125 -1257.2418212890625 -1260.3709716796875 -1263.514892578125 -1266.66259765625 -1269.84033203125 -1272.9515380859375 -1276.0565185546875 -1279.15771484375 -1282.2376708984375 -1285.3040771484375 -1288.380615234375 -1291.4849853515625 -1294.66455078125 -1297.9901123046875 -1301.5413818359375 -1305.3682861328125 -1309.525146484375 -1314.1026611328125 -1319.3389892578125 -1325.072509765625 -1331.447998046875 -1338.6346435546875 -1346.5989990234375 -1355.07763671875 -1364.239501953125 -1374.0174560546875 -1384.1602783203125 -1394.656005859375 -1405.343994140625 -1416.1805419921875 -1426.91015625 -1437.5533447265625 -1448.045654296875 -1458.1658935546875 -1468.0166015625 -1477.52880859375 -1486.71875 -1495.5343017578125 -1503.933349609375 -1512.0992431640625 -1519.999267578125 -1527.6527099609375 -1535.1793212890625 -1542.596923828125 -1549.97900390625 -1557.3753662109375 -1564.86181640625 -1572.469482421875 -1580.300537109375 -1588.4290771484375 -1596.946044921875 -1605.829345703125 -1615.18408203125 -1624.91748046875 -1635.296875 -1645.9278564453125 -1656.94189453125 -1668.167236328125 -1679.291259765625 -1690.35546875 -1700.25048828125 -1708.840576171875 -1715.892822265625 -1720.30859375 -1722.5716552734375 -1722.7437744140625 -1720.9686279296875 -1717.270263671875 -1713.6146240234375 -1713.2535400390625 -1714.0443115234375 -1714.8599853515625 -1714.931884765625 -1714.1041259765625 -1712.5220947265625 -1710.2794189453125 -1707.6959228515625 -1704.9044189453125 -1702.028076171875 -1699.2532958984375 -1696.6358642578125 -1694.324951171875 -1692.341796875 -1690.7655029296875 -1689.737060546875 -1689.13623046875 -1688.908203125 -1689.010986328125 -1689.399169921875 -1689.8460693359375 -1690.37060546875 -1691.0521240234375 -1691.9129638671875 -1692.90185546875 -1693.95703125 -1695.032470703125 -1696.0908203125 -1697.105712890625 -1698.030029296875 -1698.8377685546875 -1699.526611328125 -1700.088623046875 -1700.51806640625 -1700.781005859375 -1700.8978271484375 -1700.890380859375 -1700.76513671875 -1700.5299072265625 -1700.1676025390625 -1699.71630859375 -1699.190185546875 -1698.5975341796875 -1697.944580078125 -1697.2314453125 -1696.481689453125 -1695.70263671875 -1694.89990234375 -1694.078125 -1693.2420654296875 -1692.3883056640625 -1691.5316162109375 -1690.6654052734375 -1689.7734375 -1688.852783203125 -1687.9100341796875 -1686.95263671875 -1686.008056640625 -1685.1690673828125 -1683.8756103515625 -1681.25634765625 -1677.659912109375 -1673.6246337890625 -1669.3753662109375 -1665.123046875 -1660.8216552734375 -1656.5252685546875 -1652.2652587890625 -1648.0595703125 -1643.9354248046875 -1639.9544677734375 -1636.1094970703125 -1632.403076171875 -1628.817138671875 -1625.386962890625 -1622.137939453125 -1618.994384765625 -1615.950927734375 -1613.01611328125 -1610.162353515625 -1607.3721923828125 -1604.6348876953125 -1601.9576416015625 -1599.3358154296875 -1596.7645263671875 -1594.243408203125 -1591.7738037109375 -1589.3634033203125 -1587.02392578125 -1584.7423095703125 -1582.4874267578125 -1580.3448486328125 -1578.24853515625 -1576.2095947265625 -1574.20361328125 -1572.2418212890625 -1570.3148193359375 -1568.4100341796875 -99999 -99999 -99999
 -99999 -99999 -99999 -99999 -99999 -99999 -99999 -99999 -99999 -99999 -99999 -99999 -99999 -99999 -99999 -99999 -99999 -99999 -99999 -99999 -99999 -99999 -1235.330810546875 -1238.3565673828125 -1241.4088134765625 -1244.483642578125 -1247.5784912109375 -1250.68505859375 -1253.8125 -1256.965087890625 -1260.1322021484375 -1263.310791015625 -1266.491943359375 -1269.76904296875 -1272.8419189453125 -1275.983642578125 -1279.101806640625 -1282.1806640625 -1285.2181396484375 -1288.2271728515625 -1291.260498046875 -1294.3472900390625 -1297.5396728515625 -1300.907958984375 -1304.5565185546875 -1308.614990234375 -1313.0908203125 -1318.1988525390625 -1324.03125 -1330.6336669921875 -1337.96630859375 -1346.148193359375 -1355.07373046875 -1364.9033203125 -1375.109619140625 -1385.938232421875 -1397.1866455078125 -1408.57666015625 -1420.1104736328125 -1431.5943603515625 -1442.8953857421875 -1453.85302734375 -1464.61962890625 -1474.9888916015625 -1484.8302001953125 -1494.3106689453125 -1503.3990478515625 -1512.0389404296875 -1520.385498046875 -1528.442138671875 -1536.2640380859375 -1543.8802490234375 -1551.39697265625 -1558.8424072265625 -1566.2894287109375 -1573.814208984375 -1581.445068359375 -1589.255615234375 -1597.318603515625 -1605.61376953125 -1614.220458984375 -1623.249267578125 -1632.628662109375 -1642.2894287109375 -1652.3245849609375 -1662.4495849609375 -1672.7095947265625 -1682.7078857421875 -1692.1373291015625 -1700.634521484375 -1708.245361328125 -1714.1612548828125 -1717.990234375 -1720.00390625 -1719.87255859375 -1718.226806640625 -1715.568115234375 -1713.1173095703125 -1712.5396728515625 -1713.24560546875 -1714.1949462890625 -1714.397216796875 -1713.386962890625 -1711.4007568359375 -1708.7935791015625 -1705.857421875 -1702.681396484375 -1699.4345703125 -1696.26953125 -1693.3094482421875 -1690.7606201171875 -1688.661376953125 -1687.0499267578125 -1685.9427490234375 -1685.3133544921875 -1685.144775390625 -1685.378173828125 -1685.8316650390625 -1686.4080810546875 -1687.0147705078125 -1687.7882080078125 -1688.7664794921875 -1689.8341064453125 -1690.9619140625 -1692.10009765625 -1693.2093505859375 -1694.2625732421875 -1695.23779296875 -1696.1090087890625 -1696.8480224609375 -1697.44140625 -1697.8924560546875 -1698.209716796875 -1698.3951416015625 -1698.431640625 -1698.33544921875 -1698.1253662109375 -1697.8160400390625 -1697.415771484375 -1696.9183349609375 -1696.3470458984375 -1695.7166748046875 -1695.0347900390625 -1694.314453125 -1693.55126953125 -1692.762939453125 -1691.9541015625 -1691.1309814453125 -1690.2996826171875 -1689.453857421875 -1688.593017578125 -1687.7159423828125 -1686.82080078125 -1685.9063720703125 -1684.985595703125 -1684.0819091796875 -1683.189453125 -1681.8082275390625 -1678.9171142578125 -1674.6739501953125 -1670.3216552734375 -1665.9505615234375 -1661.5279541015625 -1657.09814453125 -1652.68798828125 -1648.3287353515625 -1644.046875 -1639.8697509765625 -1635.8154296875 -1631.9000244140625 -1628.1292724609375 -1624.5296630859375 -1621.1597900390625 -1617.899169921875 -1614.78271484375 -1611.7803955078125 -1608.8660888671875 -1606.0234375 -1603.247314453125 -1600.5308837890625 -1597.860107421875 -1595.231201171875 -1592.6480712890625 -1590.1219482421875 -1587.6551513671875 -1585.2391357421875 -1582.8514404296875 -1580.61083984375 -1578.4102783203125 -1576.2828369140625 -1574.2061767578125 -1572.1944580078125 -1570.234619140625 -1568.314697265625 -1566.4267578125 -1564.556640625 -99999 -99999 -99999
 -99999 -99999 -99999 -99999 -99999 -99999 -99999 -99999 -99999 -99999 -99999 -99999 -99999 -99999 -99999 -99999 -99999 -99999 -99999 -99999 -99999 -99999 -1234.977294921875 -1238.0260009765625 -1241.09521484375 -1244.1856689453125 -1247.3021240234375 -1250.4404296875 -1253.601806640625 -1256.7835693359375 -1259.9786376953125 -1263.1915283203125 -1266.41943359375 -1269.708740234375 -1272.859130859375 -1276.0478515625 -1279.2117919921875 -1282.3001708984375 -1285.3289794921875 -1288.2889404296875 -1291.22265625 -1294.1776123046875 -1297.251708984375 -1300.4912109375 -1303.9830322265625 -1307.8311767578125 -1312.1385498046875 -1317.221435546875 -1322.9833984375 -1329.65380859375 -1337.1729736328125 -1345.80419921875 -1355.221923828125 -1365.4552001953125 -1376.561279296875 -1388.154541015625 -1400.044921875 -1412.2764892578125 -1424.5089111328125 -1436.581787109375 -1448.5882568359375 -1460.23974609375 -1471.399169921875 -1482.1776123046875 -1492.482421875 -1502.243408203125 -1511.555419921875 -1520.4505615234375 -1528.9403076171875 -1537.104248046875 -1544.9652099609375 -1552.649658203125 -1560.1951904296875 -1567.663818359375 -1575.1273193359375 -1582.607666015625 -1590.195068359375 -1597.872314453125 -1605.7705078125 -1613.894287109375 -1622.2520751953125 -1630.7969970703125 -1639.699462890625 -1648.7440185546875 -1657.8223876953125 -1667.172607421875 -1676.423095703125 -1685.1190185546875 -1693.616943359375 -1701.1927490234375 -1707.35205078125 -1712.30615234375 -1715.8353271484375 -1717.351806640625 -1717.6904296875 -1716.584716796875 -1714.857177734375 -1713.2978515625 -1712.768310546875 -1713.2584228515625 -1714.0462646484375 -1714.27587890625 -1712.865478515625 -1710.348388671875 -1707.1334228515625 -1703.6763916015625 -1700.0906982421875 -1696.51806640625 -1693.0797119140625 -1689.817626953125 -1686.9659423828125 -1684.626708984375 -1682.95068359375 -1681.8424072265625 -1681.344482421875 -1681.2581787109375 -1681.5062255859375 -1682.0081787109375 -1682.6661376953125 -1683.5093994140625 -1684.4849853515625 -1685.5732421875 -1686.73193359375 -1687.947021484375 -1689.17529296875 -1690.364990234375 -1691.4835205078125 -1692.502197265625 -1693.4085693359375 -1694.1878662109375 -1694.8360595703125 -1695.3367919921875 -1695.68359375 -1695.888671875 -1695.9608154296875 -1695.912353515625 -1695.73681640625 -1695.4501953125 -1695.0631103515625 -1694.593505859375 -1694.05322265625 -1693.440185546875 -1692.77294921875 -1692.0555419921875 -1691.302490234375 -1690.51953125 -1689.718505859375 -1688.8958740234375 -1688.0528564453125 -1687.19384765625 -1686.31689453125 -1685.42626953125 -1684.5118408203125 -1683.55224609375 -1682.547119140625 -1681.4693603515625 -1680.3416748046875 -1678.52880859375 -1675.106689453125 -1670.921630859375 -1666.5390625 -1662.087890625 -1657.6007080078125 -1653.117919921875 -1648.6578369140625 -1644.23779296875 -1639.887451171875 -1635.6339111328125 -1631.5323486328125 -1627.5821533203125 -1623.795654296875 -1620.2398681640625 -1616.851806640625 -1613.6290283203125 -1610.54248046875 -1607.57080078125 -1604.6895751953125 -1601.8890380859375 -1599.1416015625 -1596.42431640625 -1593.752197265625 -1591.119873046875 -1588.530517578125 -1585.988037109375 -1583.468505859375 -1581.0595703125 -1578.7330322265625 -1576.4783935546875 -1574.2861328125 -1572.1785888671875 -1570.141845703125 -1568.1669921875 -1566.242919921875 -1564.3602294921875 -1562.5284423828125 -1560.715576171875 -99999 -99999 -99999
 -99999 -99999 -99999 -99999 -99999 -99999 -99999 -99999 -99999 -99999 -99999 -99999 -99999 -99999 -99999 -99999 -99999 -99999 -99999 -99999 -99999 -1231.6622314453125 -1234.70556640625 -1237.768798828125 -1240.8565673828125 -1243.97412109375 -1247.1177978515625 -1250.2777099609375 -1253.46044921875 -1256.672607421875 -1259.9105224609375 -1263.1663818359375 -1266.42919921875 -1269.782470703125 -1272.968505859375 -1276.2080078125 -1279.424072265625 -1282.57666015625 -1285.6021728515625 -1288.517333984375 -1291.3948974609375 -1294.2640380859375 -1297.17724609375 -1300.202880859375 -1303.532958984375 -1307.22021484375 -1311.3408203125 -1316.2216796875 -1321.9794921875 -1328.7454833984375 -1336.509765625 -1345.49072265625 -1355.34912109375 -1366.372802734375 -1377.9974365234375 -1390.2542724609375 -1403.06298828125 -1416.0816650390625 -1429.08837890625 -1442.0545654296875 -1454.6553955078125 -1466.937255859375 -1478.7449951171875 -1489.9410400390625 -1500.503662109375 -1510.5880126953125 -1520.029052734375 -1529.0535888671875 -1537.6595458984375 -1545.802734375 -1553.712890625 -1561.406982421875 -1568.928466796875 -1576.3819580078125 -1583.7872314453125 -1591.1785888671875 -1598.670166015625 -1606.2520751953125 -1613.897705078125 -1621.717041015625 -1629.687255859375 -1637.789306640625 -1646.030517578125 -1654.438232421875 -1663.033203125 -1671.4075927734375 -1679.5743408203125 -1687.4642333984375 -1694.6417236328125 -1701.0146484375 -1706.5076904296875 -1710.8282470703125 -1713.7264404296875 -1715.356201171875 -1715.7467041015625 -1715.236083984375 -1714.0875244140625 -1713.2303466796875 -1712.8787841796875 -1713.094970703125 -1713.7794189453125 -1713.88330078125 -1711.8397216796875 -1708.511474609375 -1704.91748046875 -1701.1834716796875 -1697.33935546875 -1693.38134765625 -1689.496337890625 -1685.9322509765625 -1682.8695068359375 -1680.37060546875 -1678.637451171875 -1677.59619140625 -1677.16064453125 -1677.142822265625 -1677.462646484375 -1678.10009765625 -1678.9549560546875 -1679.9560546875 -1681.0782470703125 -1682.328125 -1683.6566162109375 -1685.00048828125 -1686.3013916015625 -1687.557861328125 -1688.7437744140625 -1689.827392578125 -1690.789794921875 -1691.60107421875 -1692.2784423828125 -1692.8033447265625 -1693.1878662109375 -1693.4248046875 -1693.51611328125 -1693.4857177734375 -1693.32763671875 -1693.06298828125 -1692.6956787109375 -1692.2366943359375 -1691.7020263671875 -1691.0938720703125 -1690.4296875 -1689.7166748046875 -1688.9617919921875 -1688.173828125 -1687.3511962890625 -1686.5029296875 -1685.6346435546875 -1684.7476806640625 -1683.830810546875 -1682.86474609375 -1681.846435546875 -1680.7786865234375 -1679.6356201171875 -1678.30615234375 -1676.55615234375 -1674.2691650390625 -1670.9169921875 -1666.8243408203125 -1662.442138671875 -1657.968994140625 -1653.434814453125 -1648.9462890625 -1644.462890625 -1640.0133056640625 -1635.6287841796875 -1631.3397216796875 -1627.1572265625 -1623.1888427734375 -1619.4232177734375 -1615.857421875 -1612.4989013671875 -1609.318359375 -1606.2852783203125 -1603.37548828125 -1600.5518798828125 -1597.7779541015625 -1595.04296875 -1592.340087890625 -1589.661865234375 -1587.0081787109375 -1584.391357421875 -1581.8232421875 -1579.3197021484375 -1576.9095458984375 -1574.55859375 -1572.30224609375 -1570.1328125 -1568.0506591796875 -1566.0435791015625 -1564.105224609375 -1562.24462890625 -1560.4249267578125 -1558.638427734375 -1556.8702392578125 -99999 -99999 -99999
 -99999 -99999 -99999 -99999 -99999 -99999 -99999 -99999 -99999 -99999 -99999 -99999 -99999 -99999 -99999 -99999 -99999 -99999 -99999 -99999 -1228.4088134765625 -1231.4471435546875 -1234.5081787109375 -1237.5943603515625 -1240.7032470703125 -1243.8380126953125 -1247.0001220703125 -1250.1844482421875 -1253.400634765625 -1256.6414794921875 -1259.904052734375 -1263.1866455078125 -1266.495361328125 -1269.9110107421875 -1273.1156005859375 -1276.4371337890625 -1279.747314453125 -1282.95361328125 -1286.017333984375 -1288.9041748046875 -1291.7244873046875 -1294.504150390625 -1297.323974609375 -1300.2398681640625 -1303.3255615234375 -1306.71337890625 -1310.7303466796875 -1315.322021484375 -1321.050048828125 -1327.9310302734375 -1335.8521728515625 -1345.103271484375 -1355.62451171875 -1367.1328125 -1379.7340087890625 -1393.1026611328125 -1406.60693359375 -1420.5435791015625 -1434.4078369140625 -1448.067138671875 -1461.4000244140625 -1474.118408203125 -1486.3807373046875 -1497.9764404296875 -1508.8551025390625 -1519.0966796875 -1528.7628173828125 -1537.8642578125 -1546.42578125 -1554.5997314453125 -1562.4571533203125 -1570.1007080078125 -1577.58740234375 -1584.9647216796875 -1592.2633056640625 -1599.570068359375 -1606.8739013671875 -1614.18408203125 -1621.61572265625 -1629.111083984375 -1636.6629638671875 -1644.360595703125 -1652.0670166015625 -1659.727294921875 -1667.4296875 -1675.010986328125 -1682.169921875 -1689.061279296875 -1695.3890380859375 -1701.1259765625 -1705.734375 -1709.3323974609375 -1711.8797607421875 -1713.3721923828125 -1713.928466796875 -1713.7335205078125 -1713.2159423828125 -1712.5830078125 -1712.2440185546875 -1712.2823486328125 -1712.307861328125 -1711.674560546875 -1709.3406982421875 -1705.9083251953125 -1702.2021484375 -1698.2965087890625 -1694.15673828125 -1689.948974609375 -1685.8282470703125 -1681.909912109375 -1678.4495849609375 -1675.8079833984375 -1674.1090087890625 -1673.14501953125 -1672.787109375 -1672.9193115234375 -1673.4051513671875 -1674.1737060546875 -1675.173095703125 -1676.391845703125 -1677.7554931640625 -1679.171630859375 -1680.6146240234375 -1682.0634765625 -1683.4942626953125 -1684.8563232421875 -1686.0966796875 -1687.223388671875 -1688.228759765625 -1689.0850830078125 -1689.79541015625 -1690.3319091796875 -1690.7296142578125 -1690.9891357421875 -1691.094970703125 -1691.0706787109375 -1690.9146728515625 -1690.6533203125 -1690.2955322265625 -1689.8365478515625 -1689.296875 -1688.6842041015625 -1688.014404296875 -1687.2899169921875 -1686.5130615234375 -1685.6966552734375 -1684.84814453125 -1683.97021484375 -1683.0533447265625 -1682.0887451171875 -1681.0860595703125 -1680.036376953125 -1678.92236328125 -1677.67333984375 -1676.2327880859375 -1674.5618896484375 -1672.56884765625 -1669.9349365234375 -1666.50146484375 -1662.55224609375 -1658.25927734375 -1653.7352294921875 -1649.176025390625 -1644.6864013671875 -1640.2049560546875 -1635.736328125 -1631.3084716796875 -1626.9456787109375 -1622.7620849609375 -1618.7657470703125 -1614.9915771484375 -1611.436279296875 -1608.1094970703125 -1605.0179443359375 -1602.0718994140625 -1599.2281494140625 -1596.4453125 -1593.7125244140625 -1590.997802734375 -1588.2894287109375 -1585.585205078125 -1582.898193359375 -1580.1796875 -1577.6690673828125 -1575.15087890625 -1572.7010498046875 -1570.347412109375 -1568.099365234375 -1565.9434814453125 -1563.884765625 -1561.9307861328125 -1560.0552978515625 -1558.2435302734375 -1556.47412109375 -1554.7489013671875 -1553.053466796875 -99999 -99999 -99999
 -99999 -99999 -99999 -99999 -99999 -99999 -99999 -99999 -99999 -99999 -99999 -99999 -99999 -99999 -99999 -99999 -99999 -99999 -99999 -1225.2813720703125 -1228.2548828125 -1231.3138427734375 -1234.392578125 -1237.4930419921875 -1240.6165771484375 -1243.7725830078125 -1246.9603271484375 -1250.1678466796875 -1253.4005126953125 -1256.6612548828125 -1259.956298828125 -1263.2724609375 -1266.6278076171875 -1269.994384765625 -1273.293212890625 -1276.652587890625 -1280.01318359375 -1283.3572998046875 -1286.4188232421875 -1289.3353271484375 -1292.1719970703125 -1294.9344482421875 -1297.67724609375 -1300.4427490234375 -1303.3724365234375 -1306.587890625 -1310.2379150390625 -1314.6392822265625 -1320.230224609375 -1326.98779296875 -1335.2491455078125 -1345.0960693359375 -1356.0540771484375 -1368.506591796875 -1381.81298828125 -1395.8216552734375 -1410.475341796875 -1425.177734375 -1439.869873046875 -1454.361572265625 -1468.3438720703125 -1481.8248291015625 -1494.5166015625 -1506.4649658203125 -1517.6241455078125 -1527.9345703125 -1537.7479248046875 -1546.7677001953125 -1555.2496337890625 -1563.3468017578125 -1571.154541015625 -1578.7044677734375 -1586.0477294921875 -1593.309814453125 -1600.489013671875 -1607.6451416015625 -1614.77685546875 -1621.9119873046875 -1629.05810546875 -1636.15185546875 -1643.2640380859375 -1650.3746337890625 -1657.41455078125 -1664.5771484375 -1671.4442138671875 -1678.115478515625 -1684.5927734375 -1690.7071533203125 -1696.1217041015625 -1700.8594970703125 -1704.86962890625 -1708.0455322265625 -1710.3487548828125 -1711.6639404296875 -1712.2132568359375 -1712.186767578125 -1711.8233642578125 -1711.33447265625 -1710.8240966796875 -1710.3536376953125 -1709.7149658203125 -1708.4451904296875 -1706.008544921875 -1702.7005615234375 -1699.0286865234375 -1695.0782470703125 -1690.8333740234375 -1686.4150390625 -1681.9072265625 -1677.6715087890625 -1673.957763671875 -1671.008056640625 -1669.2796630859375 -1668.496337890625 -1668.322509765625 -1668.628662109375 -1669.310302734375 -1670.2838134765625 -1671.5283203125 -1672.9583740234375 -1674.4678955078125 -1676.0511474609375 -1677.6881103515625 -1679.277099609375 -1680.7894287109375 -1682.2193603515625 -1683.546875 -1684.73876953125 -1685.764892578125 -1686.637451171875 -1687.36279296875 -1687.9354248046875 -1688.3392333984375 -1688.5791015625 -1688.6832275390625 -1688.6610107421875 -1688.512939453125 -1688.240966796875 -1687.8583984375 -1687.389404296875 -1686.8419189453125 -1686.2158203125 -1685.517578125 -1684.762451171875 -1683.960205078125 -1683.1146240234375 -1682.216064453125 -1681.2689208984375 -1680.2833251953125 -1679.2506103515625 -1678.1636962890625 -1676.96923828125 -1675.6644287109375 -1674.225830078125 -1672.6204833984375 -1670.69873046875 -1668.355712890625 -1665.4991455078125 -1662.12255859375 -1658.244873046875 -1653.97265625 -1649.5179443359375 -1644.981201171875 -1640.446044921875 -1635.9364013671875 -1631.4508056640625 -1626.9971923828125 -1622.6181640625 -1618.3902587890625 -1614.3275146484375 -1610.504638671875 -1607.0308837890625 -1603.7862548828125 -1600.77734375 -1597.90087890625 -1595.146728515625 -1592.435302734375 -1589.7261962890625 -1587.0162353515625 -1584.298583984375 -1581.5443115234375 -1578.848876953125 -1576.16064453125 -1573.509765625 -1570.9512939453125 -1568.4805908203125 -1566.107666015625 -1563.85009765625 -1561.7227783203125 -1559.7183837890625 -1557.8145751953125 -1555.9820556640625 -1554.23974609375 -1552.55615234375 -1550.8956298828125 -1549.25048828125 -99999 -99999 -99999
 -99999 -99999 -99999 -99999 -99999 -99999 -99999 -99999 -99999 -99999 -99999 -99999 -99999 -99999 -99999 -99999 -99999 -99999 -99999 -1225.1474609375 -1228.179931640625 -1231.25244140625 -1234.3447265625 -1237.4656982421875 -1240.6116943359375 -1243.7857666015625 -1246.9849853515625 -1250.2060546875 -1253.4652099609375 -1256.7506103515625 -1260.06005859375 -1263.3914794921875 -1266.748291015625 -1270.2265625 -1273.461669921875 -1276.8302001953125 -1280.1834716796875 -1283.4703369140625 -1286.6207275390625 -1289.6636962890625 -1292.5826416015625 -1295.44775390625 -1298.208984375 -1300.9195556640625 -1303.692626953125 -1306.609130859375 -1310.0496826171875 -1314.0706787109375 -1319.548095703125 -1326.588134765625 -1334.9061279296875 -1344.86767578125 -1356.6318359375 -1369.8922119140625 -1384.145263671875 -1399.2557373046875 -1414.7548828125 -1430.5474853515625 -1446.0716552734375 -1461.373046875 -1475.9781494140625 -1490.0489501953125 -1503.1348876953125 -1515.2916259765625 -1526.542236328125 -1537.1376953125 -1546.709716796875 -1555.7333984375 -1564.0909423828125 -1572.0369873046875 -1579.687744140625 -1587.039794921875 -1594.2510986328125 -1601.3853759765625 -1608.4346923828125 -1615.4400634765625 -1622.38525390625 -1629.274169921875 -1636.0699462890625 -1642.7496337890625 -1649.4666748046875 -1656.0458984375 -1662.5872802734375 -1668.9222412109375 -1675.0802001953125 -1681.1009521484375 -1686.66015625 -1691.8924560546875 -1696.5653076171875 -1700.760009765625 -1704.254150390625 -1706.845947265625 -1708.7142333984375 -1709.897705078125 -1710.466552734375 -1710.5091552734375 -1710.1280517578125 -1709.5413818359375 -1708.8270263671875 -1707.9647216796875 -1706.7691650390625 -1704.9132080078125 -1702.331787109375 -1699.16162109375 -1695.603759765625 -1691.6787109375 -1687.3094482421875 -1682.7720947265625 -1678.1270751953125 -1673.49658203125 -1669.2474365234375 -1666.0599365234375 -1664.289306640625 -1663.9261474609375 -1664.024169921875 -1664.520263671875 -1665.3631591796875 -1666.5518798828125 -1668.0206298828125 -1669.6341552734375 -1671.3358154296875 -1673.124755859375 -1674.878662109375 -1676.5906982421875 -1678.2314453125 -1679.7471923828125 -1681.110107421875 -1682.33203125 -1683.4049072265625 -1684.3150634765625 -1685.029541015625 -1685.5775146484375 -1685.974609375 -1686.225830078125 -1686.3251953125 -1686.2666015625 -1686.0869140625 -1685.7987060546875 -1685.4100341796875 -1684.9168701171875 -1684.328369140625 -1683.668701171875 -1682.9444580078125 -1682.1611328125 -1681.3076171875 -1680.400634765625 -1679.4447021484375 -1678.438720703125 -1677.3798828125 -1676.228515625 -1675.0040283203125 -1673.681396484375 -1672.254638671875 -1670.637939453125 -1668.801025390625 -1666.61474609375 -1664.088134765625 -1661.0802001953125 -1657.647216796875 -1653.8236083984375 -1649.6822509765625 -1645.2982177734375 -1640.7796630859375 -1636.2392578125 -1631.7034912109375 -1627.1888427734375 -1622.7259521484375 -1618.3106689453125 -1613.978759765625 -1609.8851318359375 -1606.097412109375 -1602.630859375 -1599.4771728515625 -1596.614013671875 -1593.87744140625 -1591.192138671875 -1588.522705078125 -1585.8419189453125 -1583.082275390625 -1580.3331298828125 -1577.5972900390625 -1574.81591796875 -1572.063232421875 -1569.361083984375 -1566.7314453125 -1564.2042236328125 -1561.8331298828125 -1559.5941162109375 -1557.5018310546875 -1555.51171875 -1553.671630859375 -1551.9326171875 -1550.263427734375 -1548.6444091796875 -1547.05908203125 -1545.4998779296875 -99999 -99999 -99999
 -99999 -99999 -99999 -99999 -99999 -99999 -99999 -99999 -99999 -99999 -99999 -99999 -99999 -99999 -99999 -99999 -99999 -99999 -1222.0478515625 -1225.1778564453125 -1228.1737060546875 -1231.266357421875 -1234.3795166015625 -1237.5146484375 -1240.6732177734375 -1243.8585205078125 -1247.0828857421875 -1250.3265380859375 -1253.5931396484375 -1256.8887939453125 -1260.211181640625 -1263.557373046875 -1266.9454345703125 -1270.29345703125 -1273.6322021484375 -1276.9779052734375 -1280.29296875 -1283.552490234375 -1286.6942138671875 -1289.7618408203125 -1292.7855224609375 -1295.7620849609375 -1298.648681640625 -1301.5216064453125 -1304.2564697265625 -1307.04296875 -1310.0772705078125 -1313.7032470703125 -1319.1019287109375 -1325.8212890625 -1334.701904296875 -1345.5218505859375 -1357.729248046875 -1371.9881591796875 -1387.2725830078125 -1403.3011474609375 -1419.7958984375 -1436.328369140625 -1452.796630859375 -1468.6546630859375 -1484.0487060546875 -1498.4754638671875 -1512.0306396484375 -1524.5850830078125 -1536.1116943359375 -1546.365234375 -1555.9873046875 -1564.7078857421875 -1572.8182373046875 -1580.5732421875 -1587.9537353515625 -1595.1002197265625 -1602.17822265625 -1609.13134765625 -1616.0394287109375 -1622.89501953125 -1629.6129150390625 -1636.23046875 -1642.7138671875 -1649.088623046875 -1655.302001953125 -1661.3255615234375 -1667.2811279296875 -1672.922607421875 -1678.3885498046875 -1683.599609375 -1688.5018310546875 -1693.056884765625 -1697.1202392578125 -1700.5450439453125 -1703.3955078125 -1705.64892578125 -1707.2955322265625 -1708.282958984375 -1708.6259765625 -1708.5450439453125 -1708.1143798828125 -1707.3995361328125 -1706.412109375 -1705.11328125 -1703.4434814453125 -1701.3199462890625 -1698.6781005859375 -1695.404541015625 -1691.818603515625 -1687.853759765625 -1683.6512451171875 -1679.236572265625 -1674.4630126953125 -1669.5810546875 -1664.841064453125 -1661.363525390625 -1659.8917236328125 -1659.6800537109375 -1659.9368896484375 -1660.616455078125 -1661.700439453125 -1663.078125 -1664.6959228515625 -1666.494873046875 -1668.416015625 -1670.3721923828125 -1672.27685546875 -1674.0997314453125 -1675.8125 -1677.3966064453125 -1678.83642578125 -1680.0985107421875 -1681.15673828125 -1682.046875 -1682.770263671875 -1683.32958984375 -1683.7005615234375 -1683.898681640625 -1683.9580078125 -1683.8863525390625 -1683.6917724609375 -1683.358642578125 -1682.91650390625 -1682.3846435546875 -1681.7701416015625 -1681.0792236328125 -1680.298828125 -1679.4544677734375 -1678.5509033203125 -1677.58984375 -1676.5699462890625 -1675.468994140625 -1674.2998046875 -1673.052490234375 -1671.7275390625 -1670.269775390625 -1668.6639404296875 -1666.8394775390625 -1664.7843017578125 -1662.4176025390625 -1659.726318359375 -1656.6859130859375 -1653.282958984375 -1649.4423828125 -1645.3206787109375 -1641.00830078125 -1636.5596923828125 -1632.0343017578125 -1627.492431640625 -1622.9764404296875 -1618.490478515625 -1614.0498046875 -1609.696533203125 -1605.5047607421875 -1601.6787109375 -1598.30859375 -1595.3594970703125 -1592.6248779296875 -1589.9959716796875 -1587.3958740234375 -1584.7623291015625 -1582.0404052734375 -1579.339111328125 -1576.53271484375 -1573.688232421875 -1570.826904296875 -1567.973876953125 -1565.1795654296875 -1562.4927978515625 -1559.9356689453125 -1557.530029296875 -1555.2696533203125 -1553.2176513671875 -1551.3194580078125 -1549.54638671875 -1547.878662109375 -1546.29541015625 -1544.7811279296875 -1543.2835693359375 -1541.787109375 -99999 -99999 -99999
 -99999 -99999 -99999 -99999 -99999 -99999 -99999 -99999 -99999 -99999 -99999 -99999 -99999 -99999 -99999 -99999 -99999 -1219.0340576171875 -1222.104248046875 -1225.186279296875 -1228.254638671875 -1231.361328125 -1234.4874267578125 -1237.6373291015625 -1240.816162109375 -1244.023193359375 -1247.251953125 -1250.5030517578125 -1253.787109375 -1257.0980224609375 -1260.4290771484375 -1263.7769775390625 -1267.1392822265625 -1270.6104736328125 -1273.8389892578125 -1277.166748046875 -1280.4432373046875 -1283.6578369140625 -1286.8062744140625 -1289.889892578125 -1292.9166259765625 -1295.9071044921875 -1298.8824462890625 -1301.8311767578125 -1304.7342529296875 -1307.611328125 -1310.503662109375 -1313.804931640625 -1318.9228515625 -1326.3978271484375 -1335.226318359375 -1345.970703125 -1359.23779296875 -1374.587646484375 -1390.976318359375 -1407.9849853515625 -1425.45068359375 -1442.8958740234375 -1460.0751953125 -1476.7735595703125 -1492.6883544921875 -1507.620361328125 -1521.456298828125 -1534.1661376953125 -1545.63623046875 -1555.8216552734375 -1565.0841064453125 -1573.6258544921875 -1581.4425048828125 -1588.7890625 -1595.86279296875 -1602.845947265625 -1609.68798828125 -1616.4949951171875 -1623.2838134765625 -1629.9720458984375 -1636.4957275390625 -1642.886962890625 -1649.088623046875 -1655.041259765625 -1660.7327880859375 -1666.283203125 -1671.540771484375 -1676.5582275390625 -1681.3660888671875 -1685.923828125 -1690.1727294921875 -1694.0035400390625 -1697.3778076171875 -1700.307861328125 -1702.7564697265625 -1704.5926513671875 -1705.802001953125 -1706.508056640625 -1706.7420654296875 -1706.541748046875 -1705.903564453125 -1704.9241943359375 -1703.650634765625 -1702.0703125 -1700.1519775390625 -1697.7103271484375 -1694.79150390625 -1691.51318359375 -1687.874267578125 -1683.9461669921875 -1679.8272705078125 -1675.5767822265625 -1671.08837890625 -1666.091552734375 -1661.6239013671875 -1658.3177490234375 -1656.5916748046875 -1656.2850341796875 -1656.506591796875 -1657.1981201171875 -1658.314208984375 -1659.8123779296875 -1661.648681640625 -1663.656982421875 -1665.7459716796875 -1667.8494873046875 -1669.8892822265625 -1671.8272705078125 -1673.6483154296875 -1675.2708740234375 -1676.71337890625 -1677.9776611328125 -1679.0614013671875 -1679.9595947265625 -1680.6357421875 -1681.1307373046875 -1681.463623046875 -1681.6422119140625 -1681.671875 -1681.53125 -1681.2664794921875 -1680.891357421875 -1680.4141845703125 -1679.8421630859375 -1679.1590576171875 -1678.4010009765625 -1677.572265625 -1676.6761474609375 -1675.71435546875 -1674.6685791015625 -1673.558837890625 -1672.3927001953125 -1671.1295166015625 -1669.7840576171875 -1668.3017578125 -1666.69140625 -1664.90966796875 -1662.92529296875 -1660.7174072265625 -1658.2568359375 -1655.490966796875 -1652.312744140625 -1648.8316650390625 -1645.042724609375 -1641.02294921875 -1636.7515869140625 -1632.333251953125 -1627.850341796875 -1623.32275390625 -1618.7923583984375 -1614.29052734375 -1609.8363037109375 -1605.4573974609375 -1601.187744140625 -1597.3861083984375 -1594.1712646484375 -1591.4334716796875 -1588.890380859375 -1586.36669921875 -1583.7774658203125 -1581.1431884765625 -1578.4532470703125 -1575.6722412109375 -1572.796875 -1569.858642578125 -1566.8775634765625 -1563.9056396484375 -1561.0018310546875 -1558.2047119140625 -1555.5740966796875 -1553.165283203125 -1550.9532470703125 -1548.9305419921875 -1547.084228515625 -1545.3958740234375 -1543.8564453125 -1542.3909912109375 -1540.966552734375 -1539.55029296875 -1538.13427734375 -99999 -99999 -99999
 -99999 -99999 -99999 -99999 -99999 -99999 -99999 -99999 -99999 -99999 -99999 -99999 -99999 -99999 -99999 -99999 -99999 -1219.13427734375 -1222.2078857421875 -1225.3642578125 -1228.4049072265625 -1231.5279541015625 -1234.674560546875 -1237.8424072265625 -1241.03271484375 -1244.248046875 -1247.4959716796875 -1250.765380859375 -1254.0582275390625 -1257.3746337890625 -1260.7115478515625 -1264.066162109375 -1267.4434814453125 -1270.796630859375 -1274.1182861328125 -1277.42919921875 -1280.701904296875 -1283.9166259765625 -1287.0609130859375 -1290.154052734375 -1293.207763671875 -1296.2332763671875 -1299.230224609375 -1302.22802734375 -1305.2313232421875 -1308.25634765625 -1311.2620849609375 -1314.705322265625 -1319.993408203125 -1327.5396728515625 -1336.4090576171875 -1347.6539306640625 -1361.517822265625 -1378.2108154296875 -1395.7020263671875 -1413.647705078125 -1431.8304443359375 -1449.982177734375 -1467.8150634765625 -1485.120361328125 -1501.6583251953125 -1516.9686279296875 -1531.1427001953125 -1543.9713134765625 -1555.1800537109375 -1565.2545166015625 -1574.3134765625 -1582.3582763671875 -1589.5850830078125 -1596.635498046875 -1603.355224609375 -1609.98876953125 -1616.679443359375 -1623.3958740234375 -1630.12451171875 -1636.673095703125 -1643.1162109375 -1649.271240234375 -1655.07958984375 -1660.615966796875 -1665.8902587890625 -1670.85107421875 -1675.4754638671875 -1679.9622802734375 -1684.1722412109375 -1688.0048828125 -1691.5555419921875 -1694.7178955078125 -1697.6849365234375 -1700.0792236328125 -1701.9619140625 -1703.3919677734375 -1704.3604736328125 -1704.850830078125 -1704.7982177734375 -1704.3233642578125 -1703.48828125 -1702.3165283203125 -1700.8333740234375 -1698.9227294921875 -1696.6337890625 -1694.0098876953125 -1690.9853515625 -1687.589599609375 -1683.823486328125 -1679.861328125 -1675.7757568359375 -1671.6611328125 -1667.4910888671875 -1663.1949462890625 -1658.669677734375 -1655.9921875 -1654.3662109375 -1653.5345458984375 -1653.4334716796875 -1654.061279296875 -1655.273681640625 -1656.9361572265625 -1658.920166015625 -1661.10107421875 -1663.346923828125 -1665.604736328125 -1667.7606201171875 -1669.7974853515625 -1671.658203125 -1673.323974609375 -1674.8046875 -1676.06689453125 -1677.099609375 -1677.9329833984375 -1678.580078125 -1679.0472412109375 -1679.3343505859375 -1679.4227294921875 -1679.3677978515625 -1679.1796875 -1678.867431640625 -1678.4365234375 -1677.876953125 -1677.2274169921875 -1676.493896484375 -1675.683349609375 -1674.793701171875 -1673.8153076171875 -1672.778564453125 -1671.6746826171875 -1670.4774169921875 -1669.211181640625 -1667.815673828125 -1666.364013671875 -1664.753173828125 -1663.0023193359375 -1661.0936279296875 -1659.0035400390625 -1656.6827392578125 -1654.052490234375 -1651.1412353515625 -1647.983642578125 -1644.5074462890625 -1640.728515625 -1636.7039794921875 -1632.503662109375 -1628.19091796875 -1623.724609375 -1619.21484375 -1614.6949462890625 -1610.1839599609375 -1605.7303466796875 -1601.3353271484375 -1597.0958251953125 -1593.2335205078125 -1590.333251953125 -1587.95458984375 -1585.506103515625 -1582.9564208984375 -1580.41650390625 -1577.751220703125 -1574.998046875 -1572.1475830078125 -1569.16357421875 -1566.08447265625 -1562.9498291015625 -1559.83642578125 -1556.78564453125 -1553.8966064453125 -1551.208984375 -1548.7489013671875 -1546.5390625 -1544.58056640625 -1542.8619384765625 -1541.2955322265625 -1539.8660888671875 -1538.5194091796875 -1537.15478515625 -1535.9139404296875 -1534.576171875 -1533.2293701171875 -99999 -99999
 -99999 -99999 -99999 -99999 -99999 -99999 -99999 -99999 -99999 -99999 -99999 -99999 -99999 -99999 -99999 -99999 -1216.2200927734375 -1219.30517578125 -1222.4091796875 -1225.53125 -1228.633544921875 -1231.775390625 -1234.935546875 -1238.1162109375 -1241.32470703125 -1244.560791015625 -1247.8206787109375 -1251.0982666015625 -1254.4017333984375 -1257.7325439453125 -1261.0806884765625 -1264.4415283203125 -1267.8353271484375 -1271.1915283203125 -1274.51318359375 -1277.829345703125 -1281.107421875 -1284.3431396484375 -1287.5367431640625 -1290.6754150390625 -1293.78076171875 -1296.878173828125 -1299.9920654296875 -1303.137939453125 -1306.310791015625 -1309.52392578125 -1312.930908203125 -1317.1650390625 -1322.981201171875 -1330.6109619140625 -1339.212158203125 -1349.794677734375 -1365.5357666015625 -1383.39306640625 -1401.6868896484375 -1420.2362060546875 -1438.9300537109375 -1457.571044921875 -1476.0775146484375 -1493.9862060546875 -1510.9847412109375 -1526.8702392578125 -1541.23291015625 -1553.837158203125 -1564.884765625 -1574.641357421875 -1583.2508544921875 -1590.708984375 -1597.36474609375 -1603.8304443359375 -1610.1083984375 -1616.594482421875 -1623.157470703125 -1629.85546875 -1636.5013427734375 -1643.059326171875 -1649.370361328125 -1655.263427734375 -1660.860107421875 -1666.0611572265625 -1670.84423828125 -1675.182861328125 -1679.28466796875 -1683.0234375 -1686.5113525390625 -1689.7830810546875 -1692.8472900390625 -1695.47998046875 -1697.732666015625 -1699.64111328125 -1701.185546875 -1702.3135986328125 -1702.8817138671875 -1703.0208740234375 -1702.7581787109375 -1702.100830078125 -1701.07861328125 -1699.607666015625 -1697.8087158203125 -1695.6817626953125 -1693.2220458984375 -1690.39697265625 -1687.1455078125 -1683.620849609375 -1679.8360595703125 -1675.8238525390625 -1671.6923828125 -1667.49658203125 -1663.5426025390625 -1659.7813720703125 -1656.5521240234375 -1654.0068359375 -1652.23681640625 -1651.1866455078125 -1650.84765625 -1651.2891845703125 -1652.4884033203125 -1654.288818359375 -1656.4573974609375 -1658.864990234375 -1661.3076171875 -1663.699462890625 -1665.9451904296875 -1668.03564453125 -1669.9488525390625 -1671.599365234375 -1673.0460205078125 -1674.2637939453125 -1675.271728515625 -1676.0625 -1676.65283203125 -1677.0159912109375 -1677.20849609375 -1677.2413330078125 -1677.123779296875 -1676.861083984375 -1676.4488525390625 -1675.9285888671875 -1675.3092041015625 -1674.6015625 -1673.7965087890625 -1672.902099609375 -1671.9498291015625 -1670.8984375 -1669.7760009765625 -1668.5716552734375 -1667.28564453125 -1665.92919921875 -1664.444091796875 -1662.8511962890625 -1661.138916015625 -1659.291748046875 -1657.27001953125 -1655.0191650390625 -1652.5521240234375 -1649.880126953125 -1646.92236328125 -1643.6878662109375 -1640.1767578125 -1636.4404296875 -1632.4857177734375 -1628.3306884765625 -1624.0533447265625 -1619.648681640625 -1615.190673828125 -1610.724365234375 -1606.271728515625 -1601.8671875 -1597.53857421875 -1593.3916015625 -1589.897216796875 -1587.1741943359375 -1584.900146484375 -1582.423828125 -1579.8201904296875 -1577.186767578125 -1574.470458984375 -1571.63720703125 -1568.6864013671875 -1565.594482421875 -1562.3861083984375 -1559.09765625 -1555.7664794921875 -1552.5294189453125 -1549.4793701171875 -1546.7310791015625 -1544.26220703125 -1542.1204833984375 -1540.240234375 -1538.588623046875 -1537.1680908203125 -1535.864013671875 -1534.72314453125 -1533.58349609375 -1532.4176025390625 -1531.194091796875 -1529.895263671875 -99999 -99999
 -99999 -99999 -99999 -99999 -99999 -99999 -99999 -99999 -99999 -99999 -99999 -99999 -99999 -99999 -99999 -1213.3548583984375 -1216.449462890625 -1219.551513671875 -1222.6773681640625 -1225.8187255859375 -1228.934814453125 -1232.091064453125 -1235.272216796875 -1238.474609375 -1241.6983642578125 -1244.9451904296875 -1248.21923828125 -1251.5172119140625 -1254.8385009765625 -1258.181396484375 -1261.5408935546875 -1264.9141845703125 -1268.3397216796875 -1271.6927490234375 -1275.0416259765625 -1278.3946533203125 -1281.72412109375 -1285.0072021484375 -1288.2552490234375 -1291.5087890625 -1294.765625 -1298.0169677734375 -1301.28271484375 -1304.6065673828125 -1308.155517578125 -1311.806884765625 -1316.002197265625 -1321.102294921875 -1327.4210205078125 -1335.0540771484375 -1343.8948974609375 -1355.90673828125 -1372.0616455078125 -1390.0386962890625 -1408.4517822265625 -1427.3924560546875 -1446.4437255859375 -1465.5142822265625 -1484.34423828125 -1502.770751953125 -1520.3109130859375 -1536.6842041015625 -1551.11328125 -1563.6705322265625 -1574.4713134765625 -1583.770751953125 -1591.68310546875 -1598.4190673828125 -1604.59375 -1610.4471435546875 -1616.2672119140625 -1622.4432373046875 -1628.9375 -1635.696533203125 -1642.52001953125 -1649.1385498046875 -1655.3890380859375 -1661.19775390625 -1666.4012451171875 -1671.172607421875 -1675.4000244140625 -1679.1314697265625 -1682.566650390625 -1685.8084716796875 -1688.7974853515625 -1691.340087890625 -1693.74267578125 -1695.8587646484375 -1697.732421875 -1699.27880859375 -1700.330078125 -1701.021728515625 -1701.336181640625 -1701.2550048828125 -1700.765625 -1699.803955078125 -1698.49072265625 -1696.824462890625 -1694.85546875 -1692.5045166015625 -1689.7796630859375 -1686.7545166015625 -1683.42822265625 -1679.824951171875 -1675.968994140625 -1671.934814453125 -1667.814697265625 -1663.7127685546875 -1659.970703125 -1656.807373046875 -1654.0533447265625 -1651.978271484375 -1650.32763671875 -1648.9150390625 -1648.292236328125 -1648.609375 -1649.9140625 -1651.9949951171875 -1654.4420166015625 -1657.0093994140625 -1659.5853271484375 -1662.0855712890625 -1664.4161376953125 -1666.54443359375 -1668.4237060546875 -1670.0767822265625 -1671.48681640625 -1672.650390625 -1673.5921630859375 -1674.27978515625 -1674.766357421875 -1675.058837890625 -1675.176513671875 -1675.1134033203125 -1674.87646484375 -1674.5087890625 -1674.024658203125 -1673.434326171875 -1672.725341796875 -1671.9324951171875 -1671.0439453125 -1670.0709228515625 -1669.0272216796875 -1667.8944091796875 -1666.6929931640625 -1665.4178466796875 -1664.0345458984375 -1662.5616455078125 -1660.9942626953125 -1659.318603515625 -1657.501708984375 -1655.5128173828125 -1653.3660888671875 -1651.034912109375 -1648.4951171875 -1645.7242431640625 -1642.6910400390625 -1639.44677734375 -1635.9405517578125 -1632.2196044921875 -1628.2998046875 -1624.2152099609375 -1619.97802734375 -1615.66650390625 -1611.3052978515625 -1606.909912109375 -1602.53466796875 -1598.2347412109375 -1594.1162109375 -1590.2626953125 -1586.8878173828125 -1584.266845703125 -1581.843017578125 -1579.3773193359375 -1576.7421875 -1574.0101318359375 -1571.2181396484375 -1568.3433837890625 -1565.3331298828125 -1562.147705078125 -1558.7467041015625 -1555.173828125 -1551.6417236328125 -1548.2335205078125 -1545.0372314453125 -1542.1845703125 -1539.6756591796875 -1537.5726318359375 -1535.80712890625 -1534.4022216796875 -1533.1981201171875 -1532.09423828125 -1531.104248046875 -1530.11181640625 -1529.0458984375 -1527.896728515625 -1526.6549072265625 -99999 -99999
 -99999 -99999 -99999 -99999 -99999 -99999 -99999 -99999 -99999 -99999 -99999 -99999 -99999 -99999 -1210.5250244140625 -1213.62939453125 -1216.7412109375 -1219.8651123046875 -1223.013916015625 -1226.1689453125 -1229.3115234375 -1232.4920654296875 -1235.6893310546875 -1238.9066162109375 -1242.146240234375 -1245.41943359375 -1248.7088623046875 -1252.0238037109375 -1255.3614501953125 -1258.7230224609375 -1262.1097412109375 -1265.51171875 -1268.958251953125 -1272.3548583984375 -1275.7464599609375 -1279.144775390625 -1282.5296630859375 -1285.9266357421875 -1289.340576171875 -1292.7095947265625 -1296.1077880859375 -1299.5616455078125 -1303.173095703125 -1306.935302734375 -1310.77490234375 -1315.1119384765625 -1320.09619140625 -1325.83447265625 -1332.743408203125 -1341.120361328125 -1351.223876953125 -1363.949462890625 -1379.6597900390625 -1397.3079833984375 -1415.8944091796875 -1434.9864501953125 -1454.279541015625 -1473.5555419921875 -1492.640869140625 -1511.5299072265625 -1529.767822265625 -1546.5892333984375 -1560.97216796875 -1573.1175537109375 -1583.6092529296875 -1592.2154541015625 -1599.66455078125 -1605.8072509765625 -1611.0625 -1615.9498291015625 -1621.4302978515625 -1627.2763671875 -1634.005615234375 -1641.0355224609375 -1648.0804443359375 -1654.9305419921875 -1661.21142578125 -1666.854736328125 -1671.7733154296875 -1675.9927978515625 -1679.6131591796875 -1682.8900146484375 -1685.8121337890625 -1688.260498046875 -1690.4747314453125 -1692.6292724609375 -1694.5341796875 -1696.2081298828125 -1697.525634765625 -1698.590576171875 -1699.3687744140625 -1699.8011474609375 -1699.8370361328125 -1699.417724609375 -1698.633544921875 -1697.4849853515625 -1695.9847412109375 -1694.077880859375 -1691.8514404296875 -1689.271728515625 -1686.4276123046875 -1683.2855224609375 -1679.8443603515625 -1676.175048828125 -1672.3045654296875 -1668.3560791015625 -1664.3614501953125 -1660.516845703125 -1656.9996337890625 -1654.01025390625 -1651.5894775390625 -1649.6473388671875 -1648.0487060546875 -1646.5999755859375 -1645.6334228515625 -1645.9302978515625 -1647.6751708984375 -1650.0321044921875 -1652.730712890625 -1655.546142578125 -1658.286865234375 -1660.8411865234375 -1663.1893310546875 -1665.3184814453125 -1667.16552734375 -1668.7491455078125 -1670.06201171875 -1671.153564453125 -1671.990234375 -1672.5992431640625 -1673.0018310546875 -1673.1810302734375 -1673.156982421875 -1672.97412109375 -1672.650146484375 -1672.197021484375 -1671.59814453125 -1670.9031982421875 -1670.09716796875 -1669.2042236328125 -1668.219970703125 -1667.1680908203125 -1666.048583984375 -1664.845947265625 -1663.5487060546875 -1662.17578125 -1660.7215576171875 -1659.1763916015625 -1657.5107421875 -1655.7113037109375 -1653.7857666015625 -1651.7152099609375 -1649.494384765625 -1647.059814453125 -1644.4234619140625 -1641.581787109375 -1638.5240478515625 -1635.2552490234375 -1631.75341796875 -1628.083740234375 -1624.1932373046875 -1620.1617431640625 -1616.015380859375 -1611.774169921875 -1607.4866943359375 -1603.200927734375 -1598.9853515625 -1594.8514404296875 -1590.8841552734375 -1587.1868896484375 -1583.975341796875 -1581.1734619140625 -1578.68603515625 -1576.1556396484375 -1573.5286865234375 -1570.7816162109375 -1567.9700927734375 -1565.0765380859375 -1562.019775390625 -1558.7283935546875 -1555.12841796875 -1551.38720703125 -1547.50390625 -1543.7672119140625 -1540.4171142578125 -1537.4697265625 -1534.9822998046875 -1533.09912109375 -1531.5205078125 -1530.2586669921875 -1529.289306640625 -1528.4337158203125 -1527.59423828125 -1526.7388916015625 -1525.823486328125 -1524.78466796875 -1523.5804443359375 -99999 -99999
 -99999 -99999 -99999 -99999 -99999 -99999 -99999 -99999 -99999 -99999 -99999 -99999 -99999 -99999 -1210.8404541015625 -1213.9713134765625 -1217.111083984375 -1220.2564697265625 -1223.4373779296875 -1226.607177734375 -1229.764892578125 -1232.9622802734375 -1236.1793212890625 -1239.4219970703125 -1242.685302734375 -1245.97314453125 -1249.285888671875 -1252.6195068359375 -1255.988037109375 -1259.37841796875 -1262.7901611328125 -1266.2200927734375 -1269.6844482421875 -1273.1412353515625 -1276.6123046875 -1280.1141357421875 -1283.6143798828125 -1287.124755859375 -1290.64794921875 -1294.2325439453125 -1297.938720703125 -1301.7081298828125 -1305.6182861328125 -1309.696533203125 -1314.1259765625 -1319.1624755859375 -1324.6273193359375 -1331.38330078125 -1339.0751953125 -1348.238525390625 -1359.178955078125 -1372.5655517578125 -1387.9918212890625 -1405.15283203125 -1423.59765625 -1442.5869140625 -1461.9979248046875 -1481.41015625 -1500.737548828125 -1519.861328125 -1538.670654296875 -1555.908447265625 -1570.2264404296875 -1582.049072265625 -1591.728271484375 -1600.44482421875 -1607.3236083984375 -1612.20556640625 -1616.444580078125 -1620.6827392578125 -1625.377685546875 -1631.3394775390625 -1638.2017822265625 -1645.79833984375 -1653.48779296875 -1660.52197265625 -1666.9493408203125 -1672.4031982421875 -1676.8211669921875 -1680.6270751953125 -1683.782470703125 -1686.2203369140625 -1688.385986328125 -1690.325927734375 -1692.0943603515625 -1693.60986328125 -1694.926025390625 -1696.1412353515625 -1697.1556396484375 -1697.9295654296875 -1698.3802490234375 -1698.4539794921875 -1698.1910400390625 -1697.5723876953125 -1696.59716796875 -1695.2066650390625 -1693.4283447265625 -1691.319091796875 -1688.9129638671875 -1686.2103271484375 -1683.181640625 -1679.9022216796875 -1676.4036865234375 -1672.7357177734375 -1668.8961181640625 -1665.0301513671875 -1661.193603515625 -1657.5810546875 -1654.3370361328125 -1651.529052734375 -1649.1248779296875 -1647.173583984375 -1645.4871826171875 -1644.008056640625 -1642.9056396484375 -1643.4210205078125 -1645.632080078125 -1648.599365234375 -1651.6048583984375 -1654.5306396484375 -1657.334716796875 -1659.955322265625 -1662.2867431640625 -1664.32470703125 -1666.0911865234375 -1667.6031494140625 -1668.8485107421875 -1669.8123779296875 -1670.526123046875 -1671.0150146484375 -1671.254150390625 -1671.299560546875 -1671.1832275390625 -1670.888916015625 -1670.4273681640625 -1669.8482666015625 -1669.14111328125 -1668.3233642578125 -1667.4122314453125 -1666.429443359375 -1665.3746337890625 -1664.2333984375 -1663.0087890625 -1661.719482421875 -1660.35595703125 -1658.914306640625 -1657.365966796875 -1655.712158203125 -1653.95556640625 -1652.0816650390625 -1650.088623046875 -1647.9105224609375 -1645.5745849609375 -1643.0650634765625 -1640.382080078125 -1637.5098876953125 -1634.4100341796875 -1631.11181640625 -1627.6536865234375 -1623.9957275390625 -1620.1295166015625 -1616.163818359375 -1612.0947265625 -1607.96044921875 -1603.7930908203125 -1599.630859375 -1595.512451171875 -1591.50048828125 -1587.7147216796875 -1584.2054443359375 -1580.9417724609375 -1578.0693359375 -1575.417236328125 -1572.8115234375 -1570.16455078125 -1567.4381103515625 -1564.6405029296875 -1561.757080078125 -1558.7164306640625 -1555.4388427734375 -1551.655517578125 -1547.4268798828125 -1543.23291015625 -1539.2109375 -1535.590087890625 -1532.7623291015625 -1530.3641357421875 -1528.524658203125 -1527.220458984375 -1526.244384765625 -1525.480712890625 -1524.8472900390625 -1524.280517578125 -1523.6334228515625 -1522.80908203125 -1521.8291015625 -1520.678955078125 -99999 -99999
 -99999 -99999 -99999 -99999 -99999 -99999 -99999 -99999 -99999 -99999 -99999 -99999 -99999 -1208.0821533203125 -1211.2308349609375 -1214.3843994140625 -1217.5445556640625 -1220.7135009765625 -1223.9229736328125 -1227.0858154296875 -1230.29052734375 -1233.514404296875 -1236.755615234375 -1240.0166015625 -1243.299560546875 -1246.6143798828125 -1249.953369140625 -1253.317626953125 -1256.7108154296875 -1260.1309814453125 -1263.5894775390625 -1267.0750732421875 -1270.61279296875 -1274.1256103515625 -1277.6851806640625 -1281.27587890625 -1284.897705078125 -1288.5792236328125 -1292.333740234375 -1296.18017578125 -1300.1102294921875 -1304.1910400390625 -1308.55224609375 -1313.0626220703125 -1318.131103515625 -1323.7896728515625 -1330.1971435546875 -1337.402587890625 -1345.7806396484375 -1355.64794921875 -1367.527099609375 -1380.736328125 -1396.1373291015625 -1413.2535400390625 -1431.3182373046875 -1450.1900634765625 -1469.533935546875 -1488.971923828125 -1508.3729248046875 -1527.6727294921875 -1546.74560546875 -1565.0052490234375 -1578.6533203125 -1589.2061767578125 -1599.065185546875 -1607.6278076171875 -1613.9754638671875 -1618.27783203125 -1620.9775390625 -1623.5537109375 -1627.719482421875 -1633.8768310546875 -1641.821044921875 -1650.1357421875 -1658.4549560546875 -1666.185546875 -1672.6298828125 -1677.798583984375 -1681.97119140625 -1684.9683837890625 -1687.3360595703125 -1689.22998046875 -1690.7637939453125 -1691.92236328125 -1693.103759765625 -1694.1175537109375 -1695.102294921875 -1695.9481201171875 -1696.6011962890625 -1697.03466796875 -1697.207275390625 -1697.0794677734375 -1696.625732421875 -1695.748291015625 -1694.4415283203125 -1692.869384765625 -1690.8990478515625 -1688.6654052734375 -1686.037841796875 -1683.1339111328125 -1680.00048828125 -1676.6632080078125 -1673.1480712890625 -1669.46240234375 -1665.70068359375 -1661.939208984375 -1658.32177734375 -1654.926513671875 -1651.84228515625 -1649.0989990234375 -1646.7794189453125 -1644.904296875 -1643.3096923828125 -1641.9814453125 -1641.02685546875 -1641.955078125 -1644.74755859375 -1647.8338623046875 -1650.9322509765625 -1653.9732666015625 -1656.805908203125 -1659.3443603515625 -1661.6011962890625 -1663.5723876953125 -1665.2509765625 -1666.6002197265625 -1667.69091796875 -1668.5372314453125 -1669.138671875 -1669.5059814453125 -1669.596923828125 -1669.4971923828125 -1669.2236328125 -1668.7896728515625 -1668.1923828125 -1667.46044921875 -1666.6304931640625 -1665.711181640625 -1664.7110595703125 -1663.616455078125 -1662.452392578125 -1661.2242431640625 -1659.9300537109375 -1658.568359375 -1657.1112060546875 -1655.57275390625 -1653.9471435546875 -1652.224609375 -1650.3974609375 -1648.4324951171875 -1646.3240966796875 -1644.0782470703125 -1641.6895751953125 -1639.135498046875 -1636.3760986328125 -1633.433349609375 -1630.3189697265625 -1627.048828125 -1623.5687255859375 -1619.9124755859375 -1616.1431884765625 -1612.2532958984375 -1608.259033203125 -1604.2030029296875 -1600.1370849609375 -1596.0684814453125 -1592.1019287109375 -1588.2447509765625 -1584.5584716796875 -1581.0831298828125 -1577.8909912109375 -1574.9136962890625 -1572.1131591796875 -1569.3944091796875 -1566.6966552734375 -1563.958251953125 -1561.173828125 -1558.334228515625 -1555.4388427734375 -1552.1258544921875 -1548.094970703125 -1543.5517578125 -1538.7659912109375 -1534.4454345703125 -1530.765625 -1527.7740478515625 -1525.6251220703125 -1524.0562744140625 -1522.96533203125 -1522.2568359375 -1521.8851318359375 -1521.5615234375 -1521.1923828125 -1520.7081298828125 -1520.05078125 -1519.1370849609375 -1517.944580078125 -99999 -99999
 -99999 -99999 -99999 -99999 -99999 -99999 -99999 -99999 -99999 -99999 -99999 -99999 -1205.337158203125 -1208.5086669921875 -1211.6834716796875 -1214.862548828125 -1218.050537109375 -1221.24609375 -1224.478759765625 -1227.67724609375 -1230.8958740234375 -1234.140869140625 -1237.4033203125 -1240.69091796875 -1244.008056640625 -1247.3438720703125 -1250.7073974609375 -1254.101318359375 -1257.5360107421875 -1261.0050048828125 -1264.5084228515625 -1268.0521240234375 -1271.6412353515625 -1275.2523193359375 -1278.9154052734375 -1282.6412353515625 -1286.4346923828125 -1290.305419921875 -1294.2899169921875 -1298.359130859375 -1302.6474609375 -1307.15673828125 -1311.849365234375 -1316.999755859375 -1322.66796875 -1328.8887939453125 -1335.75 -1343.7252197265625 -1352.8052978515625 -1363.3408203125 -1375.5672607421875 -1389.340087890625 -1404.4171142578125 -1421.26123046875 -1439.102294921875 -1457.6827392578125 -1476.7491455078125 -1496.0394287109375 -1515.33154296875 -1534.3184814453125 -1553.11865234375 -1569.7657470703125 -1583.6094970703125 -1594.4638671875 -1604.64501953125 -1613.7835693359375 -1621.0748291015625 -1623.0155029296875 -1623.9317626953125 -1625.343994140625 -1628.898193359375 -1635.6181640625 -1644.3291015625 -1654.2109375 -1663.810546875 -1672.0992431640625 -1678.525390625 -1683.1712646484375 -1686.599853515625 -1689.0313720703125 -1690.68603515625 -1691.6510009765625 -1692.5299072265625 -1693.167236328125 -1693.75537109375 -1694.33056640625 -1694.884765625 -1695.400390625 -1695.8018798828125 -1696.033447265625 -1696.0386962890625 -1695.6668701171875 -1694.9334716796875 -1693.8497314453125 -1692.4228515625 -1690.643310546875 -1688.439453125 -1685.9437255859375 -1683.1807861328125 -1680.1761474609375 -1676.948486328125 -1673.5167236328125 -1669.995849609375 -1666.359375 -1662.6656494140625 -1659.038818359375 -1655.5579833984375 -1652.291748046875 -1649.425537109375 -1646.8907470703125 -1644.7540283203125 -1642.99462890625 -1641.613525390625 -1640.8345947265625 -1640.87890625 -1642.15380859375 -1644.6005859375 -1647.6824951171875 -1650.7398681640625 -1653.7320556640625 -1656.5335693359375 -1659.050048828125 -1661.1920166015625 -1662.9493408203125 -1664.4403076171875 -1665.677001953125 -1666.6671142578125 -1667.3740234375 -1667.7921142578125 -1667.9798583984375 -1667.9508056640625 -1667.7200927734375 -1667.2734375 -1666.6580810546875 -1665.9158935546875 -1665.0623779296875 -1664.1116943359375 -1663.0570068359375 -1661.9300537109375 -1660.740234375 -1659.490234375 -1658.181640625 -1656.792236328125 -1655.336669921875 -1653.8101806640625 -1652.20703125 -1650.5185546875 -1648.705078125 -1646.7835693359375 -1644.7474365234375 -1642.5887451171875 -1640.288330078125 -1637.8056640625 -1635.1715087890625 -1632.3814697265625 -1629.4368896484375 -1626.327880859375 -1622.9876708984375 -1619.5457763671875 -1615.9288330078125 -1612.1898193359375 -1608.35498046875 -1604.447021484375 -1600.4862060546875 -1596.5130615234375 -1592.57080078125 -1588.695556640625 -1584.921630859375 -1581.305419921875 -1577.893310546875 -1574.6461181640625 -1571.6190185546875 -1568.7301025390625 -1565.912841796875 -1563.125244140625 -1560.329345703125 -1557.5174560546875 -1554.6900634765625 -1551.8245849609375 -1548.66015625 -1544.610107421875 -1539.23388671875 -1534.041748046875 -1529.3819580078125 -1525.69775390625 -1522.86962890625 -1520.834716796875 -1519.4932861328125 -1518.8519287109375 -1518.5760498046875 -1518.5013427734375 -1518.4990234375 -1518.4437255859375 -1518.1268310546875 -1517.5172119140625 -1516.6181640625 -1515.4525146484375 -99999 -99999
 -99999 -99999 -99999 -99999 -99999 -99999 -99999 -99999 -99999 -99999 -99999 -99999 -1205.8050537109375 -1209.0029296875 -1212.2069091796875 -1215.415283203125 -1218.62939453125 -1221.85693359375 -1225.1351318359375 -1228.3232421875 -1231.5753173828125 -1234.847412109375 -1238.1402587890625 -1241.454345703125 -1244.79296875 -1248.164794921875 -1251.560302734375 -1254.995849609375 -1258.4697265625 -1261.982421875 -1265.5367431640625 -1269.21484375 -1272.8155517578125 -1276.53515625 -1280.3333740234375 -1284.2081298828125 -1288.1722412109375 -1292.234375 -1296.462158203125 -1300.879638671875 -1305.502197265625 -1310.3345947265625 -1315.5250244140625 -1321.22509765625 -1327.3087158203125 -1334.1319580078125 -1341.8043212890625 -1350.304931640625 -1359.9666748046875 -1371.1988525390625 -1383.4820556640625 -1397.1605224609375 -1412.529296875 -1428.927490234375 -1446.3720703125 -1464.754150390625 -1483.4718017578125 -1502.3817138671875 -1521.2308349609375 -1539.7005615234375 -1557.192626953125 -1573.438232421875 -1586.758544921875 -1598.4727783203125 -1608.88134765625 -1618.345947265625 -1625.3424072265625 -1626.2454833984375 -1625.123046875 -1624.9244384765625 -1627.4600830078125 -1635.2242431640625 -1646.678955078125 -1658.5718994140625 -1669.6138916015625 -1678.051025390625 -1684.278076171875 -1688.5400390625 -1691.248046875 -1692.676513671875 -1693.33642578125 -1693.5626220703125 -1693.6973876953125 -1693.7340087890625 -1693.82763671875 -1694.00341796875 -1694.26171875 -1694.558837890625 -1694.8236083984375 -1694.88623046875 -1694.6868896484375 -1694.1617431640625 -1693.31689453125 -1692.036376953125 -1690.347900390625 -1688.317626953125 -1685.96923828125 -1683.3382568359375 -1680.4251708984375 -1677.245361328125 -1673.8983154296875 -1670.427734375 -1666.880126953125 -1663.290283203125 -1659.68701171875 -1656.1376953125 -1652.83642578125 -1649.8095703125 -1647.091552734375 -1644.729736328125 -1642.781982421875 -1641.384033203125 -1640.4761962890625 -1640.1602783203125 -1640.56103515625 -1642.0626220703125 -1644.6148681640625 -1647.553955078125 -1650.6689453125 -1653.7652587890625 -1656.557373046875 -1658.8822021484375 -1660.798828125 -1662.3974609375 -1663.74658203125 -1664.8172607421875 -1665.6224365234375 -1666.181396484375 -1666.490234375 -1666.5518798828125 -1666.3302001953125 -1665.890869140625 -1665.2789306640625 -1664.5167236328125 -1663.633056640625 -1662.61279296875 -1661.5069580078125 -1660.3330078125 -1659.0994873046875 -1657.8177490234375 -1656.461669921875 -1655.0546875 -1653.5931396484375 -1652.072265625 -1650.4827880859375 -1648.79296875 -1647.0218505859375 -1645.14453125 -1643.1812744140625 -1641.081787109375 -1638.8349609375 -1636.45703125 -1633.9422607421875 -1631.288330078125 -1628.4490966796875 -1625.4901123046875 -1622.31640625 -1618.9971923828125 -1615.5474853515625 -1611.9776611328125 -1608.30029296875 -1604.513671875 -1600.6641845703125 -1596.7840576171875 -1592.899658203125 -1589.0360107421875 -1585.2371826171875 -1581.5823974609375 -1577.9688720703125 -1574.575927734375 -1571.3321533203125 -1568.2196044921875 -1565.215087890625 -1562.3055419921875 -1559.4163818359375 -1556.509521484375 -1553.5814208984375 -1550.6082763671875 -1547.5982666015625 -1544.181640625 -1539.693115234375 -1534.3546142578125 -1528.9171142578125 -1524.062255859375 -1520.266357421875 -1517.635498046875 -1516.1787109375 -1515.3084716796875 -1515 -1515.098876953125 -1515.4525146484375 -1515.82568359375 -1516.012451171875 -1515.885498046875 -1515.3929443359375 -1514.4639892578125 -1513.120849609375 -99999 -99999
 -99999 -99999 -99999 -99999 -99999 -99999 -99999 -99999 -99999 -99999 -99999 -1203.1085205078125 -1206.3353271484375 -1209.5655517578125 -1212.799560546875 -1216.034423828125 -1219.2738037109375 -1222.525390625 -1225.8131103515625 -1229.056396484375 -1232.335205078125 -1235.635009765625 -1238.95263671875 -1242.289794921875 -1245.6668701171875 -1249.0672607421875 -1252.5020751953125 -1255.97412109375 -1259.48828125 -1263.063720703125 -1266.6951904296875 -1270.3839111328125 -1274.13330078125 -1277.969970703125 -1281.8927001953125 -1285.8909912109375 -1290.071533203125 -1294.38134765625 -1298.8765869140625 -1303.5638427734375 -1308.4732666015625 -1313.6754150390625 -1319.395751953125 -1325.5052490234375 -1332.2548828125 -1339.6072998046875 -1347.6904296875 -1356.70361328125 -1367.0810546875 -1378.296630859375 -1390.986328125 -1404.78369140625 -1420.0692138671875 -1436.3646240234375 -1453.40234375 -1471.311767578125 -1489.5849609375 -1507.9412841796875 -1526.0816650390625 -1543.79443359375 -1560.5233154296875 -1575.67822265625 -1589.141845703125 -1600.671875 -1610.80517578125 -1619.3922119140625 -1625.3511962890625 -1626.56689453125 -1625.499755859375 -1624.4796142578125 -1626.3797607421875 -1636.2816162109375 -1649.791748046875 -1664.33154296875 -1676.1160888671875 -1685.143798828125 -1690.8402099609375 -1693.783447265625 -1695.009033203125 -1695.4444580078125 -1695.240966796875 -1694.83935546875 -1694.1968994140625 -1693.6314697265625 -1693.269775390625 -1693.1199951171875 -1693.2088623046875 -1693.397705078125 -1693.56884765625 -1693.6009521484375 -1693.3697509765625 -1692.73681640625 -1691.6580810546875 -1690.1689453125 -1688.304931640625 -1686.0999755859375 -1683.5533447265625 -1680.697021484375 -1677.6204833984375 -1674.357666015625 -1670.910888671875 -1667.3475341796875 -1663.7569580078125 -1660.1837158203125 -1656.66162109375 -1653.2841796875 -1650.114990234375 -1647.2281494140625 -1644.6905517578125 -1642.637451171875 -1641.0194091796875 -1639.873046875 -1639.2479248046875 -1639.3218994140625 -1640.245849609375 -1641.920654296875 -1644.28759765625 -1647.2342529296875 -1650.47705078125 -1653.6507568359375 -1656.5394287109375 -1658.761474609375 -1660.4288330078125 -1661.756591796875 -1662.9022216796875 -1663.8580322265625 -1664.590576171875 -1665.05078125 -1665.18115234375 -1665.0377197265625 -1664.6533203125 -1664.0557861328125 -1663.2938232421875 -1662.3236083984375 -1661.2452392578125 -1660.078125 -1658.84326171875 -1657.5595703125 -1656.1986083984375 -1654.798583984375 -1653.35986328125 -1651.8822021484375 -1650.353515625 -1648.7508544921875 -1647.0877685546875 -1645.3421630859375 -1643.52685546875 -1641.5955810546875 -1639.5445556640625 -1637.3809814453125 -1635.0985107421875 -1632.683349609375 -1630.1055908203125 -1627.4256591796875 -1624.539306640625 -1621.50341796875 -1618.3385009765625 -1615.045654296875 -1611.621337890625 -1608.06494140625 -1604.4072265625 -1600.6829833984375 -1596.90234375 -1593.0810546875 -1589.2593994140625 -1585.4771728515625 -1581.7607421875 -1578.1065673828125 -1574.5699462890625 -1571.1507568359375 -1567.8544921875 -1564.6959228515625 -1561.6148681640625 -1558.5731201171875 -1555.536865234375 -1552.5135498046875 -1549.4278564453125 -1546.197509765625 -1542.7491455078125 -1538.9781494140625 -1534.4296875 -1529.087158203125 -1523.4776611328125 -1518.2957763671875 -1514.991455078125 -1512.99658203125 -1511.8155517578125 -1511.2591552734375 -1511.3907470703125 -1512.03955078125 -1512.8726806640625 -1513.6976318359375 -1514.1207275390625 -1514.1060791015625 -1513.5557861328125 -1512.471923828125 -1511.006103515625 -99999 -99999
 -99999 -99999 -99999 -99999 -99999 -99999 -99999 -99999 -99999 -99999 -1200.4027099609375 -1203.6680908203125 -1206.92919921875 -1210.185546875 -1213.447998046875 -1216.7176513671875 -1219.991943359375 -1223.2803955078125 -1226.5943603515625 -1229.8555908203125 -1233.1630859375 -1236.4873046875 -1239.8392333984375 -1243.215576171875 -1246.6181640625 -1250.0484619140625 -1253.5174560546875 -1257.0408935546875 -1260.6129150390625 -1264.2393798828125 -1267.923095703125 -1271.71728515625 -1275.545166015625 -1279.4725341796875 -1283.5496826171875 -1287.772216796875 -1292.1114501953125 -1296.61962890625 -1301.341064453125 -1306.3773193359375 -1311.6328125 -1317.2762451171875 -1323.4085693359375 -1329.998779296875 -1337.08642578125 -1344.86376953125 -1353.5203857421875 -1363.1185302734375 -1373.8133544921875 -1385.427734375 -1398.150146484375 -1412.1591796875 -1427.1839599609375 -1443.0877685546875 -1459.939453125 -1477.192626953125 -1494.8748779296875 -1512.6229248046875 -1530.127685546875 -1547.0267333984375 -1562.9283447265625 -1577.6109619140625 -1590.4725341796875 -1601.9290771484375 -1611.6258544921875 -1619.27783203125 -1624.4017333984375 -1626.599365234375 -1627.0089111328125 -1626.6951904296875 -1628.510009765625 -1639.807861328125 -1655.101806640625 -1670.830078125 -1684.235107421875 -1692.4013671875 -1696.3450927734375 -1697.8807373046875 -1698.075439453125 -1697.5078125 -1696.350341796875 -1695.0714111328125 -1693.8052978515625 -1692.824951171875 -1692.096923828125 -1691.7181396484375 -1691.6905517578125 -1691.9197998046875 -1692.15625 -1692.2347412109375 -1691.970458984375 -1691.2386474609375 -1690.0504150390625 -1688.3916015625 -1686.28515625 -1683.798828125 -1681.0433349609375 -1678.0543212890625 -1674.85986328125 -1671.4532470703125 -1667.900146484375 -1664.26513671875 -1660.6226806640625 -1657.0491943359375 -1653.588134765625 -1650.289794921875 -1647.2685546875 -1644.6170654296875 -1642.327880859375 -1640.4619140625 -1639.061767578125 -1638.241455078125 -1638.050048828125 -1638.45703125 -1639.5107421875 -1641.2977294921875 -1643.7703857421875 -1646.689697265625 -1649.8817138671875 -1653.173095703125 -1656.271240234375 -1658.2490234375 -1659.6221923828125 -1660.8292236328125 -1661.9146728515625 -1662.82080078125 -1663.4522705078125 -1663.7904052734375 -1663.8154296875 -1663.53515625 -1662.990234375 -1662.1595458984375 -1661.16015625 -1660.0255126953125 -1658.8079833984375 -1657.4971923828125 -1656.10009765625 -1654.66552734375 -1653.20263671875 -1651.7259521484375 -1650.2056884765625 -1648.64208984375 -1647.040771484375 -1645.3836669921875 -1643.6788330078125 -1641.881103515625 -1639.9901123046875 -1638.006103515625 -1635.9180908203125 -1633.7137451171875 -1631.3638916015625 -1628.894287109375 -1626.28857421875 -1623.52685546875 -1620.6202392578125 -1617.59228515625 -1614.4195556640625 -1611.113037109375 -1607.685302734375 -1604.164794921875 -1600.5513916015625 -1596.8565673828125 -1593.1173095703125 -1589.3607177734375 -1585.6141357421875 -1581.8724365234375 -1578.19970703125 -1574.56787109375 -1571.0452880859375 -1567.6280517578125 -1564.30810546875 -1561.0640869140625 -1557.8804931640625 -1554.7523193359375 -1551.611083984375 -1548.4051513671875 -1545.1055908203125 -1541.6837158203125 -1538.017822265625 -1533.8922119140625 -1529.24951171875 -1524.0343017578125 -1518.688232421875 -1513.761474609375 -1510.6263427734375 -1508.9063720703125 -1507.8502197265625 -1507.7745361328125 -1508.347412109375 -1509.4345703125 -1510.6905517578125 -1511.9002685546875 -1512.62939453125 -1512.6885986328125 -1512.05419921875 -1510.83251953125 -1509.0478515625 -99999 -99999
 -99999 -99999 -99999 -99999 -99999 -99999 -99999 -99999 -99999 -99999 -99999 -1204.281005859375 -1207.572265625 -1210.8702392578125 -1214.1695556640625 -1217.4647216796875 -1220.7640380859375 -1224.0909423828125 -1227.40185546875 -1230.7183837890625 -1234.06298828125 -1237.423583984375 -1240.801025390625 -1244.2010498046875 -1247.6383056640625 -1251.114013671875 -1254.625244140625 -1258.1849365234375 -1261.7958984375 -1265.4832763671875 -1269.2701416015625 -1273.0836181640625 -1277.043701171875 -1281.117919921875 -1285.3162841796875 -1289.6510009765625 -1294.18017578125 -1298.967041015625 -1303.990234375 -1309.243408203125 -1314.8431396484375 -1320.916259765625 -1327.345458984375 -1334.2991943359375 -1341.9251708984375 -1350.25146484375 -1359.2003173828125 -1369.2371826171875 -1380.1055908203125 -1391.994384765625 -1404.79931640625 -1418.7869873046875 -1433.70361328125 -1449.3828125 -1465.79150390625 -1482.706787109375 -1499.7059326171875 -1516.833984375 -1533.677490234375 -1549.732666015625 -1565.0576171875 -1579.0347900390625 -1591.509033203125 -1602.4439697265625 -1611.646484375 -1619.2138671875 -1624.558837890625 -1628.1129150390625 -1630.1981201171875 -1632.2816162109375 -1637.3839111328125 -1647.8016357421875 -1661.70458984375 -1677.2091064453125 -1690.4693603515625 -1697.755126953125 -1700.740966796875 -1700.9654541015625 -1699.5772705078125 -1698.046630859375 -1696.3343505859375 -1694.569091796875 -1692.8353271484375 -1691.32763671875 -1690.2431640625 -1689.7789306640625 -1689.7711181640625 -1690.1192626953125 -1690.5963134765625 -1690.8756103515625 -1690.642333984375 -1689.8895263671875 -1688.4993896484375 -1686.5328369140625 -1684.1572265625 -1681.4832763671875 -1678.5538330078125 -1675.3521728515625 -1671.997802734375 -1668.4779052734375 -1664.8092041015625 -1661.0888671875 -1657.4031982421875 -1653.8173828125 -1650.40185546875 -1647.2095947265625 -1644.3607177734375 -1641.828857421875 -1639.7120361328125 -1638.123291015625 -1637.066650390625 -1636.52490234375 -1636.56005859375 -1637.1815185546875 -1638.5263671875 -1640.442626953125 -1642.856689453125 -1645.749755859375 -1648.8631591796875 -1652.0247802734375 -1654.835693359375 -1656.9637451171875 -1658.316650390625 -1659.5504150390625 -1660.6573486328125 -1661.591552734375 -1662.232421875 -1662.5185546875 -1662.4381103515625 -1661.9410400390625 -1661.155517578125 -1660.156494140625 -1658.9974365234375 -1657.6837158203125 -1656.2503662109375 -1654.7593994140625 -1653.25 -1651.7159423828125 -1650.1446533203125 -1648.5592041015625 -1646.9609375 -1645.34130859375 -1643.6973876953125 -1641.9898681640625 -1640.2198486328125 -1638.3800048828125 -1636.453125 -1634.43310546875 -1632.2833251953125 -1630.0191650390625 -1627.6546630859375 -1625.135498046875 -1622.4644775390625 -1619.67236328125 -1616.7518310546875 -1613.6898193359375 -1610.499755859375 -1607.198486328125 -1603.778076171875 -1600.2691650390625 -1596.6739501953125 -1593.0233154296875 -1589.33203125 -1585.616943359375 -1581.908203125 -1578.2213134765625 -1574.548828125 -1570.96142578125 -1567.4483642578125 -1564.0018310546875 -1560.64306640625 -1557.3492431640625 -1554.096923828125 -1550.8466796875 -1547.5772705078125 -1544.266845703125 -1540.8582763671875 -1537.3287353515625 -1533.388671875 -1529.19091796875 -1524.6329345703125 -1519.927490234375 -1514.9627685546875 -1510.57568359375 -1507.7822265625 -1505.763916015625 -1504.6806640625 -1504.8175048828125 -1505.6436767578125 -1507.1060791015625 -1509.121826171875 -1510.8878173828125 -1511.7349853515625 -1511.7982177734375 -1510.8619384765625 -1509.2012939453125 -1507.0526123046875 -1504.62548828125 -99999
 -99999 -99999 -99999 -99999 -99999 -99999 -99999 -99999 -99999 -99999 -99999 -1204.95458984375 -1208.2825927734375 -1211.6082763671875 -1214.934814453125 -1218.2716064453125 -1221.6124267578125 -1224.9727783203125 -1228.3092041015625 -1231.660888671875 -1235.0301513671875 -1238.41552734375 -1241.8270263671875 -1245.2733154296875 -1248.7376708984375 -1252.2406005859375 -1255.7857666015625 -1259.3948974609375 -1263.06884765625 -1266.817138671875 -1270.658447265625 -1274.5712890625 -1278.6112060546875 -1282.7730712890625 -1287.1025390625 -1291.6383056640625 -1296.399169921875 -1301.336181640625 -1306.5435791015625 -1312.076171875 -1318.0599365234375 -1324.3560791015625 -1331.283203125 -1338.6180419921875 -1346.6007080078125 -1355.1845703125 -1364.6339111328125 -1374.9354248046875 -1386.07763671875 -1398.040771484375 -1411.09130859375 -1424.9500732421875 -1439.6090087890625 -1455.09619140625 -1471.0777587890625 -1487.4129638671875 -1503.9949951171875 -1520.373779296875 -1536.5216064453125 -1551.913818359375 -1566.500244140625 -1580.0771484375 -1592.12939453125 -1602.8148193359375 -1611.88330078125 -1619.4365234375 -1625.3094482421875 -1629.8402099609375 -1633.854248046875 -1638.7261962890625 -1645.28076171875 -1655.154296875 -1667.4473876953125 -1680.394287109375 -1692.5491943359375 -1699.321044921875 -1701.9874267578125 -1701.2733154296875 -1699.49755859375 -1697.616455078125 -1695.514404296875 -1693.1759033203125 -1690.9552001953125 -1689.1619873046875 -1687.8543701171875 -1687.2408447265625 -1687.44873046875 -1688.169921875 -1688.9334716796875 -1689.48095703125 -1689.4598388671875 -1688.6002197265625 -1686.9368896484375 -1684.7210693359375 -1682.0806884765625 -1679.0595703125 -1675.8651123046875 -1672.5396728515625 -1669.0244140625 -1665.3485107421875 -1661.5931396484375 -1657.7965087890625 -1654.0386962890625 -1650.42626953125 -1647.0445556640625 -1643.9385986328125 -1641.1534423828125 -1638.836669921875 -1636.986328125 -1635.631103515625 -1634.7808837890625 -1634.452392578125 -1634.8128662109375 -1635.7147216796875 -1637.187255859375 -1639.1744384765625 -1641.6173095703125 -1644.4161376953125 -1647.370361328125 -1650.326171875 -1652.9945068359375 -1655.069580078125 -1656.6900634765625 -1658.0040283203125 -1659.1885986328125 -1660.1962890625 -1660.917724609375 -1661.176513671875 -1660.9176025390625 -1660.25732421875 -1659.2998046875 -1658.0716552734375 -1656.66015625 -1655.1556396484375 -1653.5904541015625 -1651.9737548828125 -1650.3004150390625 -1648.635986328125 -1646.976318359375 -1645.3206787109375 -1643.6697998046875 -1641.9920654296875 -1640.289794921875 -1638.5479736328125 -1636.7486572265625 -1634.879150390625 -1632.904541015625 -1630.8338623046875 -1628.6617431640625 -1626.3607177734375 -1623.9324951171875 -1621.3563232421875 -1618.6728515625 -1615.84375 -1612.88525390625 -1609.800537109375 -1606.5989990234375 -1603.287109375 -1599.87109375 -1596.3734130859375 -1592.797119140625 -1589.1671142578125 -1585.500732421875 -1581.845947265625 -1578.1357421875 -1574.4752197265625 -1570.8524169921875 -1567.2763671875 -1563.760986328125 -1560.3089599609375 -1556.9071044921875 -1553.5482177734375 -1550.2298583984375 -1546.917724609375 -1543.58251953125 -1540.1588134765625 -1536.6710205078125 -1532.96923828125 -1529.0867919921875 -1524.996337890625 -1520.6812744140625 -1516.2315673828125 -1511.998046875 -1508.396484375 -1505.563720703125 -1503.5831298828125 -1502.5662841796875 -1502.71533203125 -1503.40673828125 -1505.4041748046875 -1507.99658203125 -1510.4337158203125 -1511.4583740234375 -1511.1461181640625 -1509.7862548828125 -1507.7320556640625 -1505.145751953125 -1502.17822265625 -99999
 -99999 -99999 -99999 -99999 -99999 -99999 -99999 -99999 -99999 -99999 -99999 -99999 -1209.0360107421875 -1212.4072265625 -1215.774169921875 -1219.1395263671875 -1222.5225830078125 -1225.9185791015625 -1229.266845703125 -1232.6549072265625 -1236.061767578125 -1239.48583984375 -1242.9302978515625 -1246.3961181640625 -1249.8902587890625 -1253.4361572265625 -1257.029052734375 -1260.6768798828125 -1264.3883056640625 -1268.1832275390625 -1272.0885009765625 -1276.0704345703125 -1280.202392578125 -1284.4990234375 -1288.965576171875 -1293.6278076171875 -1298.4908447265625 -1303.677001953125 -1309.1729736328125 -1314.939208984375 -1321.18505859375 -1327.8924560546875 -1334.9898681640625 -1342.6417236328125 -1350.9703369140625 -1359.89990234375 -1369.658935546875 -1380.22607421875 -1391.619140625 -1403.6400146484375 -1416.7491455078125 -1430.5743408203125 -1445.0128173828125 -1460.2017822265625 -1475.8062744140625 -1491.694091796875 -1507.667236328125 -1523.5753173828125 -1539.0601806640625 -1553.8868408203125 -1567.9224853515625 -1581.08154296875 -1592.7149658203125 -1603.31884765625 -1612.4049072265625 -1620.1666259765625 -1626.841552734375 -1632.562744140625 -1637.958740234375 -1643.9287109375 -1651.414306640625 -1660.5556640625 -1671.2696533203125 -1682.155517578125 -1691.4208984375 -1697.5262451171875 -1700.2347412109375 -1700.0618896484375 -1698.4715576171875 -1696.3590087890625 -1693.910888671875 -1691.2821044921875 -1688.73681640625 -1686.4801025390625 -1684.82470703125 -1684.31982421875 -1684.724609375 -1685.8406982421875 -1687.3582763671875 -1688.38427734375 -1688.409423828125 -1687.4874267578125 -1685.6142578125 -1682.7994384765625 -1679.695556640625 -1676.4654541015625 -1673.10400390625 -1669.578857421875 -1665.9088134765625 -1662.1226806640625 -1658.206298828125 -1654.288818359375 -1650.48681640625 -1646.856201171875 -1643.4404296875 -1640.410888671875 -1637.8021240234375 -1635.6480712890625 -1633.955810546875 -1632.7684326171875 -1632.229736328125 -1632.2381591796875 -1632.7867431640625 -1633.854736328125 -1635.4498291015625 -1637.55126953125 -1640.0294189453125 -1642.7647705078125 -1645.625244140625 -1648.4342041015625 -1650.9964599609375 -1653.1424560546875 -1654.8856201171875 -1656.338134765625 -1657.61865234375 -1658.7388916015625 -1659.5125732421875 -1659.74951171875 -1659.4111328125 -1658.4686279296875 -1657.206298828125 -1655.779541015625 -1654.21875 -1652.5577392578125 -1650.7777099609375 -1649.0111083984375 -1647.236328125 -1645.4710693359375 -1643.7310791015625 -1641.9993896484375 -1640.2919921875 -1638.584716796875 -1636.85693359375 -1635.092041015625 -1633.2603759765625 -1631.3507080078125 -1629.349365234375 -1627.258544921875 -1625.04541015625 -1622.6861572265625 -1620.2259521484375 -1617.619873046875 -1614.8814697265625 -1612.0155029296875 -1609.0286865234375 -1605.9254150390625 -1602.7060546875 -1599.3729248046875 -1595.95361328125 -1592.4581298828125 -1588.898193359375 -1585.2889404296875 -1581.6746826171875 -1577.9892578125 -1574.3299560546875 -1570.690673828125 -1567.081298828125 -1563.51123046875 -1559.9932861328125 -1556.521728515625 -1553.0986328125 -1549.7113037109375 -1546.3450927734375 -1542.96923828125 -1539.5975341796875 -1536.14453125 -1532.583740234375 -1528.8995361328125 -1525.08984375 -1521.142578125 -1517.209228515625 -1513.2547607421875 -1509.5789794921875 -1506.380126953125 -1503.8265380859375 -1502.197509765625 -1501.3912353515625 -1501.3861083984375 -1501.974853515625 -1503.6077880859375 -1508.2838134765625 -1510.8275146484375 -1511.558837890625 -1510.85400390625 -1508.923095703125 -1505.985595703125 -1502.7952880859375 -1499.5035400390625 -99999
 -99999 -99999 -99999 -99999 -99999 -99999 -99999 -99999 -99999 -99999 -99999 -99999 -99999 -1213.2552490234375 -1216.65673828125 -1220.062255859375 -1223.491943359375 -1226.878173828125 -1230.298583984375 -1233.72265625 -1237.158935546875 -1240.6104736328125 -1244.08203125 -1247.588623046875 -1251.123779296875 -1254.69677734375 -1258.317626953125 -1261.9969482421875 -1265.7620849609375 -1269.621826171875 -1273.5526123046875 -1277.629638671875 -1281.8465576171875 -1286.2232666015625 -1290.7755126953125 -1295.5789794921875 -1300.656005859375 -1306.006103515625 -1311.632568359375 -1317.6861572265625 -1324.1766357421875 -1331.0455322265625 -1338.4852294921875 -1346.5474853515625 -1355.1441650390625 -1364.386474609375 -1374.4554443359375 -1385.1663818359375 -1396.572265625 -1408.883544921875 -1421.9400634765625 -1435.5919189453125 -1449.9935302734375 -1464.84814453125 -1480.03369140625 -1495.5263671875 -1511.013916015625 -1526.296630859375 -1541.34033203125 -1555.6484375 -1569.1578369140625 -1581.9298095703125 -1593.429443359375 -1603.7470703125 -1612.891845703125 -1621.1187744140625 -1628.317626953125 -1634.839111328125 -1641.2060546875 -1648.07666015625 -1655.721435546875 -1664.3990478515625 -1673.369384765625 -1682.186279296875 -1689.8515625 -1695.210205078125 -1697.978515625 -1698.101318359375 -1696.810302734375 -1694.76318359375 -1692.1556396484375 -1689.1607666015625 -1686.322021484375 -1683.7418212890625 -1681.736083984375 -1680.716552734375 -1681.790771484375 -1683.71044921875 -1685.77294921875 -1687.39990234375 -1687.966796875 -1686.641357421875 -1684.0185546875 -1680.74169921875 -1677.16455078125 -1673.6219482421875 -1670.1368408203125 -1666.4876708984375 -1662.644775390625 -1658.6746826171875 -1654.642333984375 -1650.6202392578125 -1646.7039794921875 -1642.984130859375 -1639.6436767578125 -1636.6761474609375 -1634.1279296875 -1632.072998046875 -1630.6414794921875 -1629.76611328125 -1629.4183349609375 -1629.597900390625 -1630.348876953125 -1631.6802978515625 -1633.4654541015625 -1635.6300048828125 -1638.10791015625 -1640.8187255859375 -1643.616943359375 -1646.3316650390625 -1648.87255859375 -1651.1224365234375 -1653.0496826171875 -1654.630615234375 -1655.980712890625 -1657.1685791015625 -1658.141845703125 -1658.4410400390625 -1657.6341552734375 -1656.4244384765625 -1654.96337890625 -1653.35498046875 -1651.5872802734375 -1649.7489013671875 -1647.870849609375 -1645.9637451171875 -1644.0606689453125 -1642.1873779296875 -1640.3812255859375 -1638.6121826171875 -1636.8701171875 -1635.1396484375 -1633.39404296875 -1631.606689453125 -1629.7603759765625 -1627.843505859375 -1625.82958984375 -1623.680419921875 -1621.43505859375 -1619.0465087890625 -1616.5238037109375 -1613.878662109375 -1611.1121826171875 -1608.221923828125 -1605.1888427734375 -1602.0416259765625 -1598.79443359375 -1595.4571533203125 -1592.0321044921875 -1588.5281982421875 -1584.9774169921875 -1581.3851318359375 -1577.7513427734375 -1574.097412109375 -1570.4580078125 -1566.8310546875 -1563.235595703125 -1559.676513671875 -1556.156982421875 -1552.67236328125 -1549.228271484375 -1545.8157958984375 -1542.4229736328125 -1539.04345703125 -1535.629638671875 -1532.1553955078125 -1528.629150390625 -1525.0355224609375 -1521.3975830078125 -1517.7110595703125 -1514.0284423828125 -1510.5064697265625 -1507.2613525390625 -1504.6248779296875 -1502.5908203125 -1501.253662109375 -1500.6456298828125 -1500.7576904296875 -1501.83642578125 -1504.871337890625 -1509.0999755859375 -1512.119384765625 -1511.9693603515625 -1510.37744140625 -1507.4970703125 -1503.96533203125 -1500.16796875 -1496.3817138671875 -99999
 -99999 -99999 -99999 -99999 -99999 -99999 -99999 -99999 -99999 -99999 -99999 -99999 -99999 -99999 -1217.60009765625 -1221.042236328125 -1224.50830078125 -1227.9471435546875 -1231.384521484375 -1234.8428955078125 -1238.312255859375 -1241.800048828125 -1245.30712890625 -1248.839111328125 -1252.399658203125 -1256.001708984375 -1259.6634521484375 -1263.3861083984375 -1267.201904296875 -1271.09228515625 -1275.0673828125 -1279.1854248046875 -1283.44189453125 -1287.946533203125 -1292.6097412109375 -1297.5235595703125 -1302.6915283203125 -1308.1612548828125 -1314.05517578125 -1320.254638671875 -1326.943603515625 -1334.1226806640625 -1341.846923828125 -1350.0504150390625 -1358.8646240234375 -1368.5018310546875 -1378.5799560546875 -1389.5113525390625 -1401.1732177734375 -1413.453125 -1426.5311279296875 -1440.163330078125 -1454.2958984375 -1468.96240234375 -1483.8914794921875 -1498.9375 -1513.971923828125 -1528.853271484375 -1543.3326416015625 -1557.1790771484375 -1570.392578125 -1582.777099609375 -1594.0382080078125 -1604.5142822265625 -1613.84814453125 -1622.207275390625 -1629.88623046875 -1637.0125732421875 -1644.01220703125 -1651.157958984375 -1658.6229248046875 -1666.4293212890625 -1674.390869140625 -1682.0079345703125 -1688.214599609375 -1692.586669921875 -1694.906982421875 -1695.6605224609375 -1694.861328125 -1692.838134765625 -1690.2080078125 -1687.297119140625 -1684.2813720703125 -1681.32763671875 -1678.774658203125 -1678.1202392578125 -1679.1453857421875 -1681.444091796875 -1684.599365234375 -1687.0159912109375 -1687.4378662109375 -1685.88671875 -1682.6395263671875 -1678.250244140625 -1674.082763671875 -1670.369384765625 -1666.9454345703125 -1663.19970703125 -1659.23388671875 -1655.105224609375 -1650.855712890625 -1646.6846923828125 -1642.6767578125 -1638.921630859375 -1635.501953125 -1632.529296875 -1630.1756591796875 -1628.362060546875 -1627.0711669921875 -1626.3372802734375 -1626.191162109375 -1626.71435546875 -1627.7554931640625 -1629.188720703125 -1631.0701904296875 -1633.362548828125 -1635.93505859375 -1638.648681640625 -1641.4156494140625 -1644.142822265625 -1646.658447265625 -1648.9638671875 -1650.9534912109375 -1652.7156982421875 -1654.22412109375 -1655.508056640625 -1656.588134765625 -1656.646240234375 -1655.6351318359375 -1654.07421875 -1652.4130859375 -1650.6483154296875 -1648.800537109375 -1646.8394775390625 -1644.8175048828125 -1642.7745361328125 -1640.773681640625 -1638.8306884765625 -1636.955078125 -1635.14990234375 -1633.4013671875 -1631.6641845703125 -1629.916015625 -1628.1363525390625 -1626.2989501953125 -1624.339599609375 -1622.3050537109375 -1620.1270751953125 -1617.82861328125 -1615.407470703125 -1612.862060546875 -1610.183349609375 -1607.3487548828125 -1604.3985595703125 -1601.3287353515625 -1598.1689453125 -1594.8939208984375 -1591.5174560546875 -1588.0706787109375 -1584.5758056640625 -1581.0189208984375 -1577.4044189453125 -1573.782470703125 -1570.150146484375 -1566.5220947265625 -1562.910888671875 -1559.3197021484375 -1555.7628173828125 -1552.2349853515625 -1548.7557373046875 -1545.3089599609375 -1541.888427734375 -1538.4910888671875 -1535.1419677734375 -1531.68896484375 -1528.269775390625 -1524.8226318359375 -1521.349609375 -1517.8787841796875 -1514.4295654296875 -1511.0919189453125 -1508.011962890625 -1505.2764892578125 -1502.9945068359375 -1501.2601318359375 -1500.2314453125 -1500.0791015625 -1500.709716796875 -1502.322265625 -1505.1549072265625 -1509.0870361328125 -1510.9100341796875 -1511.156982421875 -1509.504150390625 -1505.673583984375 -1501.0572509765625 -1496.8021240234375 -1492.8072509765625 -99999
 -99999 -99999 -99999 -99999 -99999 -99999 -99999 -99999 -99999 -99999 -99999 -99999 -99999 -99999 -99999 -1222.078369140625 -1225.6160888671875 -1229.0438232421875 -1232.529052734375 -1236.0250244140625 -1239.53076171875 -1243.0513916015625 -1246.5865478515625 -1250.14306640625 -1253.73828125 -1257.3724365234375 -1261.0537109375 -1264.79150390625 -1268.6400146484375 -1272.537353515625 -1276.55712890625 -1280.740478515625 -1285.080810546875 -1289.5989990234375 -1294.3482666015625 -1299.3232421875 -1304.6483154296875 -1310.254150390625 -1316.2286376953125 -1322.6883544921875 -1329.5631103515625 -1336.8662109375 -1344.7091064453125 -1353.21142578125 -1362.2681884765625 -1372.0162353515625 -1382.4659423828125 -1393.5087890625 -1405.1524658203125 -1417.650634765625 -1430.623291015625 -1444.108154296875 -1458.1767578125 -1472.567138671875 -1487.20361328125 -1501.9337158203125 -1516.6556396484375 -1531.1383056640625 -1545.1688232421875 -1558.829345703125 -1571.578369140625 -1583.8001708984375 -1594.93994140625 -1605.1805419921875 -1614.5367431640625 -1623.3138427734375 -1631.2120361328125 -1638.75634765625 -1646.0322265625 -1653.2139892578125 -1660.447998046875 -1667.7071533203125 -1674.71630859375 -1680.98681640625 -1686.2701416015625 -1690.25244140625 -1692.559326171875 -1692.920654296875 -1692.2789306640625 -1690.6239013671875 -1688.291748046875 -1685.4794921875 -1682.5775146484375 -1679.8419189453125 -1677.6678466796875 -1676.5272216796875 -1677.4884033203125 -1679.8841552734375 -1683.39990234375 -1686.7998046875 -1688.00537109375 -1685.1890869140625 -1680.6331787109375 -1675.4697265625 -1670.3212890625 -1666.7861328125 -1663.5279541015625 -1659.849609375 -1655.7232666015625 -1651.3267822265625 -1646.90283203125 -1642.5234375 -1638.309326171875 -1634.46435546875 -1631.093017578125 -1628.19482421875 -1625.8509521484375 -1624.1668701171875 -1623.10986328125 -1622.5982666015625 -1622.693115234375 -1623.458984375 -1624.69580078125 -1626.3433837890625 -1628.4769287109375 -1630.8695068359375 -1633.4864501953125 -1636.247802734375 -1639.047119140625 -1641.76025390625 -1644.323974609375 -1646.6865234375 -1648.7708740234375 -1650.5340576171875 -1652.0399169921875 -1653.2568359375 -1654.08349609375 -1654.0762939453125 -1652.765625 -1651.222900390625 -1649.57080078125 -1647.8148193359375 -1645.900390625 -1643.8184814453125 -1641.6602783203125 -1639.4913330078125 -1637.3692626953125 -1635.364501953125 -1633.4686279296875 -1631.6572265625 -1629.9058837890625 -1628.1854248046875 -1626.4609375 -1624.6693115234375 -1622.8289794921875 -1620.8682861328125 -1618.7962646484375 -1616.60546875 -1614.2899169921875 -1611.8248291015625 -1609.2064208984375 -1606.4556884765625 -1603.59814453125 -1600.603759765625 -1597.493408203125 -1594.2664794921875 -1590.951416015625 -1587.5592041015625 -1584.097900390625 -1580.5911865234375 -1576.9901123046875 -1573.3865966796875 -1569.76220703125 -1566.134521484375 -1562.5123291015625 -1558.9034423828125 -1555.3175048828125 -1551.76806640625 -1548.2528076171875 -1544.7720947265625 -1541.3287353515625 -1537.93994140625 -1534.5550537109375 -1531.156005859375 -1527.7969970703125 -1524.4451904296875 -1521.1033935546875 -1517.7789306640625 -1514.480224609375 -1511.3232421875 -1508.32763671875 -1505.5732421875 -1503.1356201171875 -1501.2066650390625 -1499.9127197265625 -1499.2337646484375 -1499.216552734375 -1499.900390625 -1501.60009765625 -1504.016845703125 -1506.3994140625 -1508.2401123046875 -1509.08740234375 -1506.74755859375 -1502.1400146484375 -1497.1265869140625 -1492.64501953125 -1488.7464599609375 -99999
 -99999 -99999 -99999 -99999 -99999 -99999 -99999 -99999 -99999 -99999 -99999 -99999 -99999 -99999 -99999 -99999 -1226.6922607421875 -1230.20556640625 -1233.7333984375 -1237.265625 -1240.801513671875 -1244.354248046875 -1247.9212646484375 -1251.5091552734375 -1255.124267578125 -1258.7742919921875 -1262.4810791015625 -1266.251220703125 -1270.10302734375 -1274.0338134765625 -1278.0858154296875 -1282.2724609375 -1286.62255859375 -1291.1895751953125 -1296.0064697265625 -1301.076904296875 -1306.4326171875 -1312.1171875 -1318.2576904296875 -1324.7706298828125 -1331.80859375 -1339.33544921875 -1347.4197998046875 -1356.02783203125 -1365.3170166015625 -1375.2081298828125 -1385.7220458984375 -1396.8492431640625 -1408.688232421875 -1421.1455078125 -1434.1632080078125 -1447.6697998046875 -1461.5828857421875 -1475.806396484375 -1490.225830078125 -1504.689453125 -1519.040283203125 -1533.20947265625 -1546.951904296875 -1560.1661376953125 -1572.8182373046875 -1584.7215576171875 -1595.7484130859375 -1606.10888671875 -1615.6016845703125 -1624.381103515625 -1632.4761962890625 -1640.115478515625 -1647.4305419921875 -1654.50390625 -1661.4151611328125 -1668.1510009765625 -1674.3306884765625 -1679.958740234375 -1684.60400390625 -1687.7796630859375 -1689.7010498046875 -1690.401123046875 -1689.9129638671875 -1688.3538818359375 -1686.189697265625 -1683.70361328125 -1681.106201171875 -1678.6236572265625 -1676.7943115234375 -1676.150634765625 -1676.6912841796875 -1678.46728515625 -1681.8154296875 -1685.9993896484375 -1685.778564453125 -1682.6236572265625 -1677.9376220703125 -1672.5867919921875 -1667.1893310546875 -1663.6580810546875 -1660.4949951171875 -1656.44775390625 -1652.0081787109375 -1647.3631591796875 -1642.6644287109375 -1638.069091796875 -1633.724365234375 -1629.7596435546875 -1626.2598876953125 -1623.453369140625 -1621.236083984375 -1619.654052734375 -1618.769775390625 -1618.5960693359375 -1618.9910888671875 -1619.920166015625 -1621.34619140625 -1623.2586669921875 -1625.512939453125 -1628.0860595703125 -1630.8470458984375 -1633.681640625 -1636.5172119140625 -1639.2850341796875 -1641.873779296875 -1644.22021484375 -1646.306396484375 -1648.1053466796875 -1649.57958984375 -1650.6383056640625 -1651.07275390625 -1650.7730712890625 -1649.775634765625 -1648.24609375 -1646.5980224609375 -1644.8634033203125 -1642.9320068359375 -1640.7440185546875 -1638.4327392578125 -1636.1207275390625 -1633.9122314453125 -1631.8455810546875 -1629.9195556640625 -1628.1248779296875 -1626.401611328125 -1624.720947265625 -1623.028076171875 -1621.2647705078125 -1619.4129638671875 -1617.456787109375 -1615.3756103515625 -1613.1435546875 -1610.7593994140625 -1608.235595703125 -1605.5850830078125 -1602.7930908203125 -1599.8555908203125 -1596.7911376953125 -1593.6226806640625 -1590.3587646484375 -1587.0089111328125 -1583.5845947265625 -1580.090087890625 -1576.5140380859375 -1572.916259765625 -1569.3001708984375 -1565.6708984375 -1562.0399169921875 -1558.417236328125 -1554.8135986328125 -1551.2354736328125 -1547.688720703125 -1544.178955078125 -1540.71435546875 -1537.343505859375 -1533.8914794921875 -1530.5362548828125 -1527.2122802734375 -1523.918212890625 -1520.6500244140625 -1517.41552734375 -1514.255126953125 -1511.2003173828125 -1508.255126953125 -1505.4833984375 -1503.0283203125 -1500.97216796875 -1499.33935546875 -1498.185791015625 -1497.6229248046875 -1497.7884521484375 -1498.560791015625 -1499.8321533203125 -1501.4490966796875 -1503.2154541015625 -1504.05908203125 -1503.576171875 -1501.2994384765625 -1497.03271484375 -1492.10302734375 -1487.9339599609375 -1484.234619140625 -99999
 -99999 -99999 -99999 -99999 -99999 -99999 -99999 -99999 -99999 -99999 -99999 -99999 -99999 -99999 -99999 -99999 -99999 -1231.42236328125 -1234.98095703125 -1238.549560546875 -1242.126708984375 -1245.7125244140625 -1249.3116455078125 -1252.9140625 -1256.555908203125 -1260.2313232421875 -1263.94775390625 -1267.7359619140625 -1271.6007080078125 -1275.51123046875 -1279.5706787109375 -1283.7764892578125 -1288.1722412109375 -1292.735107421875 -1297.541259765625 -1302.6390380859375 -1308.0782470703125 -1313.8729248046875 -1320.027587890625 -1326.6905517578125 -1333.8074951171875 -1341.4593505859375 -1349.6141357421875 -1358.4317626953125 -1367.85107421875 -1377.8695068359375 -1388.565673828125 -1399.8687744140625 -1411.7545166015625 -1424.2772216796875 -1437.267822265625 -1450.6641845703125 -1464.5400390625 -1478.598388671875 -1492.8251953125 -1507.08935546875 -1521.21435546875 -1535.1568603515625 -1548.611572265625 -1561.6552734375 -1574.0272216796875 -1585.8057861328125 -1596.72412109375 -1606.93017578125 -1616.4053955078125 -1625.2738037109375 -1633.4281005859375 -1641.12890625 -1648.4219970703125 -1655.3536376953125 -1661.9117431640625 -1668.079345703125 -1673.761474609375 -1678.5782470703125 -1682.53369140625 -1685.513427734375 -1687.25732421875 -1687.77001953125 -1687.274658203125 -1686.024169921875 -1684.1617431640625 -1681.8587646484375 -1679.52001953125 -1677.43212890625 -1675.8087158203125 -1674.92919921875 -1675.216552734375 -1676.51513671875 -1678.3060302734375 -1679.7137451171875 -1679.5814208984375 -1676.544189453125 -1671.705810546875 -1668.85791015625 -1665.4219970703125 -1661.861328125 -1657.585693359375 -1652.99658203125 -1648.19091796875 -1643.1695556640625 -1638.176513671875 -1633.320068359375 -1628.7391357421875 -1624.61865234375 -1621.1458740234375 -1618.3516845703125 -1616.2772216796875 -1614.9735107421875 -1614.3170166015625 -1614.2911376953125 -1614.8917236328125 -1616.11572265625 -1617.869873046875 -1620.01513671875 -1622.4761962890625 -1625.19384765625 -1628.0633544921875 -1630.976806640625 -1633.8719482421875 -1636.656982421875 -1639.2701416015625 -1641.665771484375 -1643.7528076171875 -1645.4947509765625 -1646.8466796875 -1647.7376708984375 -1648.133544921875 -1647.8013916015625 -1646.82470703125 -1645.3895263671875 -1643.7423095703125 -1642.091064453125 -1640.147216796875 -1637.68603515625 -1635.146484375 -1632.6690673828125 -1630.3658447265625 -1628.264892578125 -1626.3291015625 -1624.62890625 -1622.974853515625 -1621.34423828125 -1619.677490234375 -1617.939453125 -1616.09130859375 -1614.11083984375 -1611.9820556640625 -1609.7095947265625 -1607.28857421875 -1604.708251953125 -1601.983154296875 -1599.096923828125 -1596.0970458984375 -1592.97998046875 -1589.759033203125 -1586.416259765625 -1583.028564453125 -1579.52734375 -1575.9765625 -1572.3914794921875 -1568.77734375 -1565.1461181640625 -1561.50390625 -1557.8629150390625 -1554.235107421875 -1550.6326904296875 -1547.05908203125 -1543.5269775390625 -1540.0501708984375 -1536.6024169921875 -1533.1912841796875 -1529.8201904296875 -1526.505859375 -1523.2269287109375 -1520.00146484375 -1516.848388671875 -1513.7509765625 -1510.7525634765625 -1507.8204345703125 -1505.1077880859375 -1502.631591796875 -1500.4207763671875 -1498.5335693359375 -1497.0625 -1496.1484375 -1495.71435546875 -1495.741943359375 -1496.2708740234375 -1497.263427734375 -1498.2774658203125 -1498.9957275390625 -1499.1173095703125 -1498.2109375 -1495.6260986328125 -1491.8436279296875 -1487.1839599609375 -1483.31640625 -1479.784423828125 -99999
 -99999 -99999 -99999 -99999 -99999 -99999 -99999 -99999 -99999 -99999 -99999 -99999 -99999 -99999 -99999 -99999 -99999 -99999 -1236.28369140625 -1239.8935546875 -1243.499267578125 -1247.112060546875 -1250.7364501953125 -1254.375732421875 -1258.032470703125 -1261.7178955078125 -1265.4434814453125 -1269.27392578125 -1273.0721435546875 -1277.0101318359375 -1281.059326171875 -1285.23779296875 -1289.6204833984375 -1294.1844482421875 -1299.0040283203125 -1304.1112060546875 -1309.5240478515625 -1315.3663330078125 -1321.5875244140625 -1328.3001708984375 -1335.4659423828125 -1343.217041015625 -1351.5390625 -1360.396484375 -1370.02392578125 -1380.1572265625 -1390.9400634765625 -1402.2696533203125 -1414.3499755859375 -1426.88330078125 -1439.8919677734375 -1453.3524169921875 -1467.1431884765625 -1481.140869140625 -1495.251708984375 -1509.360107421875 -1523.284423828125 -1537.0069580078125 -1550.2532958984375 -1563.0439453125 -1575.2908935546875 -1586.8553466796875 -1597.677001953125 -1607.850830078125 -1617.3072509765625 -1626.1243896484375 -1634.241943359375 -1641.921142578125 -1649.049560546875 -1655.677978515625 -1661.9052734375 -1667.6619873046875 -1672.7528076171875 -1677.1402587890625 -1680.7225341796875 -1683.208984375 -1684.6763916015625 -1685.239990234375 -1684.823486328125 -1683.666015625 -1681.9461669921875 -1679.934814453125 -1677.8077392578125 -1675.8116455078125 -1674.23095703125 -1673.277099609375 -1672.8878173828125 -1672.997802734375 -1673.504638671875 -1673.3612060546875 -1671.4842529296875 -1667.7486572265625 -1663.8216552734375 -1662.7470703125 -1662.2205810546875 -1658.84033203125 -1654.19091796875 -1649.0830078125 -1643.8267822265625 -1638.56396484375 -1633.396484375 -1628.357421875 -1623.5906982421875 -1619.3336181640625 -1615.7645263671875 -1613.0697021484375 -1611.16552734375 -1610.018798828125 -1609.5394287109375 -1609.8026123046875 -1610.71875 -1612.1968994140625 -1614.16650390625 -1616.519775390625 -1619.2490234375 -1622.16748046875 -1625.1663818359375 -1628.1871337890625 -1631.1473388671875 -1633.9732666015625 -1636.6070556640625 -1638.98291015625 -1641.0472412109375 -1642.7757568359375 -1644.073486328125 -1644.9171142578125 -1645.1700439453125 -1644.8609619140625 -1644.0391845703125 -1642.6922607421875 -1641.0966796875 -1639.4107666015625 -1637.2236328125 -1634.5389404296875 -1631.82763671875 -1629.212158203125 -1626.808837890625 -1624.7110595703125 -1622.8807373046875 -1621.233154296875 -1619.65380859375 -1618.0657958984375 -1616.4334716796875 -1614.7049560546875 -1612.845703125 -1610.8436279296875 -1608.6766357421875 -1606.3631591796875 -1603.8515625 -1601.1881103515625 -1598.3779296875 -1595.4326171875 -1592.359130859375 -1589.1405029296875 -1585.8260498046875 -1582.44873046875 -1578.969970703125 -1575.4134521484375 -1571.8316650390625 -1568.214111328125 -1564.563720703125 -1560.9036865234375 -1557.242431640625 -1553.593017578125 -1549.9610595703125 -1546.36083984375 -1542.7965087890625 -1539.2984619140625 -1535.8040771484375 -1532.3887939453125 -1528.99462890625 -1525.6666259765625 -1522.40234375 -1519.2056884765625 -1516.0672607421875 -1512.9970703125 -1509.9951171875 -1507.1444091796875 -1504.44189453125 -1501.908203125 -1499.5843505859375 -1497.5302734375 -1495.878173828125 -1494.6158447265625 -1493.7056884765625 -1493.2144775390625 -1493.2596435546875 -1493.620849609375 -1493.94384765625 -1494.40966796875 -1494.634033203125 -1494.266357421875 -1492.925537109375 -1490.16943359375 -1486.6307373046875 -1482.7740478515625 -1478.9371337890625 -1475.4344482421875 -99999
 -99999 -99999 -99999 -99999 -99999 -99999 -99999 -99999 -99999 -99999 -99999 -99999 -99999 -99999 -99999 -99999 -99999 -99999 -99999 -1241.2647705078125 -1244.9232177734375 -1248.568359375 -1252.2154541015625 -1255.873046875 -1259.5469970703125 -1263.24560546875 -1266.9849853515625 -1270.7564697265625 -1274.57861328125 -1278.4947509765625 -1282.52197265625 -1286.6756591796875 -1291.00341796875 -1295.5325927734375 -1300.3267822265625 -1305.4124755859375 -1310.8067626953125 -1316.64453125 -1322.8719482421875 -1329.6126708984375 -1336.849609375 -1344.664306640625 -1353.0462646484375 -1362.0517578125 -1371.72021484375 -1381.9501953125 -1392.8563232421875 -1404.34765625 -1416.451904296875 -1429.0911865234375 -1442.13818359375 -1455.6361083984375 -1469.3974609375 -1483.338134765625 -1497.38818359375 -1511.362548828125 -1525.1690673828125 -1538.741943359375 -1551.8326416015625 -1564.4720458984375 -1576.595703125 -1587.9769287109375 -1598.7293701171875 -1608.7816162109375 -1618.1309814453125 -1626.8770751953125 -1634.9119873046875 -1642.38916015625 -1649.3712158203125 -1655.82275390625 -1661.7503662109375 -1667.001220703125 -1671.752197265625 -1675.6397705078125 -1678.728271484375 -1680.9615478515625 -1682.2880859375 -1682.758544921875 -1682.345458984375 -1681.3154296875 -1679.724609375 -1677.81689453125 -1675.79296875 -1673.851318359375 -1672.14208984375 -1670.7930908203125 -1669.83935546875 -1669.100341796875 -1668.272216796875 -1666.7041015625 -1663.8740234375 -1660.622314453125 -1658.14599609375 -1657.1739501953125 -1656.1817626953125 -1653.37255859375 -1649.204345703125 -1644.1575927734375 -1638.9063720703125 -1633.6092529296875 -1628.3369140625 -1623.1292724609375 -1618.175537109375 -1613.6602783203125 -1610.126953125 -1607.5421142578125 -1605.828857421875 -1604.9771728515625 -1604.7576904296875 -1605.2281494140625 -1606.33935546875 -1608.0225830078125 -1610.36279296875 -1613.0509033203125 -1615.966796875 -1619.030029296875 -1622.1796875 -1625.320068359375 -1628.3521728515625 -1631.217529296875 -1633.87353515625 -1636.24951171875 -1638.3018798828125 -1640.012939453125 -1641.2647705078125 -1642.0640869140625 -1642.32177734375 -1642.0396728515625 -1641.2620849609375 -1640.0113525390625 -1638.4056396484375 -1636.483154296875 -1634.154296875 -1631.408935546875 -1628.497802734375 -1625.7076416015625 -1623.262939453125 -1621.248779296875 -1619.532958984375 -1617.9644775390625 -1616.4617919921875 -1614.9466552734375 -1613.342529296875 -1611.604248046875 -1609.7242431640625 -1607.6904296875 -1605.44287109375 -1603.0355224609375 -1600.442626953125 -1597.7122802734375 -1594.81494140625 -1591.74658203125 -1588.55810546875 -1585.286865234375 -1581.8917236328125 -1578.4189453125 -1574.8526611328125 -1571.260009765625 -1567.609619140625 -1563.9295654296875 -1560.253662109375 -1556.566162109375 -1552.8853759765625 -1549.2198486328125 -1545.58251953125 -1541.9971923828125 -1538.43896484375 -1534.94287109375 -1531.4615478515625 -1528.0556640625 -1524.7186279296875 -1521.447021484375 -1518.2384033203125 -1515.0933837890625 -1512.0260009765625 -1509.0675048828125 -1506.2171630859375 -1503.486083984375 -1500.8997802734375 -1498.5008544921875 -1496.3740234375 -1494.53857421875 -1492.90869140625 -1491.7186279296875 -1490.84130859375 -1490.3197021484375 -1490.113525390625 -1490.106201171875 -1490.1529541015625 -1490.3089599609375 -1489.898681640625 -1488.9749755859375 -1487.25 -1484.831298828125 -1481.650146484375 -1478.088623046875 -1474.5145263671875 -1471.0755615234375 -99999
 -99999 -99999 -99999 -99999 -99999 -99999 -99999 -99999 -99999 -99999 -99999 -99999 -99999 -99999 -99999 -99999 -99999 -99999 -99999 -99999 -1246.376708984375 -1250.0548095703125 -1253.7333984375 -1257.41796875 -1261.105712890625 -1264.808349609375 -1268.5496826171875 -1272.3096923828125 -1276.10595703125 -1279.9833984375 -1283.95263671875 -1288.0684814453125 -1292.3409423828125 -1296.8121337890625 -1301.519775390625 -1306.5257568359375 -1311.9476318359375 -1317.667236328125 -1323.8828125 -1330.6533203125 -1337.8826904296875 -1345.6796875 -1354.1395263671875 -1363.2000732421875 -1372.9598388671875 -1383.3404541015625 -1394.3511962890625 -1405.9365234375 -1418.1817626953125 -1430.88037109375 -1443.97998046875 -1457.53955078125 -1471.3372802734375 -1485.2904052734375 -1499.31201171875 -1513.2423095703125 -1526.9888916015625 -1540.436767578125 -1553.4320068359375 -1565.9541015625 -1577.9146728515625 -1589.1875 -1599.7874755859375 -1609.68408203125 -1618.949462890625 -1627.555419921875 -1635.4395751953125 -1642.8128662109375 -1649.5958251953125 -1655.6973876953125 -1661.224609375 -1666.177001953125 -1670.53466796875 -1674.0413818359375 -1676.844970703125 -1678.8819580078125 -1679.9801025390625 -1680.3060302734375 -1679.8953857421875 -1678.8956298828125 -1677.4071044921875 -1675.5625 -1673.5311279296875 -1671.4866943359375 -1669.58203125 -1667.8897705078125 -1666.3714599609375 -1664.935791015625 -1663.0909423828125 -1660.775146484375 -1657.9263916015625 -1655.0086669921875 -1653.057861328125 -1651.5579833984375 -1649.8006591796875 -1647.005615234375 -1643.116943359375 -1638.47119140625 -1633.4434814453125 -1628.22412109375 -1622.906494140625 -1617.6944580078125 -1612.5615234375 -1607.888916015625 -1604.0606689453125 -1601.9259033203125 -1600.7022705078125 -1600.044677734375 -1599.95458984375 -1600.486572265625 -1601.8836669921875 -1603.9647216796875 -1606.532958984375 -1609.444091796875 -1612.607421875 -1615.9144287109375 -1619.197509765625 -1622.4102783203125 -1625.5205078125 -1628.4200439453125 -1631.0831298828125 -1633.4903564453125 -1635.5386962890625 -1637.2122802734375 -1638.44970703125 -1639.2496337890625 -1639.567626953125 -1639.3399658203125 -1638.5802001953125 -1637.3446044921875 -1635.722900390625 -1633.6947021484375 -1631.210693359375 -1628.3546142578125 -1625.3773193359375 -1622.379638671875 -1619.9073486328125 -1617.92578125 -1616.3582763671875 -1614.95947265625 -1613.5316162109375 -1612.0294189453125 -1610.4249267578125 -1608.6805419921875 -1606.73681640625 -1604.60498046875 -1602.2835693359375 -1599.7989501953125 -1597.1158447265625 -1594.234130859375 -1591.2064208984375 -1588.04833984375 -1584.7772216796875 -1581.39013671875 -1577.873779296875 -1574.31201171875 -1570.66845703125 -1566.9923095703125 -1563.2911376953125 -1559.577880859375 -1555.8450927734375 -1552.114990234375 -1548.4127197265625 -1544.7373046875 -1541.099853515625 -1537.5244140625 -1533.962158203125 -1530.4468994140625 -1527.016357421875 -1523.651123046875 -1520.3516845703125 -1517.1123046875 -1513.9598388671875 -1510.893798828125 -1507.9222412109375 -1505.0474853515625 -1502.2835693359375 -1499.66259765625 -1497.232177734375 -1495.020263671875 -1492.9476318359375 -1491.22119140625 -1489.6910400390625 -1488.4493408203125 -1487.5223388671875 -1486.8734130859375 -1486.44580078125 -1486.186767578125 -1485.9512939453125 -1485.59619140625 -1484.838623046875 -1483.6441650390625 -1481.8599853515625 -1479.4732666015625 -1476.5626220703125 -1473.3690185546875 -1469.96533203125 -99999 -99999
 -99999 -99999 -99999 -99999 -99999 -99999 -99999 -99999 -99999 -99999 -99999 -99999 -99999 -99999 -99999 -99999 -99999 -99999 -99999 -99999 -99999 -1251.5914306640625 -1255.2952880859375 -1258.99755859375 -1262.69970703125 -1266.4056396484375 -1270.1756591796875 -1273.8641357421875 -1277.630126953125 -1281.4681396484375 -1285.3885498046875 -1289.4200439453125 -1293.598876953125 -1297.958740234375 -1302.60595703125 -1307.5389404296875 -1312.7813720703125 -1318.50341796875 -1324.6605224609375 -1331.2891845703125 -1338.5355224609375 -1346.4471435546875 -1354.89892578125 -1364.0079345703125 -1373.8641357421875 -1384.2972412109375 -1395.3348388671875 -1407.1204833984375 -1419.411865234375 -1432.233154296875 -1445.511962890625 -1459.1099853515625 -1473.0067138671875 -1487.0299072265625 -1501.0537109375 -1514.9853515625 -1528.6748046875 -1542.0911865234375 -1554.989013671875 -1567.3751220703125 -1579.2783203125 -1590.3909912109375 -1600.8897705078125 -1610.6827392578125 -1619.814697265625 -1628.25146484375 -1635.9967041015625 -1643.0225830078125 -1649.536376953125 -1655.420166015625 -1660.723876953125 -1665.324462890625 -1669.2576904296875 -1672.5421142578125 -1674.9940185546875 -1676.6873779296875 -1677.666015625 -1677.9530029296875 -1677.5531005859375 -1676.5074462890625 -1674.976806640625 -1673.13232421875 -1671.06787109375 -1668.9027099609375 -1666.73291015625 -1664.65478515625 -1662.5701904296875 -1660.5479736328125 -1658.2930908203125 -1655.72900390625 -1652.94140625 -1650.3720703125 -1648.156494140625 -1646.068115234375 -1643.763427734375 -1640.7467041015625 -1636.9189453125 -1632.425537109375 -1627.5792236328125 -1622.501220703125 -1617.2816162109375 -1612.0924072265625 -1606.9339599609375 -1601.830078125 -1598.4561767578125 -1596.6148681640625 -1595.8062744140625 -1595.2674560546875 -1595.1697998046875 -1595.8951416015625 -1597.4482421875 -1599.7559814453125 -1602.7091064453125 -1605.949462890625 -1609.3270263671875 -1612.764892578125 -1616.185546875 -1619.5235595703125 -1622.666748046875 -1625.6142578125 -1628.2977294921875 -1630.654296875 -1632.701416015625 -1634.406005859375 -1635.7158203125 -1636.53857421875 -1636.838623046875 -1636.6612548828125 -1636.007568359375 -1634.8563232421875 -1633.17919921875 -1631.05126953125 -1628.5333251953125 -1625.6871337890625 -1622.60107421875 -1619.4871826171875 -1616.6087646484375 -1615.040283203125 -1613.642822265625 -1612.2808837890625 -1610.8798828125 -1609.385009765625 -1607.72412109375 -1605.878173828125 -1603.87548828125 -1601.6458740234375 -1599.23779296875 -1596.5880126953125 -1593.76171875 -1590.7735595703125 -1587.635498046875 -1584.3262939453125 -1580.93701171875 -1577.4010009765625 -1573.7791748046875 -1570.111328125 -1566.3980712890625 -1562.651123046875 -1558.877685546875 -1555.0858154296875 -1551.3121337890625 -1547.5552978515625 -1543.8223876953125 -1540.123779296875 -1536.513916015625 -1532.8760986328125 -1529.339111328125 -1525.86865234375 -1522.4609375 -1519.1185302734375 -1515.85205078125 -1512.6771240234375 -1509.587646484375 -1506.581787109375 -1503.6722412109375 -1500.884033203125 -1498.24072265625 -1495.7657470703125 -1493.405029296875 -1491.287109375 -1489.3062744140625 -1487.566162109375 -1486.0738525390625 -1484.8541259765625 -1483.8924560546875 -1483.12939453125 -1482.5230712890625 -1482 -1481.4217529296875 -1480.717529296875 -1479.7359619140625 -1478.381591796875 -1476.546630859375 -1474.2052001953125 -1471.4288330078125 -1468.389404296875 -99999 -99999 -99999
 -99999 -99999 -99999 -99999 -99999 -99999 -99999 -99999 -99999 -99999 -99999 -99999 -99999 -99999 -99999 -99999 -99999 -99999 -99999 -99999 -99999 -99999 -1256.8927001953125 -1260.6192626953125 -1264.33251953125 -1268.0821533203125 -1271.77001953125 -1275.4566650390625 -1279.1890869140625 -1282.9566650390625 -1286.7783203125 -1290.7200927734375 -1294.8057861328125 -1299.0572509765625 -1303.5264892578125 -1308.302001953125 -1313.4910888671875 -1319.006103515625 -1325.1102294921875 -1331.760986328125 -1338.9295654296875 -1346.7100830078125 -1355.1495361328125 -1364.3480224609375 -1374.16748046875 -1384.7696533203125 -1396.0179443359375 -1407.7950439453125 -1420.314697265625 -1433.2841796875 -1446.629638671875 -1460.42333984375 -1474.408447265625 -1488.5125732421875 -1502.6195068359375 -1516.6119384765625 -1530.3782958984375 -1543.6961669921875 -1556.63623046875 -1569.01025390625 -1580.7646484375 -1591.8040771484375 -1602.122314453125 -1611.6734619140625 -1620.65625 -1628.87646484375 -1636.3505859375 -1643.2640380859375 -1649.5400390625 -1655.1053466796875 -1659.9881591796875 -1664.2662353515625 -1667.94580078125 -1670.9378662109375 -1673.101806640625 -1674.6964111328125 -1675.5494384765625 -1675.616455078125 -1675.099365234375 -1674.05615234375 -1672.555419921875 -1670.6292724609375 -1668.42431640625 -1666.0634765625 -1663.5927734375 -1661.1434326171875 -1658.7379150390625 -1656.3494873046875 -1653.864013671875 -1651.128173828125 -1648.3994140625 -1645.7669677734375 -1643.2247314453125 -1640.6456298828125 -1637.7967529296875 -1634.474365234375 -1630.644287109375 -1626.336181640625 -1621.571533203125 -1616.639404296875 -1611.5811767578125 -1606.5301513671875 -1601.5709228515625 -1597.07861328125 -1593.5955810546875 -1592.0777587890625 -1591.3824462890625 -1590.8507080078125 -1590.65234375 -1591.065673828125 -1592.8729248046875 -1595.76123046875 -1599.022705078125 -1602.5028076171875 -1606.0777587890625 -1609.6873779296875 -1613.202880859375 -1616.584228515625 -1619.7860107421875 -1622.7706298828125 -1625.4490966796875 -1627.817138671875 -1629.91259765625 -1631.58984375 -1632.8934326171875 -1633.79150390625 -1634.2542724609375 -1634.198486328125 -1633.5418701171875 -1632.4061279296875 -1630.8089599609375 -1628.7708740234375 -1626.2977294921875 -1623.4425048828125 -1620.4127197265625 -1617.348388671875 -1614.815185546875 -1612.9190673828125 -1611.44091796875 -1610.030517578125 -1608.555908203125 -1606.9642333984375 -1605.224853515625 -1603.30908203125 -1601.16748046875 -1598.785888671875 -1596.2061767578125 -1593.4329833984375 -1590.4766845703125 -1587.303955078125 -1584.0284423828125 -1580.556884765625 -1576.9927978515625 -1573.331787109375 -1569.6119384765625 -1565.8367919921875 -1562.00341796875 -1558.1724853515625 -1554.320556640625 -1550.4786376953125 -1546.649658203125 -1542.8475341796875 -1539.1239013671875 -1535.3873291015625 -1531.73486328125 -1528.1378173828125 -1524.6090087890625 -1521.1451416015625 -1517.7559814453125 -1514.4625244140625 -1511.2506103515625 -1508.1097412109375 -1505.0618896484375 -1502.126220703125 -1499.311767578125 -1496.611572265625 -1494.0516357421875 -1491.629150390625 -1489.36376953125 -1487.2664794921875 -1485.3614501953125 -1483.7049560546875 -1482.2515869140625 -1480.9940185546875 -1479.9212646484375 -1479.0087890625 -1478.236572265625 -1477.4873046875 -1476.6893310546875 -1475.76611328125 -1474.5810546875 -1473.023193359375 -1471.1226806640625 -1468.8377685546875 -1466.244140625 -99999 -99999 -99999 -99999
 -99999 -99999 -99999 -99999 -99999 -99999 -99999 -99999 -99999 -99999 -99999 -99999 -99999 -99999 -99999 -99999 -99999 -99999 -99999 -99999 -99999 -99999 -99999 -1262.2735595703125 -1266.02001953125 -1269.7589111328125 -1273.40234375 -1277.0797119140625 -1280.7593994140625 -1284.4569091796875 -1288.1976318359375 -1292.0052490234375 -1295.907958984375 -1300.0263671875 -1304.369140625 -1308.9808349609375 -1313.926513671875 -1319.4049072265625 -1325.30712890625 -1331.7254638671875 -1338.854248046875 -1346.7159423828125 -1355.1380615234375 -1364.2999267578125 -1374.273193359375 -1384.8707275390625 -1396.1298828125 -1408.1607666015625 -1420.7559814453125 -1433.89208984375 -1447.4652099609375 -1461.3951416015625 -1475.5692138671875 -1489.8701171875 -1504.1131591796875 -1518.19189453125 -1532.0118408203125 -1545.4285888671875 -1558.2841796875 -1570.5433349609375 -1582.277099609375 -1593.07666015625 -1603.344970703125 -1612.8621826171875 -1621.5853271484375 -1629.57666015625 -1636.9027099609375 -1643.3919677734375 -1649.3516845703125 -1654.627685546875 -1659.29931640625 -1663.3594970703125 -1666.615234375 -1669.28759765625 -1671.3642578125 -1672.619384765625 -1673.2841796875 -1673.3485107421875 -1672.835693359375 -1671.66064453125 -1670.0621337890625 -1668.0281982421875 -1665.65771484375 -1663.0797119140625 -1660.345947265625 -1657.5125732421875 -1654.734130859375 -1652.11767578125 -1649.4456787109375 -1646.6610107421875 -1643.813232421875 -1640.9814453125 -1638.116943359375 -1635.138671875 -1631.9588623046875 -1628.4774169921875 -1624.54248046875 -1620.2242431640625 -1615.619140625 -1610.8291015625 -1605.9913330078125 -1601.242431640625 -1596.676025390625 -1592.676025390625 -1589.85546875 -1588.0709228515625 -1587.060546875 -1586.449951171875 -1586.0205078125 -1586.625 -1588.7093505859375 -1591.9521484375 -1595.552001953125 -1599.226318359375 -1602.9322509765625 -1606.6092529296875 -1610.2239990234375 -1613.6986083984375 -1616.8963623046875 -1619.828857421875 -1622.4915771484375 -1624.9029541015625 -1626.976318359375 -1628.7235107421875 -1630.1751708984375 -1631.1390380859375 -1631.642578125 -1631.6806640625 -1631.23291015625 -1630.281982421875 -1628.6903076171875 -1626.6954345703125 -1624.313232421875 -1621.5748291015625 -1618.7325439453125 -1615.9481201171875 -1613.405029296875 -1611.4371337890625 -1609.75390625 -1608.156005859375 -1606.5361328125 -1604.8411865234375 -1602.96044921875 -1600.836181640625 -1598.535400390625 -1596.0146484375 -1593.285400390625 -1590.294921875 -1587.1201171875 -1583.818603515625 -1580.3233642578125 -1576.68798828125 -1572.9757080078125 -1569.1837158203125 -1565.3270263671875 -1561.4208984375 -1557.494873046875 -1553.555419921875 -1549.6209716796875 -1545.7135009765625 -1541.8380126953125 -1538.0067138671875 -1534.2259521484375 -1530.4881591796875 -1526.8250732421875 -1523.226318359375 -1519.7108154296875 -1516.28466796875 -1512.928955078125 -1509.65380859375 -1506.4647216796875 -1503.3876953125 -1500.4166259765625 -1497.5487060546875 -1494.798828125 -1492.16943359375 -1489.6903076171875 -1487.292724609375 -1485.093994140625 -1483.087890625 -1481.2490234375 -1479.5809326171875 -1478.0843505859375 -1476.793212890625 -1475.6602783203125 -1474.6356201171875 -1473.681396484375 -1472.752685546875 -1471.7537841796875 -1470.6160888671875 -1469.262939453125 -1467.6544189453125 -1465.7578125 -1463.478759765625 -99999 -99999 -99999 -99999 -99999
 -99999 -99999 -99999 -99999 -99999 -99999 -99999 -99999 -99999 -99999 -99999 -99999 -99999 -99999 -99999 -99999 -99999 -99999 -99999 -99999 -99999 -99999 -99999 -99999 -1267.7509765625 -1271.4293212890625 -1275.0994873046875 -1278.7421875 -1282.3614501953125 -1285.96728515625 -1289.6124267578125 -1293.2779541015625 -1297.0343017578125 -1300.927734375 -1305.0054931640625 -1309.436279296875 -1314.2247314453125 -1319.3875732421875 -1325.166748046875 -1331.5498046875 -1338.509765625 -1346.1552734375 -1354.559814453125 -1363.7685546875 -1373.701171875 -1384.4285888671875 -1395.9112548828125 -1407.975341796875 -1420.812255859375 -1434.177978515625 -1447.9300537109375 -1462.125 -1476.5306396484375 -1491.0277099609375 -1505.4698486328125 -1519.7333984375 -1533.705322265625 -1547.1395263671875 -1560.1044921875 -1572.3856201171875 -1583.9874267578125 -1594.77880859375 -1604.846923828125 -1613.9859619140625 -1622.5443115234375 -1630.2904052734375 -1637.2381591796875 -1643.559814453125 -1649.2452392578125 -1654.265380859375 -1658.5146484375 -1662.17578125 -1665.251708984375 -1667.7359619140625 -1669.5621337890625 -1670.686279296875 -1671.24755859375 -1671.1444091796875 -1670.4603271484375 -1669.2421875 -1667.477783203125 -1665.333984375 -1662.8541259765625 -1660.0992431640625 -1657.0965576171875 -1653.8927001953125 -1650.7474365234375 -1647.833740234375 -1645.09375 -1642.1680908203125 -1639.1405029296875 -1636.0489501953125 -1632.89697265625 -1629.6693115234375 -1626.2320556640625 -1622.47314453125 -1618.4573974609375 -1614.1685791015625 -1609.7174072265625 -1605.1505126953125 -1600.5916748046875 -1596.121826171875 -1592.07470703125 -1588.577392578125 -1585.7811279296875 -1583.9119873046875 -1582.8555908203125 -1582.2452392578125 -1582.09130859375 -1582.732177734375 -1585.0775146484375 -1588.6466064453125 -1592.310791015625 -1596.0355224609375 -1599.798828125 -1603.535888671875 -1607.1905517578125 -1610.68896484375 -1613.93603515625 -1616.8779296875 -1619.4952392578125 -1621.82373046875 -1623.9404296875 -1625.77978515625 -1627.2864990234375 -1628.412353515625 -1629.1650390625 -1629.3712158203125 -1629.004638671875 -1628.121826171875 -1626.76904296875 -1624.87841796875 -1622.5562744140625 -1620.013427734375 -1617.3045654296875 -1614.674072265625 -1612.3045654296875 -1610.192138671875 -1608.303955078125 -1606.56494140625 -1604.760986328125 -1602.8670654296875 -1600.79345703125 -1598.528076171875 -1596.0594482421875 -1593.2861328125 -1590.3023681640625 -1587.120849609375 -1583.7684326171875 -1580.240966796875 -1576.5260009765625 -1572.749267578125 -1568.8568115234375 -1564.8839111328125 -1560.8812255859375 -1556.8306884765625 -1552.8079833984375 -1548.767822265625 -1544.7518310546875 -1540.78662109375 -1536.84814453125 -1532.996337890625 -1529.1497802734375 -1525.40576171875 -1521.7435302734375 -1518.16650390625 -1514.6583251953125 -1511.2413330078125 -1507.899658203125 -1504.67431640625 -1501.5472412109375 -1498.5235595703125 -1495.60888671875 -1492.794189453125 -1490.1234130859375 -1487.5057373046875 -1485.0738525390625 -1482.79638671875 -1480.65869140625 -1478.6656494140625 -1476.832763671875 -1475.187255859375 -1473.6993408203125 -1472.3436279296875 -1471.1048583984375 -1469.98681640625 -1468.89990234375 -1467.7945556640625 -1466.6253662109375 -1465.3685302734375 -1463.928466796875 -1462.207763671875 -99999 -99999 -99999 -99999 -99999 -99999 -99999
 -99999 -99999 -99999 -99999 -99999 -99999 -99999 -99999 -99999 -99999 -99999 -99999 -99999 -99999 -99999 -99999 -99999 -99999 -99999 -99999 -99999 -99999 -99999 -99999 -99999 -1273.179931640625 -1276.831298828125 -1280.4429931640625 -1284.01513671875 -1287.5308837890625 -1291.0264892578125 -1294.5147705078125 -1298.08642578125 -1301.7928466796875 -1305.65869140625 -1309.7769775390625 -1314.2744140625 -1319.2822265625 -1324.766357421875 -1330.904541015625 -1337.76123046875 -1345.40478515625 -1353.749755859375 -1362.8876953125 -1372.955078125 -1383.7054443359375 -1395.21337890625 -1407.54736328125 -1420.537353515625 -1434.134521484375 -1448.171142578125 -1462.6370849609375 -1477.3084716796875 -1492.0888671875 -1506.7711181640625 -1521.254150390625 -1535.411376953125 -1549.00341796875 -1561.951904296875 -1574.2188720703125 -1585.7965087890625 -1596.3890380859375 -1606.287109375 -1615.352783203125 -1623.6368408203125 -1631.00048828125 -1637.7568359375 -1643.7303466796875 -1649.03271484375 -1653.652099609375 -1657.68115234375 -1661.111572265625 -1663.895751953125 -1666.03076171875 -1667.6151123046875 -1668.64990234375 -1669.0682373046875 -1668.8487548828125 -1668.0552978515625 -1666.74658203125 -1664.946044921875 -1662.689208984375 -1660.0244140625 -1657.05810546875 -1653.8677978515625 -1650.4859619140625 -1647.0933837890625 -1643.950439453125 -1640.8243408203125 -1637.6414794921875 -1634.3895263671875 -1631.0870361328125 -1627.6795654296875 -1624.12060546875 -1620.4193115234375 -1616.5145263671875 -1612.4571533203125 -1608.2432861328125 -1603.8726806640625 -1599.5009765625 -1595.2388916015625 -1591.1796875 -1587.43310546875 -1584.1954345703125 -1581.7091064453125 -1579.95849609375 -1578.912353515625 -1578.4739990234375 -1578.7218017578125 -1579.7308349609375 -1582.002685546875 -1585.293701171875 -1588.9375 -1592.71533203125 -1596.5078125 -1600.2874755859375 -1604.04736328125 -1607.63525390625 -1610.902099609375 -1613.7135009765625 -1616.240966796875 -1618.5885009765625 -1620.72216796875 -1622.62744140625 -1624.3099365234375 -1625.640380859375 -1626.56005859375 -1626.999267578125 -1626.90673828125 -1626.2127685546875 -1624.9014892578125 -1623.150634765625 -1620.9473876953125 -1618.4818115234375 -1615.9346923828125 -1613.427734375 -1611.06591796875 -1608.9361572265625 -1606.9765625 -1605.0447998046875 -1603.0849609375 -1601.0162353515625 -1598.7762451171875 -1596.2503662109375 -1593.4979248046875 -1590.519775390625 -1587.33984375 -1583.9366455078125 -1580.3636474609375 -1576.5640869140625 -1572.6522216796875 -1568.634765625 -1564.5404052734375 -1560.42626953125 -1556.2655029296875 -1552.0921630859375 -1547.922607421875 -1543.7862548828125 -1539.6844482421875 -1535.6544189453125 -1531.6522216796875 -1527.7471923828125 -1523.9140625 -1520.1619873046875 -1516.49072265625 -1512.9066162109375 -1509.4102783203125 -1506.0240478515625 -1502.73388671875 -1499.539794921875 -1496.4573974609375 -1493.486328125 -1490.6407470703125 -1487.83837890625 -1485.2088623046875 -1482.7115478515625 -1480.3359375 -1478.088134765625 -1475.983642578125 -1474.0404052734375 -1472.25 -1470.5770263671875 -1469.0439453125 -1467.6363525390625 -1466.3385009765625 -1465.0994873046875 -1463.8863525390625 -1462.677978515625 -1461.4169921875 -1460.0086669921875 -1458.4537353515625 -99999 -99999 -99999 -99999 -99999 -99999 -99999 -99999
 -99999 -99999 -99999 -99999 -99999 -99999 -99999 -99999 -99999 -99999 -99999 -99999 -99999 -99999 -99999 -99999 -99999 -99999 -99999 -99999 -99999 -99999 -99999 -99999 -99999 -99999 -1278.6072998046875 -1282.1868896484375 -1285.6861572265625 -1289.1104736328125 -1292.489990234375 -1295.8409423828125 -1299.1700439453125 -1302.56005859375 -1306.135986328125 -1310.0147705078125 -1314.2154541015625 -1318.8839111328125 -1324.1534423828125 -1330.1201171875 -1336.7349853515625 -1344.199462890625 -1352.5250244140625 -1361.612060546875 -1371.7257080078125 -1382.5504150390625 -1394.2359619140625 -1406.68505859375 -1419.8900146484375 -1433.7786865234375 -1448.1116943359375 -1462.9197998046875 -1477.9713134765625 -1493.0821533203125 -1508.1077880859375 -1522.8831787109375 -1537.24609375 -1550.94677734375 -1564.0428466796875 -1576.3228759765625 -1587.77734375 -1598.302490234375 -1607.95654296875 -1616.7247314453125 -1624.74462890625 -1631.872802734375 -1638.17236328125 -1643.8109130859375 -1648.7852783203125 -1653.107666015625 -1656.7991943359375 -1659.838623046875 -1662.3504638671875 -1664.315673828125 -1665.73828125 -1666.547607421875 -1666.8050537109375 -1666.5435791015625 -1665.6873779296875 -1664.3026123046875 -1662.3375244140625 -1659.9097900390625 -1657.10791015625 -1654.008544921875 -1650.6942138671875 -1647.17333984375 -1643.5889892578125 -1640.056884765625 -1636.6529541015625 -1633.188232421875 -1629.607421875 -1625.9937744140625 -1622.306640625 -1618.4927978515625 -1614.603759765625 -1610.6224365234375 -1606.5167236328125 -1602.314697265625 -1598.1209716796875 -1593.9755859375 -1589.925537109375 -1586.111572265625 -1582.739990234375 -1579.8670654296875 -1577.6004638671875 -1576.037109375 -1575.0927734375 -1574.834228515625 -1575.25830078125 -1576.650146484375 -1578.894287109375 -1581.8875732421875 -1585.3741455078125 -1589.078369140625 -1592.9102783203125 -1596.7359619140625 -1600.5638427734375 -1604.309326171875 -1607.650146484375 -1610.3201904296875 -1612.73095703125 -1615.021240234375 -1617.2193603515625 -1619.294921875 -1621.11669921875 -1622.6407470703125 -1623.8209228515625 -1624.52294921875 -1624.701171875 -1624.19482421875 -1623.0716552734375 -1621.384765625 -1619.2923583984375 -1616.926513671875 -1614.434814453125 -1611.9874267578125 -1609.7156982421875 -1607.5875244140625 -1605.5506591796875 -1603.5438232421875 -1601.4542236328125 -1599.1588134765625 -1596.654296875 -1593.927978515625 -1590.978515625 -1587.750732421875 -1584.25341796875 -1580.611083984375 -1576.7452392578125 -1572.692626953125 -1568.5557861328125 -1564.3682861328125 -1560.107421875 -1555.771484375 -1551.42724609375 -1547.108154296875 -1542.8515625 -1538.63037109375 -1534.4580078125 -1530.313720703125 -1526.2821044921875 -1522.3330078125 -1518.471435546875 -1514.716796875 -1511.0306396484375 -1507.4674072265625 -1504.0010986328125 -1500.6341552734375 -1497.3828125 -1494.242919921875 -1491.2508544921875 -1488.2501220703125 -1485.44189453125 -1482.753173828125 -1480.1761474609375 -1477.720947265625 -1475.3865966796875 -1473.2044677734375 -1471.147705078125 -1469.213134765625 -1467.4114990234375 -1465.7374267578125 -1464.1878662109375 -1462.72802734375 -1461.3472900390625 -1460.0394287109375 -1458.7490234375 -1457.4215087890625 -1456.0386962890625 -1454.5709228515625 -99999 -99999 -99999 -99999 -99999 -99999 -99999 -99999 -99999
 -99999 -99999 -99999 -99999 -99999 -99999 -99999 -99999 -99999 -99999 -99999 -99999 -99999 -99999 -99999 -99999 -99999 -99999 -99999 -99999 -99999 -99999 -99999 -99999 -99999 -99999 -99999 -1283.9664306640625 -1287.4266357421875 -1290.7730712890625 -1293.993408203125 -1297.118408203125 -1300.24609375 -1303.4151611328125 -1306.660400390625 -1310.0980224609375 -1313.9617919921875 -1318.3287353515625 -1323.232666015625 -1328.9761962890625 -1335.4747314453125 -1342.841064453125 -1351.0203857421875 -1360.1187744140625 -1370.2093505859375 -1381.0943603515625 -1392.973388671875 -1405.56494140625 -1419.0599365234375 -1433.2113037109375 -1447.8753662109375 -1463.05078125 -1478.4500732421875 -1494.0006103515625 -1509.3841552734375 -1524.466796875 -1539.146240234375 -1553.039794921875 -1566.2301025390625 -1578.6029052734375 -1589.934814453125 -1600.29541015625 -1609.72509765625 -1618.2203369140625 -1625.932373046875 -1632.611328125 -1638.6199951171875 -1643.9530029296875 -1648.497314453125 -1652.361083984375 -1655.717041015625 -1658.5093994140625 -1660.78857421875 -1662.4588623046875 -1663.64013671875 -1664.327392578125 -1664.50146484375 -1664.171875 -1663.2286376953125 -1661.7357177734375 -1659.6571044921875 -1657.1070556640625 -1654.1602783203125 -1650.8299560546875 -1647.3743896484375 -1643.7041015625 -1639.9755859375 -1636.20849609375 -1632.3778076171875 -1628.58154296875 -1624.7303466796875 -1620.825439453125 -1616.85302734375 -1612.8770751953125 -1608.8358154296875 -1604.707763671875 -1600.5721435546875 -1596.4456787109375 -1592.341796875 -1588.3453369140625 -1584.5838623046875 -1581.108154296875 -1577.9852294921875 -1575.4364013671875 -1573.4053955078125 -1571.989990234375 -1571.1912841796875 -1571.1644287109375 -1571.82958984375 -1573.26123046875 -1575.4652099609375 -1578.299072265625 -1581.590087890625 -1585.2366943359375 -1588.99072265625 -1592.82861328125 -1596.680908203125 -1600.4412841796875 -1603.8326416015625 -1606.4158935546875 -1608.7744140625 -1611.1314697265625 -1613.40673828125 -1615.5777587890625 -1617.6336669921875 -1619.4951171875 -1620.9676513671875 -1621.9508056640625 -1622.3953857421875 -1622.139404296875 -1621.1839599609375 -1619.550537109375 -1617.48828125 -1615.1405029296875 -1612.6844482421875 -1610.3045654296875 -1608.0908203125 -1606.0064697265625 -1603.9957275390625 -1601.9144287109375 -1599.6622314453125 -1597.2122802734375 -1594.5386962890625 -1591.5594482421875 -1588.2745361328125 -1584.8035888671875 -1581.04248046875 -1577.0919189453125 -1572.931640625 -1568.693603515625 -1564.334228515625 -1559.86328125 -1555.3421630859375 -1550.857666015625 -1546.3824462890625 -1541.9215087890625 -1537.5355224609375 -1533.1834716796875 -1528.920654296875 -1524.743896484375 -1520.67822265625 -1516.7003173828125 -1512.822998046875 -1509.048828125 -1505.383056640625 -1501.832763671875 -1498.3914794921875 -1495.073974609375 -1491.9005126953125 -1488.7486572265625 -1485.7542724609375 -1482.878662109375 -1480.1221923828125 -1477.4775390625 -1474.94482421875 -1472.5577392578125 -1470.2822265625 -1468.1302490234375 -1466.0882568359375 -1464.1744384765625 -1462.3875732421875 -1460.70068359375 -1459.125 -1457.634521484375 -1456.208740234375 -1454.8145751953125 -1453.43115234375 -1452.062744140625 -1450.6363525390625 -99999 -99999 -99999 -99999 -99999 -99999 -99999 -99999 -99999 -99999
 -99999 -99999 -99999 -99999 -99999 -99999 -99999 -99999 -99999 -99999 -99999 -99999 -99999 -99999 -99999 -99999 -99999 -99999 -99999 -99999 -99999 -99999 -99999 -99999 -99999 -99999 -99999 -99999 -1289.1959228515625 -1292.4560546875 -1295.561279296875 -1298.5506591796875 -1301.388427734375 -1304.1553955078125 -1307.0767822265625 -1310.2115478515625 -1313.6298828125 -1317.6192626953125 -1322.271484375 -1327.642578125 -1333.9013671875 -1341.1651611328125 -1349.330078125 -1358.33740234375 -1368.481689453125 -1379.432861328125 -1391.316162109375 -1404.14599609375 -1417.8387451171875 -1432.319580078125 -1447.39013671875 -1463.0101318359375 -1478.9599609375 -1494.9290771484375 -1510.802734375 -1526.3240966796875 -1541.2603759765625 -1555.453857421875 -1568.655029296875 -1581.095703125 -1592.2779541015625 -1602.457763671875 -1611.6270751953125 -1619.914794921875 -1627.1798095703125 -1633.5350341796875 -1639.0712890625 -1643.8671875 -1648.031005859375 -1651.57666015625 -1654.63134765625 -1657.0081787109375 -1658.92431640625 -1660.386962890625 -1661.408203125 -1661.9827880859375 -1662.038818359375 -1661.62060546875 -1660.641845703125 -1659.103759765625 -1656.962158203125 -1654.182373046875 -1651.006591796875 -1647.5863037109375 -1643.9688720703125 -1640.130126953125 -1636.1142578125 -1632.058349609375 -1627.99609375 -1623.8748779296875 -1619.71826171875 -1615.570068359375 -1611.390869140625 -1607.1434326171875 -1602.945556640625 -1598.759521484375 -1594.6009521484375 -1590.4986572265625 -1586.54296875 -1582.731201171875 -1579.1705322265625 -1575.9898681640625 -1573.1688232421875 -1570.8040771484375 -1568.9473876953125 -1567.7918701171875 -1567.244384765625 -1567.36083984375 -1568.125244140625 -1569.57275390625 -1571.71923828125 -1574.4503173828125 -1577.65185546875 -1581.1185302734375 -1584.788818359375 -1588.55419921875 -1592.341064453125 -1595.9600830078125 -1599.2568359375 -1602.0135498046875 -1604.50244140625 -1606.92333984375 -1609.241455078125 -1611.6279296875 -1613.852294921875 -1615.909912109375 -1617.74853515625 -1619.2314453125 -1619.9989013671875 -1619.8992919921875 -1619.05224609375 -1617.50146484375 -1615.4129638671875 -1613.0179443359375 -1610.5596923828125 -1608.1939697265625 -1606.078369140625 -1604.176025390625 -1602.207763671875 -1600.08837890625 -1597.7646484375 -1595.126953125 -1592.167236328125 -1588.9310302734375 -1585.4576416015625 -1581.663330078125 -1577.5794677734375 -1573.3663330078125 -1568.957275390625 -1564.3426513671875 -1559.7476806640625 -1555.06884765625 -1550.39013671875 -1545.6829833984375 -1541.035888671875 -1536.442138671875 -1531.933837890625 -1527.489990234375 -1523.174072265625 -1518.9530029296875 -1514.8382568359375 -1510.82080078125 -1506.934814453125 -1503.172119140625 -1499.5201416015625 -1496.0087890625 -1492.620849609375 -1489.3011474609375 -1486.130615234375 -1483.0723876953125 -1480.1390380859375 -1477.314208984375 -1474.602783203125 -1472.0291748046875 -1469.5657958984375 -1467.2186279296875 -1464.9700927734375 -1462.84814453125 -1460.8502197265625 -1458.962158203125 -1457.17919921875 -1455.49072265625 -1453.8917236328125 -1452.3603515625 -1450.92236328125 -1449.486328125 -1448.1123046875 -1446.6884765625 -99999 -99999 -99999 -99999 -99999 -99999 -99999 -99999 -99999 -99999 -99999
 -99999 -99999 -99999 -99999 -99999 -99999 -99999 -99999 -99999 -99999 -99999 -99999 -99999 -99999 -99999 -99999 -99999 -99999 -99999 -99999 -99999 -99999 -99999 -99999 -99999 -99999 -99999 -99999 -99999 -1294.2325439453125 -1297.2052001953125 -1299.961181640625 -1302.5660400390625 -1305.0814208984375 -1307.581787109375 -1310.1312255859375 -1313.0595703125 -1316.698974609375 -1320.9884033203125 -1326.19970703125 -1332.2813720703125 -1339.3026123046875 -1347.298095703125 -1356.2984619140625 -1366.4273681640625 -1377.518310546875 -1389.615234375 -1402.5338134765625 -1416.6065673828125 -1431.3631591796875 -1446.7996826171875 -1462.8992919921875 -1479.26904296875 -1495.86083984375 -1512.1761474609375 -1528.1287841796875 -1543.4656982421875 -1557.8865966796875 -1571.4215087890625 -1583.737060546875 -1594.868408203125 -1604.9627685546875 -1613.72119140625 -1621.5684814453125 -1628.41845703125 -1634.243896484375 -1639.359130859375 -1643.783447265625 -1647.5399169921875 -1650.5989990234375 -1653.1639404296875 -1655.26171875 -1656.9293212890625 -1658.16064453125 -1658.9227294921875 -1659.300048828125 -1659.2939453125 -1658.8804931640625 -1657.9925537109375 -1656.4151611328125 -1654.029052734375 -1651.119140625 -1647.8209228515625 -1644.22412109375 -1640.3411865234375 -1636.2841796875 -1632.1026611328125 -1627.8050537109375 -1623.4591064453125 -1619.0257568359375 -1614.60498046875 -1610.143798828125 -1605.749755859375 -1601.3631591796875 -1597.0130615234375 -1592.7236328125 -1588.5504150390625 -1584.5201416015625 -1580.6373291015625 -1577.02001953125 -1573.6900634765625 -1570.6732177734375 -1568.047119140625 -1565.9813232421875 -1564.44140625 -1563.4425048828125 -1563.0106201171875 -1563.204833984375 -1564.096923828125 -1565.6407470703125 -1567.7392578125 -1570.3336181640625 -1573.3544921875 -1576.7138671875 -1580.2869873046875 -1583.9539794921875 -1587.5743408203125 -1591.0863037109375 -1594.35205078125 -1597.296630859375 -1600.01513671875 -1602.5360107421875 -1604.970947265625 -1607.383544921875 -1609.7109375 -1612.091064453125 -1614.21533203125 -1616.01318359375 -1617.262451171875 -1617.5538330078125 -1616.6300048828125 -1614.9891357421875 -1612.8880615234375 -1610.4805908203125 -1607.9141845703125 -1605.5850830078125 -1603.69677734375 -1601.9937744140625 -1600.1827392578125 -1598.0504150390625 -1595.5438232421875 -1592.7205810546875 -1589.5870361328125 -1586.1451416015625 -1582.3699951171875 -1578.2244873046875 -1573.87890625 -1569.298095703125 -1564.5848388671875 -1559.7933349609375 -1554.9041748046875 -1549.953125 -1545.0355224609375 -1540.2247314453125 -1535.3870849609375 -1530.677734375 -1526.0501708984375 -1521.539306640625 -1517.1337890625 -1512.8629150390625 -1508.7257080078125 -1504.7056884765625 -1500.80810546875 -1497.049072265625 -1493.47509765625 -1489.937255859375 -1486.580322265625 -1483.3355712890625 -1480.2164306640625 -1477.2095947265625 -1474.3231201171875 -1471.5732421875 -1468.9359130859375 -1466.409912109375 -1463.9755859375 -1461.6715087890625 -1459.489501953125 -1457.4149169921875 -1455.440673828125 -1453.563720703125 -1451.78955078125 -1450.1453857421875 -1448.5208740234375 -1446.9981689453125 -1445.50732421875 -1443.978515625 -99999 -99999 -99999 -99999 -99999 -99999 -99999 -99999 -99999 -99999 -99999 -99999 -99999
 -99999 -99999 -99999 -99999 -99999 -99999 -99999 -99999 -99999 -99999 -99999 -99999 -99999 -99999 -99999 -99999 -99999 -99999 -99999 -99999 -99999 -99999 -99999 -99999 -99999 -99999 -99999 -99999 -99999 -1295.985595703125 -1298.880859375 -1301.5181884765625 -1303.8905029296875 -1305.98486328125 -1308.046875 -1310.2320556640625 -1312.6766357421875 -1315.7801513671875 -1319.7158203125 -1324.46142578125 -1330.3531494140625 -1337.3909912109375 -1345.4783935546875 -1354.32666015625 -1364.393798828125 -1375.5299072265625 -1387.6416015625 -1400.71728515625 -1415.0264892578125 -1430.047607421875 -1446.0047607421875 -1462.627197265625 -1479.69580078125 -1496.7957763671875 -1513.839111328125 -1530.34423828125 -1546.0401611328125 -1560.813232421875 -1574.3236083984375 -1586.761474609375 -1597.5833740234375 -1607.34619140625 -1615.882080078125 -1623.384765625 -1629.61767578125 -1635.0616455078125 -1639.718505859375 -1643.5029296875 -1646.712646484375 -1649.3983154296875 -1651.602294921875 -1653.32861328125 -1654.6004638671875 -1655.5224609375 -1656.108154296875 -1656.3702392578125 -1656.286865234375 -1655.83154296875 -1654.9779052734375 -1653.5030517578125 -1651.22607421875 -1647.964111328125 -1644.3936767578125 -1640.578857421875 -1636.521484375 -1632.264892578125 -1627.833251953125 -1623.2637939453125 -1618.630126953125 -1613.9554443359375 -1609.2767333984375 -1604.6201171875 -1599.9810791015625 -1595.3997802734375 -1590.9412841796875 -1586.615234375 -1582.39404296875 -1578.3966064453125 -1574.6510009765625 -1571.141845703125 -1567.950439453125 -1565.2088623046875 -1562.8851318359375 -1560.9747314453125 -1559.567138671875 -1558.72509765625 -1558.543701171875 -1558.91650390625 -1559.8111572265625 -1561.247802734375 -1563.3106689453125 -1565.8916015625 -1568.8267822265625 -1572.041748046875 -1575.463134765625 -1578.9951171875 -1582.55517578125 -1585.98388671875 -1589.237060546875 -1592.27197265625 -1595.124267578125 -1597.8292236328125 -1600.4461669921875 -1602.961669921875 -1605.40625 -1607.8211669921875 -1610.191162109375 -1612.5146484375 -1614.190185546875 -1614.464111328125 -1613.5863037109375 -1611.9598388671875 -1609.8470458984375 -1607.3797607421875 -1604.8211669921875 -1602.6092529296875 -1600.9893798828125 -1599.6580810546875 -1597.83251953125 -1595.6141357421875 -1593.0145263671875 -1590.04296875 -1586.6160888671875 -1582.921630859375 -1578.829833984375 -1574.4022216796875 -1569.7572021484375 -1564.915771484375 -1559.9276123046875 -1554.783935546875 -1549.625732421875 -1544.4779052734375 -1539.3609619140625 -1534.336669921875 -1529.392333984375 -1524.5513916015625 -1519.8238525390625 -1515.2684326171875 -1510.820068359375 -1506.4984130859375 -1502.320556640625 -1498.3006591796875 -1494.4674072265625 -1490.700927734375 -1487.131591796875 -1483.6800537109375 -1480.3592529296875 -1477.159423828125 -1474.09130859375 -1471.1646728515625 -1468.3533935546875 -1465.64599609375 -1463.048583984375 -1460.57861328125 -1458.22998046875 -1455.9833984375 -1453.836669921875 -1451.789794921875 -1449.894287109375 -1448.056396484375 -1446.2681884765625 -1444.5941162109375 -1442.9595947265625 -1441.38818359375 -1439.8505859375 -99999 -99999 -99999 -99999 -99999 -99999 -99999 -99999 -99999 -99999 -99999 -99999 -99999 -99999
 -99999 -99999 -99999 -99999 -99999 -99999 -99999 -99999 -99999 -99999 -99999 -99999 -99999 -99999 -99999 -99999 -99999 -99999 -99999 -99999 -99999 -99999 -99999 -99999 -99999 -99999 -99999 -99999 -99999 -99999 -1300.6783447265625 -1303.1260986328125 -1305.237060546875 -1307.049072265625 -1308.638916015625 -1310.2147216796875 -1312.1744384765625 -1314.6165771484375 -1318.2076416015625 -1322.8955078125 -1328.6556396484375 -1335.3641357421875 -1343.2576904296875 -1352.3797607421875 -1362.22607421875 -1373.4888916015625 -1385.736328125 -1398.9803466796875 -1413.4454345703125 -1428.9483642578125 -1445.2105712890625 -1462.405517578125 -1480.0303955078125 -1497.8389892578125 -1515.4571533203125 -1532.671875 -1548.73974609375 -1563.80126953125 -1577.6820068359375 -1589.75390625 -1600.6781005859375 -1610.251708984375 -1618.1982421875 -1625.14794921875 -1630.9398193359375 -1635.67431640625 -1639.6790771484375 -1643.0220947265625 -1645.780029296875 -1647.9471435546875 -1649.6505126953125 -1650.9730224609375 -1651.9599609375 -1652.63427734375 -1652.9512939453125 -1652.96240234375 -1652.7310791015625 -1652.282470703125 -1651.63623046875 -1650.482666015625 -1647.917236328125 -1644.4473876953125 -1640.6981201171875 -1636.686767578125 -1632.3768310546875 -1627.9166259765625 -1623.251220703125 -1618.4625244140625 -1613.6038818359375 -1608.7000732421875 -1603.78857421875 -1598.88916015625 -1594.0606689453125 -1589.332763671875 -1584.723388671875 -1580.2784423828125 -1576.09814453125 -1572.11279296875 -1568.4261474609375 -1565.1099853515625 -1562.16259765625 -1559.5301513671875 -1557.3216552734375 -1555.66015625 -1554.523681640625 -1553.8746337890625 -1553.7281494140625 -1554.093505859375 -1555.1083984375 -1556.6563720703125 -1558.6566162109375 -1561.1044921875 -1563.8680419921875 -1567.017333984375 -1570.3349609375 -1573.74658203125 -1577.1937255859375 -1580.5860595703125 -1583.839111328125 -1586.9468994140625 -1589.886962890625 -1592.6905517578125 -1595.402587890625 -1598.041748046875 -1600.6241455078125 -1603.1517333984375 -1605.6141357421875 -1607.9803466796875 -1609.859619140625 -1610.586669921875 -1609.4525146484375 -1607.8487548828125 -1605.9510498046875 -1603.77001953125 -1601.400390625 -1599.8016357421875 -1598.49072265625 -1597.05126953125 -1595.2022705078125 -1592.833740234375 -1589.96240234375 -1586.7333984375 -1583.1705322265625 -1579.1932373046875 -1574.827392578125 -1570.1685791015625 -1565.2373046875 -1560.0482177734375 -1554.716064453125 -1549.3291015625 -1543.9283447265625 -1538.536376953125 -1533.277099609375 -1528.0526123046875 -1522.9942626953125 -1518.068115234375 -1513.2747802734375 -1508.609375 -1504.1204833984375 -1499.8128662109375 -1495.662109375 -1491.6607666015625 -1487.814697265625 -1484.12158203125 -1480.5755615234375 -1477.1650390625 -1473.9114990234375 -1470.79150390625 -1467.7962646484375 -1464.9154052734375 -1462.1492919921875 -1459.52294921875 -1457.0135498046875 -1454.6077880859375 -1452.310302734375 -1450.1182861328125 -1448.048095703125 -1446.051025390625 -1444.1090087890625 -1442.2950439453125 -1440.5546875 -1438.8773193359375 -1437.2547607421875 -1435.68408203125 -99999 -99999 -99999 -99999 -99999 -99999 -99999 -99999 -99999 -99999 -99999 -99999 -99999 -99999 -99999
 -99999 -99999 -99999 -99999 -99999 -99999 -99999 -99999 -99999 -99999 -99999 -99999 -99999 -99999 -99999 -99999 -99999 -99999 -99999 -99999 -99999 -99999 -99999 -99999 -99999 -99999 -99999 -99999 -99999 -99999 -1302.4053955078125 -1304.84228515625 -1306.8411865234375 -1308.3138427734375 -1309.38037109375 -1310.3402099609375 -1311.502197265625 -1313.419189453125 -1316.6932373046875 -1320.986328125 -1326.718505859375 -1333.6710205078125 -1341.6434326171875 -1350.458740234375 -1360.3829345703125 -1371.560791015625 -1383.7135009765625 -1397.1378173828125 -1411.77490234375 -1427.4837646484375 -1444.276123046875 -1462.0726318359375 -1480.3753662109375 -1499.1112060546875 -1517.5325927734375 -1535.3236083984375 -1551.9859619140625 -1567.38037109375 -1581.307861328125 -1593.5133056640625 -1604.0111083984375 -1612.828125 -1620.5289306640625 -1626.88037109375 -1631.9061279296875 -1636.155517578125 -1639.6285400390625 -1642.3236083984375 -1644.41064453125 -1646.068115234375 -1647.345947265625 -1648.2979736328125 -1648.9041748046875 -1649.2308349609375 -1649.2938232421875 -1649.1099853515625 -1648.6871337890625 -1648.0252685546875 -1647.19775390625 -1645.9219970703125 -1643.7554931640625 -1640.279541015625 -1636.42333984375 -1632.26806640625 -1627.8878173828125 -1623.227783203125 -1618.3795166015625 -1613.400634765625 -1608.3475341796875 -1603.2147216796875 -1598.05859375 -1592.9483642578125 -1587.9190673828125 -1583.0262451171875 -1578.3204345703125 -1573.7926025390625 -1569.5718994140625 -1565.6669921875 -1562.089599609375 -1558.835205078125 -1555.9744873046875 -1553.584228515625 -1551.6507568359375 -1550.150634765625 -1549.09521484375 -1548.5279541015625 -1548.5623779296875 -1549.0885009765625 -1550.08544921875 -1551.541748046875 -1553.493896484375 -1555.9368896484375 -1558.6451416015625 -1561.6566162109375 -1564.8367919921875 -1568.180908203125 -1571.5406494140625 -1574.8560791015625 -1578.1033935546875 -1581.2421875 -1584.20263671875 -1587.04638671875 -1589.796142578125 -1592.4420166015625 -1595.0223388671875 -1597.510498046875 -1599.872802734375 -1602.1676025390625 -1603.7081298828125 -1604.137939453125 -1603.533203125 -1602.11865234375 -1600.6270751953125 -1599.037353515625 -1597.8056640625 -1596.71337890625 -1595.6593017578125 -1594.10498046875 -1591.8878173828125 -1589.20556640625 -1586.201416015625 -1582.845458984375 -1579.1212158203125 -1574.9117431640625 -1570.363037109375 -1565.328369140625 -1560.0474853515625 -1554.5311279296875 -1548.9302978515625 -1543.29638671875 -1537.6678466796875 -1532.090087890625 -1526.654541015625 -1521.337158203125 -1516.156005859375 -1511.1263427734375 -1506.2606201171875 -1501.6002197265625 -1497.1199951171875 -1492.8050537109375 -1488.664306640625 -1484.68359375 -1480.8782958984375 -1477.227294921875 -1473.7703857421875 -1470.4317626953125 -1467.24072265625 -1464.17529296875 -1461.2352294921875 -1458.4490966796875 -1455.7808837890625 -1453.22900390625 -1450.7850341796875 -1448.4432373046875 -1446.238525390625 -1444.052734375 -1442.0147705078125 -1440.0743408203125 -1438.2105712890625 -1436.418701171875 -1434.694580078125 -1433.04052734375 -1431.43408203125 -99999 -99999 -99999 -99999 -99999 -99999 -99999 -99999 -99999 -99999 -99999 -99999 -99999 -99999 -99999 -99999
 -99999 -99999 -99999 -99999 -99999 -99999 -99999 -99999 -99999 -99999 -99999 -99999 -99999 -99999 -99999 -99999 -99999 -99999 -99999 -99999 -99999 -99999 -99999 -99999 -99999 -99999 -99999 -99999 -99999 -99999 -99999 -1306.564453125 -1308.44775390625 -1309.724609375 -1310.28564453125 -1310.60693359375 -1311.060791015625 -1312.3094482421875 -1314.973388671875 -1319.490966796875 -1325.34326171875 -1332.2518310546875 -1340.1729736328125 -1349.0557861328125 -1358.7620849609375 -1369.7872314453125 -1382.10205078125 -1395.5863037109375 -1410.3175048828125 -1426.331298828125 -1443.4503173828125 -1461.8101806640625 -1480.923095703125 -1500.3436279296875 -1519.61474609375 -1538.218017578125 -1555.4029541015625 -1571.127197265625 -1585.17724609375 -1597.0074462890625 -1607.3338623046875 -1615.896240234375 -1622.893310546875 -1628.4622802734375 -1632.966064453125 -1636.42236328125 -1639.0704345703125 -1641.11962890625 -1642.68359375 -1643.89892578125 -1644.6458740234375 -1645.1451416015625 -1645.4287109375 -1645.4862060546875 -1645.315185546875 -1644.7940673828125 -1644.0699462890625 -1643.2147216796875 -1642.1490478515625 -1640.8480224609375 -1638.49267578125 -1635.39404296875 -1631.7054443359375 -1627.5428466796875 -1623.0570068359375 -1618.2528076171875 -1613.2899169921875 -1608.100341796875 -1602.8294677734375 -1597.4610595703125 -1592.1181640625 -1586.8282470703125 -1581.6021728515625 -1576.538818359375 -1571.705810546875 -1567.1348876953125 -1562.885986328125 -1558.9661865234375 -1555.4267578125 -1552.350830078125 -1549.6986083984375 -1547.4566650390625 -1545.6351318359375 -1544.267578125 -1543.44384765625 -1543.060791015625 -1543.107177734375 -1543.626953125 -1544.656005859375 -1546.1761474609375 -1548.0909423828125 -1550.3701171875 -1553.01171875 -1555.9447021484375 -1559.06787109375 -1562.30859375 -1565.5789794921875 -1568.856201171875 -1572.0498046875 -1575.1143798828125 -1578.072265625 -1580.9105224609375 -1583.6160888671875 -1586.1815185546875 -1588.6611328125 -1591.0611572265625 -1593.24853515625 -1595.1351318359375 -1596.55322265625 -1597.1068115234375 -1596.4708251953125 -1594.9027099609375 -1593.4208984375 -1592.73095703125 -1592.7503662109375 -1592.525146484375 -1591.6513671875 -1590.0758056640625 -1587.672119140625 -1584.6868896484375 -1581.4783935546875 -1578.115234375 -1574.25537109375 -1569.93115234375 -1565.05859375 -1559.8045654296875 -1554.1527099609375 -1548.421142578125 -1542.5428466796875 -1536.6920166015625 -1530.857421875 -1525.1162109375 -1519.5306396484375 -1514.1055908203125 -1508.8070068359375 -1503.756591796875 -1498.9029541015625 -1494.19921875 -1489.6982421875 -1485.4296875 -1481.324951171875 -1477.39892578125 -1473.6932373046875 -1470.1197509765625 -1466.7091064453125 -1463.4410400390625 -1460.31201171875 -1457.357177734375 -1454.5341796875 -1451.836181640625 -1449.2130126953125 -1446.7528076171875 -1444.39111328125 -1442.0894775390625 -1439.92822265625 -1437.8660888671875 -1435.8856201171875 -1433.9825439453125 -1432.153564453125 -1430.4072265625 -1428.72314453125 -1427.0860595703125 -99999 -99999 -99999 -99999 -99999 -99999 -99999 -99999 -99999 -99999 -99999 -99999 -99999 -99999 -99999 -99999 -99999
 -99999 -99999 -99999 -99999 -99999 -99999 -99999 -99999 -99999 -99999 -99999 -99999 -99999 -99999 -99999 -99999 -99999 -99999 -99999 -99999 -99999 -99999 -99999 -99999 -99999 -99999 -99999 -99999 -99999 -99999 -99999 -1308.2249755859375 -1310.1937255859375 -1311.4588623046875 -1311.59814453125 -1310.8746337890625 -1310.330322265625 -1311.1063232421875 -1313.27734375 -1317.9884033203125 -1324.249267578125 -1331.643798828125 -1339.507080078125 -1348.038330078125 -1357.6094970703125 -1368.6141357421875 -1380.7261962890625 -1394.2620849609375 -1409.0030517578125 -1425.1473388671875 -1442.6414794921875 -1461.525146484375 -1481.3486328125 -1501.95458984375 -1522.0618896484375 -1541.45166015625 -1559.250732421875 -1575.295654296875 -1589.24658203125 -1601.010498046875 -1610.82177734375 -1618.60302734375 -1624.9925537109375 -1629.823974609375 -1633.3924560546875 -1636.1353759765625 -1638.2071533203125 -1639.6986083984375 -1640.523681640625 -1641.0389404296875 -1641.337646484375 -1641.5355224609375 -1641.5401611328125 -1641.3016357421875 -1640.8216552734375 -1640.0987548828125 -1639.2003173828125 -1638.2320556640625 -1637.1119384765625 -1635.526123046875 -1633.28955078125 -1630.2486572265625 -1626.5858154296875 -1622.4378662109375 -1617.8917236328125 -1613.0091552734375 -1607.8773193359375 -1602.5675048828125 -1597.1214599609375 -1591.5947265625 -1586.0357666015625 -1580.5152587890625 -1575.1021728515625 -1569.854248046875 -1564.85693359375 -1560.216064453125 -1555.92333984375 -1552.0687255859375 -1548.6473388671875 -1545.657470703125 -1543.132080078125 -1541.04052734375 -1539.418701171875 -1538.244140625 -1537.5028076171875 -1537.184814453125 -1537.340087890625 -1537.9281005859375 -1538.9542236328125 -1540.411376953125 -1542.2957763671875 -1544.53271484375 -1547.10205078125 -1549.91943359375 -1552.9515380859375 -1556.12646484375 -1559.3460693359375 -1562.540283203125 -1565.6539306640625 -1568.6727294921875 -1571.5601806640625 -1574.2747802734375 -1576.841796875 -1579.2799072265625 -1581.6378173828125 -1583.7728271484375 -1585.70849609375 -1587.4442138671875 -1588.7154541015625 -1589.34033203125 -1589.069580078125 -1587.709716796875 -1586.365966796875 -1586.1363525390625 -1586.3895263671875 -1586.521728515625 -1585.984130859375 -1584.5367431640625 -1581.988037109375 -1578.851318359375 -1575.584228515625 -1572.238037109375 -1568.57763671875 -1564.2017822265625 -1559.16162109375 -1553.513671875 -1547.5457763671875 -1541.540771484375 -1535.40234375 -1529.388916015625 -1523.35791015625 -1517.5374755859375 -1511.844482421875 -1506.337158203125 -1501.050537109375 -1495.9305419921875 -1491.046630859375 -1486.43701171875 -1481.9710693359375 -1477.7252197265625 -1473.7197265625 -1469.8753662109375 -1466.213134765625 -1462.7171630859375 -1459.381591796875 -1456.23583984375 -1453.24072265625 -1450.361083984375 -1447.5997314453125 -1445.0186767578125 -1442.5001220703125 -1440.0743408203125 -1437.79736328125 -1435.6212158203125 -1433.531494140625 -1431.5211181640625 -1429.5880126953125 -1427.75830078125 -1425.989990234375 -1424.2763671875 -99999 -99999 -99999 -99999 -99999 -99999 -99999 -99999 -99999 -99999 -99999 -99999 -99999 -99999 -99999 -99999 -99999 -99999 -99999
 -99999 -99999 -99999 -99999 -99999 -99999 -99999 -99999 -99999 -99999 -99999 -99999 -99999 -99999 -99999 -99999 -99999 -99999 -99999 -99999 -99999 -99999 -99999 -99999 -99999 -99999 -99999 -99999 -99999 -99999 -99999 -1309.552978515625 -1311.63818359375 -1313.28515625 -1312.8463134765625 -1311.391357421875 -1310.1790771484375 -1310.05517578125 -1311.8438720703125 -1316.937744140625 -1324.4595947265625 -1331.947021484375 -1339.6331787109375 -1347.87841796875 -1357.0806884765625 -1367.9095458984375 -1380.074951171875 -1393.5599365234375 -1408.272705078125 -1424.37451171875 -1442.0113525390625 -1461.296875 -1482.1746826171875 -1503.4716796875 -1524.7279052734375 -1544.8514404296875 -1563.30029296875 -1579.658935546875 -1593.4344482421875 -1604.8145751953125 -1613.891357421875 -1621.282470703125 -1626.7265625 -1630.599853515625 -1633.5711669921875 -1635.625244140625 -1636.7703857421875 -1637.417236328125 -1637.7310791015625 -1637.7823486328125 -1637.5994873046875 -1637.2960205078125 -1637.03466796875 -1636.6951904296875 -1636.0926513671875 -1635.17431640625 -1634.2105712890625 -1633.1888427734375 -1631.9794921875 -1630.298095703125 -1627.9320068359375 -1624.9317626953125 -1621.243896484375 -1617.057861328125 -1612.4703369140625 -1607.518798828125 -1602.2984619140625 -1596.853515625 -1591.2091064453125 -1585.489013671875 -1579.7237548828125 -1573.985107421875 -1568.351806640625 -1562.970947265625 -1557.873046875 -1553.0987548828125 -1548.768798828125 -1544.956298828125 -1541.6002197265625 -1538.732666015625 -1536.336181640625 -1534.4755859375 -1533.0439453125 -1532.03369140625 -1531.3980712890625 -1531.17138671875 -1531.356689453125 -1531.981689453125 -1532.97705078125 -1534.3839111328125 -1536.1748046875 -1538.3543701171875 -1540.8599853515625 -1543.61572265625 -1546.5594482421875 -1549.639892578125 -1552.7835693359375 -1555.923583984375 -1558.9891357421875 -1561.8985595703125 -1564.62890625 -1567.18896484375 -1569.5865478515625 -1571.8275146484375 -1573.8370361328125 -1575.7071533203125 -1577.39404296875 -1578.956787109375 -1580.1268310546875 -1580.9989013671875 -1581.2332763671875 -1580.303955078125 -1579.200927734375 -1578.778076171875 -1578.7503662109375 -1578.708740234375 -1578.25341796875 -1576.787109375 -1574.318359375 -1571.4931640625 -1568.4737548828125 -1565.349365234375 -1561.905029296875 -1557.6552734375 -1552.0780029296875 -1546.18212890625 -1539.9814453125 -1533.7476806640625 -1527.4923095703125 -1521.3316650390625 -1515.2718505859375 -1509.3076171875 -1503.5426025390625 -1498.0655517578125 -1492.744384765625 -1487.70849609375 -1482.8447265625 -1478.2264404296875 -1473.873046875 -1469.7237548828125 -1465.7803955078125 -1462.0133056640625 -1458.4423828125 -1455.0809326171875 -1451.9005126953125 -1448.815185546875 -1445.9154052734375 -1443.1712646484375 -1440.5009765625 -1437.9678955078125 -1435.5791015625 -1433.2935791015625 -1431.095458984375 -1428.9837646484375 -1426.967041015625 -1425.049072265625 -1423.1951904296875 -1421.4083251953125 -1419.6768798828125 -99999 -99999 -99999 -99999 -99999 -99999 -99999 -99999 -99999 -99999 -99999 -99999 -99999 -99999 -99999 -99999 -99999 -99999 -99999 -99999
 -99999 -99999 -99999 -99999 -99999 -99999 -99999 -99999 -99999 -99999 -99999 -99999 -99999 -99999 -99999 -99999 -99999 -99999 -99999 -99999 -99999 -99999 -99999 -99999 -99999 -99999 -99999 -99999 -99999 -99999 -99999 -1310.4322509765625 -1312.4564208984375 -1313.89013671875 -1313.5498046875 -1311.80859375 -1310.351806640625 -1309.9461669921875 -1311.4215087890625 -1317.081298828125 -1325.525390625 -1333.6077880859375 -1340.6102294921875 -1348.2958984375 -1357.156494140625 -1367.8621826171875 -1380.2454833984375 -1393.68017578125 -1408.174072265625 -1424.1329345703125 -1441.6180419921875 -1461.2266845703125 -1482.854248046875 -1505.61376953125 -1527.771728515625 -1548.7725830078125 -1567.59375 -1584.048095703125 -1597.4139404296875 -1608.34765625 -1617.1669921875 -1623.4998779296875 -1627.981689453125 -1631.1134033203125 -1632.9666748046875 -1634.10791015625 -1634.700927734375 -1634.8162841796875 -1634.4591064453125 -1633.72900390625 -1632.9974365234375 -1632.408935546875 -1631.9427490234375 -1631.59228515625 -1631.041748046875 -1630.08544921875 -1629.124267578125 -1628.1148681640625 -1626.8101806640625 -1624.968017578125 -1622.501708984375 -1619.38720703125 -1615.6947021484375 -1611.4764404296875 -1606.8646240234375 -1601.8414306640625 -1596.5048828125 -1590.9208984375 -1585.1707763671875 -1579.2542724609375 -1573.282470703125 -1567.3555908203125 -1561.5107421875 -1555.869873046875 -1550.5887451171875 -1545.7694091796875 -1541.396240234375 -1537.577880859375 -1534.306640625 -1531.6103515625 -1529.45703125 -1527.7664794921875 -1526.493896484375 -1525.59130859375 -1525.0479736328125 -1524.9136962890625 -1525.126220703125 -1525.7327880859375 -1526.703125 -1528.044677734375 -1529.7784423828125 -1531.884521484375 -1534.2930908203125 -1536.975341796875 -1539.853759765625 -1542.895751953125 -1545.972412109375 -1549.022705078125 -1551.9752197265625 -1554.7718505859375 -1557.3868408203125 -1559.7713623046875 -1561.865478515625 -1563.7020263671875 -1565.459228515625 -1567.0330810546875 -1568.4163818359375 -1569.546875 -1570.53271484375 -1571.4173583984375 -1571.90234375 -1571.387939453125 -1570.70947265625 -1570.21240234375 -1569.9407958984375 -1569.5919189453125 -1568.84326171875 -1567.447021484375 -1565.384521484375 -1562.8153076171875 -1560.042724609375 -1557.157470703125 -1554.056884765625 -1549.4093017578125 -1543.8431396484375 -1537.748046875 -1531.46923828125 -1525.0855712890625 -1518.744873046875 -1512.5101318359375 -1506.380859375 -1500.46728515625 -1494.7266845703125 -1489.215576171875 -1483.962890625 -1478.9395751953125 -1474.19970703125 -1469.6953125 -1465.425537109375 -1461.34423828125 -1457.5028076171875 -1453.912353515625 -1450.4598388671875 -1447.1900634765625 -1444.132080078125 -1441.20751953125 -1438.4017333984375 -1435.734619140625 -1433.2342529296875 -1430.83447265625 -1428.533447265625 -1426.33642578125 -1424.2303466796875 -1422.2261962890625 -1420.302001953125 -1418.44140625 -1416.6455078125 -1414.922607421875 -99999 -99999 -99999 -99999 -99999 -99999 -99999 -99999 -99999 -99999 -99999 -99999 -99999 -99999 -99999 -99999 -99999 -99999 -99999 -99999 -99999
 -99999 -99999 -99999 -99999 -99999 -99999 -99999 -99999 -99999 -99999 -99999 -99999 -99999 -99999 -99999 -99999 -99999 -99999 -99999 -99999 -99999 -99999 -99999 -99999 -99999 -99999 -99999 -99999 -99999 -99999 -1308.5810546875 -1310.9464111328125 -1312.77099609375 -1313.7506103515625 -1313.5330810546875 -1312.510009765625 -1311.537109375 -1311.534912109375 -1313.2825927734375 -1319.252197265625 -1327.4539794921875 -1335.1336669921875 -1342.2130126953125 -1349.674560546875 -1358.266357421875 -1369.11181640625 -1381.5557861328125 -1394.837646484375 -1409.1292724609375 -1424.6016845703125 -1441.487060546875 -1461.141357421875 -1484.255126953125 -1507.8214111328125 -1530.967529296875 -1552.3302001953125 -1571.91943359375 -1588.1236572265625 -1601.2496337890625 -1611.7392578125 -1619.3939208984375 -1624.9857177734375 -1628.3782958984375 -1630.440185546875 -1631.6324462890625 -1632.11279296875 -1631.9532470703125 -1631.3394775390625 -1630.3841552734375 -1629.1905517578125 -1627.7825927734375 -1626.5887451171875 -1625.94140625 -1625.6632080078125 -1625.373291015625 -1624.5816650390625 -1623.7403564453125 -1622.7789306640625 -1621.4412841796875 -1619.4925537109375 -1616.901611328125 -1613.7440185546875 -1610.043212890625 -1605.77783203125 -1601.071044921875 -1595.960205078125 -1590.57666015625 -1584.9332275390625 -1579.033447265625 -1572.9462890625 -1566.7698974609375 -1560.55419921875 -1554.4857177734375 -1548.6695556640625 -1543.187744140625 -1538.18017578125 -1533.7615966796875 -1529.9725341796875 -1526.862548828125 -1524.3919677734375 -1522.4183349609375 -1520.8876953125 -1519.7686767578125 -1519.06396484375 -1518.636962890625 -1518.52392578125 -1518.720703125 -1519.2545166015625 -1520.1541748046875 -1521.46728515625 -1523.1278076171875 -1525.12109375 -1527.438720703125 -1530.0587158203125 -1532.9029541015625 -1535.861572265625 -1538.8814697265625 -1541.862060546875 -1544.7357177734375 -1547.4251708984375 -1549.802734375 -1551.8875732421875 -1553.7227783203125 -1555.3056640625 -1556.60595703125 -1557.705810546875 -1558.710693359375 -1559.5797119140625 -1560.31884765625 -1560.9818115234375 -1561.3974609375 -1561.2767333984375 -1560.863525390625 -1560.4232177734375 -1559.9639892578125 -1559.3553466796875 -1558.4212646484375 -1557.056396484375 -1555.2010498046875 -1552.8963623046875 -1550.2169189453125 -1547.2257080078125 -1543.9454345703125 -1539.5450439453125 -1534.013671875 -1527.982177734375 -1521.7503662109375 -1515.4769287109375 -1509.15869140625 -1502.915283203125 -1496.841552734375 -1490.926513671875 -1485.289306640625 -1479.8448486328125 -1474.6923828125 -1469.7999267578125 -1465.162109375 -1460.7252197265625 -1456.5736083984375 -1452.6993408203125 -1448.9735107421875 -1445.495361328125 -1442.232177734375 -1439.1181640625 -1436.1544189453125 -1433.35009765625 -1430.7330322265625 -1428.2115478515625 -1425.8111572265625 -1423.5234375 -1421.325927734375 -1419.256103515625 -1417.2572021484375 -1415.33251953125 -1413.48095703125 -1411.7120361328125 -1410.01123046875 -99999 -99999 -99999 -99999 -99999 -99999 -99999 -99999 -99999 -99999 -99999 -99999 -99999 -99999 -99999 -99999 -99999 -99999 -99999 -99999 -99999 -99999
 -99999 -99999 -99999 -99999 -99999 -99999 -99999 -99999 -99999 -99999 -99999 -99999 -99999 -99999 -99999 -99999 -99999 -99999 -99999 -99999 -99999 -99999 -99999 -99999 -99999 -99999 -99999 -99999 -99999 -99999 -1309.0980224609375 -1311.240478515625 -1312.8424072265625 -1313.8680419921875 -1314.009521484375 -1313.683349609375 -1313.6002197265625 -1314.54345703125 -1317.3343505859375 -1322.7298583984375 -1329.5750732421875 -1336.885009765625 -1344.21875 -1352.182861328125 -1360.9814453125 -1371.806640625 -1384.1007080078125 -1397.2105712890625 -1411.4022216796875 -1426.7550048828125 -1443.2913818359375 -1463.2022705078125 -1486.402099609375 -1510.7696533203125 -1533.9429931640625 -1555.985107421875 -1576.016845703125 -1591.69140625 -1603.67578125 -1613.523681640625 -1621.1923828125 -1625.540283203125 -1627.7755126953125 -1629.1207275390625 -1629.283203125 -1628.9718017578125 -1628.3538818359375 -1627.3372802734375 -1625.8475341796875 -1623.8724365234375 -1621.6314697265625 -1619.56640625 -1618.6982421875 -1618.3408203125 -1618.2354736328125 -1618.1552734375 -1617.999755859375 -1617.2144775390625 -1615.854736328125 -1613.8892822265625 -1611.3140869140625 -1608.0440673828125 -1604.20849609375 -1599.8486328125 -1595.126220703125 -1590.030517578125 -1584.587890625 -1578.8287353515625 -1572.8258056640625 -1566.5341796875 -1560.1588134765625 -1553.7255859375 -1547.378173828125 -1541.25439453125 -1535.521240234375 -1530.377197265625 -1525.9638671875 -1522.29443359375 -1519.2979736328125 -1516.9227294921875 -1515.1904296875 -1513.98681640625 -1513.111328125 -1512.50634765625 -1512.126220703125 -1512.005126953125 -1512.2060546875 -1512.6771240234375 -1513.488525390625 -1514.60888671875 -1516.1182861328125 -1518.064697265625 -1520.3564453125 -1522.893798828125 -1525.65380859375 -1528.5831298828125 -1531.5643310546875 -1534.4822998046875 -1537.276123046875 -1539.7821044921875 -1541.96337890625 -1543.8570556640625 -1545.288330078125 -1546.34814453125 -1547.1942138671875 -1547.8968505859375 -1548.54296875 -1549.0950927734375 -1549.5970458984375 -1550.01708984375 -1550.2569580078125 -1550.20654296875 -1549.8800048828125 -1549.3939208984375 -1548.8067626953125 -1548.0574951171875 -1547.0574951171875 -1545.6395263671875 -1543.8568115234375 -1541.6773681640625 -1539.092041015625 -1536.0821533203125 -1532.46826171875 -1528.0894775390625 -1522.898193359375 -1517.1138916015625 -1511.06884765625 -1504.867919921875 -1498.6444091796875 -1492.5732421875 -1486.60693359375 -1480.8251953125 -1475.29248046875 -1469.9971923828125 -1464.9776611328125 -1460.1572265625 -1455.6614990234375 -1451.464111328125 -1447.439453125 -1443.7025146484375 -1440.2012939453125 -1436.87744140625 -1433.738037109375 -1430.7913818359375 -1428.017578125 -1425.3763427734375 -1422.8807373046875 -1420.4818115234375 -1418.224365234375 -1416.0780029296875 -1414.0157470703125 -1412.0374755859375 -1410.136474609375 -1408.330810546875 -1406.6025390625 -1404.9417724609375 -99999 -99999 -99999 -99999 -99999 -99999 -99999 -99999 -99999 -99999 -99999 -99999 -99999 -99999 -99999 -99999 -99999 -99999 -99999 -99999 -99999 -99999 -99999
 -99999 -99999 -99999 -99999 -99999 -99999 -99999 -99999 -99999 -99999 -99999 -99999 -99999 -99999 -99999 -99999 -99999 -99999 -99999 -99999 -99999 -99999 -99999 -99999 -99999 -99999 -99999 -99999 -99999 -1306.9168701171875 -1309.49560546875 -1311.6661376953125 -1313.385498046875 -1314.4276123046875 -1315.1541748046875 -1315.6541748046875 -1316.5919189453125 -1318.46435546875 -1321.631591796875 -1326.32958984375 -1332.702880859375 -1339.7322998046875 -1347.3743896484375 -1355.5987548828125 -1364.98876953125 -1375.7247314453125 -1387.7685546875 -1400.871826171875 -1415.193603515625 -1430.5272216796875 -1447.34375 -1467.0450439453125 -1490.015380859375 -1513.441162109375 -1536.197998046875 -1557.7750244140625 -1577.9029541015625 -1592.37451171875 -1604.05517578125 -1614.7801513671875 -1621.032470703125 -1624.1903076171875 -1625.9400634765625 -1626.32861328125 -1625.818359375 -1624.9453125 -1623.8935546875 -1622.532958984375 -1620.777099609375 -1618.032958984375 -1614.3516845703125 -1611.1524658203125 -1609.0618896484375 -1608.6964111328125 -1609.8955078125 -1611.1617431640625 -1611.7939453125 -1611.5350341796875 -1610.3607177734375 -1608.227294921875 -1605.4512939453125 -1602.127685546875 -1598.2718505859375 -1593.9224853515625 -1589.054443359375 -1583.9091796875 -1578.4683837890625 -1572.66357421875 -1566.5478515625 -1560.199951171875 -1553.5828857421875 -1546.839599609375 -1540.21484375 -1533.75048828125 -1527.83740234375 -1522.5491943359375 -1517.9971923828125 -1514.244140625 -1511.433837890625 -1509.529296875 -1508.103759765625 -1507.109375 -1506.41943359375 -1505.9639892578125 -1505.6668701171875 -1505.52783203125 -1505.5804443359375 -1505.867431640625 -1506.5357666015625 -1507.5892333984375 -1509.0074462890625 -1510.784912109375 -1512.9027099609375 -1515.42822265625 -1518.1905517578125 -1521.070068359375 -1524.0186767578125 -1526.9359130859375 -1529.617919921875 -1531.9862060546875 -1533.9637451171875 -1535.5731201171875 -1536.6219482421875 -1537.1728515625 -1537.46435546875 -1537.657470703125 -1537.909423828125 -1538.214111328125 -1538.476318359375 -1538.654541015625 -1538.666015625 -1538.452392578125 -1538.0697021484375 -1537.5345458984375 -1536.8214111328125 -1535.958740234375 -1534.84912109375 -1533.406494140625 -1531.556884765625 -1529.3428955078125 -1526.7640380859375 -1523.7525634765625 -1520.021484375 -1515.664306640625 -1510.6822509765625 -1505.226318359375 -1499.4234619140625 -1493.436279296875 -1487.4552001953125 -1481.5411376953125 -1475.7781982421875 -1470.170654296875 -1464.8048095703125 -1459.6029052734375 -1454.7552490234375 -1450.1434326171875 -1445.8370361328125 -1441.8179931640625 -1438.0361328125 -1434.4765625 -1431.126708984375 -1427.988037109375 -1425.0623779296875 -1422.3138427734375 -1419.686279296875 -1417.2003173828125 -1414.8646240234375 -1412.6495361328125 -1410.5321044921875 -1408.5057373046875 -1406.564208984375 -1404.734130859375 -1402.9725341796875 -1401.2528076171875 -99999 -99999 -99999 -99999 -99999 -99999 -99999 -99999 -99999 -99999 -99999 -99999 -99999 -99999 -99999 -99999 -99999 -99999 -99999 -99999 -99999 -99999 -99999 -99999 -99999
 -99999 -99999 -99999 -99999 -99999 -99999 -99999 -99999 -99999 -99999 -99999 -99999 -99999 -99999 -99999 -99999 -99999 -99999 -99999 -99999 -99999 -99999 -99999 -99999 -99999 -99999 -99999 -99999 -1304.55859375 -1307.552978515625 -1310.177490234375 -1312.361328125 -1314.2066650390625 -1315.625732421875 -1316.8763427734375 -1318.1866455078125 -1319.83154296875 -1322.1392822265625 -1325.81005859375 -1330.84130859375 -1336.7479248046875 -1343.6717529296875 -1351.377197265625 -1359.898681640625 -1369.5618896484375 -1380.373046875 -1392.617431640625 -1405.6878662109375 -1420.1358642578125 -1435.865478515625 -1453.1053466796875 -1472.830078125 -1493.954345703125 -1515.98876953125 -1537.6575927734375 -1558.1356201171875 -1576.321533203125 -1591.03759765625 -1602.4783935546875 -1611.66162109375 -1618.2874755859375 -1621.1922607421875 -1622.36962890625 -1622.242431640625 -1621.29736328125 -1619.9322509765625 -1618.543212890625 -1616.9771728515625 -1615.009765625 -1611.3814697265625 -1605.9658203125 -1600.2744140625 -1597.0316162109375 -1597.9437255859375 -1601.28662109375 -1604.4686279296875 -1606.2994384765625 -1605.86669921875 -1604.51220703125 -1602.3175048828125 -1599.5146484375 -1596.177001953125 -1592.1632080078125 -1587.6785888671875 -1582.8536376953125 -1577.6851806640625 -1572.26416015625 -1566.5623779296875 -1560.4617919921875 -1553.9130859375 -1547.0372314453125 -1540.0157470703125 -1533.021240234375 -1526.2730712890625 -1519.9521484375 -1514.2904052734375 -1509.6705322265625 -1506.2408447265625 -1503.718017578125 -1502.0303955078125 -1500.9659423828125 -1500.375244140625 -1499.9658203125 -1499.61376953125 -1499.2935791015625 -1499.036865234375 -1498.930908203125 -1499.0579833984375 -1499.4910888671875 -1500.2833251953125 -1501.533935546875 -1503.24560546875 -1505.31884765625 -1507.7137451171875 -1510.3751220703125 -1513.2877197265625 -1516.2520751953125 -1519.1219482421875 -1521.7945556640625 -1524.1318359375 -1525.935546875 -1527.10693359375 -1527.7265625 -1527.8336181640625 -1527.502197265625 -1527.060302734375 -1526.972900390625 -1526.9742431640625 -1526.932373046875 -1526.8267822265625 -1526.583740234375 -1526.16845703125 -1525.6214599609375 -1524.9415283203125 -1524.1290283203125 -1523.102783203125 -1521.8387451171875 -1520.3089599609375 -1518.501220703125 -1516.3106689453125 -1513.6253662109375 -1510.4302978515625 -1506.77783203125 -1502.61767578125 -1497.805908203125 -1492.56494140625 -1487.0814208984375 -1481.3206787109375 -1475.6134033203125 -1469.9066162109375 -1464.32861328125 -1458.8927001953125 -1453.738037109375 -1448.77197265625 -1444.1607666015625 -1439.8001708984375 -1435.7200927734375 -1431.8905029296875 -1428.2896728515625 -1424.9486083984375 -1421.84619140625 -1418.9510498046875 -1416.1995849609375 -1413.6063232421875 -1411.193603515625 -1408.9163818359375 -1406.748291015625 -1404.69580078125 -1402.729736328125 -1400.8538818359375 -1399.0472412109375 -1397.298095703125 -1395.646728515625 -99999 -99999 -99999 -99999 -99999 -99999 -99999 -99999 -99999 -99999 -99999 -99999 -99999 -99999 -99999 -99999 -99999 -99999 -99999 -99999 -99999 -99999 -99999 -99999 -99999 -99999
 -99999 -99999 -99999 -99999 -99999 -99999 -99999 -99999 -99999 -99999 -99999 -99999 -99999 -99999 -99999 -99999 -99999 -99999 -99999 -99999 -99999 -99999 -99999 -99999 -99999 -99999 -99999 -1301.9840087890625 -1305.2650146484375 -1308.2562255859375 -1310.968505859375 -1313.395751953125 -1315.41650390625 -1317.3582763671875 -1319.15966796875 -1320.9410400390625 -1323.3037109375 -1326.402587890625 -1330.3858642578125 -1335.3052978515625 -1341.34521484375 -1348.4696044921875 -1356.287109375 -1365.10400390625 -1375.0389404296875 -1385.9423828125 -1397.9564208984375 -1411.3380126953125 -1425.7626953125 -1441.5184326171875 -1458.8162841796875 -1477.46923828125 -1497.6173095703125 -1518.0577392578125 -1538.242919921875 -1556.9307861328125 -1573.850830078125 -1587.5565185546875 -1598.8048095703125 -1607.69873046875 -1613.2177734375 -1616.1739501953125 -1617.359130859375 -1617.2442626953125 -1616.0079345703125 -1614.3226318359375 -1612.3914794921875 -1610.2266845703125 -1607.7373046875 -1603.896240234375 -1596.7308349609375 -1590.104248046875 -1586.323974609375 -1588.27880859375 -1593.3837890625 -1598.2933349609375 -1600.560546875 -1600.19775390625 -1598.632080078125 -1596.150390625 -1593.238525390625 -1589.9365234375 -1585.9947509765625 -1581.366943359375 -1576.4332275390625 -1571.3531494140625 -1566.0341796875 -1560.433837890625 -1554.373046875 -1547.732421875 -1540.6396484375 -1533.29248046875 -1525.87060546875 -1518.7509765625 -1512.080322265625 -1506.2288818359375 -1501.4005126953125 -1497.85595703125 -1495.72607421875 -1494.6046142578125 -1494.1263427734375 -1493.921875 -1493.7822265625 -1493.525634765625 -1493.1339111328125 -1492.6541748046875 -1492.238525390625 -1492.07958984375 -1492.2591552734375 -1492.857421875 -1493.921875 -1495.4410400390625 -1497.3974609375 -1499.75830078125 -1502.4091796875 -1505.2725830078125 -1508.2518310546875 -1511.165771484375 -1513.8433837890625 -1516.0384521484375 -1517.6380615234375 -1518.5750732421875 -1518.8489990234375 -1518.4515380859375 -1517.520263671875 -1516.5689697265625 -1515.92041015625 -1515.5711669921875 -1515.14306640625 -1514.6685791015625 -1514.1234130859375 -1513.4898681640625 -1512.7857666015625 -1511.896484375 -1510.870849609375 -1509.6912841796875 -1508.3323974609375 -1506.7156982421875 -1504.7830810546875 -1502.5091552734375 -1499.8729248046875 -1496.7471923828125 -1493.10888671875 -1489.0338134765625 -1484.3983154296875 -1479.3736572265625 -1474.1463623046875 -1468.723388671875 -1463.251953125 -1457.7628173828125 -1452.3975830078125 -1447.240966796875 -1442.3380126953125 -1437.679931640625 -1433.2789306640625 -1429.1456298828125 -1425.258544921875 -1421.66552734375 -1418.3790283203125 -1415.29345703125 -1412.4039306640625 -1409.68212890625 -1407.17724609375 -1404.82958984375 -1402.62255859375 -1400.5162353515625 -1398.521240234375 -1396.6282958984375 -1394.79931640625 -1393.066650390625 -1391.4205322265625 -1389.8348388671875 -99999 -99999 -99999 -99999 -99999 -99999 -99999 -99999 -99999 -99999 -99999 -99999 -99999 -99999 -99999 -99999 -99999 -99999 -99999 -99999 -99999 -99999 -99999 -99999 -99999 -99999 -99999
 -99999 -99999 -99999 -99999 -99999 -99999 -99999 -99999 -99999 -99999 -99999 -99999 -99999 -99999 -99999 -99999 -99999 -99999 -99999 -99999 -99999 -99999 -99999 -99999 -99999 -1295.3812255859375 -1299.1407470703125 -1302.7025146484375 -1306.0670166015625 -1309.2052001953125 -1312.0352783203125 -1314.72265625 -1317.102294921875 -1319.3231201171875 -1321.662353515625 -1324.221923828125 -1327.143798828125 -1330.62451171875 -1334.9942626953125 -1340.3218994140625 -1346.577392578125 -1353.636474609375 -1361.70263671875 -1370.811767578125 -1380.740966796875 -1391.7939453125 -1403.939208984375 -1417.3583984375 -1431.8251953125 -1447.420654296875 -1464.4134521484375 -1482.3729248046875 -1501.2818603515625 -1520.2239990234375 -1538.6688232421875 -1555.9732666015625 -1570.9637451171875 -1584.04931640625 -1594.1427001953125 -1602.113525390625 -1607.49169921875 -1610.513427734375 -1611.6644287109375 -1611.280517578125 -1609.9454345703125 -1607.981689453125 -1605.6156005859375 -1602.9010009765625 -1599.42041015625 -1594.8321533203125 -1589.4483642578125 -1583.6656494140625 -1580.94140625 -1582.6318359375 -1587.0782470703125 -1591.8394775390625 -1594.0318603515625 -1593.671630859375 -1592.0545654296875 -1589.618408203125 -1586.82470703125 -1583.6793212890625 -1579.648681640625 -1574.7996826171875 -1569.812744140625 -1564.8182373046875 -1559.6729736328125 -1554.4185791015625 -1548.460205078125 -1541.7071533203125 -1534.3062744140625 -1526.656494140625 -1518.9952392578125 -1511.4537353515625 -1504.242431640625 -1497.82666015625 -1492.7872314453125 -1489.5301513671875 -1487.9708251953125 -1487.5556640625 -1487.6446533203125 -1487.879150390625 -1487.99560546875 -1487.8489990234375 -1487.3173828125 -1486.5035400390625 -1485.6656494140625 -1485.1385498046875 -1485.0159912109375 -1485.3692626953125 -1486.238037109375 -1487.5816650390625 -1489.3697509765625 -1491.5706787109375 -1494.1490478515625 -1496.993408203125 -1500.0228271484375 -1502.986572265625 -1505.6981201171875 -1507.8487548828125 -1509.2921142578125 -1509.8486328125 -1509.5322265625 -1508.5177001953125 -1507.222900390625 -1505.906005859375 -1504.7825927734375 -1503.851318359375 -1503.01904296875 -1502.2635498046875 -1501.46630859375 -1500.541259765625 -1499.5582275390625 -1498.4742431640625 -1497.3033447265625 -1495.9791259765625 -1494.480712890625 -1492.7574462890625 -1490.7578125 -1488.4459228515625 -1485.718017578125 -1482.630859375 -1479.0548095703125 -1475.033935546875 -1470.661376953125 -1465.960205078125 -1460.9302978515625 -1455.7442626953125 -1450.50244140625 -1445.3599853515625 -1440.2718505859375 -1435.3955078125 -1430.728515625 -1426.2864990234375 -1422.0845947265625 -1418.2381591796875 -1414.6998291015625 -1411.37939453125 -1408.283935546875 -1405.4254150390625 -1402.7872314453125 -1400.3795166015625 -1398.0902099609375 -1395.9520263671875 -1393.9515380859375 -1392.03564453125 -1390.20166015625 -1388.4915771484375 -1386.85498046875 -1385.2847900390625 -1383.756591796875 -99999 -99999 -99999 -99999 -99999 -99999 -99999 -99999 -99999 -99999 -99999 -99999 -99999 -99999 -99999 -99999 -99999 -99999 -99999 -99999 -99999 -99999 -99999 -99999 -99999 -99999 -99999 -99999
 -99999 -99999 -99999 -99999 -99999 -99999 -99999 -99999 -99999 -99999 -99999 -99999 -99999 -99999 -99999 -99999 -99999 -99999 -99999 -99999 -99999 -99999 -99999 -99999 -1292.1414794921875 -1296.098388671875 -1299.9287109375 -1303.5570068359375 -1306.9998779296875 -1310.2535400390625 -1313.3095703125 -1316.19482421875 -1318.9925537109375 -1321.7779541015625 -1324.576416015625 -1327.562744140625 -1330.977783203125 -1335.10302734375 -1339.88916015625 -1345.47802734375 -1351.89697265625 -1359.2132568359375 -1367.5738525390625 -1376.7342529296875 -1386.8800048828125 -1397.97705078125 -1410.2174072265625 -1423.5140380859375 -1437.77587890625 -1453.141845703125 -1469.449951171875 -1486.546142578125 -1504.13671875 -1521.4617919921875 -1538.5140380859375 -1553.970458984375 -1567.8682861328125 -1579.9287109375 -1589.3209228515625 -1596.5911865234375 -1601.5618896484375 -1604.2523193359375 -1605.340087890625 -1604.9129638671875 -1603.4935302734375 -1601.3594970703125 -1598.600830078125 -1595.4234619140625 -1591.9755859375 -1587.7904052734375 -1583.3973388671875 -1579.6627197265625 -1578.031982421875 -1578.9678955078125 -1581.65869140625 -1584.7327880859375 -1586.393310546875 -1586.4837646484375 -1585.15185546875 -1582.905517578125 -1580.2652587890625 -1576.9962158203125 -1572.903564453125 -1568.1685791015625 -1563.22119140625 -1558.2703857421875 -1553.202880859375 -1548.0709228515625 -1542.3868408203125 -1535.456787109375 -1527.845947265625 -1520.0321044921875 -1512.214599609375 -1504.4439697265625 -1496.9383544921875 -1489.9171142578125 -1484.266845703125 -1481.12451171875 -1480.6845703125 -1481.0308837890625 -1481.63720703125 -1482.2982177734375 -1482.761474609375 -1482.600830078125 -1481.7059326171875 -1480.5111083984375 -1479.2578125 -1478.1514892578125 -1477.5704345703125 -1477.7061767578125 -1478.4359130859375 -1479.6497802734375 -1481.291015625 -1483.2957763671875 -1485.746826171875 -1488.5208740234375 -1491.52783203125 -1494.6002197265625 -1497.3878173828125 -1499.4625244140625 -1500.5494384765625 -1500.5938720703125 -1499.7532958984375 -1498.1904296875 -1496.2900390625 -1494.577392578125 -1493.135009765625 -1491.910400390625 -1490.785400390625 -1489.6884765625 -1488.592529296875 -1487.4420166015625 -1486.216552734375 -1484.913330078125 -1483.55419921875 -1482.0823974609375 -1480.432373046875 -1478.592529296875 -1476.5269775390625 -1474.1539306640625 -1471.462890625 -1468.375732421875 -1464.9189453125 -1461.041015625 -1456.819091796875 -1452.287841796875 -1447.52978515625 -1442.656982421875 -1437.7275390625 -1432.8297119140625 -1428.008056640625 -1423.3328857421875 -1418.8675537109375 -1414.7364501953125 -1410.8612060546875 -1407.2349853515625 -1403.9207763671875 -1400.87353515625 -1398.1256103515625 -1395.529296875 -1393.168701171875 -1391.0045166015625 -1388.97314453125 -1387.02392578125 -1385.1904296875 -1383.5040283203125 -1381.9061279296875 -1380.3609619140625 -1378.8563232421875 -1377.4136962890625 -99999 -99999 -99999 -99999 -99999 -99999 -99999 -99999 -99999 -99999 -99999 -99999 -99999 -99999 -99999 -99999 -99999 -99999 -99999 -99999 -99999 -99999 -99999 -99999 -99999 -99999 -99999 -99999 -99999
 -99999 -99999 -99999 -99999 -99999 -99999 -99999 -99999 -99999 -99999 -99999 -99999 -99999 -99999 -99999 -99999 -99999 -99999 -99999 -99999 -99999 -99999 -1284.4739990234375 -1288.725830078125 -1292.8619384765625 -1296.870849609375 -1300.75244140625 -1304.4976806640625 -1308.1123046875 -1311.5189208984375 -1314.845947265625 -1318.0504150390625 -1321.156494140625 -1324.2750244140625 -1327.55126953125 -1331.1724853515625 -1335.145263671875 -1339.6737060546875 -1344.749755859375 -1350.696533203125 -1357.3460693359375 -1364.955078125 -1373.510986328125 -1382.79736328125 -1393.07568359375 -1404.250244140625 -1416.5347900390625 -1429.6666259765625 -1443.698486328125 -1458.6552734375 -1474.3499755859375 -1490.56494140625 -1506.932373046875 -1523.11962890625 -1538.4996337890625 -1552.7628173828125 -1565.34619140625 -1575.8841552734375 -1584.6644287109375 -1591.0401611328125 -1595.486328125 -1597.9705810546875 -1598.8924560546875 -1598.457275390625 -1596.9136962890625 -1594.6287841796875 -1591.851318359375 -1588.739501953125 -1585.562255859375 -1582.2689208984375 -1578.931640625 -1576.38623046875 -1574.961181640625 -1575.2674560546875 -1576.782958984375 -1578.4974365234375 -1579.4873046875 -1579.384521484375 -1578.2177734375 -1576.081787109375 -1573.4041748046875 -1570.076171875 -1566.099609375 -1561.5306396484375 -1556.69482421875 -1551.7340087890625 -1546.613525390625 -1541.38720703125 -1535.593994140625 -1528.705078125 -1521.1011962890625 -1513.344482421875 -1505.534912109375 -1497.677978515625 -1489.987060546875 -1482.3922119140625 -1474.9034423828125 -1473.4383544921875 -1473.9095458984375 -1475.003662109375 -1476.146240234375 -1477.2906494140625 -1477.982666015625 -1477.8236083984375 -1476.6396484375 -1474.56982421875 -1472.599853515625 -1471.098876953125 -1470.178466796875 -1470.0333251953125 -1470.645751953125 -1471.7125244140625 -1473.1595458984375 -1474.9794921875 -1477.1654052734375 -1479.7314453125 -1482.7662353515625 -1485.8917236328125 -1488.783203125 -1490.8509521484375 -1491.4881591796875 -1490.7469482421875 -1488.9163818359375 -1486.7044677734375 -1484.59814453125 -1482.772705078125 -1481.200927734375 -1479.7938232421875 -1478.5001220703125 -1477.142578125 -1475.735595703125 -1474.3463134765625 -1472.9066162109375 -1471.414794921875 -1469.8184814453125 -1468.16357421875 -1466.406005859375 -1464.49072265625 -1462.365478515625 -1459.958984375 -1457.241943359375 -1454.1981201171875 -1450.8382568359375 -1447.1094970703125 -1443.0517578125 -1438.7587890625 -1434.26904296875 -1429.6517333984375 -1424.9322509765625 -1420.228515625 -1415.62744140625 -1411.228515625 -1406.9954833984375 -1403.1087646484375 -1399.49267578125 -1396.226318359375 -1393.1922607421875 -1390.408447265625 -1387.931640625 -1385.6822509765625 -1383.5504150390625 -1381.592041015625 -1379.7706298828125 -1378.0980224609375 -1376.52490234375 -1375.00634765625 -1373.5528564453125 -1372.165771484375 -99999 -99999 -99999 -99999 -99999 -99999 -99999 -99999 -99999 -99999 -99999 -99999 -99999 -99999 -99999 -99999 -99999 -99999 -99999 -99999 -99999 -99999 -99999 -99999 -99999 -99999 -99999 -99999 -99999 -99999 -99999
 -99999 -99999 -99999 -99999 -99999 -99999 -99999 -99999 -99999 -99999 -99999 -99999 -99999 -99999 -99999 -99999 -99999 -99999 -99999 -99999 -99999 -1280.75048828125 -1285.11572265625 -1289.4029541015625 -1293.6029052734375 -1297.7073974609375 -1301.69140625 -1305.544677734375 -1309.284423828125 -1312.927978515625 -1316.4954833984375 -1319.952392578125 -1323.4560546875 -1327.0693359375 -1330.82568359375 -1334.7896728515625 -1339.2584228515625 -1344.145751953125 -1349.7274169921875 -1355.9305419921875 -1362.8919677734375 -1370.8345947265625 -1379.406982421875 -1388.830078125 -1399.1287841796875 -1410.5172119140625 -1422.5712890625 -1435.5140380859375 -1449.3060302734375 -1463.7293701171875 -1478.69384765625 -1494.0445556640625 -1509.19140625 -1524.02783203125 -1538.2783203125 -1550.983642578125 -1562.43212890625 -1572.16455078125 -1580.0355224609375 -1585.6710205078125 -1589.7509765625 -1591.993896484375 -1592.65478515625 -1592.0189208984375 -1590.4810791015625 -1588.2666015625 -1585.681640625 -1582.9647216796875 -1580.272216796875 -1577.557861328125 -1574.9932861328125 -1572.89453125 -1571.6484375 -1571.4063720703125 -1571.786376953125 -1572.53369140625 -1572.855712890625 -1572.470703125 -1571.2308349609375 -1569.1766357421875 -1566.41552734375 -1563.0811767578125 -1559.1845703125 -1554.7950439453125 -1550.02734375 -1545.0126953125 -1539.8258056640625 -1534.3223876953125 -1528.1959228515625 -1521.4595947265625 -1514.162841796875 -1506.60791015625 -1498.8861083984375 -1491.245849609375 -1483.7034912109375 -1476.5611572265625 -1470.056884765625 -1467.9598388671875 -1468.510498046875 -1469.6851806640625 -1470.94189453125 -1472.1885986328125 -1473.1722412109375 -1473.2330322265625 -1471.229248046875 -1468.72509765625 -1466.243408203125 -1463.9791259765625 -1462.5908203125 -1462.587890625 -1463.13671875 -1464.039794921875 -1465.1519775390625 -1466.523193359375 -1468.39892578125 -1470.7314453125 -1473.5792236328125 -1476.8009033203125 -1479.7877197265625 -1481.583740234375 -1481.547607421875 -1479.4718017578125 -1476.60595703125 -1474.29736328125 -1472.2696533203125 -1470.539306640625 -1469.03271484375 -1467.6309814453125 -1466.180419921875 -1464.6724853515625 -1463.099853515625 -1461.4571533203125 -1459.731689453125 -1458.029541015625 -1456.283935546875 -1454.4539794921875 -1452.5738525390625 -1450.570556640625 -1448.385498046875 -1445.9853515625 -1443.2823486328125 -1440.2880859375 -1437.0093994140625 -1433.4615478515625 -1429.609130859375 -1425.4954833984375 -1421.196044921875 -1416.7745361328125 -1412.295654296875 -1407.7791748046875 -1403.38720703125 -1399.2388916015625 -1395.304931640625 -1391.64794921875 -1388.27978515625 -1385.1810302734375 -1382.4810791015625 -1380.0484619140625 -1377.8238525390625 -1375.772216796875 -1373.9161376953125 -1372.27392578125 -1370.7137451171875 -1369.2235107421875 -1367.822509765625 -1366.5067138671875 -1365.2796630859375 -99999 -99999 -99999 -99999 -99999 -99999 -99999 -99999 -99999 -99999 -99999 -99999 -99999 -99999 -99999 -99999 -99999 -99999 -99999 -99999 -99999 -99999 -99999 -99999 -99999 -99999 -99999 -99999 -99999 -99999 -99999 -99999
 -99999 -99999 -99999 -99999 -99999 -99999 -99999 -99999 -99999 -99999 -99999 -99999 -99999 -99999 -99999 -99999 -99999 -99999 -99999 -1272.3505859375 -1276.852294921875 -1281.3360595703125 -1285.763427734375 -1290.1190185546875 -1294.38916015625 -1298.5670166015625 -1302.6630859375 -1306.6756591796875 -1310.6136474609375 -1314.4632568359375 -1318.2818603515625 -1322.0704345703125 -1325.9095458984375 -1329.8702392578125 -1334.0208740234375 -1338.4554443359375 -1343.33984375 -1348.661865234375 -1354.4759521484375 -1361.0025634765625 -1368.37060546875 -1376.310791015625 -1385.123779296875 -1394.7733154296875 -1405.0234375 -1416.38134765625 -1428.422119140625 -1441.1834716796875 -1454.5849609375 -1468.5675048828125 -1482.8948974609375 -1497.290283203125 -1511.496826171875 -1525.28173828125 -1538.2015380859375 -1549.85986328125 -1560.378662109375 -1568.8394775390625 -1575.62744140625 -1580.9581298828125 -1584.28076171875 -1586.1246337890625 -1586.677001953125 -1586.1192626953125 -1584.552978515625 -1582.4923095703125 -1580.3062744140625 -1578.0201416015625 -1575.6529541015625 -1573.30078125 -1571.072998046875 -1569.2178955078125 -1567.9892578125 -1567.3609619140625 -1567.14306640625 -1567.0740966796875 -1566.71875 -1565.8477783203125 -1564.33740234375 -1562.24462890625 -1559.510009765625 -1556.1533203125 -1552.200927734375 -1547.85546875 -1543.171630859375 -1538.18212890625 -1532.830078125 -1527.1455078125 -1521.0389404296875 -1514.3597412109375 -1507.27490234375 -1499.9632568359375 -1492.6177978515625 -1485.365478515625 -1478.3458251953125 -1471.96533203125 -1467.080078125 -1464.7052001953125 -1464.2366943359375 -1464.709228515625 -1465.6146240234375 -1466.638427734375 -1467.3671875 -1467.04345703125 -1465.1885986328125 -1462.59326171875 -1459.8775634765625 -1457.3658447265625 -1455.7890625 -1455.5411376953125 -1456.0042724609375 -1456.60546875 -1457.4010009765625 -1458.3804931640625 -1459.5870361328125 -1461.3123779296875 -1464.0235595703125 -1467.256103515625 -1470.0418701171875 -1471.4306640625 -1469.267578125 -1466.13916015625 -1463.3724365234375 -1461.14501953125 -1459.5205078125 -1458.235107421875 -1456.97607421875 -1455.6671142578125 -1454.215576171875 -1452.50146484375 -1450.663818359375 -1448.838623046875 -1446.89404296875 -1444.9642333984375 -1443.06103515625 -1441.1162109375 -1439.1279296875 -1437.02001953125 -1434.7655029296875 -1432.343505859375 -1429.7099609375 -1426.7911376953125 -1423.5941162109375 -1420.1729736328125 -1416.49755859375 -1412.6048583984375 -1408.4853515625 -1404.2491455078125 -1399.9732666015625 -1395.6995849609375 -1391.5355224609375 -1387.539794921875 -1383.751220703125 -1380.277099609375 -1377.1895751953125 -1374.4464111328125 -1371.966552734375 -1369.7572021484375 -1367.8001708984375 -1366.08447265625 -1364.4794921875 -1363.0272216796875 -1361.67919921875 -1360.4183349609375 -1359.2607421875 -1358.11083984375 -99999 -99999 -99999 -99999 -99999 -99999 -99999 -99999 -99999 -99999 -99999 -99999 -99999 -99999 -99999 -99999 -99999 -99999 -99999 -99999 -99999 -99999 -99999 -99999 -99999 -99999 -99999 -99999 -99999 -99999 -99999 -99999 -99999
 -99999 -99999 -99999 -99999 -99999 -99999 -99999 -99999 -99999 -99999 -99999 -99999 -99999 -99999 -99999 -99999 -99999 -99999 -1268.210205078125 -1272.803466796875 -1277.39111328125 -1281.9219970703125 -1286.402099609375 -1290.828369140625 -1295.186767578125 -1299.489013671875 -1303.7059326171875 -1307.86572265625 -1312.013916015625 -1316.090576171875 -1320.1217041015625 -1324.2147216796875 -1328.36962890625 -1332.7452392578125 -1337.24853515625 -1342.0947265625 -1347.283203125 -1352.9095458984375 -1359.0694580078125 -1365.9775390625 -1373.474853515625 -1381.7132568359375 -1390.7418212890625 -1400.24267578125 -1410.72802734375 -1421.966796875 -1433.84716796875 -1446.2249755859375 -1459.3966064453125 -1472.83203125 -1486.498291015625 -1500.1630859375 -1513.562255859375 -1526.2025146484375 -1538.22998046875 -1548.8074951171875 -1558.002685546875 -1565.670166015625 -1572.0203857421875 -1576.61181640625 -1579.4256591796875 -1580.95654296875 -1581.314208984375 -1580.689697265625 -1579.285888671875 -1577.5523681640625 -1575.638671875 -1573.598876953125 -1571.474609375 -1569.323974609375 -1567.322998046875 -1565.5843505859375 -1564.17236328125 -1563.1141357421875 -1562.3697509765625 -1561.6220703125 -1560.7342529296875 -1559.502685546875 -1557.789306640625 -1555.408935546875 -1552.49365234375 -1549.0859375 -1545.2244873046875 -1540.9398193359375 -1536.2684326171875 -1531.1767578125 -1525.8013916015625 -1520.0146484375 -1513.923095703125 -1507.455322265625 -1500.671142578125 -1493.7154541015625 -1486.7645263671875 -1479.9444580078125 -1473.7230224609375 -1468.2110595703125 -1464.0008544921875 -1461.246826171875 -1460.13720703125 -1460.0631103515625 -1460.38427734375 -1460.797607421875 -1461.0003662109375 -1460.3338623046875 -1458.641845703125 -1456.4183349609375 -1453.9635009765625 -1451.5562744140625 -1449.9566650390625 -1449.4019775390625 -1449.321533203125 -1449.4793701171875 -1449.8265380859375 -1450.3165283203125 -1451.06103515625 -1452.4656982421875 -1454.589599609375 -1457.408447265625 -1459.4432373046875 -1458.07177734375 -1454.97412109375 -1451.6256103515625 -1449.256591796875 -1447.9468994140625 -1447.0047607421875 -1446.1668701171875 -1445.2518310546875 -1444.1319580078125 -1442.6890869140625 -1440.834228515625 -1438.73828125 -1436.6075439453125 -1434.487060546875 -1432.3963623046875 -1430.3656005859375 -1428.2601318359375 -1426.1221923828125 -1423.9449462890625 -1421.7081298828125 -1419.298583984375 -1416.6368408203125 -1413.8084716796875 -1410.7353515625 -1407.4791259765625 -1404.0262451171875 -1400.2562255859375 -1396.4345703125 -1392.35546875 -1388.2239990234375 -1384.0726318359375 -1379.98388671875 -1376.1240234375 -1372.5579833984375 -1369.3253173828125 -1366.430419921875 -1363.8546142578125 -1361.59814453125 -1359.70947265625 -1358.0152587890625 -1356.5299072265625 -1355.186279296875 -1353.9693603515625 -1352.8260498046875 -1351.75390625 -1350.755615234375 -99999 -99999 -99999 -99999 -99999 -99999 -99999 -99999 -99999 -99999 -99999 -99999 -99999 -99999 -99999 -99999 -99999 -99999 -99999 -99999 -99999 -99999 -99999 -99999 -99999 -99999 -99999 -99999 -99999 -99999 -99999 -99999 -99999 -99999
 -99999 -99999 -99999 -99999 -99999 -99999 -99999 -99999 -99999 -99999 -99999 -99999 -99999 -99999 -99999 -99999 -1259.1739501953125 -1263.892578125 -1268.63525390625 -1273.281982421875 -1277.8876953125 -1282.4866943359375 -1287.04931640625 -1291.5504150390625 -1296.000732421875 -1300.41015625 -1304.779052734375 -1309.111328125 -1313.4010009765625 -1317.705078125 -1321.9901123046875 -1326.375 -1330.8853759765625 -1335.522216796875 -1340.3743896484375 -1345.51171875 -1351.102294921875 -1357.0989990234375 -1363.5565185546875 -1370.673583984375 -1378.3544921875 -1386.707275390625 -1395.63671875 -1405.3802490234375 -1415.7808837890625 -1426.9180908203125 -1438.6761474609375 -1450.890625 -1463.6937255859375 -1476.6651611328125 -1489.7802734375 -1502.781982421875 -1515.298828125 -1527.2601318359375 -1538.2698974609375 -1547.93408203125 -1556.5814208984375 -1563.5084228515625 -1568.75439453125 -1572.62109375 -1575.1748046875 -1576.501220703125 -1576.585693359375 -1575.892822265625 -1574.75390625 -1573.2862548828125 -1571.57275390625 -1569.6307373046875 -1567.5953369140625 -1565.545654296875 -1563.55322265625 -1561.722900390625 -1560.1630859375 -1558.820068359375 -1557.5673828125 -1556.3134765625 -1555.0279541015625 -1553.305908203125 -1551.1932373046875 -1548.656982421875 -1545.680419921875 -1542.199951171875 -1538.3275146484375 -1533.9544677734375 -1529.2073974609375 -1524.146728515625 -1518.778076171875 -1513.108154296875 -1507.11474609375 -1500.7938232421875 -1494.3223876953125 -1487.73095703125 -1481.2474365234375 -1475.0675048828125 -1469.2957763671875 -1464.2423095703125 -1460.4539794921875 -1457.8929443359375 -1456.321533203125 -1455.5435791015625 -1455.326416015625 -1455.23291015625 -1454.8341064453125 -1453.96484375 -1452.5494384765625 -1450.59130859375 -1448.39111328125 -1446.32666015625 -1444.74462890625 -1443.7701416015625 -1443.1490478515625 -1442.7637939453125 -1442.5679931640625 -1442.63037109375 -1443.1534423828125 -1444.421630859375 -1446.32666015625 -1448.1962890625 -1448.047607421875 -1445.7005615234375 -1441.8399658203125 -1438.632080078125 -1436.5264892578125 -1435.8204345703125 -1435.276123046875 -1434.76025390625 -1434.194091796875 -1433.42529296875 -1431.816650390625 -1429.618896484375 -1427.2772216796875 -1424.9031982421875 -1422.6697998046875 -1420.4554443359375 -1418.2406005859375 -1416.0250244140625 -1413.8299560546875 -1411.595458984375 -1409.2711181640625 -1406.842529296875 -1404.28466796875 -1401.5677490234375 -1398.56884765625 -1395.55126953125 -1392.2176513671875 -1388.6865234375 -1384.967041015625 -1381.073974609375 -1377.09326171875 -1373.0120849609375 -1369.0548095703125 -1365.28564453125 -1361.787109375 -1358.6878662109375 -1355.9925537109375 -1353.6676025390625 -1351.7080078125 -1350.0408935546875 -1348.5843505859375 -1347.302490234375 -1346.1500244140625 -1345.096435546875 -1344.156494140625 -99999 -99999 -99999 -99999 -99999 -99999 -99999 -99999 -99999 -99999 -99999 -99999 -99999 -99999 -99999 -99999 -99999 -99999 -99999 -99999 -99999 -99999 -99999 -99999 -99999 -99999 -99999 -99999 -99999 -99999 -99999 -99999 -99999 -99999 -99999 -99999
 -99999 -99999 -99999 -99999 -99999 -99999 -99999 -99999 -99999 -99999 -99999 -99999 -99999 -99999 -1249.88916015625 -1254.6812744140625 -1259.459228515625 -1264.221923828125 -1268.9835205078125 -1273.6768798828125 -1278.3648681640625 -1283.019775390625 -1287.6524658203125 -1292.2557373046875 -1296.8243408203125 -1301.340087890625 -1305.83642578125 -1310.332275390625 -1314.825439453125 -1319.328125 -1323.8902587890625 -1328.5352783203125 -1333.2735595703125 -1338.202392578125 -1343.404541015625 -1348.876953125 -1354.666015625 -1360.8673095703125 -1367.6788330078125 -1374.8992919921875 -1382.739501953125 -1391.2554931640625 -1400.3406982421875 -1410.044921875 -1420.4669189453125 -1431.437255859375 -1442.9342041015625 -1455.0526123046875 -1467.3643798828125 -1479.96923828125 -1492.63623046875 -1504.983642578125 -1517.009033203125 -1528.1710205078125 -1538.600341796875 -1547.5540771484375 -1555.102783203125 -1561.295654296875 -1566.1207275390625 -1569.5404052734375 -1571.499267578125 -1572.3525390625 -1572.41357421875 -1571.9039306640625 -1570.8843994140625 -1569.4774169921875 -1567.7913818359375 -1565.9051513671875 -1563.8807373046875 -1561.81494140625 -1559.7864990234375 -1557.84130859375 -1555.9935302734375 -1554.30712890625 -1552.7459716796875 -1551.06640625 -1549.2376708984375 -1547.1875 -1544.8475341796875 -1542.0838623046875 -1538.9302978515625 -1535.3145751953125 -1531.298095703125 -1526.9149169921875 -1522.2222900390625 -1517.236083984375 -1511.896728515625 -1506.2650146484375 -1500.421875 -1494.3857421875 -1488.177734375 -1482.039794921875 -1475.98876953125 -1470.1490478515625 -1464.96044921875 -1460.511962890625 -1456.8553466796875 -1454.053955078125 -1452.295166015625 -1451.226318359375 -1450.4898681640625 -1449.9097900390625 -1449.267578125 -1448.2724609375 -1446.8597412109375 -1445.0894775390625 -1443.185546875 -1441.3646240234375 -1439.7374267578125 -1438.380126953125 -1437.408447265625 -1436.557861328125 -1435.7745361328125 -1435.1676025390625 -1435.0831298828125 -1436.2822265625 -1437.9923095703125 -1438.53173828125 -1437.6458740234375 -1435.1243896484375 -1431.61083984375 -1428.6566162109375 -1426.6417236328125 -1425.5623779296875 -1424.8905029296875 -1424.357421875 -1423.8194580078125 -1422.9901123046875 -1421.5032958984375 -1418.9803466796875 -1416.4427490234375 -1413.941650390625 -1411.5369873046875 -1409.2091064453125 -1406.9276123046875 -1404.624755859375 -1402.3323974609375 -1399.95654296875 -1397.567138671875 -1395.140380859375 -1392.6561279296875 -1389.9835205078125 -1387.1524658203125 -1384.2166748046875 -1381.128662109375 -1377.8824462890625 -1374.4014892578125 -1370.5980224609375 -1366.64306640625 -1362.6131591796875 -1358.7318115234375 -1354.9957275390625 -1351.623779296875 -1348.6834716796875 -1346.1258544921875 -1344.028076171875 -1342.246337890625 -1340.73876953125 -1339.4493408203125 -1338.3497314453125 -1337.387451171875 -1336.521484375 -99999 -99999 -99999 -99999 -99999 -99999 -99999 -99999 -99999 -99999 -99999 -99999 -99999 -99999 -99999 -99999 -99999 -99999 -99999 -99999 -99999 -99999 -99999 -99999 -99999 -99999 -99999 -99999 -99999 -99999 -99999 -99999 -99999 -99999 -99999 -99999 -99999
 -99999 -99999 -99999 -99999 -99999 -99999 -99999 -99999 -99999 -99999 -99999 -99999 -99999 -1245.2166748046875 -1250.05615234375 -1254.8779296875 -1259.6849365234375 -1264.4862060546875 -1269.31298828125 -1274.0419921875 -1278.794189453125 -1283.5333251953125 -1288.2457275390625 -1292.9306640625 -1297.5894775390625 -1302.250732421875 -1306.91015625 -1311.57373046875 -1316.226806640625 -1320.94677734375 -1325.69091796875 -1330.5552978515625 -1335.5906982421875 -1340.8248291015625 -1346.23095703125 -1351.9124755859375 -1357.963134765625 -1364.4697265625 -1371.369873046875 -1378.841552734375 -1386.80908203125 -1395.263671875 -1404.3349609375 -1414.1319580078125 -1424.4332275390625 -1435.2781982421875 -1446.68212890625 -1458.410400390625 -1470.525634765625 -1482.724609375 -1494.9736328125 -1506.917724609375 -1518.3626708984375 -1529.0382080078125 -1538.760986328125 -1547.0638427734375 -1554.099853515625 -1559.751953125 -1563.8017578125 -1566.5616455078125 -1568.2279052734375 -1568.9735107421875 -1568.937744140625 -1568.369384765625 -1567.3614501953125 -1565.973876953125 -1564.258544921875 -1562.32666015625 -1560.2327880859375 -1558.077880859375 -1555.89453125 -1553.8094482421875 -1551.7855224609375 -1549.771240234375 -1547.7568359375 -1545.7059326171875 -1543.5931396484375 -1541.211669921875 -1538.578125 -1535.5408935546875 -1532.17041015625 -1528.4346923828125 -1524.396240234375 -1520.0155029296875 -1515.2974853515625 -1510.30908203125 -1505.071044921875 -1499.620361328125 -1493.9342041015625 -1488.1240234375 -1482.2706298828125 -1476.3885498046875 -1470.7667236328125 -1465.5096435546875 -1460.678955078125 -1456.4342041015625 -1452.943359375 -1450.302734375 -1448.25634765625 -1446.85986328125 -1445.814208984375 -1444.9002685546875 -1443.9942626953125 -1442.9293212890625 -1441.552734375 -1439.9827880859375 -1438.2879638671875 -1436.542236328125 -1434.9205322265625 -1433.4705810546875 -1432.106201171875 -1430.77783203125 -1429.489013671875 -1428.2618408203125 -1427.2391357421875 -1427.7183837890625 -1429.0400390625 -1429.1290283203125 -1427.9127197265625 -1425.6131591796875 -1422.937255859375 -1420.314208984375 -1418.256103515625 -1416.9031982421875 -1415.8446044921875 -1414.9315185546875 -1414.0341796875 -1412.9677734375 -1411.1485595703125 -1408.877197265625 -1406.409423828125 -1403.848876953125 -1401.366455078125 -1398.8692626953125 -1396.435546875 -1394.055908203125 -1391.6214599609375 -1389.18798828125 -1386.7327880859375 -1384.2451171875 -1381.715576171875 -1379.130859375 -1376.4952392578125 -1373.797607421875 -1370.86083984375 -1367.8253173828125 -1364.4991455078125 -1360.84716796875 -1356.9896240234375 -1353.00048828125 -1349.1109619140625 -1345.391357421875 -1342.021240234375 -1339.188720703125 -1336.81884765625 -1334.84619140625 -1333.2340087890625 -1331.8988037109375 -1330.794921875 -1329.843017578125 -1328.9842529296875 -99999 -99999 -99999 -99999 -99999 -99999 -99999 -99999 -99999 -99999 -99999 -99999 -99999 -99999 -99999 -99999 -99999 -99999 -99999 -99999 -99999 -99999 -99999 -99999 -99999 -99999 -99999 -99999 -99999 -99999 -99999 -99999 -99999 -99999 -99999 -99999 -99999 -99999
 -99999 -99999 -99999 -99999 -99999 -99999 -99999 -99999 -99999 -99999 -99999 -99999 -1240.408447265625 -1245.2860107421875 -1250.1505126953125 -1255.0128173828125 -1259.86767578125 -1264.7088623046875 -1269.596923828125 -1274.372314453125 -1279.1785888671875 -1283.973388671875 -1288.7724609375 -1293.5653076171875 -1298.3497314453125 -1303.1116943359375 -1307.879638671875 -1312.73828125 -1317.5374755859375 -1322.4373779296875 -1327.44287109375 -1332.55908203125 -1337.7755126953125 -1343.1656494140625 -1348.8433837890625 -1354.771240234375 -1361.0206298828125 -1367.7098388671875 -1374.7850341796875 -1382.2945556640625 -1390.319091796875 -1398.8486328125 -1407.9375 -1417.6571044921875 -1427.8397216796875 -1438.45458984375 -1449.5833740234375 -1461.1666259765625 -1472.9530029296875 -1484.9306640625 -1496.82568359375 -1508.4044189453125 -1519.4981689453125 -1529.7999267578125 -1539.0933837890625 -1546.991455078125 -1553.282958984375 -1558.2249755859375 -1561.7955322265625 -1564.1549072265625 -1565.47607421875 -1565.9521484375 -1565.8839111328125 -1565.236572265625 -1564.1365966796875 -1562.6402587890625 -1560.790771484375 -1558.7496337890625 -1556.5526123046875 -1554.2952880859375 -1551.988525390625 -1549.655029296875 -1547.3267822265625 -1545.0587158203125 -1542.795654296875 -1540.42041015625 -1537.9453125 -1535.214599609375 -1532.258056640625 -1529.0052490234375 -1525.498779296875 -1521.6884765625 -1517.5521240234375 -1513.1329345703125 -1508.4544677734375 -1503.51806640625 -1498.3505859375 -1493.0194091796875 -1487.54150390625 -1481.9461669921875 -1476.42431640625 -1470.963134765625 -1465.724365234375 -1460.7271728515625 -1456.204833984375 -1452.31591796875 -1448.9429931640625 -1446.2515869140625 -1444.1790771484375 -1442.50341796875 -1441.2528076171875 -1440.167236328125 -1439.07861328125 -1437.9212646484375 -1436.6326904296875 -1435.1597900390625 -1433.57666015625 -1431.9764404296875 -1430.3729248046875 -1428.80322265625 -1427.2891845703125 -1425.734619140625 -1424.0438232421875 -1422.1239013671875 -1420.34326171875 -1420.0975341796875 -1420.6131591796875 -1420.3021240234375 -1419.2110595703125 -1417.266357421875 -1414.8447265625 -1412.5355224609375 -1410.5101318359375 -1408.7874755859375 -1407.4473876953125 -1406.238037109375 -1405.0091552734375 -1403.545166015625 -1401.678955078125 -1399.45703125 -1396.973388671875 -1394.4444580078125 -1391.9013671875 -1389.375732421875 -1386.8583984375 -1384.3251953125 -1381.8328857421875 -1379.31591796875 -1376.849609375 -1374.3531494140625 -1371.852294921875 -1369.2847900390625 -1366.6929931640625 -1364.0330810546875 -1361.351318359375 -1358.5477294921875 -1355.46533203125 -1351.803955078125 -1347.9761962890625 -1344.031494140625 -1340.1229248046875 -1336.363525390625 -1332.986572265625 -1330.3203125 -1328.08544921875 -1326.3048095703125 -1324.826171875 -1323.583984375 -1322.5531005859375 -1321.6728515625 -99999 -99999 -99999 -99999 -99999 -99999 -99999 -99999 -99999 -99999 -99999 -99999 -99999 -99999 -99999 -99999 -99999 -99999 -99999 -99999 -99999 -99999 -99999 -99999 -99999 -99999 -99999 -99999 -99999 -99999 -99999 -99999 -99999 -99999 -99999 -99999 -99999 -99999 -99999
 -99999 -99999 -99999 -99999 -99999 -99999 -99999 -99999 -99999 -99999 -1230.55908203125 -1235.472412109375 -1240.3839111328125 -1245.2996826171875 -1250.2008056640625 -1255.08837890625 -1259.972900390625 -1264.8572998046875 -1269.792724609375 -1274.6156005859375 -1279.500732421875 -1284.388671875 -1289.260986328125 -1294.1365966796875 -1299.004638671875 -1303.9173583984375 -1308.8509521484375 -1313.80859375 -1318.816162109375 -1323.8922119140625 -1329.0526123046875 -1334.32958984375 -1339.7730712890625 -1345.4122314453125 -1351.2559814453125 -1357.332275390625 -1363.7867431640625 -1370.575439453125 -1377.7354736328125 -1385.3466796875 -1393.3621826171875 -1401.9169921875 -1410.946533203125 -1420.4720458984375 -1430.5169677734375 -1441.0233154296875 -1451.9140625 -1463.244873046875 -1474.7864990234375 -1486.4063720703125 -1497.998779296875 -1509.381103515625 -1520.239013671875 -1530.2733154296875 -1539.2479248046875 -1546.7197265625 -1552.620361328125 -1557.0838623046875 -1560.1239013671875 -1561.8719482421875 -1562.9761962890625 -1563.3092041015625 -1563.08984375 -1562.27880859375 -1560.9403076171875 -1559.279052734375 -1557.314453125 -1555.159423828125 -1552.8173828125 -1550.3565673828125 -1547.8564453125 -1545.3526611328125 -1542.84423828125 -1540.2862548828125 -1537.7135009765625 -1535.0006103515625 -1532.175048828125 -1529.1583251953125 -1525.991455078125 -1522.59423828125 -1518.9193115234375 -1514.9659423828125 -1510.772705078125 -1506.33056640625 -1501.659912109375 -1496.7860107421875 -1491.766357421875 -1486.518310546875 -1481.2530517578125 -1475.9700927734375 -1470.65966796875 -1465.49658203125 -1460.526611328125 -1455.94921875 -1451.7119140625 -1447.9522705078125 -1444.7598876953125 -1442.118408203125 -1439.9500732421875 -1438.1932373046875 -1436.7559814453125 -1435.5093994140625 -1434.3680419921875 -1433.1942138671875 -1431.93994140625 -1430.5992431640625 -1429.1671142578125 -1427.6224365234375 -1426.0516357421875 -1424.468017578125 -1422.8475341796875 -1421.160888671875 -1419.3424072265625 -1417.306640625 -1415.2322998046875 -1413.9083251953125 -1413.377685546875 -1412.676513671875 -1411.3607177734375 -1409.4881591796875 -1407.346923828125 -1405.1705322265625 -1403.0654296875 -1401.22705078125 -1399.57861328125 -1397.986328125 -1396.4053955078125 -1394.660400390625 -1392.7120361328125 -1390.4959716796875 -1388.0975341796875 -1385.6046142578125 -1383.0318603515625 -1380.47265625 -1377.9195556640625 -1375.3914794921875 -1372.865234375 -1370.3455810546875 -1367.824462890625 -1365.310302734375 -1362.80322265625 -1360.324462890625 -1357.754638671875 -1355.1165771484375 -1352.44873046875 -1349.6942138671875 -1346.662841796875 -1343.17431640625 -1339.45654296875 -1335.645263671875 -1331.809326171875 -1328.0869140625 -1324.69287109375 -1322.15576171875 -1320.090576171875 -1318.3953857421875 -1317.0067138671875 -1315.775634765625 -1314.783447265625 -99999 -99999 -99999 -99999 -99999 -99999 -99999 -99999 -99999 -99999 -99999 -99999 -99999 -99999 -99999 -99999 -99999 -99999 -99999 -99999 -99999 -99999 -99999 -99999 -99999 -99999 -99999 -99999 -99999 -99999 -99999 -99999 -99999 -99999 -99999 -99999 -99999 -99999 -99999 -99999
 -99999 -99999 -99999 -99999 -99999 -99999 -99999 -99999 -99999 -1225.537353515625 -1230.422607421875 -1235.36669921875 -1240.303466796875 -1245.2386474609375 -1250.1668701171875 -1255.093994140625 -1260.024169921875 -1264.948974609375 -1269.913818359375 -1274.8199462890625 -1279.7542724609375 -1284.698974609375 -1289.6656494140625 -1294.64208984375 -1299.62646484375 -1304.6334228515625 -1309.6820068359375 -1314.8197021484375 -1319.9371337890625 -1325.157470703125 -1330.5245361328125 -1335.9959716796875 -1341.6103515625 -1347.370849609375 -1353.35498046875 -1359.66845703125 -1366.164306640625 -1373.0377197265625 -1380.2783203125 -1387.9251708984375 -1395.940673828125 -1404.4012451171875 -1413.3497314453125 -1422.72607421875 -1432.5267333984375 -1442.7269287109375 -1453.4638671875 -1464.45947265625 -1475.7216796875 -1487.1658935546875 -1498.485595703125 -1509.6873779296875 -1520.394287109375 -1530.4149169921875 -1539.2493896484375 -1546.5135498046875 -1552.2032470703125 -1555.935302734375 -1558.3017578125 -1559.8319091796875 -1560.7225341796875 -1560.80029296875 -1560.2528076171875 -1559.19873046875 -1557.69921875 -1555.8828125 -1553.73974609375 -1551.3779296875 -1548.8814697265625 -1546.2880859375 -1543.6273193359375 -1540.8720703125 -1538.1612548828125 -1535.318359375 -1532.4337158203125 -1529.4552001953125 -1526.3953857421875 -1523.192626953125 -1519.7708740234375 -1516.1669921875 -1512.341552734375 -1508.3023681640625 -1504.0667724609375 -1499.599365234375 -1494.958251953125 -1490.12890625 -1485.187744140625 -1480.1324462890625 -1475.0250244140625 -1469.909423828125 -1464.894287109375 -1460.0601806640625 -1455.412109375 -1451.0350341796875 -1447.0491943359375 -1443.54443359375 -1440.43310546875 -1437.7791748046875 -1435.5953369140625 -1433.807373046875 -1432.3040771484375 -1430.99267578125 -1429.798095703125 -1428.6629638671875 -1427.4764404296875 -1426.2125244140625 -1424.8751220703125 -1423.4486083984375 -1421.9268798828125 -1420.3203125 -1418.6539306640625 -1416.89892578125 -1414.925537109375 -1412.702880859375 -1410.5091552734375 -1408.7652587890625 -1407.4132080078125 -1405.930908203125 -1404.394287109375 -1402.425537109375 -1400.273193359375 -1398.0601806640625 -1395.923583984375 -1393.9136962890625 -1392.0137939453125 -1390.16064453125 -1388.342529296875 -1386.43603515625 -1384.38427734375 -1382.095947265625 -1379.7056884765625 -1377.2078857421875 -1374.669921875 -1372.114013671875 -1369.5433349609375 -1366.97900390625 -1364.4373779296875 -1361.9351806640625 -1359.4598388671875 -1356.936279296875 -1354.3577880859375 -1351.8331298828125 -1349.2886962890625 -1346.7022705078125 -1344.048095703125 -1341.30029296875 -1338.2552490234375 -1334.9644775390625 -1331.413330078125 -1327.78271484375 -1324.1015625 -1320.5823974609375 -1317.4227294921875 -1314.8851318359375 -1312.817138671875 -1311.1036376953125 -1309.6817626953125 -99999 -99999 -99999 -99999 -99999 -99999 -99999 -99999 -99999 -99999 -99999 -99999 -99999 -99999 -99999 -99999 -99999 -99999 -99999 -99999 -99999 -99999 -99999 -99999 -99999 -99999 -99999 -99999 -99999 -99999 -99999 -99999 -99999 -99999 -99999 -99999 -99999 -99999 -99999 -99999 -99999 -99999
 -99999 -99999 -99999 -99999 -99999 -99999 -99999 -99999 -1220.300537109375 -1225.2774658203125 -1230.2236328125 -1235.1859130859375 -1240.14794921875 -1245.117431640625 -1250.0736083984375 -1255.0294189453125 -1259.9892578125 -1264.9571533203125 -1269.9910888671875 -1274.919677734375 -1279.922607421875 -1284.946533203125 -1289.983642578125 -1295.0408935546875 -1300.118896484375 -1305.2493896484375 -1310.4244384765625 -1315.665771484375 -1320.9544677734375 -1326.3424072265625 -1331.8306884765625 -1337.4322509765625 -1343.1739501953125 -1349.1146240234375 -1355.263671875 -1361.595703125 -1368.2362060546875 -1375.1756591796875 -1382.3975830078125 -1389.9495849609375 -1397.9022216796875 -1406.2547607421875 -1415.0322265625 -1424.25146484375 -1433.8857421875 -1443.8729248046875 -1454.2425537109375 -1464.9488525390625 -1475.904541015625 -1486.985595703125 -1498.118408203125 -1509.2301025390625 -1519.955810546875 -1529.873046875 -1539.0189208984375 -1546.272705078125 -1551.3297119140625 -1554.7108154296875 -1556.7843017578125 -1557.954345703125 -1558.3148193359375 -1558.0816650390625 -1557.2935791015625 -1556.0247802734375 -1554.2841796875 -1552.22412109375 -1549.92333984375 -1547.431884765625 -1544.7901611328125 -1541.9844970703125 -1539.1947021484375 -1536.2276611328125 -1533.2509765625 -1530.1854248046875 -1527.0848388671875 -1523.904541015625 -1520.579833984375 -1517.125732421875 -1513.5347900390625 -1509.7724609375 -1505.843994140625 -1501.7010498046875 -1497.380859375 -1492.926513671875 -1488.29833984375 -1483.5186767578125 -1478.6728515625 -1473.756103515625 -1468.8304443359375 -1463.970947265625 -1459.1864013671875 -1454.553466796875 -1450.1153564453125 -1446.009765625 -1442.2655029296875 -1438.8497314453125 -1435.90673828125 -1433.366943359375 -1431.1905517578125 -1429.3427734375 -1427.7908935546875 -1426.4853515625 -1425.3133544921875 -1424.2069091796875 -1423.107666015625 -1421.988525390625 -1420.7479248046875 -1419.37353515625 -1417.8800048828125 -1416.2742919921875 -1414.5269775390625 -1412.604248046875 -1410.4189453125 -1408.07470703125 -1405.74755859375 -1403.62890625 -1401.7442626953125 -1399.8179931640625 -1397.8499755859375 -1395.7440185546875 -1393.544921875 -1391.2940673828125 -1389.0523681640625 -1386.8995361328125 -1384.8341064453125 -1382.820068359375 -1380.7630615234375 -1378.6602783203125 -1376.4598388671875 -1374.156005859375 -1371.7530517578125 -1369.2615966796875 -1366.71875 -1364.159423828125 -1361.6102294921875 -1359.0458984375 -1356.50439453125 -1353.908203125 -1351.37255859375 -1348.8563232421875 -1346.346923828125 -1343.8284912109375 -1341.2921142578125 -1338.72705078125 -1336.056396484375 -1333.2591552734375 -1330.285888671875 -1327.1295166015625 -1323.7939453125 -1320.4127197265625 -1317.020751953125 -1313.7406005859375 -1310.765380859375 -1308.212158203125 -1306.0718994140625 -1304.255126953125 -99999 -99999 -99999 -99999 -99999 -99999 -99999 -99999 -99999 -99999 -99999 -99999 -99999 -99999 -99999 -99999 -99999 -99999 -99999 -99999 -99999 -99999 -99999 -99999 -99999 -99999 -99999 -99999 -99999 -99999 -99999 -99999 -99999 -99999 -99999 -99999 -99999 -99999 -99999 -99999 -99999 -99999 -99999
 -99999 -99999 -99999 -99999 -99999 -99999 -99999 -1214.9951171875 -1219.984130859375 -1225.042236328125 -1229.954345703125 -1234.939453125 -1239.9246826171875 -1244.9117431640625 -1249.8985595703125 -1254.8834228515625 -1259.879638671875 -1264.885498046875 -1269.9195556640625 -1274.94921875 -1280.0037841796875 -1285.0887451171875 -1290.2000732421875 -1295.34130859375 -1300.5225830078125 -1305.7490234375 -1311.0489501953125 -1316.4207763671875 -1321.8084716796875 -1327.3189697265625 -1332.95263671875 -1338.688232421875 -1344.568115234375 -1350.5980224609375 -1356.791015625 -1363.2564697265625 -1369.9300537109375 -1376.863037109375 -1384.07666015625 -1391.6121826171875 -1399.47705078125 -1407.6771240234375 -1416.2705078125 -1425.195556640625 -1434.453857421875 -1444.0955810546875 -1454.169677734375 -1464.5504150390625 -1475.162109375 -1485.8592529296875 -1496.796142578125 -1507.7139892578125 -1518.383544921875 -1528.642333984375 -1538.058349609375 -1545.5716552734375 -1551.098388671875 -1553.4117431640625 -1554.8245849609375 -1555.529541015625 -1555.59814453125 -1555.095458984375 -1553.9547119140625 -1552.399658203125 -1550.50341796875 -1548.31640625 -1545.8790283203125 -1543.198974609375 -1540.4140625 -1537.4952392578125 -1534.47021484375 -1531.3375244140625 -1528.1688232421875 -1524.9366455078125 -1521.6099853515625 -1518.18017578125 -1514.6815185546875 -1511.038818359375 -1507.30322265625 -1503.3714599609375 -1499.30126953125 -1495.1099853515625 -1490.756103515625 -1486.2471923828125 -1481.651123046875 -1476.9656982421875 -1472.2132568359375 -1467.4306640625 -1462.6810302734375 -1457.985595703125 -1453.38671875 -1448.961181640625 -1444.7919921875 -1440.89013671875 -1437.3408203125 -1434.1214599609375 -1431.245849609375 -1428.71923828125 -1426.594482421875 -1424.8038330078125 -1423.2755126953125 -1421.958984375 -1420.80908203125 -1419.7901611328125 -1418.8023681640625 -1417.7764892578125 -1416.6551513671875 -1415.383544921875 -1413.8623046875 -1412.1683349609375 -1410.2783203125 -1408.1741943359375 -1405.8355712890625 -1403.3936767578125 -1400.8668212890625 -1398.4837646484375 -1396.2255859375 -1394.007080078125 -1391.7783203125 -1389.5020751953125 -1387.159912109375 -1384.8131103515625 -1382.485595703125 -1380.187744140625 -1377.9454345703125 -1375.73974609375 -1373.537353515625 -1371.29931640625 -1369.004150390625 -1366.636474609375 -1364.1800537109375 -1361.691650390625 -1359.1773681640625 -1356.588623046875 -1353.9573974609375 -1351.3743896484375 -1348.804443359375 -1346.2550048828125 -1343.7247314453125 -1341.2161865234375 -1338.712890625 -1336.184814453125 -1333.66259765625 -1331.06787109375 -1328.4119873046875 -1325.656005859375 -1322.777587890625 -1319.73388671875 -1316.6619873046875 -1313.4576416015625 -1310.251220703125 -1307.1767578125 -1304.3433837890625 -1301.7978515625 -99999 -99999 -99999 -99999 -99999 -99999 -99999 -99999 -99999 -99999 -99999 -99999 -99999 -99999 -99999 -99999 -99999 -99999 -99999 -99999 -99999 -99999 -99999 -99999 -99999 -99999 -99999 -99999 -99999 -99999 -99999 -99999 -99999 -99999 -99999 -99999 -99999 -99999 -99999 -99999 -99999 -99999 -99999 -99999 -99999
 -99999 -99999 -99999 -99999 -99999 -99999 -1209.5855712890625 -1214.595703125 -1219.6024169921875 -1224.62158203125 -1229.61865234375 -1234.6141357421875 -1239.619873046875 -1244.6302490234375 -1249.6375732421875 -1254.6512451171875 -1259.67578125 -1264.7205810546875 -1269.832763671875 -1274.8572998046875 -1279.964111328125 -1285.1092529296875 -1290.2935791015625 -1295.5159912109375 -1300.7760009765625 -1306.08349609375 -1311.4808349609375 -1316.9324951171875 -1322.4686279296875 -1328.1123046875 -1333.8507080078125 -1339.7039794921875 -1345.652587890625 -1351.7821044921875 -1358.12255859375 -1364.5389404296875 -1371.2464599609375 -1378.1632080078125 -1385.3294677734375 -1392.688232421875 -1400.3853759765625 -1408.41162109375 -1416.7406005859375 -1425.4144287109375 -1434.42138671875 -1443.7061767578125 -1453.34326171875 -1463.2510986328125 -1473.43701171875 -1483.8138427734375 -1494.491455078125 -1505.036865234375 -1515.673583984375 -1525.8355712890625 -1535.5048828125 -1544.3907470703125 -1549.1048583984375 -1551.2730712890625 -1552.1259765625 -1552.4471435546875 -1552.1119384765625 -1551.295166015625 -1550.0386962890625 -1548.386962890625 -1546.3575439453125 -1543.9940185546875 -1541.4224853515625 -1538.6884765625 -1535.73876953125 -1532.6510009765625 -1529.490478515625 -1526.24853515625 -1522.904052734375 -1519.4676513671875 -1515.9781494140625 -1512.3797607421875 -1508.71435546875 -1504.901123046875 -1500.97998046875 -1496.9642333984375 -1492.814208984375 -1488.532470703125 -1484.1270751953125 -1479.6435546875 -1475.058349609375 -1470.4241943359375 -1465.7696533203125 -1461.11767578125 -1456.491943359375 -1451.979736328125 -1447.56298828125 -1443.3541259765625 -1439.393310546875 -1435.677978515625 -1432.2413330078125 -1429.099853515625 -1426.3826904296875 -1423.96630859375 -1421.8970947265625 -1420.1004638671875 -1418.5782470703125 -1417.335693359375 -1416.2633056640625 -1415.3126220703125 -1414.4381103515625 -1413.5665283203125 -1412.570556640625 -1411.31396484375 -1409.7606201171875 -1407.954833984375 -1405.92822265625 -1403.6885986328125 -1401.1741943359375 -1398.5618896484375 -1395.9569091796875 -1393.3935546875 -1390.8824462890625 -1388.43359375 -1385.98876953125 -1383.521240234375 -1381.0670166015625 -1378.5885009765625 -1376.137451171875 -1373.7276611328125 -1371.3511962890625 -1368.997314453125 -1366.65380859375 -1364.30078125 -1361.965087890625 -1359.549560546875 -1356.991455078125 -1354.41748046875 -1351.837890625 -1349.2489013671875 -1346.656005859375 -1344.071533203125 -1341.4986572265625 -1338.9459228515625 -1336.412841796875 -1333.9150390625 -1331.388427734375 -1328.8677978515625 -1326.333740234375 -1323.7679443359375 -1321.1331787109375 -1318.4053955078125 -1315.6953125 -1312.7430419921875 -1309.6949462890625 -1306.6746826171875 -1303.6895751953125 -99999 -99999 -99999 -99999 -99999 -99999 -99999 -99999 -99999 -99999 -99999 -99999 -99999 -99999 -99999 -99999 -99999 -99999 -99999 -99999 -99999 -99999 -99999 -99999 -99999 -99999 -99999 -99999 -99999 -99999 -99999 -99999 -99999 -99999 -99999 -99999 -99999 -99999 -99999 -99999 -99999 -99999 -99999 -99999 -99999 -99999 -99999 -99999
 -99999 -99999 -99999 -99999 -99999 -1204.06787109375 -1209.1011962890625 -1214.12939453125 -1219.1507568359375 -1224.234375 -1229.1925048828125 -1234.2091064453125 -1239.23193359375 -1244.2608642578125 -1249.2908935546875 -1254.323486328125 -1259.3704833984375 -1264.4404296875 -1269.55712890625 -1274.656982421875 -1279.8138427734375 -1285.0137939453125 -1290.25390625 -1295.5281982421875 -1300.877197265625 -1306.2864990234375 -1311.7781982421875 -1317.3460693359375 -1322.962158203125 -1328.6939697265625 -1334.509521484375 -1340.4625244140625 -1346.527099609375 -1352.7086181640625 -1359.028564453125 -1365.5419921875 -1372.201904296875 -1379.0704345703125 -1386.1427001953125 -1393.4217529296875 -1400.9464111328125 -1408.73291015625 -1416.7733154296875 -1425.0643310546875 -1433.62255859375 -1442.536865234375 -1451.589599609375 -1461.1219482421875 -1470.846923828125 -1480.7490234375 -1490.773681640625 -1501.0540771484375 -1511.306640625 -1521.26025390625 -1530.87158203125 -1539.1280517578125 -1544.8646240234375 -1546.766845703125 -1547.744140625 -1548.0185546875 -1547.7232666015625 -1546.890625 -1545.531982421875 -1543.7529296875 -1541.66552734375 -1539.32177734375 -1536.644775390625 -1533.7828369140625 -1530.7344970703125 -1527.5858154296875 -1524.2890625 -1520.892333984375 -1517.4156494140625 -1513.8555908203125 -1510.2109375 -1506.449951171875 -1502.604248046875 -1498.6815185546875 -1494.6552734375 -1490.52587890625 -1486.2689208984375 -1481.944091796875 -1477.5128173828125 -1473.016845703125 -1468.4757080078125 -1463.9150390625 -1459.3212890625 -1454.7864990234375 -1450.3052978515625 -1445.932861328125 -1441.717529296875 -1437.68017578125 -1433.846435546875 -1430.24560546875 -1427.0164794921875 -1424.0286865234375 -1421.3817138671875 -1419.0147705078125 -1416.9793701171875 -1415.2786865234375 -1413.82275390625 -1412.587890625 -1411.549560546875 -1410.6771240234375 -1409.9217529296875 -1409.1898193359375 -1408.39892578125 -1407.2933349609375 -1405.61669921875 -1403.6396484375 -1401.3876953125 -1398.9376220703125 -1396.35400390625 -1393.6849365234375 -1390.9683837890625 -1388.285888671875 -1385.6124267578125 -1382.9683837890625 -1380.35107421875 -1377.7315673828125 -1375.149169921875 -1372.5616455078125 -1369.9993896484375 -1367.4656982421875 -1364.9810791015625 -1362.5262451171875 -1360.12451171875 -1357.615966796875 -1355.097900390625 -1352.558349609375 -1350.0064697265625 -1347.4315185546875 -1344.8404541015625 -1342.24072265625 -1339.6373291015625 -1337.04638671875 -1334.468994140625 -1331.9268798828125 -1329.3802490234375 -1326.853515625 -1324.3402099609375 -1321.8316650390625 -1319.3031005859375 -1316.8421630859375 -1314.2662353515625 -1311.4942626953125 -1308.699951171875 -1305.8831787109375 -1303.0335693359375 -99999 -99999 -99999 -99999 -99999 -99999 -99999 -99999 -99999 -99999 -99999 -99999 -99999 -99999 -99999 -99999 -99999 -99999 -99999 -99999 -99999 -99999 -99999 -99999 -99999 -99999 -99999 -99999 -99999 -99999 -99999 -99999 -99999 -99999 -99999 -99999 -99999 -99999 -99999 -99999 -99999 -99999 -99999 -99999 -99999 -99999 -99999 -99999 -99999 -99999
 -99999 -99999 -99999 -99999 -1198.437255859375 -1203.503173828125 -1208.548828125 -1213.5909423828125 -1218.62939453125 -1223.673095703125 -1228.7017822265625 -1233.729736328125 -1238.7652587890625 -1243.806640625 -1248.85009765625 -1253.903076171875 -1258.97216796875 -1264.061767578125 -1269.238525390625 -1274.3370361328125 -1279.52880859375 -1284.7655029296875 -1290.069091796875 -1295.4200439453125 -1300.8272705078125 -1306.2972412109375 -1311.8529052734375 -1317.5133056640625 -1323.221923828125 -1329.060546875 -1334.99462890625 -1341.018798828125 -1347.1209716796875 -1353.349853515625 -1359.7655029296875 -1366.209228515625 -1372.859130859375 -1379.650634765625 -1386.5899658203125 -1393.6834716796875 -1401.0098876953125 -1408.47509765625 -1416.26318359375 -1424.236328125 -1432.39794921875 -1440.7252197265625 -1449.4183349609375 -1458.26171875 -1467.3131103515625 -1476.7120361328125 -1486.2982177734375 -1495.9696044921875 -1505.8441162109375 -1515.2669677734375 -1524.11328125 -1531.898681640625 -1537.4888916015625 -1540.4825439453125 -1542.0928955078125 -1542.590576171875 -1542.4208984375 -1541.6407470703125 -1540.3876953125 -1538.6689453125 -1536.553955078125 -1534.185791015625 -1531.4163818359375 -1528.525634765625 -1525.43017578125 -1522.187744140625 -1518.8162841796875 -1515.336669921875 -1511.7393798828125 -1508.030517578125 -1504.245361328125 -1500.3836669921875 -1496.4378662109375 -1492.4130859375 -1488.2542724609375 -1484.03125 -1479.714599609375 -1475.3299560546875 -1470.8958740234375 -1466.40771484375 -1461.888427734375 -1457.37548828125 -1452.880859375 -1448.4361572265625 -1444.0791015625 -1439.86376953125 -1435.7711181640625 -1431.850341796875 -1428.213134765625 -1424.790771484375 -1421.648193359375 -1418.7725830078125 -1416.2017822265625 -1413.97119140625 -1412.0074462890625 -1410.301025390625 -1408.86962890625 -1407.67529296875 -1406.70166015625 -1405.875732421875 -1405.1846923828125 -1404.5484619140625 -1403.912353515625 -1402.989013671875 -1401.1324462890625 -1398.94287109375 -1396.589111328125 -1394.0955810546875 -1391.458984375 -1388.727294921875 -1385.93017578125 -1383.1273193359375 -1380.3267822265625 -1377.55859375 -1374.8193359375 -1372.0811767578125 -1369.3629150390625 -1366.66650390625 -1364.0302734375 -1361.4234619140625 -1358.8890380859375 -1356.2303466796875 -1353.64697265625 -1351.0675048828125 -1348.491943359375 -1345.91552734375 -1343.3221435546875 -1340.7099609375 -1338.0908203125 -1335.475341796875 -1332.872802734375 -1330.264404296875 -1327.6829833984375 -1325.1209716796875 -1322.576904296875 -1320.0596923828125 -1317.559814453125 -1315.146484375 -1312.5322265625 -1309.943359375 -1307.3343505859375 -1304.706298828125 -1302.01953125 -99999 -99999 -99999 -99999 -99999 -99999 -99999 -99999 -99999 -99999 -99999 -99999 -99999 -99999 -99999 -99999 -99999 -99999 -99999 -99999 -99999 -99999 -99999 -99999 -99999 -99999 -99999 -99999 -99999 -99999 -99999 -99999 -99999 -99999 -99999 -99999 -99999 -99999 -99999 -99999 -99999 -99999 -99999 -99999 -99999 -99999 -99999 -99999 -99999 -99999 -99999 -99999
 -99999 -99999 -99999 -99999 -1197.7823486328125 -1202.8658447265625 -1207.9320068359375 -1212.9881591796875 -1218.036376953125 -1223.1015625 -1228.14208984375 -1233.167236328125 -1238.2120361328125 -1243.2633056640625 -1248.3226318359375 -1253.384033203125 -1258.4622802734375 -1263.5693359375 -1268.7156982421875 -1273.884033203125 -1279.1123046875 -1284.39306640625 -1289.7325439453125 -1295.1239013671875 -1300.588134765625 -1306.14111328125 -1311.78125 -1317.5087890625 -1323.3116455078125 -1329.2196044921875 -1335.2120361328125 -1341.29638671875 -1347.4814453125 -1353.7589111328125 -1360.1461181640625 -1366.6070556640625 -1373.1822509765625 -1379.90087890625 -1386.733154296875 -1393.656005859375 -1400.7305908203125 -1407.9918212890625 -1415.361328125 -1422.876708984375 -1430.6273193359375 -1438.576416015625 -1446.6663818359375 -1454.836181640625 -1463.3748779296875 -1471.95068359375 -1480.811767578125 -1490.0723876953125 -1499.3302001953125 -1508.359619140625 -1516.7618408203125 -1524.0167236328125 -1529.371826171875 -1533.125244140625 -1535.342041015625 -1536.390625 -1536.3963623046875 -1535.762939453125 -1534.631103515625 -1532.9786376953125 -1530.8748779296875 -1528.502685546875 -1525.833251953125 -1522.9324951171875 -1519.81201171875 -1516.5325927734375 -1513.0989990234375 -1509.5137939453125 -1505.824951171875 -1502.0400390625 -1498.17529296875 -1494.226318359375 -1490.1640625 -1486.007080078125 -1481.7750244140625 -1477.47509765625 -1473.123779296875 -1468.712158203125 -1464.2578125 -1459.7803955078125 -1455.304931640625 -1450.8331298828125 -1446.4124755859375 -1442.08349609375 -1437.8277587890625 -1433.692138671875 -1429.773681640625 -1426.0201416015625 -1422.487548828125 -1419.1873779296875 -1416.1544189453125 -1413.4327392578125 -1410.968505859375 -1408.778564453125 -1406.8548583984375 -1405.19384765625 -1403.7652587890625 -1402.6077880859375 -1401.6417236328125 -1400.8565673828125 -1400.175048828125 -1399.55029296875 -1398.8558349609375 -1397.736572265625 -1396.087158203125 -1393.95703125 -1391.6007080078125 -1389.0794677734375 -1386.3992919921875 -1383.629150390625 -1380.7872314453125 -1377.91796875 -1375.0445556640625 -1372.172119140625 -1369.3150634765625 -1366.4937744140625 -1363.7081298828125 -1360.962158203125 -1358.2618408203125 -1355.4652099609375 -1352.7537841796875 -1350.06396484375 -1347.4107666015625 -1344.778076171875 -1342.14501953125 -1339.49365234375 -1336.850341796875 -1334.20947265625 -1331.5772705078125 -1328.9366455078125 -1326.3114013671875 -1323.70263671875 -1321.1243896484375 -1318.5667724609375 -1316.0316162109375 -1313.601806640625 -1310.95654296875 -1308.4136962890625 -1305.875732421875 -1303.33251953125 -99999 -99999 -99999 -99999 -99999 -99999 -99999 -99999 -99999 -99999 -99999 -99999 -99999 -99999 -99999 -99999 -99999 -99999 -99999 -99999 -99999 -99999 -99999 -99999 -99999 -99999 -99999 -99999 -99999 -99999 -99999 -99999 -99999 -99999 -99999 -99999 -99999 -99999 -99999 -99999 -99999 -99999 -99999 -99999 -99999 -99999 -99999 -99999 -99999 -99999 -99999 -99999 -99999 -99999 -99999
 -99999 -99999 -99999 -1191.960205078125 -1197.0692138671875 -1202.163818359375 -1207.2413330078125 -1212.3109130859375 -1217.37255859375 -1222.4400634765625 -1227.4920654296875 -1232.526123046875 -1237.5758056640625 -1242.6314697265625 -1247.695556640625 -1252.761962890625 -1257.847900390625 -1262.9630126953125 -1268.141357421875 -1273.3126220703125 -1278.550537109375 -1283.85107421875 -1289.228759765625 -1294.666748046875 -1300.183349609375 -1305.7816162109375 -1311.4769287109375 -1317.2901611328125 -1323.14892578125 -1329.1280517578125 -1335.214599609375 -1341.37060546875 -1347.5859375 -1353.892578125 -1360.288818359375 -1366.7266845703125 -1373.2635498046875 -1379.854248046875 -1386.5064697265625 -1393.265380859375 -1400.1334228515625 -1407.0341796875 -1414.1142578125 -1421.3316650390625 -1428.5894775390625 -1435.865478515625 -1443.3892822265625 -1450.963623046875 -1458.6595458984375 -1466.6455078125 -1474.8929443359375 -1483.52392578125 -1492.4725341796875 -1501.156005859375 -1509.049560546875 -1515.8880615234375 -1521.32080078125 -1525.2022705078125 -1527.739501953125 -1529.1307373046875 -1529.5787353515625 -1529.186767578125 -1528.2215576171875 -1526.747314453125 -1524.828125 -1522.522705078125 -1519.8787841796875 -1517.0008544921875 -1513.8988037109375 -1510.58251953125 -1507.0909423828125 -1503.4796142578125 -1499.7470703125 -1495.904052734375 -1491.9775390625 -1487.8873291015625 -1483.7401123046875 -1479.5234375 -1475.2423095703125 -1470.9013671875 -1466.4990234375 -1462.057373046875 -1457.6029052734375 -1453.13525390625 -1448.68603515625 -1444.2725830078125 -1439.9320068359375 -1435.6591796875 -1431.535888671875 -1427.5379638671875 -1423.7166748046875 -1420.0782470703125 -1416.6656494140625 -1413.524658203125 -1410.6239013671875 -1407.982421875 -1405.581298828125 -1403.4466552734375 -1401.5860595703125 -1400.0003662109375 -1398.616455078125 -1397.4197998046875 -1396.4476318359375 -1395.628662109375 -1394.9178466796875 -1394.2083740234375 -1393.38427734375 -1392.2545166015625 -1390.6453857421875 -1388.6490478515625 -1386.3670654296875 -1383.86474609375 -1381.1934814453125 -1378.408447265625 -1375.5455322265625 -1372.6341552734375 -1369.705078125 -1366.7835693359375 -1363.8795166015625 -1361.0264892578125 -1358.1802978515625 -1355.2574462890625 -1352.41552734375 -1349.599853515625 -1346.8355712890625 -1344.0960693359375 -1341.373779296875 -1338.65234375 -1335.95458984375 -1333.26953125 -1330.5972900390625 -1327.91748046875 -1325.2486572265625 -1322.5968017578125 -1319.970703125 -1317.3670654296875 -1314.86669921875 -1312.2681884765625 -1309.614501953125 -1307.056396484375 -1304.5135498046875 -1301.988525390625 -99999 -99999 -99999 -99999 -99999 -99999 -99999 -99999 -99999 -99999 -99999 -99999 -99999 -99999 -99999 -99999 -99999 -99999 -99999 -99999 -99999 -99999 -99999 -99999 -99999 -99999 -99999 -99999 -99999 -99999 -99999 -99999 -99999 -99999 -99999 -99999 -99999 -99999 -99999 -99999 -99999 -99999 -99999 -99999 -99999 -99999 -99999 -99999 -99999 -99999 -99999 -99999 -99999 -99999 -99999 -99999 -99999
 -99999 -99999 -1186.0321044921875 -1191.160400390625 -1196.2825927734375 -1201.397705078125 -1206.4898681640625 -1211.567138671875 -1216.6351318359375 -1221.7158203125 -1226.781005859375 -1231.802001953125 -1236.8526611328125 -1241.90625 -1246.9674072265625 -1252.0364990234375 -1257.12158203125 -1262.2322998046875 -1267.3861083984375 -1272.5880126953125 -1277.8314208984375 -1283.1514892578125 -1288.5521240234375 -1294.0150146484375 -1299.558837890625 -1305.21142578125 -1310.9658203125 -1316.81396484375 -1322.7705078125 -1328.825927734375 -1334.961669921875 -1341.1705322265625 -1347.439453125 -1353.7713623046875 -1360.168212890625 -1366.5816650390625 -1373.046142578125 -1379.554443359375 -1386.089111328125 -1392.6380615234375 -1399.191650390625 -1405.900634765625 -1412.573974609375 -1419.3221435546875 -1426.1881103515625 -1433.1182861328125 -1440.0875244140625 -1447.0599365234375 -1454.1466064453125 -1461.181396484375 -1468.251708984375 -1476.6373291015625 -1485.349853515625 -1493.6884765625 -1501.18408203125 -1507.8330078125 -1513.21484375 -1517.2371826171875 -1519.9342041015625 -1521.5718994140625 -1522.3106689453125 -1522.2579345703125 -1521.5247802734375 -1520.1405029296875 -1518.337158203125 -1516.1556396484375 -1513.6220703125 -1510.7763671875 -1507.663818359375 -1504.3651123046875 -1500.8934326171875 -1497.2464599609375 -1493.5101318359375 -1489.5775146484375 -1485.5701904296875 -1481.441650390625 -1477.24755859375 -1472.9881591796875 -1468.64990234375 -1464.255126953125 -1459.828369140625 -1455.3812255859375 -1450.923583984375 -1446.4798583984375 -1442.0626220703125 -1437.6961669921875 -1433.424560546875 -1429.2525634765625 -1425.2010498046875 -1421.30029296875 -1417.5892333984375 -1414.0997314453125 -1410.8287353515625 -1407.781005859375 -1404.9630126953125 -1402.4014892578125 -1400.150390625 -1398.11376953125 -1396.3221435546875 -1394.7391357421875 -1393.3448486328125 -1392.1278076171875 -1391.086669921875 -1390.2369384765625 -1389.4981689453125 -1388.7276611328125 -1387.8297119140625 -1386.638916015625 -1385.0826416015625 -1383.1365966796875 -1380.9107666015625 -1378.4642333984375 -1375.8363037109375 -1373.0697021484375 -1370.2034912109375 -1367.288330078125 -1364.3453369140625 -1361.4100341796875 -1358.5028076171875 -1355.486083984375 -1352.5421142578125 -1349.6234130859375 -1346.74072265625 -1343.8841552734375 -1341.052001953125 -1338.2335205078125 -1335.4560546875 -1332.6956787109375 -1329.9512939453125 -1327.217041015625 -1324.4979248046875 -1321.7994384765625 -1319.1217041015625 -1316.4693603515625 -1313.9007568359375 -1311.1727294921875 -1308.5384521484375 -1305.9376220703125 -1303.3680419921875 -1300.8162841796875 -99999 -99999 -99999 -99999 -99999 -99999 -99999 -99999 -99999 -99999 -99999 -99999 -99999 -99999 -99999 -99999 -99999 -99999 -99999 -99999 -99999 -99999 -99999 -99999 -99999 -99999 -99999 -99999 -99999 -99999 -99999 -99999 -99999 -99999 -99999 -99999 -99999 -99999 -99999 -99999 -99999 -99999 -99999 -99999 -99999 -99999 -99999 -99999 -99999 -99999 -99999 -99999 -99999 -99999 -99999 -99999 -99999 -99999 -99999
 -99999 -99999 -1185.1448974609375 -1190.2965087890625 -1195.4346923828125 -1200.5587158203125 -1205.66357421875 -1210.7518310546875 -1215.828125 -1220.89111328125 -1225.9737548828125 -1230.9976806640625 -1236.0430908203125 -1241.0933837890625 -1246.147705078125 -1251.202880859375 -1256.27734375 -1261.383056640625 -1266.5565185546875 -1271.7371826171875 -1276.9649658203125 -1282.2825927734375 -1287.674072265625 -1293.1591796875 -1298.7508544921875 -1304.433349609375 -1310.23583984375 -1316.162841796875 -1322.1397705078125 -1328.2457275390625 -1334.4600830078125 -1340.73388671875 -1347.051513671875 -1353.4013671875 -1359.785400390625 -1366.201416015625 -1372.6121826171875 -1379.00390625 -1385.369140625 -1391.737060546875 -1398.0921630859375 -1404.4578857421875 -1410.849609375 -1417.2735595703125 -1423.6722412109375 -1430.0726318359375 -1436.560791015625 -1443.05322265625 -1449.543212890625 -1456.060791015625 -1462.8330078125 -1470.3016357421875 -1478.5574951171875 -1486.3978271484375 -1493.6488037109375 -1499.8355712890625 -1504.9620361328125 -1508.986572265625 -1512.0054931640625 -1513.92919921875 -1514.7786865234375 -1514.8773193359375 -1514.3289794921875 -1513.22802734375 -1511.599853515625 -1509.465576171875 -1506.9945068359375 -1504.2359619140625 -1501.2183837890625 -1497.9493408203125 -1494.5009765625 -1490.84619140625 -1487.04150390625 -1483.093994140625 -1479.0537109375 -1474.916259765625 -1470.6761474609375 -1466.355712890625 -1461.9825439453125 -1457.5699462890625 -1453.126220703125 -1448.6619873046875 -1444.214599609375 -1439.788330078125 -1435.417236328125 -1431.119384765625 -1426.89111328125 -1422.7935791015625 -1418.8343505859375 -1415.0626220703125 -1411.4700927734375 -1408.0692138671875 -1404.876953125 -1401.9205322265625 -1399.28369140625 -1396.8477783203125 -1394.6900634765625 -1392.7470703125 -1390.9986572265625 -1389.4268798828125 -1388.0174560546875 -1386.742919921875 -1385.6568603515625 -1384.764892578125 -1384.017578125 -1383.2010498046875 -1382.1981201171875 -1380.9281005859375 -1379.370361328125 -1377.51513671875 -1375.3603515625 -1372.9375 -1370.3446044921875 -1367.618896484375 -1364.791748046875 -1361.9171142578125 -1359.0059814453125 -1355.9661865234375 -1352.9893798828125 -1349.9930419921875 -1347.0250244140625 -1344.0733642578125 -1341.13818359375 -1338.2344970703125 -1335.358154296875 -1332.50439453125 -1329.67431640625 -1326.86181640625 -1324.080322265625 -1321.3177490234375 -1318.5791015625 -1315.8724365234375 -1313.2335205078125 -1310.4481201171875 -1307.7681884765625 -1305.1123046875 -1302.488525390625 -99999 -99999 -99999 -99999 -99999 -99999 -99999 -99999 -99999 -99999 -99999 -99999 -99999 -99999 -99999 -99999 -99999 -99999 -99999 -99999 -99999 -99999 -99999 -99999 -99999 -99999 -99999 -99999 -99999 -99999 -99999 -99999 -99999 -99999 -99999 -99999 -99999 -99999 -99999 -99999 -99999 -99999 -99999 -99999 -99999 -99999 -99999 -99999 -99999 -99999 -99999 -99999 -99999 -99999 -99999 -99999 -99999 -99999 -99999 -99999 -99999 -99999
 -99999 -1179.0618896484375 -1184.2249755859375 -1189.363525390625 -1194.5162353515625 -1199.6552734375 -1204.7772216796875 -1209.8673095703125 -1214.946044921875 -1220.0145263671875 -1225.0758056640625 -1230.1104736328125 -1235.1490478515625 -1240.183837890625 -1245.22412109375 -1250.267578125 -1255.3243408203125 -1260.4034423828125 -1265.5196533203125 -1270.68701171875 -1275.9163818359375 -1281.22998046875 -1286.6385498046875 -1292.123046875 -1297.7021484375 -1303.395751953125 -1309.2335205078125 -1315.1787109375 -1321.2476806640625 -1327.4349365234375 -1333.6986083984375 -1340.02685546875 -1346.4044189453125 -1352.8037109375 -1359.26171875 -1365.5947265625 -1371.932373046875 -1378.229736328125 -1384.4658203125 -1390.6597900390625 -1396.77685546875 -1402.9217529296875 -1408.93798828125 -1414.9935302734375 -1421.0548095703125 -1427.093994140625 -1433.1387939453125 -1439.183349609375 -1445.3094482421875 -1451.48193359375 -1457.9561767578125 -1465.022705078125 -1472.3260498046875 -1479.55908203125 -1486.28125 -1492.210693359375 -1497.1131591796875 -1501.023681640625 -1503.88525390625 -1505.8624267578125 -1507.0135498046875 -1507.4068603515625 -1506.97900390625 -1505.9520263671875 -1504.4501953125 -1502.520263671875 -1500.2100830078125 -1497.4979248046875 -1494.55859375 -1491.3406982421875 -1487.8792724609375 -1484.2322998046875 -1480.446044921875 -1476.5220947265625 -1472.441650390625 -1468.265869140625 -1463.9971923828125 -1459.6666259765625 -1455.2763671875 -1450.847900390625 -1446.380615234375 -1441.93017578125 -1437.493408203125 -1433.0966796875 -1428.754638671875 -1424.4903564453125 -1420.3468017578125 -1416.34423828125 -1412.484619140625 -1408.7830810546875 -1405.2581787109375 -1401.941650390625 -1398.940185546875 -1396.118408203125 -1393.5870361328125 -1391.281494140625 -1389.195068359375 -1387.314453125 -1385.647705078125 -1384.153564453125 -1382.7552490234375 -1381.4365234375 -1380.2005615234375 -1379.3538818359375 -1378.5277099609375 -1377.627197265625 -1376.560791015625 -1375.2806396484375 -1373.6759033203125 -1371.7921142578125 -1369.6678466796875 -1367.3302001953125 -1364.8074951171875 -1362.136474609375 -1359.3787841796875 -1356.4466552734375 -1353.490234375 -1350.5140380859375 -1347.5252685546875 -1344.5302734375 -1341.5394287109375 -1338.566162109375 -1335.609130859375 -1332.6673583984375 -1329.7481689453125 -1326.8590087890625 -1323.9974365234375 -1321.15869140625 -1318.3477783203125 -1315.5777587890625 -1312.8651123046875 -1310.01611328125 -1307.2825927734375 -1304.5723876953125 -1301.8883056640625 -99999 -99999 -99999 -99999 -99999 -99999 -99999 -99999 -99999 -99999 -99999 -99999 -99999 -99999 -99999 -99999 -99999 -99999 -99999 -99999 -99999 -99999 -99999 -99999 -99999 -99999 -99999 -99999 -99999 -99999 -99999 -99999 -99999 -99999 -99999 -99999 -99999 -99999 -99999 -99999 -99999 -99999 -99999 -99999 -99999 -99999 -99999 -99999 -99999 -99999 -99999 -99999 -99999 -99999 -99999 -99999 -99999 -99999 -99999 -99999 -99999 -99999 -99999 -99999
 -99999 -1177.983154296875 -1183.1988525390625 -1188.36572265625 -1193.530517578125 -1198.67822265625 -1203.8074951171875 -1208.9111328125 -1213.9949951171875 -1219.0572509765625 -1224.1636962890625 -1229.15625 -1234.1661376953125 -1239.184326171875 -1244.2015380859375 -1249.2249755859375 -1254.2479248046875 -1259.2978515625 -1264.3870849609375 -1269.5224609375 -1274.7171630859375 -1279.9903564453125 -1285.34765625 -1290.8275146484375 -1296.4212646484375 -1302.133544921875 -1307.9776611328125 -1313.9373779296875 -1320.078369140625 -1326.3123779296875 -1332.65771484375 -1339.0618896484375 -1345.498291015625 -1351.94287109375 -1358.37646484375 -1364.7366943359375 -1371.0419921875 -1377.263916015625 -1383.3685302734375 -1389.3673095703125 -1395.28173828125 -1401.1275634765625 -1406.8902587890625 -1412.648681640625 -1418.353271484375 -1424.0614013671875 -1429.7532958984375 -1435.4732666015625 -1441.26220703125 -1447.22314453125 -1453.385009765625 -1459.816650390625 -1466.53955078125 -1473.0196533203125 -1479.0936279296875 -1484.55517578125 -1489.355712890625 -1493.172607421875 -1495.9954833984375 -1498.0845947265625 -1499.1805419921875 -1499.598876953125 -1499.3885498046875 -1498.6151123046875 -1497.2520751953125 -1495.4161376953125 -1493.2137451171875 -1490.6136474609375 -1487.6622314453125 -1484.502197265625 -1481.123779296875 -1477.5379638671875 -1473.73486328125 -1469.7967529296875 -1465.717529296875 -1461.548828125 -1457.27392578125 -1452.916015625 -1448.5130615234375 -1444.0728759765625 -1439.618408203125 -1435.1722412109375 -1430.75048828125 -1426.368896484375 -1422.076416015625 -1417.896484375 -1413.81884765625 -1409.8681640625 -1406.0723876953125 -1402.4342041015625 -1399.0838623046875 -1395.9078369140625 -1392.986328125 -1390.296142578125 -1387.84130859375 -1385.621337890625 -1383.6988525390625 -1381.9473876953125 -1380.357666015625 -1378.905517578125 -1377.5447998046875 -1376.2735595703125 -1375.1160888671875 -1374.083251953125 -1373.1322021484375 -1372.1395263671875 -1370.94775390625 -1369.553955078125 -1367.940185546875 -1366.1002197265625 -1364.005615234375 -1361.7266845703125 -1359.2723388671875 -1356.5615234375 -1353.7728271484375 -1350.925537109375 -1348.0162353515625 -1345.06005859375 -1342.07470703125 -1339.0823974609375 -1336.087890625 -1333.095458984375 -1330.1124267578125 -1327.1561279296875 -1324.220458984375 -1321.308349609375 -1318.430908203125 -1315.6007080078125 -1312.79052734375 -1309.88623046875 -1307.0914306640625 -1304.31982421875 -1301.5718994140625 -99999 -99999 -99999 -99999 -99999 -99999 -99999 -99999 -99999 -99999 -99999 -99999 -99999 -99999 -99999 -99999 -99999 -99999 -99999 -99999 -99999 -99999 -99999 -99999 -99999 -99999 -99999 -99999 -99999 -99999 -99999 -99999 -99999 -99999 -99999 -99999 -99999 -99999 -99999 -99999 -99999 -99999 -99999 -99999 -99999 -99999 -99999 -99999 -99999 -99999 -99999 -99999 -99999 -99999 -99999 -99999 -99999 -99999 -99999 -99999 -99999 -99999 -99999 -99999 -99999 -99999
 -99999 -1176.89013671875 -1182.1119384765625 -1187.292724609375 -1192.47509765625 -1197.63916015625 -1202.7769775390625 -1207.88232421875 -1212.9664306640625 -1218.02880859375 -1223.071533203125 -1228.105712890625 -1233.098876953125 -1238.096435546875 -1243.0867919921875 -1248.0693359375 -1253.0537109375 -1258.052490234375 -1263.096435546875 -1268.2432861328125 -1273.3175048828125 -1278.5499267578125 -1283.8768310546875 -1289.314453125 -1294.8812255859375 -1300.558349609375 -1306.4168701171875 -1312.4752197265625 -1318.5872802734375 -1324.890869140625 -1331.3114013671875 -1337.7991943359375 -1344.3143310546875 -1350.8204345703125 -1357.3424072265625 -1363.6868896484375 -1369.9481201171875 -1376.0767822265625 -1382.074462890625 -1387.9224853515625 -1393.663330078125 -1399.2613525390625 -1404.7777099609375 -1410.2386474609375 -1415.634765625 -1421.0103759765625 -1426.394287109375 -1431.8438720703125 -1437.346923828125 -1442.978515625 -1448.7926025390625 -1454.7838134765625 -1460.8026123046875 -1466.7418212890625 -1472.38720703125 -1477.407470703125 -1481.7078857421875 -1485.298095703125 -1488.1605224609375 -1490.2147216796875 -1491.513671875 -1492.0028076171875 -1491.8756103515625 -1491.1917724609375 -1489.8837890625 -1488.1082763671875 -1485.975341796875 -1483.5003662109375 -1480.714599609375 -1477.6031494140625 -1474.2347412109375 -1470.6734619140625 -1466.9222412109375 -1463.011962890625 -1458.93994140625 -1454.7540283203125 -1450.498291015625 -1446.133056640625 -1441.720947265625 -1437.28173828125 -1432.833251953125 -1428.39306640625 -1423.9954833984375 -1419.6741943359375 -1415.427001953125 -1411.2777099609375 -1407.2601318359375 -1403.3538818359375 -1399.6932373046875 -1396.2081298828125 -1392.9266357421875 -1389.851806640625 -1387.00048828125 -1384.3914794921875 -1382.0977783203125 -1380.03857421875 -1378.2242431640625 -1376.5718994140625 -1375.0767822265625 -1373.71044921875 -1372.399658203125 -1371.1451416015625 -1369.9482421875 -1368.8612060546875 -1367.7774658203125 -1366.6248779296875 -1365.3631591796875 -1363.945556640625 -1362.285888671875 -1360.4517822265625 -1358.3675537109375 -1356.0213623046875 -1353.538330078125 -1350.9425048828125 -1348.2322998046875 -1345.4102783203125 -1342.523681640625 -1339.5927734375 -1336.630126953125 -1333.6436767578125 -1330.6431884765625 -1327.6524658203125 -1324.671142578125 -1321.703125 -1318.76611328125 -1315.8865966796875 -1312.9830322265625 -1310.033203125 -1307.173095703125 -1304.3365478515625 -1301.52392578125 -99999 -99999 -99999 -99999 -99999 -99999 -99999 -99999 -99999 -99999 -99999 -99999 -99999 -99999 -99999 -99999 -99999 -99999 -99999 -99999 -99999 -99999 -99999 -99999 -99999 -99999 -99999 -99999 -99999 -99999 -99999 -99999 -99999 -99999 -99999 -99999 -99999 -99999 -99999 -99999 -99999 -99999 -99999 -99999 -99999 -99999 -99999 -99999 -99999 -99999 -99999 -99999 -99999 -99999 -99999 -99999 -99999 -99999 -99999 -99999 -99999 -99999 -99999 -99999 -99999 -99999 -99999 -99999
 -99999 -99999 -1180.9984130859375 -1186.1610107421875 -1191.35205078125 -1196.525634765625 -1201.6763916015625 -1206.791748046875 -1211.8759765625 -1216.9342041015625 -1221.9739990234375 -1227.0006103515625 -1231.959228515625 -1236.92333984375 -1241.872802734375 -1246.820556640625 -1251.7667236328125 -1256.7103271484375 -1261.6785888671875 -1266.6806640625 -1271.7623291015625 -1276.9173583984375 -1282.1661376953125 -1287.568603515625 -1293.076904296875 -1298.74169921875 -1304.5694580078125 -1310.580322265625 -1316.7615966796875 -1323.1494140625 -1329.640625 -1336.2364501953125 -1342.854248046875 -1349.46044921875 -1355.98486328125 -1362.405029296875 -1368.6634521484375 -1374.74169921875 -1380.6397705078125 -1386.3232421875 -1391.84326171875 -1397.22265625 -1402.523681640625 -1407.6949462890625 -1412.8414306640625 -1417.98876953125 -1423.0821533203125 -1428.2183837890625 -1433.3896484375 -1438.732666015625 -1444.21826171875 -1449.6912841796875 -1455.28759765625 -1460.6754150390625 -1465.706787109375 -1470.334228515625 -1474.428955078125 -1477.84130859375 -1480.4503173828125 -1482.376220703125 -1483.6552734375 -1484.236572265625 -1484.182861328125 -1483.5185546875 -1482.378173828125 -1480.798583984375 -1478.7576904296875 -1476.3427734375 -1473.5869140625 -1470.5689697265625 -1467.294189453125 -1463.7589111328125 -1460.0269775390625 -1456.1256103515625 -1452.0950927734375 -1447.9317626953125 -1443.6566162109375 -1439.3109130859375 -1434.909423828125 -1430.4755859375 -1426.0391845703125 -1421.6297607421875 -1417.265869140625 -1412.9693603515625 -1408.7701416015625 -1404.6673583984375 -1400.723876953125 -1396.9669189453125 -1393.388916015625 -1389.97705078125 -1386.7645263671875 -1383.764404296875 -1381.062255859375 -1378.5916748046875 -1376.3922119140625 -1374.4329833984375 -1372.724365234375 -1371.247802734375 -1369.8682861328125 -1368.52685546875 -1367.2266845703125 -1365.9764404296875 -1364.7745361328125 -1363.6041259765625 -1362.44580078125 -1361.1895751953125 -1359.884521484375 -1358.4072265625 -1356.615478515625 -1354.6812744140625 -1352.5875244140625 -1350.3343505859375 -1347.9072265625 -1345.3367919921875 -1342.6522216796875 -1339.8792724609375 -1337.03759765625 -1334.124755859375 -1331.1749267578125 -1328.207275390625 -1325.228271484375 -1322.2451171875 -1319.2733154296875 -1316.3233642578125 -1313.4029541015625 -1310.40478515625 -1307.488037109375 -1304.59228515625 -99999 -99999 -99999 -99999 -99999 -99999 -99999 -99999 -99999 -99999 -99999 -99999 -99999 -99999 -99999 -99999 -99999 -99999 -99999 -99999 -99999 -99999 -99999 -99999 -99999 -99999 -99999 -99999 -99999 -99999 -99999 -99999 -99999 -99999 -99999 -99999 -99999 -99999 -99999 -99999 -99999 -99999 -99999 -99999 -99999 -99999 -99999 -99999 -99999 -99999 -99999 -99999 -99999 -99999 -99999 -99999 -99999 -99999 -99999 -99999 -99999 -99999 -99999 -99999 -99999 -99999 -99999 -99999 -99999 -99999 -99999
 -99999 -99999 -1179.7271728515625 -1184.9588623046875 -1190.166015625 -1195.3516845703125 -1200.50927734375 -1205.631591796875 -1210.7176513671875 -1215.7718505859375 -1220.79248046875 -1225.8402099609375 -1230.744384765625 -1235.6802978515625 -1240.596435546875 -1245.4859619140625 -1250.3643798828125 -1255.239990234375 -1260.14697265625 -1265.079833984375 -1270.058349609375 -1275.125244140625 -1280.282958984375 -1285.562744140625 -1290.998291015625 -1296.62158203125 -1302.4176025390625 -1308.4256591796875 -1314.6153564453125 -1321.0595703125 -1327.6602783203125 -1334.3758544921875 -1341.1055908203125 -1347.808349609375 -1354.444091796875 -1360.9530029296875 -1367.1844482421875 -1373.2030029296875 -1378.9964599609375 -1384.5599365234375 -1389.9381103515625 -1395.120849609375 -1400.1573486328125 -1405.12109375 -1409.9964599609375 -1414.8228759765625 -1419.6649169921875 -1424.572998046875 -1429.52880859375 -1434.4952392578125 -1439.5235595703125 -1444.6722412109375 -1449.7213134765625 -1454.61181640625 -1459.3087158203125 -1463.6153564453125 -1467.251220703125 -1470.359375 -1472.9163818359375 -1474.774169921875 -1475.986083984375 -1476.5318603515625 -1476.5389404296875 -1475.9976806640625 -1474.9136962890625 -1473.382080078125 -1471.42626953125 -1469.12060546875 -1466.44873046875 -1463.4730224609375 -1460.231689453125 -1456.759521484375 -1453.102294921875 -1449.244384765625 -1445.231201171875 -1441.0672607421875 -1436.8125 -1432.48046875 -1428.0897216796875 -1423.678466796875 -1419.26708984375 -1414.8775634765625 -1410.5465087890625 -1406.2772216796875 -1402.13232421875 -1398.1346435546875 -1394.2977294921875 -1390.605224609375 -1387.0899658203125 -1383.76220703125 -1380.6827392578125 -1377.816650390625 -1375.1900634765625 -1372.7940673828125 -1370.680908203125 -1368.87646484375 -1367.3128662109375 -1365.92919921875 -1364.6219482421875 -1363.324462890625 -1362.0447998046875 -1360.8353271484375 -1359.5703125 -1358.3511962890625 -1357.1353759765625 -1355.7301025390625 -1354.271484375 -1352.6676025390625 -1350.9193115234375 -1349.0069580078125 -1346.9178466796875 -1344.666259765625 -1342.264404296875 -1339.738037109375 -1337.09423828125 -1334.345947265625 -1331.5262451171875 -1328.6541748046875 -1325.7425537109375 -1322.7960205078125 -1319.83837890625 -1316.9013671875 -1313.9969482421875 -1310.9537353515625 -1307.9859619140625 -1305.0394287109375 -99999 -99999 -99999 -99999 -99999 -99999 -99999 -99999 -99999 -99999 -99999 -99999 -99999 -99999 -99999 -99999 -99999 -99999 -99999 -99999 -99999 -99999 -99999 -99999 -99999 -99999 -99999 -99999 -99999 -99999 -99999 -99999 -99999 -99999 -99999 -99999 -99999 -99999 -99999 -99999 -99999 -99999 -99999 -99999 -99999 -99999 -99999 -99999 -99999 -99999 -99999 -99999 -99999 -99999 -99999 -99999 -99999 -99999 -99999 -99999 -99999 -99999 -99999 -99999 -99999 -99999 -99999 -99999 -99999 -99999 -99999 -99999 -99999
 -99999 -99999 -99999 -1183.71142578125 -1188.907958984375 -1194.1092529296875 -1199.28173828125 -1204.4124755859375 -1209.4976806640625 -1214.550048828125 -1219.560302734375 -1224.542724609375 -1229.473388671875 -1234.3656005859375 -1239.2266845703125 -1244.074462890625 -1248.8946533203125 -1253.6951904296875 -1258.4879150390625 -1263.3089599609375 -1268.1759033203125 -1273.1151123046875 -1278.170654296875 -1283.35595703125 -1288.68505859375 -1294.2076416015625 -1299.9273681640625 -1305.9237060546875 -1312.160888671875 -1318.62939453125 -1325.2916259765625 -1332.1064453125 -1339.0205078125 -1345.9288330078125 -1352.6571044921875 -1359.2347412109375 -1365.5045166015625 -1371.4927978515625 -1377.22021484375 -1382.6444091796875 -1387.809326171875 -1392.79345703125 -1397.649169921875 -1402.35791015625 -1407.0068359375 -1411.6500244140625 -1416.250244140625 -1420.8331298828125 -1425.459716796875 -1430.1807861328125 -1434.93701171875 -1439.64599609375 -1444.25048828125 -1448.8470458984375 -1452.9779052734375 -1456.8204345703125 -1460.2503662109375 -1463.1807861328125 -1465.52001953125 -1467.2249755859375 -1468.3934326171875 -1468.93896484375 -1468.9559326171875 -1468.43017578125 -1467.4234619140625 -1465.975341796875 -1464.0704345703125 -1461.8267822265625 -1459.232421875 -1456.341796875 -1453.1688232421875 -1449.7669677734375 -1446.1539306640625 -1442.3011474609375 -1438.3114013671875 -1434.197998046875 -1429.9697265625 -1425.6632080078125 -1421.2933349609375 -1416.9017333984375 -1412.515380859375 -1408.1617431640625 -1403.8505859375 -1399.653564453125 -1395.58984375 -1391.659423828125 -1387.876953125 -1384.2738037109375 -1380.8819580078125 -1377.6937255859375 -1374.71826171875 -1371.92822265625 -1369.3851318359375 -1367.09521484375 -1365.0589599609375 -1363.33544921875 -1361.8634033203125 -1360.5830078125 -1359.3758544921875 -1358.100830078125 -1356.815185546875 -1355.593994140625 -1354.303466796875 -1353.00244140625 -1351.6719970703125 -1350.246826171875 -1348.726806640625 -1347.0828857421875 -1345.30126953125 -1343.363037109375 -1341.2691650390625 -1339.0311279296875 -1336.6461181640625 -1334.1396484375 -1331.524658203125 -1328.8233642578125 -1326.0443115234375 -1323.2000732421875 -1320.3160400390625 -1317.4219970703125 -1314.554931640625 -1311.53076171875 -1308.56591796875 -1305.60498046875 -99999 -99999 -99999 -99999 -99999 -99999 -99999 -99999 -99999 -99999 -99999 -99999 -99999 -99999 -99999 -99999 -99999 -99999 -99999 -99999 -99999 -99999 -99999 -99999 -99999 -99999 -99999 -99999 -99999 -99999 -99999 -99999 -99999 -99999 -99999 -99999 -99999 -99999 -99999 -99999 -99999 -99999 -99999 -99999 -99999 -99999 -99999 -99999 -99999 -99999 -99999 -99999 -99999 -99999 -99999 -99999 -99999 -99999 -99999 -99999 -99999 -99999 -99999 -99999 -99999 -99999 -99999 -99999 -99999 -99999 -99999 -99999 -99999 -99999 -99999
 -99999 -99999 -99999 -99999 -1187.59130859375 -1192.8026123046875 -1197.983154296875 -1203.1295166015625 -1208.220458984375 -1213.2659912109375 -1218.2650146484375 -1223.2520751953125 -1228.1513671875 -1232.99267578125 -1237.8177490234375 -1242.593505859375 -1247.327880859375 -1252.041015625 -1256.7528076171875 -1261.4715576171875 -1266.1912841796875 -1271.05615234375 -1275.8914794921875 -1280.880859375 -1286.0838623046875 -1291.4952392578125 -1297.1500244140625 -1303.02783203125 -1309.22705078125 -1315.7437744140625 -1322.5162353515625 -1329.52587890625 -1336.6151123046875 -1343.6573486328125 -1350.60400390625 -1357.303466796875 -1363.6241455078125 -1369.601806640625 -1375.2005615234375 -1380.479736328125 -1385.5198974609375 -1390.3648681640625 -1394.9661865234375 -1399.461669921875 -1403.898193359375 -1408.2645263671875 -1412.6385498046875 -1417.0218505859375 -1421.424560546875 -1425.7904052734375 -1430.148193359375 -1434.523193359375 -1438.8114013671875 -1442.948486328125 -1446.7972412109375 -1450.3092041015625 -1453.427001953125 -1456.0523681640625 -1458.1826171875 -1459.79541015625 -1460.892578125 -1461.4207763671875 -1461.4361572265625 -1460.9056396484375 -1459.9337158203125 -1458.547607421875 -1456.73828125 -1454.563720703125 -1452.0299072265625 -1449.210205078125 -1446.138916015625 -1442.7166748046875 -1439.1356201171875 -1435.37109375 -1431.4381103515625 -1427.3426513671875 -1423.137451171875 -1418.8660888671875 -1414.5325927734375 -1410.175537109375 -1405.8013916015625 -1401.491455078125 -1397.230712890625 -1393.1051025390625 -1389.0797119140625 -1385.2156982421875 -1381.5419921875 -1378.07568359375 -1374.79931640625 -1371.706787109375 -1368.8482666015625 -1366.2049560546875 -1363.75439453125 -1361.492919921875 -1359.4832763671875 -1357.8074951171875 -1356.4561767578125 -1355.224365234375 -1354.0260009765625 -1352.804931640625 -1351.5626220703125 -1350.3043212890625 -1349.01708984375 -1347.67529296875 -1346.2760009765625 -1344.801025390625 -1343.2327880859375 -1341.5394287109375 -1339.715576171875 -1337.7469482421875 -1335.64111328125 -1333.41357421875 -1331.050048828125 -1328.574462890625 -1325.9837646484375 -1323.3115234375 -1320.5699462890625 -1317.7952880859375 -1314.9984130859375 -1312.04443359375 -1309.1448974609375 -99999 -99999 -99999 -99999 -99999 -99999 -99999 -99999 -99999 -99999 -99999 -99999 -99999 -99999 -99999 -99999 -99999 -99999 -99999 -99999 -99999 -99999 -99999 -99999 -99999 -99999 -99999 -99999 -99999 -99999 -99999 -99999 -99999 -99999 -99999 -99999 -99999 -99999 -99999 -99999 -99999 -99999 -99999 -99999 -99999 -99999 -99999 -99999 -99999 -99999 -99999 -99999 -99999 -99999 -99999 -99999 -99999 -99999 -99999 -99999 -99999 -99999 -99999 -99999 -99999 -99999 -99999 -99999 -99999 -99999 -99999 -99999 -99999 -99999 -99999 -99999 -99999 -99999
 -99999 -99999 -99999 -99999 -1186.1962890625 -1191.4329833984375 -1196.6317138671875 -1201.78125 -1206.87646484375 -1211.9267578125 -1216.9259033203125 -1221.861328125 -1226.773193359375 -1231.5728759765625 -1236.3359375 -1241.05078125 -1245.7197265625 -1250.3543701171875 -1254.9168701171875 -1259.4949951171875 -1264.090576171875 -1268.7271728515625 -1273.4127197265625 -1278.2633056640625 -1283.2568359375 -1288.4453125 -1293.9393310546875 -1299.801025390625 -1305.9344482421875 -1312.406005859375 -1319.3209228515625 -1326.42578125 -1333.7860107421875 -1341.1422119140625 -1348.2620849609375 -1355.09228515625 -1361.516845703125 -1367.431884765625 -1372.9771728515625 -1378.1695556640625 -1382.9932861328125 -1387.61474609375 -1392.077880859375 -1396.40673828125 -1400.62060546875 -1404.7740478515625 -1408.939453125 -1413.0313720703125 -1417.155517578125 -1421.2930908203125 -1425.390625 -1429.460693359375 -1433.3106689453125 -1437.060546875 -1440.5855712890625 -1443.8701171875 -1446.716796875 -1449.1488037109375 -1451.05029296875 -1452.5316162109375 -1453.47802734375 -1453.93603515625 -1453.93359375 -1453.4847412109375 -1452.5499267578125 -1451.1512451171875 -1449.4542236328125 -1447.341552734375 -1444.8536376953125 -1442.0394287109375 -1439.0048828125 -1435.720947265625 -1432.18310546875 -1428.447265625 -1424.55322265625 -1420.5223388671875 -1416.3719482421875 -1412.124755859375 -1407.8048095703125 -1403.490234375 -1399.1656494140625 -1394.899169921875 -1390.687255859375 -1386.5872802734375 -1382.651123046875 -1378.896484375 -1375.330078125 -1371.9481201171875 -1368.8170166015625 -1365.9066162109375 -1363.1680908203125 -1360.618408203125 -1358.2547607421875 -1356.0753173828125 -1354.0902099609375 -1352.3743896484375 -1351.1275634765625 -1349.9447021484375 -1348.767578125 -1347.5703125 -1346.338623046875 -1345.0592041015625 -1343.734130859375 -1342.356689453125 -1340.9169921875 -1339.3846435546875 -1337.75146484375 -1336.009765625 -1334.150390625 -1332.178955078125 -1330.070068359375 -1327.830078125 -1325.4771728515625 -1323.0234375 -1320.47705078125 -1317.8670654296875 -1315.2032470703125 -1312.36865234375 -1309.555419921875 -99999 -99999 -99999 -99999 -99999 -99999 -99999 -99999 -99999 -99999 -99999 -99999 -99999 -99999 -99999 -99999 -99999 -99999 -99999 -99999 -99999 -99999 -99999 -99999 -99999 -99999 -99999 -99999 -99999 -99999 -99999 -99999 -99999 -99999 -99999 -99999 -99999 -99999 -99999 -99999 -99999 -99999 -99999 -99999 -99999 -99999 -99999 -99999 -99999 -99999 -99999 -99999 -99999 -99999 -99999 -99999 -99999 -99999 -99999 -99999 -99999 -99999 -99999 -99999 -99999 -99999 -99999 -99999 -99999 -99999 -99999 -99999 -99999 -99999 -99999 -99999 -99999 -99999 -99999 -99999
 -99999 -99999 -99999 -99999 -99999 -1189.9918212890625 -1195.204345703125 -1200.3751220703125 -1205.491455078125 -1210.5341796875 -1215.521240234375 -1220.451904296875 -1225.3236083984375 -1230.101318359375 -1234.8277587890625 -1239.48828125 -1244.058349609375 -1248.5792236328125 -1253.04736328125 -1257.4822998046875 -1261.8905029296875 -1266.320556640625 -1270.793701171875 -1275.38916015625 -1280.1744384765625 -1285.2032470703125 -1290.4637451171875 -1296.0555419921875 -1302.1239013671875 -1308.648681640625 -1315.503173828125 -1322.8919677734375 -1330.46923828125 -1338.130859375 -1345.6468505859375 -1352.7489013671875 -1359.2984619140625 -1365.1361083984375 -1370.473876953125 -1375.476806640625 -1380.1917724609375 -1384.660400390625 -1388.9561767578125 -1393.072509765625 -1397.104248046875 -1401.07958984375 -1404.9908447265625 -1408.908447265625 -1412.8009033203125 -1416.663330078125 -1420.465087890625 -1424.19580078125 -1427.8140869140625 -1431.269287109375 -1434.4962158203125 -1437.39306640625 -1439.9644775390625 -1442.17138671875 -1444.01171875 -1445.38427734375 -1446.2540283203125 -1446.652587890625 -1446.617919921875 -1446.145263671875 -1445.2220458984375 -1443.84326171875 -1442.0966796875 -1440.0390625 -1437.66748046875 -1434.960205078125 -1431.9488525390625 -1428.70361328125 -1425.247314453125 -1421.59130859375 -1417.746337890625 -1413.7464599609375 -1409.638671875 -1405.4459228515625 -1401.187744140625 -1396.8983154296875 -1392.61474609375 -1388.374267578125 -1384.236083984375 -1380.2054443359375 -1376.3519287109375 -1372.64990234375 -1369.2142333984375 -1366.0118408203125 -1363.0042724609375 -1360.2010498046875 -1357.624267578125 -1355.27392578125 -1353.0323486328125 -1350.9384765625 -1348.999267578125 -1347.3736572265625 -1346.018798828125 -1344.8134765625 -1343.622314453125 -1342.4024658203125 -1341.14404296875 -1339.8414306640625 -1338.4935302734375 -1337.060546875 -1335.5589599609375 -1333.9710693359375 -1332.301513671875 -1330.5369873046875 -1328.640380859375 -1326.63134765625 -1324.515380859375 -1322.2940673828125 -1319.968505859375 -1317.552490234375 -1315.0740966796875 -1312.40673828125 -1309.712158203125 -99999 -99999 -99999 -99999 -99999 -99999 -99999 -99999 -99999 -99999 -99999 -99999 -99999 -99999 -99999 -99999 -99999 -99999 -99999 -99999 -99999 -99999 -99999 -99999 -99999 -99999 -99999 -99999 -99999 -99999 -99999 -99999 -99999 -99999 -99999 -99999 -99999 -99999 -99999 -99999 -99999 -99999 -99999 -99999 -99999 -99999 -99999 -99999 -99999 -99999 -99999 -99999 -99999 -99999 -99999 -99999 -99999 -99999 -99999 -99999 -99999 -99999 -99999 -99999 -99999 -99999 -99999 -99999 -99999 -99999 -99999 -99999 -99999 -99999 -99999 -99999 -99999 -99999 -99999 -99999 -99999 -99999
 -99999 -99999 -99999 -99999 -99999 -1188.4913330078125 -1193.72412109375 -1198.9010009765625 -1204.0296630859375 -1209.08984375 -1214.08837890625 -1219.003662109375 -1223.9248046875 -1228.6217041015625 -1233.28564453125 -1237.8729248046875 -1242.379638671875 -1246.8084716796875 -1251.1492919921875 -1255.4156494140625 -1259.644287109375 -1263.8580322265625 -1268.0821533203125 -1272.3658447265625 -1276.8807373046875 -1281.5489501953125 -1286.6348876953125 -1291.9892578125 -1297.9061279296875 -1304.2088623046875 -1311.1058349609375 -1318.671630859375 -1326.5615234375 -1334.6922607421875 -1342.6199951171875 -1350.0286865234375 -1356.723876953125 -1362.3936767578125 -1367.6478271484375 -1372.5345458984375 -1377.09765625 -1381.3885498046875 -1385.49365234375 -1389.4747314453125 -1393.340576171875 -1397.1309814453125 -1400.850341796875 -1404.592529296875 -1408.24755859375 -1411.87158203125 -1415.433837890625 -1418.9166259765625 -1422.285400390625 -1425.4093017578125 -1428.3486328125 -1431.0364990234375 -1433.43212890625 -1435.4332275390625 -1437.0135498046875 -1438.2095947265625 -1439.010986328125 -1439.4110107421875 -1439.2974853515625 -1438.763916015625 -1437.8521728515625 -1436.575439453125 -1434.9420166015625 -1432.8826904296875 -1430.5177001953125 -1427.8709716796875 -1424.9674072265625 -1421.811279296875 -1418.3734130859375 -1414.7568359375 -1410.9794921875 -1407.06591796875 -1403.0130615234375 -1398.8536376953125 -1394.6480712890625 -1390.3988037109375 -1386.1700439453125 -1381.9803466796875 -1377.896728515625 -1373.9117431640625 -1370.1536865234375 -1366.6031494140625 -1363.2520751953125 -1360.1397705078125 -1357.2916259765625 -1354.7412109375 -1352.314697265625 -1350.08251953125 -1348.0047607421875 -1346.0364990234375 -1344.19775390625 -1342.5257568359375 -1341.1412353515625 -1339.8472900390625 -1338.58447265625 -1337.3251953125 -1336.0208740234375 -1334.673583984375 -1333.253173828125 -1331.7764892578125 -1330.235595703125 -1328.61767578125 -1326.89111328125 -1325.07421875 -1323.163330078125 -1321.1568603515625 -1319.0389404296875 -1316.85595703125 -1314.55859375 -1312.0797119140625 -1309.5518798828125 -99999 -99999 -99999 -99999 -99999 -99999 -99999 -99999 -99999 -99999 -99999 -99999 -99999 -99999 -99999 -99999 -99999 -99999 -99999 -99999 -99999 -99999 -99999 -99999 -99999 -99999 -99999 -99999 -99999 -99999 -99999 -99999 -99999 -99999 -99999 -99999 -99999 -99999 -99999 -99999 -99999 -99999 -99999 -99999 -99999 -99999 -99999 -99999 -99999 -99999 -99999 -99999 -99999 -99999 -99999 -99999 -99999 -99999 -99999 -99999 -99999 -99999 -99999 -99999 -99999 -99999 -99999 -99999 -99999 -99999 -99999 -99999 -99999 -99999 -99999 -99999 -99999 -99999 -99999 -99999 -99999 -99999 -99999 -99999
 -99999 -99999 -99999 -99999 -99999 -1186.907958984375 -1192.1671142578125 -1197.378662109375 -1202.528564453125 -1207.5938720703125 -1212.589599609375 -1217.509521484375 -1222.351318359375 -1227.0980224609375 -1231.7303466796875 -1236.2781982421875 -1240.7115478515625 -1245.026123046875 -1249.2374267578125 -1253.349609375 -1257.395263671875 -1261.3831787109375 -1265.33642578125 -1269.30517578125 -1273.4134521484375 -1277.7725830078125 -1282.3712158203125 -1287.3707275390625 -1293.0205078125 -1299.2994384765625 -1306.1490478515625 -1313.674560546875 -1321.9305419921875 -1330.5919189453125 -1339.2666015625 -1347.264404296875 -1354.0556640625 -1359.6240234375 -1364.4752197265625 -1369.1343994140625 -1373.5616455078125 -1377.7476806640625 -1381.7220458984375 -1385.54443359375 -1389.260009765625 -1392.8992919921875 -1396.480224609375 -1400.03564453125 -1403.527587890625 -1406.9404296875 -1410.300537109375 -1413.521240234375 -1416.61669921875 -1419.5531005859375 -1422.30810546875 -1424.738037109375 -1426.8685302734375 -1428.6956787109375 -1430.1842041015625 -1431.2955322265625 -1431.947509765625 -1432.207763671875 -1432.0948486328125 -1431.609130859375 -1430.7119140625 -1429.3935546875 -1427.7403564453125 -1425.7677001953125 -1423.5081787109375 -1420.916259765625 -1418.02099609375 -1414.904052734375 -1411.580078125 -1408.06298828125 -1404.353759765625 -1400.4599609375 -1396.4644775390625 -1392.3663330078125 -1388.2147216796875 -1384.0301513671875 -1379.8515625 -1375.7186279296875 -1371.7086181640625 -1367.838134765625 -1364.12060546875 -1360.6326904296875 -1357.3870849609375 -1354.515869140625 -1351.81201171875 -1349.38330078125 -1347.157470703125 -1345.072998046875 -1343.101806640625 -1341.198974609375 -1339.4473876953125 -1337.843017578125 -1336.3651123046875 -1334.9752197265625 -1333.6510009765625 -1332.3060302734375 -1330.935546875 -1329.5269775390625 -1328.07080078125 -1326.5537109375 -1324.95263671875 -1323.2794189453125 -1321.529296875 -1319.7117919921875 -1317.776611328125 -1315.7935791015625 -1313.66552734375 -1311.3865966796875 -99999 -99999 -99999 -99999 -99999 -99999 -99999 -99999 -99999 -99999 -99999 -99999 -99999 -99999 -99999 -99999 -99999 -99999 -99999 -99999 -99999 -99999 -99999 -99999 -99999 -99999 -99999 -99999 -99999 -99999 -99999 -99999 -99999 -99999 -99999 -99999 -99999 -99999 -99999 -99999 -99999 -99999 -99999 -99999 -99999 -99999 -99999 -99999 -99999 -99999 -99999 -99999 -99999 -99999 -99999 -99999 -99999 -99999 -99999 -99999 -99999 -99999 -99999 -99999 -99999 -99999 -99999 -99999 -99999 -99999 -99999 -99999 -99999 -99999 -99999 -99999 -99999 -99999 -99999 -99999 -99999 -99999 -99999 -99999 -99999 -99999 -99999
 -99999 -99999 -99999 -99999 -99999 -1185.2681884765625 -1190.5491943359375 -1195.7803955078125 -1200.9537353515625 -1206.0469970703125 -1211.0667724609375 -1215.9932861328125 -1220.8193359375 -1225.5792236328125 -1230.1798095703125 -1234.667724609375 -1239.0380859375 -1243.279541015625 -1247.3924560546875 -1251.360595703125 -1255.18017578125 -1258.8973388671875 -1262.5546875 -1266.258056640625 -1269.8837890625 -1273.7724609375 -1277.9967041015625 -1282.5860595703125 -1287.7244873046875 -1293.5963134765625 -1300.2880859375 -1307.891845703125 -1316.2481689453125 -1325.468017578125 -1335.18115234375 -1344.1895751953125 -1351.65625 -1356.6075439453125 -1360.97802734375 -1365.4144287109375 -1369.6881103515625 -1373.679931640625 -1377.525634765625 -1381.248046875 -1384.8643798828125 -1388.406005859375 -1391.861083984375 -1395.2470703125 -1398.5679931640625 -1401.8507080078125 -1404.9871826171875 -1408.0274658203125 -1410.959228515625 -1413.6627197265625 -1416.14990234375 -1418.40869140625 -1420.412841796875 -1422.0958251953125 -1423.388427734375 -1424.33544921875 -1424.9512939453125 -1425.1944580078125 -1425.02880859375 -1424.447265625 -1423.5533447265625 -1422.315185546875 -1420.7039794921875 -1418.7550048828125 -1416.492919921875 -1413.9656982421875 -1411.1937255859375 -1408.149169921875 -1404.9039306640625 -1401.4017333984375 -1397.745849609375 -1393.94140625 -1390.0225830078125 -1386.0111083984375 -1381.918701171875 -1377.7994384765625 -1373.7027587890625 -1369.660888671875 -1365.7021484375 -1361.8736572265625 -1358.235107421875 -1354.8848876953125 -1351.787109375 -1348.99365234375 -1346.4844970703125 -1344.2093505859375 -1342.1138916015625 -1340.1361083984375 -1338.2669677734375 -1336.4619140625 -1334.7413330078125 -1333.12939453125 -1331.6207275390625 -1330.17529296875 -1328.7552490234375 -1327.340087890625 -1325.9168701171875 -1324.45263671875 -1322.9288330078125 -1321.3519287109375 -1319.7283935546875 -1318.0323486328125 -1316.2572021484375 -1314.4642333984375 -1312.421630859375 -1310.3411865234375 -99999 -99999 -99999 -99999 -99999 -99999 -99999 -99999 -99999 -99999 -99999 -99999 -99999 -99999 -99999 -99999 -99999 -99999 -99999 -99999 -99999 -99999 -99999 -99999 -99999 -99999 -99999 -99999 -99999 -99999 -99999 -99999 -99999 -99999 -99999 -99999 -99999 -99999 -99999 -99999 -99999 -99999 -99999 -99999 -99999 -99999 -99999 -99999 -99999 -99999 -99999 -99999 -99999 -99999 -99999 -99999 -99999 -99999 -99999 -99999 -99999 -99999 -99999 -99999 -99999 -99999 -99999 -99999 -99999 -99999 -99999 -99999 -99999 -99999 -99999 -99999 -99999 -99999 -99999 -99999 -99999 -99999 -99999 -99999 -99999 -99999 -99999 -99999 -99999
 -99999 -99999 -99999 -99999 -99999 -1183.552978515625 -1188.8597412109375 -1194.13134765625 -1199.3253173828125 -1204.4512939453125 -1209.4854736328125 -1214.4322509765625 -1219.2772216796875 -1224.0347900390625 -1228.6175537109375 -1233.089599609375 -1237.4267578125 -1241.5892333984375 -1245.5758056640625 -1249.3992919921875 -1253.0721435546875 -1256.6065673828125 -1259.9359130859375 -1263.1668701171875 -1266.3858642578125 -1269.6195068359375 -1273.336669921875 -1277.39892578125 -1282.1038818359375 -1287.5177001953125 -1293.8143310546875 -1301.067626953125 -1309.57373046875 -1319.3203125 -1330.0128173828125 -1340.5885009765625 -1349.1041259765625 -1353.4283447265625 -1357.207275390625 -1361.2076416015625 -1365.2000732421875 -1369.1220703125 -1372.9066162109375 -1376.56591796875 -1380.127197265625 -1383.5841064453125 -1386.96142578125 -1390.2628173828125 -1393.4759521484375 -1396.5714111328125 -1399.5650634765625 -1402.54345703125 -1405.1624755859375 -1407.7081298828125 -1410.039306640625 -1412.1473388671875 -1413.9320068359375 -1415.44189453125 -1416.6551513671875 -1417.5286865234375 -1418.0496826171875 -1418.1839599609375 -1417.988037109375 -1417.4425048828125 -1416.5306396484375 -1415.272705078125 -1413.682373046875 -1411.8017578125 -1409.611572265625 -1407.1466064453125 -1404.4576416015625 -1401.429931640625 -1398.225830078125 -1394.830322265625 -1391.2734375 -1387.5595703125 -1383.705322265625 -1379.7574462890625 -1375.7662353515625 -1371.749267578125 -1367.730712890625 -1363.7403564453125 -1359.8524169921875 -1356.1021728515625 -1352.6234130859375 -1349.3526611328125 -1346.3485107421875 -1343.643310546875 -1341.257568359375 -1339.1259765625 -1337.185791015625 -1335.3157958984375 -1333.50341796875 -1331.74169921875 -1330.0634765625 -1328.4561767578125 -1326.899169921875 -1325.3922119140625 -1323.9197998046875 -1322.4405517578125 -1320.9351806640625 -1319.42138671875 -1317.8802490234375 -1316.2451171875 -1314.6307373046875 -1312.9029541015625 -1310.9783935546875 -1309.0498046875 -99999 -99999 -99999 -99999 -99999 -99999 -99999 -99999 -99999 -99999 -99999 -99999 -99999 -99999 -99999 -99999 -99999 -99999 -99999 -99999 -99999 -99999 -99999 -99999 -99999 -99999 -99999 -99999 -99999 -99999 -99999 -99999 -99999 -99999 -99999 -99999 -99999 -99999 -99999 -99999 -99999 -99999 -99999 -99999 -99999 -99999 -99999 -99999 -99999 -99999 -99999 -99999 -99999 -99999 -99999 -99999 -99999 -99999 -99999 -99999 -99999 -99999 -99999 -99999 -99999 -99999 -99999 -99999 -99999 -99999 -99999 -99999 -99999 -99999 -99999 -99999 -99999 -99999 -99999 -99999 -99999 -99999 -99999 -99999 -99999 -99999 -99999 -99999 -99999 -99999 -99999
 -99999 -99999 -99999 -99999 -99999 -1181.7525634765625 -1187.090576171875 -1192.39404296875 -1197.635498046875 -1202.807373046875 -1207.8646240234375 -1212.833984375 -1217.6998291015625 -1222.471923828125 -1227.0697021484375 -1231.5286865234375 -1235.836181640625 -1239.95654296875 -1243.8885498046875 -1247.6273193359375 -1251.11328125 -1254.3634033203125 -1257.4278564453125 -1260.3564453125 -1263.1688232421875 -1265.84716796875 -1268.75244140625 -1272.120361328125 -1276.1055908203125 -1280.90185546875 -1286.7987060546875 -1293.600341796875 -1301.7086181640625 -1311.3065185546875 -1322.3966064453125 -1334.020263671875 -1343.64404296875 -1348.06005859375 -1352.0809326171875 -1356.05517578125 -1360.0906982421875 -1364.0418701171875 -1367.8082275390625 -1371.4951171875 -1375.04052734375 -1378.484619140625 -1381.8167724609375 -1385.0357666015625 -1388.1480712890625 -1391.15234375 -1394.04296875 -1396.77587890625 -1399.343017578125 -1401.7847900390625 -1404.0040283203125 -1405.829345703125 -1407.4957275390625 -1408.8951416015625 -1409.9869384765625 -1410.73974609375 -1411.188720703125 -1411.2843017578125 -1411.0577392578125 -1410.4775390625 -1409.5653076171875 -1408.3397216796875 -1406.7899169921875 -1404.94189453125 -1402.8680419921875 -1400.3763427734375 -1397.7044677734375 -1394.805419921875 -1391.7073974609375 -1388.382080078125 -1384.8931884765625 -1381.2490234375 -1377.52099609375 -1373.6968994140625 -1369.775146484375 -1365.833984375 -1361.9197998046875 -1358.0731201171875 -1354.268310546875 -1350.656005859375 -1347.2183837890625 -1344.010009765625 -1341.063720703125 -1338.426513671875 -1336.178955078125 -1334.2120361328125 -1332.35205078125 -1330.5440673828125 -1328.796142578125 -1327.090576171875 -1325.418701171875 -1323.795166015625 -1322.212646484375 -1320.65380859375 -1319.1015625 -1317.577392578125 -1316.0452880859375 -1314.482666015625 -1312.904296875 -1311.12451171875 -1309.376220703125 -99999 -99999 -99999 -99999 -99999 -99999 -99999 -99999 -99999 -99999 -99999 -99999 -99999 -99999 -99999 -99999 -99999 -99999 -99999 -99999 -99999 -99999 -99999 -99999 -99999 -99999 -99999 -99999 -99999 -99999 -99999 -99999 -99999 -99999 -99999 -99999 -99999 -99999 -99999 -99999 -99999 -99999 -99999 -99999 -99999 -99999 -99999 -99999 -99999 -99999 -99999 -99999 -99999 -99999 -99999 -99999 -99999 -99999 -99999 -99999 -99999 -99999 -99999 -99999 -99999 -99999 -99999 -99999 -99999 -99999 -99999 -99999 -99999 -99999 -99999 -99999 -99999 -99999 -99999 -99999 -99999 -99999 -99999 -99999 -99999 -99999 -99999 -99999 -99999 -99999 -99999 -99999 -99999 -99999
 -99999 -99999 -99999 -99999 -99999 -1179.9202880859375 -1185.2523193359375 -1190.59619140625 -1195.87158203125 -1201.0775146484375 -1206.1890869140625 -1211.2081298828125 -1216.09521484375 -1220.8756103515625 -1225.5242919921875 -1229.983642578125 -1234.2950439453125 -1238.4215087890625 -1242.3135986328125 -1245.94873046875 -1249.33251953125 -1252.45703125 -1255.2784423828125 -1257.74462890625 -1260.0201416015625 -1262.2451171875 -1264.5257568359375 -1267.0074462890625 -1270.13330078125 -1274.3016357421875 -1279.35498046875 -1285.4244384765625 -1292.79736328125 -1302.011962890625 -1312.7418212890625 -1324.0640869140625 -1333.635009765625 -1340.31787109375 -1345.48681640625 -1349.9141845703125 -1354.238525390625 -1358.3470458984375 -1362.2723388671875 -1366.01123046875 -1369.6318359375 -1373.1005859375 -1376.40869140625 -1379.606201171875 -1382.6768798828125 -1385.591552734375 -1388.3582763671875 -1390.9710693359375 -1393.4229736328125 -1395.697998046875 -1397.723876953125 -1399.52294921875 -1401.140869140625 -1402.4383544921875 -1403.3983154296875 -1404.072265625 -1404.4697265625 -1404.55419921875 -1404.271240234375 -1403.6480712890625 -1402.7354736328125 -1401.53662109375 -1400.0069580078125 -1398.1380615234375 -1396.05322265625 -1393.7122802734375 -1391.1031494140625 -1388.2713623046875 -1385.2454833984375 -1382.0189208984375 -1378.6502685546875 -1375.1080322265625 -1371.4530029296875 -1367.71337890625 -1363.929931640625 -1360.08935546875 -1356.2911376953125 -1352.532958984375 -1348.8946533203125 -1345.3695068359375 -1342.0198974609375 -1338.906494140625 -1336.0130615234375 -1333.4034423828125 -1331.2484130859375 -1329.3836669921875 -1327.627685546875 -1325.8970947265625 -1324.1785888671875 -1322.482177734375 -1320.8101806640625 -1319.1600341796875 -1317.563720703125 -1316.006591796875 -1314.361328125 -1312.804443359375 -1311.13916015625 -1309.4422607421875 -1307.759033203125 -99999 -99999 -99999 -99999 -99999 -99999 -99999 -99999 -99999 -99999 -99999 -99999 -99999 -99999 -99999 -99999 -99999 -99999 -99999 -99999 -99999 -99999 -99999 -99999 -99999 -99999 -99999 -99999 -99999 -99999 -99999 -99999 -99999 -99999 -99999 -99999 -99999 -99999 -99999 -99999 -99999 -99999 -99999 -99999 -99999 -99999 -99999 -99999 -99999 -99999 -99999 -99999 -99999 -99999 -99999 -99999 -99999 -99999 -99999 -99999 -99999 -99999 -99999 -99999 -99999 -99999 -99999 -99999 -99999 -99999 -99999 -99999 -99999 -99999 -99999 -99999 -99999 -99999 -99999 -99999 -99999 -99999 -99999 -99999 -99999 -99999 -99999 -99999 -99999 -99999 -99999 -99999 -99999 -99999 -99999 -99999
 -99999 -99999 -99999 -99999 -99999 -1177.888916015625 -1183.3289794921875 -1188.7047119140625 -1194.0423583984375 -1199.28759765625 -1204.4520263671875 -1209.5040283203125 -1214.454345703125 -1219.283203125 -1223.9710693359375 -1228.4755859375 -1232.8155517578125 -1236.931396484375 -1240.8280029296875 -1244.4820556640625 -1247.8287353515625 -1250.789794921875 -1253.3814697265625 -1255.6165771484375 -1257.5196533203125 -1259.003173828125 -1260.407470703125 -1262.1845703125 -1264.523681640625 -1267.759765625 -1272.21630859375 -1277.713623046875 -1283.7344970703125 -1291.4007568359375 -1302.515625 -1313.7415771484375 -1323.46728515625 -1331.1312255859375 -1337.4998779296875 -1342.8419189453125 -1347.781494140625 -1352.16357421875 -1356.39501953125 -1360.2630615234375 -1363.94384765625 -1367.44775390625 -1370.8116455078125 -1373.997802734375 -1377.009765625 -1379.87353515625 -1382.584228515625 -1385.1324462890625 -1387.4595947265625 -1389.587646484375 -1391.5133056640625 -1393.222412109375 -1394.6912841796875 -1395.8565673828125 -1396.74755859375 -1397.359375 -1397.6915283203125 -1397.71728515625 -1397.4146728515625 -1396.791748046875 -1395.885009765625 -1394.694580078125 -1393.219482421875 -1391.4412841796875 -1389.3875732421875 -1387.1005859375 -1384.5968017578125 -1381.85205078125 -1378.90185546875 -1375.76171875 -1372.4732666015625 -1369.053955078125 -1365.5361328125 -1361.89599609375 -1358.2572021484375 -1354.568115234375 -1350.8585205078125 -1347.2237548828125 -1343.677734375 -1340.3011474609375 -1337.07421875 -1334.0787353515625 -1331.292724609375 -1328.7337646484375 -1326.6102294921875 -1324.7999267578125 -1323.0570068359375 -1321.33544921875 -1319.623779296875 -1317.9163818359375 -1316.25830078125 -1314.6182861328125 -1312.930908203125 -1311.273681640625 -1309.560791015625 -1307.88623046875 -1306.2034912109375 -99999 -99999 -99999 -99999 -99999 -99999 -99999 -99999 -99999 -99999 -99999 -99999 -99999 -99999 -99999 -99999 -99999 -99999 -99999 -99999 -99999 -99999 -99999 -99999 -99999 -99999 -99999 -99999 -99999 -99999 -99999 -99999 -99999 -99999 -99999 -99999 -99999 -99999 -99999 -99999 -99999 -99999 -99999 -99999 -99999 -99999 -99999 -99999 -99999 -99999 -99999 -99999 -99999 -99999 -99999 -99999 -99999 -99999 -99999 -99999 -99999 -99999 -99999 -99999 -99999 -99999 -99999 -99999 -99999 -99999 -99999 -99999 -99999 -99999 -99999 -99999 -99999 -99999 -99999 -99999 -99999 -99999 -99999 -99999 -99999 -99999 -99999 -99999 -99999 -99999 -99999 -99999 -99999 -99999 -99999 -99999 -99999 -99999
 -99999 -99999 -99999 -99999 -99999 -1175.7833251953125 -1181.30712890625 -1186.7379150390625 -1192.1083984375 -1197.4171142578125 -1202.6533203125 -1207.7652587890625 -1212.753173828125 -1217.62255859375 -1222.39697265625 -1227.00634765625 -1231.328857421875 -1235.53857421875 -1239.50537109375 -1243.1500244140625 -1246.493896484375 -1249.443359375 -1252.0408935546875 -1254.0345458984375 -1255.4566650390625 -1256.426513671875 -1257.1080322265625 -1257.738037109375 -1259.0338134765625 -1261.850341796875 -1265.7947998046875 -1271.0230712890625 -1276.746337890625 -1284.03369140625 -1293.869384765625 -1304.587158203125 -1314.373046875 -1322.5665283203125 -1329.4930419921875 -1335.5018310546875 -1340.8126220703125 -1345.68896484375 -1350.144775390625 -1354.2041015625 -1358.091796875 -1361.6441650390625 -1365.0089111328125 -1368.2032470703125 -1371.2264404296875 -1374.07373046875 -1376.7042236328125 -1379.1435546875 -1381.4102783203125 -1383.492919921875 -1385.3382568359375 -1386.916748046875 -1388.261474609375 -1389.364990234375 -1390.21826171875 -1390.78564453125 -1391.0211181640625 -1390.9842529296875 -1390.6739501953125 -1390.09033203125 -1389.200439453125 -1387.989013671875 -1386.5211181640625 -1384.8074951171875 -1382.8486328125 -1380.6173095703125 -1378.146240234375 -1375.4840087890625 -1372.6363525390625 -1369.6226806640625 -1366.4449462890625 -1363.1246337890625 -1359.732421875 -1356.23974609375 -1352.66796875 -1349.1015625 -1345.546630859375 -1342.059326171875 -1338.67822265625 -1335.4173583984375 -1332.3294677734375 -1329.423095703125 -1326.786865234375 -1324.4095458984375 -1322.29541015625 -1320.3917236328125 -1318.6033935546875 -1316.910400390625 -1315.24853515625 -1313.441650390625 -1311.7059326171875 -1309.9486083984375 -1308.217529296875 -1306.506103515625 -99999 -99999 -99999 -99999 -99999 -99999 -99999 -99999 -99999 -99999 -99999 -99999 -99999 -99999 -99999 -99999 -99999 -99999 -99999 -99999 -99999 -99999 -99999 -99999 -99999 -99999 -99999 -99999 -99999 -99999 -99999 -99999 -99999 -99999 -99999 -99999 -99999 -99999 -99999 -99999 -99999 -99999 -99999 -99999 -99999 -99999 -99999 -99999 -99999 -99999 -99999 -99999 -99999 -99999 -99999 -99999 -99999 -99999 -99999 -99999 -99999 -99999 -99999 -99999 -99999 -99999 -99999 -99999 -99999 -99999 -99999 -99999 -99999 -99999 -99999 -99999 -99999 -99999 -99999 -99999 -99999 -99999 -99999 -99999 -99999 -99999 -99999 -99999 -99999 -99999 -99999 -99999 -99999 -99999 -99999 -99999 -99999 -99999 -99999 -99999 -99999
 -99999 -99999 -99999 -99999 -99999 -99999 -1179.1593017578125 -1184.6507568359375 -1190.099609375 -1195.4613037109375 -1200.743408203125 -1205.9202880859375 -1210.9998779296875 -1215.9478759765625 -1220.737060546875 -1225.4080810546875 -1229.880615234375 -1234.14013671875 -1238.1851806640625 -1241.9703369140625 -1245.431884765625 -1248.49072265625 -1251.028076171875 -1253.0096435546875 -1254.349853515625 -1254.9259033203125 -1254.620849609375 -1254.1600341796875 -1254.374755859375 -1256.09033203125 -1260.1319580078125 -1265.627197265625 -1271.5924072265625 -1278.7225341796875 -1287.4921875 -1296.890380859375 -1306.165771484375 -1314.6087646484375 -1321.74560546875 -1328.2755126953125 -1333.9603271484375 -1339.0623779296875 -1343.720703125 -1348.0255126953125 -1352.0186767578125 -1355.705810546875 -1359.152099609375 -1362.350341796875 -1365.32861328125 -1368.125732421875 -1370.736083984375 -1373.1591796875 -1375.3582763671875 -1377.32177734375 -1379.0736083984375 -1380.6107177734375 -1381.92626953125 -1382.94287109375 -1383.6920166015625 -1384.18603515625 -1384.4248046875 -1384.4046630859375 -1384.0487060546875 -1383.4183349609375 -1382.527587890625 -1381.3785400390625 -1379.97021484375 -1378.283447265625 -1376.33447265625 -1374.1778564453125 -1371.8194580078125 -1369.2603759765625 -1366.47900390625 -1363.5477294921875 -1360.5091552734375 -1357.313232421875 -1353.9996337890625 -1350.637451171875 -1347.2266845703125 -1343.792724609375 -1340.4034423828125 -1337.048828125 -1333.809326171875 -1330.65478515625 -1327.726806640625 -1324.9871826171875 -1322.445556640625 -1320.1092529296875 -1317.98876953125 -1316.1651611328125 -1314.3349609375 -1312.4556884765625 -1310.645751953125 -1308.867431640625 -1307.0948486328125 -1305.3277587890625 -99999 -99999 -99999 -99999 -99999 -99999 -99999 -99999 -99999 -99999 -99999 -99999 -99999 -99999 -99999 -99999 -99999 -99999 -99999 -99999 -99999 -99999 -99999 -99999 -99999 -99999 -99999 -99999 -99999 -99999 -99999 -99999 -99999 -99999 -99999 -99999 -99999 -99999 -99999 -99999 -99999 -99999 -99999 -99999 -99999 -99999 -99999 -99999 -99999 -99999 -99999 -99999 -99999 -99999 -99999 -99999 -99999 -99999 -99999 -99999 -99999 -99999 -99999 -99999 -99999 -99999 -99999 -99999 -99999 -99999 -99999 -99999 -99999 -99999 -99999 -99999 -99999 -99999 -99999 -99999 -99999 -99999 -99999 -99999 -99999 -99999 -99999 -99999 -99999 -99999 -99999 -99999 -99999 -99999 -99999 -99999 -99999 -99999 -99999 -99999 -99999 -99999 -99999
 -99999 -99999 -99999 -99999 -99999 -99999 -1176.9007568359375 -1182.46337890625 -1187.9510498046875 -1193.3912353515625 -1198.7567138671875 -1204.00732421875 -1209.1290283203125 -1214.1534423828125 -1219.057373046875 -1223.8294677734375 -1228.3631591796875 -1232.78369140625 -1236.9571533203125 -1240.8720703125 -1244.4940185546875 -1247.790283203125 -1250.6661376953125 -1252.810546875 -1254.1646728515625 -1254.5474853515625 -1253.7947998046875 -1251.8001708984375 -1250.2391357421875 -1251.3284912109375 -1255.3734130859375 -1260.93603515625 -1267.1270751953125 -1274.284912109375 -1282.1776123046875 -1290.90966796875 -1299.444091796875 -1307.404296875 -1314.7923583984375 -1321.292724609375 -1327.2034912109375 -1332.6033935546875 -1337.4163818359375 -1341.8074951171875 -1345.8759765625 -1349.6455078125 -1353.1544189453125 -1356.411865234375 -1359.440185546875 -1362.1910400390625 -1364.74609375 -1367.0841064453125 -1369.2244873046875 -1371.1602783203125 -1372.8770751953125 -1374.3232421875 -1375.5303955078125 -1376.505859375 -1377.25634765625 -1377.716552734375 -1377.8941650390625 -1377.804931640625 -1377.46875 -1376.86962890625 -1375.9984130859375 -1374.8345947265625 -1373.4376220703125 -1371.8143310546875 -1369.97265625 -1367.872802734375 -1365.564453125 -1363.0760498046875 -1360.4627685546875 -1357.631591796875 -1354.6436767578125 -1351.5787353515625 -1348.396484375 -1345.1539306640625 -1341.885498046875 -1338.6043701171875 -1335.3414306640625 -1332.1165771484375 -1329.0225830078125 -1326.051025390625 -1323.2222900390625 -1320.564453125 -1318.0999755859375 -1315.9620361328125 -1313.8311767578125 -1311.7760009765625 -1309.851318359375 -1307.9940185546875 -1306.1607666015625 -1304.3463134765625 -99999 -99999 -99999 -99999 -99999 -99999 -99999 -99999 -99999 -99999 -99999 -99999 -99999 -99999 -99999 -99999 -99999 -99999 -99999 -99999 -99999 -99999 -99999 -99999 -99999 -99999 -99999 -99999 -99999 -99999 -99999 -99999 -99999 -99999 -99999 -99999 -99999 -99999 -99999 -99999 -99999 -99999 -99999 -99999 -99999 -99999 -99999 -99999 -99999 -99999 -99999 -99999 -99999 -99999 -99999 -99999 -99999 -99999 -99999 -99999 -99999 -99999 -99999 -99999 -99999 -99999 -99999 -99999 -99999 -99999 -99999 -99999 -99999 -99999 -99999 -99999 -99999 -99999 -99999 -99999 -99999 -99999 -99999 -99999 -99999 -99999 -99999 -99999 -99999 -99999 -99999 -99999 -99999 -99999 -99999 -99999 -99999 -99999 -99999 -99999 -99999 -99999 -99999 -99999 -99999
 -99999 -99999 -99999 -99999 -99999 -99999 -1174.5020751953125 -1180.2200927734375 -1185.7042236328125 -1191.1942138671875 -1196.6165771484375 -1201.9620361328125 -1207.19189453125 -1212.2781982421875 -1217.2418212890625 -1222.08740234375 -1226.8048095703125 -1231.281982421875 -1235.6275634765625 -1239.784912109375 -1243.6492919921875 -1247.18603515625 -1250.3162841796875 -1253.009521484375 -1255.0599365234375 -1255.8629150390625 -1255.1182861328125 -1252.3756103515625 -1248.0203857421875 -1247.0238037109375 -1251.4630126953125 -1257.3043212890625 -1263.5716552734375 -1270.5054931640625 -1278.0743408203125 -1285.8453369140625 -1293.7105712890625 -1301.41162109375 -1308.4395751953125 -1315.0474853515625 -1320.9033203125 -1326.24365234375 -1331.158447265625 -1335.6900634765625 -1339.8372802734375 -1343.63427734375 -1347.1375732421875 -1350.3865966796875 -1353.402099609375 -1356.19970703125 -1358.7796630859375 -1361.036376953125 -1363.139892578125 -1364.990478515625 -1366.6131591796875 -1368.0274658203125 -1369.213134765625 -1370.1468505859375 -1370.798828125 -1371.2149658203125 -1371.393310546875 -1371.31494140625 -1370.9613037109375 -1370.3341064453125 -1369.4727783203125 -1368.3812255859375 -1367.0361328125 -1365.4404296875 -1363.6300048828125 -1361.6734619140625 -1359.46142578125 -1357.0382080078125 -1354.4461669921875 -1351.7315673828125 -1348.8656005859375 -1345.9071044921875 -1342.8756103515625 -1339.7764892578125 -1336.6214599609375 -1333.468505859375 -1330.3585205078125 -1327.2999267578125 -1324.3226318359375 -1321.4449462890625 -1318.7213134765625 -1316.2283935546875 -1313.8385009765625 -1311.5406494140625 -1309.402587890625 -1307.381591796875 -1305.439453125 -1303.5491943359375 -99999 -99999 -99999 -99999 -99999 -99999 -99999 -99999 -99999 -99999 -99999 -99999 -99999 -99999 -99999 -99999 -99999 -99999 -99999 -99999 -99999 -99999 -99999 -99999 -99999 -99999 -99999 -99999 -99999 -99999 -99999 -99999 -99999 -99999 -99999 -99999 -99999 -99999 -99999 -99999 -99999 -99999 -99999 -99999 -99999 -99999 -99999 -99999 -99999 -99999 -99999 -99999 -99999 -99999 -99999 -99999 -99999 -99999 -99999 -99999 -99999 -99999 -99999 -99999 -99999 -99999 -99999 -99999 -99999 -99999 -99999 -99999 -99999 -99999 -99999 -99999 -99999 -99999 -99999 -99999 -99999 -99999 -99999 -99999 -99999 -99999 -99999 -99999 -99999 -99999 -99999 -99999 -99999 -99999 -99999 -99999 -99999 -99999 -99999 -99999 -99999 -99999 -99999 -99999 -99999 -99999 -99999
 -99999 -99999 -99999 -99999 -99999 -99999 -1171.98779296875 -1177.67578125 -1183.321044921875 -1188.881591796875 -1194.3756103515625 -1199.7698974609375 -1205.074951171875 -1210.260009765625 -1215.3319091796875 -1220.2470703125 -1225.117431640625 -1229.69921875 -1234.167724609375 -1238.473876953125 -1242.6014404296875 -1246.5594482421875 -1250.1767578125 -1253.3326416015625 -1256.01220703125 -1258.0274658203125 -1259.0032958984375 -1257.206787109375 -1251.068359375 -1248.5518798828125 -1250.6986083984375 -1255.659423828125 -1261.6397705078125 -1267.86181640625 -1274.645263671875 -1281.8902587890625 -1289.082275390625 -1296.0809326171875 -1302.784912109375 -1309.1038818359375 -1314.9217529296875 -1320.2547607421875 -1325.163818359375 -1329.6767578125 -1333.817138671875 -1337.6258544921875 -1341.1849365234375 -1344.425537109375 -1347.4151611328125 -1350.1484375 -1352.6614990234375 -1354.9619140625 -1357.084716796875 -1358.8677978515625 -1360.434326171875 -1361.82177734375 -1362.89306640625 -1363.7752685546875 -1364.4222412109375 -1364.8145751953125 -1364.9654541015625 -1364.848388671875 -1364.501953125 -1363.9078369140625 -1363.068359375 -1361.990478515625 -1360.73974609375 -1359.2010498046875 -1357.4091796875 -1355.45361328125 -1353.3182373046875 -1350.9906005859375 -1348.511474609375 -1345.900634765625 -1343.18310546875 -1340.34765625 -1337.41064453125 -1334.4207763671875 -1331.4273681640625 -1328.4256591796875 -1325.435546875 -1322.48046875 -1319.6239013671875 -1316.90771484375 -1314.379150390625 -1311.76220703125 -1309.3892822265625 -1307.1446533203125 -1305.0220947265625 -99999 -99999 -99999 -99999 -99999 -99999 -99999 -99999 -99999 -99999 -99999 -99999 -99999 -99999 -99999 -99999 -99999 -99999 -99999 -99999 -99999 -99999 -99999 -99999 -99999 -99999 -99999 -99999 -99999 -99999 -99999 -99999 -99999 -99999 -99999 -99999 -99999 -99999 -99999 -99999 -99999 -99999 -99999 -99999 -99999 -99999 -99999 -99999 -99999 -99999 -99999 -99999 -99999 -99999 -99999 -99999 -99999 -99999 -99999 -99999 -99999 -99999 -99999 -99999 -99999 -99999 -99999 -99999 -99999 -99999 -99999 -99999 -99999 -99999 -99999 -99999 -99999 -99999 -99999 -99999 -99999 -99999 -99999 -99999 -99999 -99999 -99999 -99999 -99999 -99999 -99999 -99999 -99999 -99999 -99999 -99999 -99999 -99999 -99999 -99999 -99999 -99999 -99999 -99999 -99999 -99999 -99999 -99999 -99999 -99999
 -99999 -99999 -99999 -99999 -99999 -99999 -1169.313232421875 -1175.055419921875 -1180.7752685546875 -1186.3946533203125 -1191.9671630859375 -1197.4595947265625 -1202.8416748046875 -1208.0836181640625 -1213.2208251953125 -1218.232666015625 -1223.1253662109375 -1227.87744140625 -1232.4920654296875 -1236.9971923828125 -1241.3232421875 -1245.4893798828125 -1249.4827880859375 -1253.415283203125 -1257.0543212890625 -1260.140380859375 -1262.444091796875 -1262.9879150390625 -1259.5457763671875 -1254.0758056640625 -1254.158203125 -1256.984130859375 -1261.16748046875 -1266.3087158203125 -1272.2923583984375 -1278.580078125 -1285.0081787109375 -1291.516357421875 -1297.8582763671875 -1303.76171875 -1309.3502197265625 -1314.6458740234375 -1319.36181640625 -1323.8291015625 -1327.94091796875 -1331.748046875 -1335.256591796875 -1338.47314453125 -1341.445068359375 -1344.152587890625 -1346.63671875 -1348.8709716796875 -1350.8731689453125 -1352.650146484375 -1354.21142578125 -1355.5443115234375 -1356.6356201171875 -1357.4906005859375 -1358.1348876953125 -1358.5294189453125 -1358.61474609375 -1358.4764404296875 -1358.1407470703125 -1357.5899658203125 -1356.77783203125 -1355.651611328125 -1354.37109375 -1352.8997802734375 -1351.20166015625 -1349.31689453125 -1347.2587890625 -1345.0406494140625 -1342.689208984375 -1340.160400390625 -1337.5225830078125 -1334.796142578125 -1332.010009765625 -1329.1710205078125 -1326.2745361328125 -1323.3746337890625 -1320.5157470703125 -1317.7421875 -1315.0341796875 -1312.3138427734375 -1309.7744140625 -1307.2947998046875 -1304.960205078125 -99999 -99999 -99999 -99999 -99999 -99999 -99999 -99999 -99999 -99999 -99999 -99999 -99999 -99999 -99999 -99999 -99999 -99999 -99999 -99999 -99999 -99999 -99999 -99999 -99999 -99999 -99999 -99999 -99999 -99999 -99999 -99999 -99999 -99999 -99999 -99999 -99999 -99999 -99999 -99999 -99999 -99999 -99999 -99999 -99999 -99999 -99999 -99999 -99999 -99999 -99999 -99999 -99999 -99999 -99999 -99999 -99999 -99999 -99999 -99999 -99999 -99999 -99999 -99999 -99999 -99999 -99999 -99999 -99999 -99999 -99999 -99999 -99999 -99999 -99999 -99999 -99999 -99999 -99999 -99999 -99999 -99999 -99999 -99999 -99999 -99999 -99999 -99999 -99999 -99999 -99999 -99999 -99999 -99999 -99999 -99999 -99999 -99999 -99999 -99999 -99999 -99999 -99999 -99999 -99999 -99999 -99999 -99999 -99999 -99999 -99999 -99999
 -99999 -99999 -99999 -99999 -99999 -99999 -1166.4962158203125 -1172.3011474609375 -1178.07373046875 -1183.7796630859375 -1189.408447265625 -1194.9566650390625 -1200.4144287109375 -1205.7374267578125 -1210.956298828125 -1216.0238037109375 -1220.9683837890625 -1225.810546875 -1230.511474609375 -1235.1116943359375 -1239.6202392578125 -1244.0457763671875 -1248.353759765625 -1252.55419921875 -1256.671142578125 -1260.736572265625 -1263.953125 -1264.906982421875 -1262.5323486328125 -1258.88818359375 -1257.4150390625 -1258.4483642578125 -1261.5689697265625 -1265.7373046875 -1270.566650390625 -1276.0716552734375 -1281.825927734375 -1287.5408935546875 -1293.252197265625 -1298.8485107421875 -1304.171630859375 -1309.182373046875 -1313.862060546875 -1318.1917724609375 -1322.218505859375 -1325.9512939453125 -1329.395263671875 -1332.578369140625 -1335.52490234375 -1338.19189453125 -1340.6246337890625 -1342.8060302734375 -1344.7735595703125 -1346.5267333984375 -1348.0223388671875 -1349.294921875 -1350.331298828125 -1351.1512451171875 -1351.750244140625 -1352.0927734375 -1352.2056884765625 -1352.0804443359375 -1351.7386474609375 -1351.17529296875 -1350.37939453125 -1349.3590087890625 -1348.1219482421875 -1346.6932373046875 -1345.0743408203125 -1343.2767333984375 -1341.2939453125 -1339.144287109375 -1336.8564453125 -1334.453369140625 -1331.9490966796875 -1329.3287353515625 -1326.6356201171875 -1323.894287109375 -1321.143798828125 -1318.4190673828125 -1315.671630859375 -1312.9561767578125 -1310.291259765625 -1307.687255859375 -1305.1888427734375 -99999 -99999 -99999 -99999 -99999 -99999 -99999 -99999 -99999 -99999 -99999 -99999 -99999 -99999 -99999 -99999 -99999 -99999 -99999 -99999 -99999 -99999 -99999 -99999 -99999 -99999 -99999 -99999 -99999 -99999 -99999 -99999 -99999 -99999 -99999 -99999 -99999 -99999 -99999 -99999 -99999 -99999 -99999 -99999 -99999 -99999 -99999 -99999 -99999 -99999 -99999 -99999 -99999 -99999 -99999 -99999 -99999 -99999 -99999 -99999 -99999 -99999 -99999 -99999 -99999 -99999 -99999 -99999 -99999 -99999 -99999 -99999 -99999 -99999 -99999 -99999 -99999 -99999 -99999 -99999 -99999 -99999 -99999 -99999 -99999 -99999 -99999 -99999 -99999 -99999 -99999 -99999 -99999 -99999 -99999 -99999 -99999 -99999 -99999 -99999 -99999 -99999 -99999 -99999 -99999 -99999 -99999 -99999 -99999 -99999 -99999 -99999 -99999 -99999
 -99999 -99999 -99999 -99999 -99999 -99999 -1163.4869384765625 -1169.3575439453125 -1175.19921875 -1181.0833740234375 -1186.6759033203125 -1192.3099365234375 -1197.8115234375 -1203.2130126953125 -1208.4755859375 -1213.6109619140625 -1218.6055908203125 -1223.4609375 -1228.2335205078125 -1232.88623046875 -1237.4466552734375 -1241.9287109375 -1246.3525390625 -1250.7105712890625 -1255.0438232421875 -1259.0958251953125 -1262.29296875 -1263.4918212890625 -1262.607666015625 -1260.5472412109375 -1259.4697265625 -1259.9498291015625 -1261.893798828125 -1265.0484619140625 -1269.01806640625 -1273.7440185546875 -1278.790771484375 -1284.0068359375 -1289.2359619140625 -1294.3980712890625 -1299.2918701171875 -1304.0250244140625 -1308.5064697265625 -1312.78662109375 -1316.6549072265625 -1320.267333984375 -1323.6683349609375 -1326.7716064453125 -1329.62353515625 -1332.240234375 -1334.63037109375 -1336.794677734375 -1338.7152099609375 -1340.392822265625 -1341.8516845703125 -1343.100830078125 -1344.1287841796875 -1344.9093017578125 -1345.451416015625 -1345.7816162109375 -1345.9002685546875 -1345.7952880859375 -1345.45263671875 -1344.8782958984375 -1344.10302734375 -1343.131103515625 -1341.9564208984375 -1340.5787353515625 -1338.998046875 -1337.2513427734375 -1335.35791015625 -1333.311279296875 -1331.1180419921875 -1328.794189453125 -1326.373046875 -1323.8682861328125 -1321.3118896484375 -1318.69140625 -1316.0537109375 -1313.3961181640625 -1310.74658203125 -1308.11669921875 -99999 -99999 -99999 -99999 -99999 -99999 -99999 -99999 -99999 -99999 -99999 -99999 -99999 -99999 -99999 -99999 -99999 -99999 -99999 -99999 -99999 -99999 -99999 -99999 -99999 -99999 -99999 -99999 -99999 -99999 -99999 -99999 -99999 -99999 -99999 -99999 -99999 -99999 -99999 -99999 -99999 -99999 -99999 -99999 -99999 -99999 -99999 -99999 -99999 -99999 -99999 -99999 -99999 -99999 -99999 -99999 -99999 -99999 -99999 -99999 -99999 -99999 -99999 -99999 -99999 -99999 -99999 -99999 -99999 -99999 -99999 -99999 -99999 -99999 -99999 -99999 -99999 -99999 -99999 -99999 -99999 -99999 -99999 -99999 -99999 -99999 -99999 -99999 -99999 -99999 -99999 -99999 -99999 -99999 -99999 -99999 -99999 -99999 -99999 -99999 -99999 -99999 -99999 -99999 -99999 -99999 -99999 -99999 -99999 -99999 -99999 -99999 -99999 -99999 -99999 -99999 -99999
 -99999 -99999 -99999 -99999 -99999 -1154.3450927734375 -1160.312255859375 -1166.24267578125 -1172.135986328125 -1177.9918212890625 -1183.76904296875 -1189.4412841796875 -1195.029296875 -1200.4896240234375 -1205.7962646484375 -1210.9471435546875 -1215.967041015625 -1220.862060546875 -1225.593017578125 -1230.26708984375 -1234.83203125 -1239.273681640625 -1243.6160888671875 -1247.8638916015625 -1252.0242919921875 -1256.16650390625 -1259.111328125 -1260.5611572265625 -1260.708740234375 -1260.1055908203125 -1259.7451171875 -1260.3272705078125 -1261.95166015625 -1264.4940185546875 -1267.77783203125 -1271.7269287109375 -1276.1456298828125 -1280.7122802734375 -1285.4132080078125 -1290.107177734375 -1294.729248046875 -1299.182861328125 -1303.4156494140625 -1307.40625 -1311.1788330078125 -1314.738525390625 -1317.97412109375 -1321.00341796875 -1323.8116455078125 -1326.386474609375 -1328.6929931640625 -1330.7767333984375 -1332.649169921875 -1334.3184814453125 -1335.7598876953125 -1336.939453125 -1337.9083251953125 -1338.67724609375 -1339.2357177734375 -1339.55615234375 -1339.64453125 -1339.518798828125 -1339.1915283203125 -1338.6661376953125 -1337.9267578125 -1336.9530029296875 -1335.7911376953125 -1334.4774169921875 -1332.9844970703125 -1331.3145751953125 -1329.468994140625 -1327.4906005859375 -1325.3902587890625 -1323.1793212890625 -1320.86669921875 -1318.4564208984375 -1316.00244140625 -1313.5159912109375 -1310.981201171875 -1308.3712158203125 -99999 -99999 -99999 -99999 -99999 -99999 -99999 -99999 -99999 -99999 -99999 -99999 -99999 -99999 -99999 -99999 -99999 -99999 -99999 -99999 -99999 -99999 -99999 -99999 -99999 -99999 -99999 -99999 -99999 -99999 -99999 -99999 -99999 -99999 -99999 -99999 -99999 -99999 -99999 -99999 -99999 -99999 -99999 -99999 -99999 -99999 -99999 -99999 -99999 -99999 -99999 -99999 -99999 -99999 -99999 -99999 -99999 -99999 -99999 -99999 -99999 -99999 -99999 -99999 -99999 -99999 -99999 -99999 -99999 -99999 -99999 -99999 -99999 -99999 -99999 -99999 -99999 -99999 -99999 -99999 -99999 -99999 -99999 -99999 -99999 -99999 -99999 -99999 -99999 -99999 -99999 -99999 -99999 -99999 -99999 -99999 -99999 -99999 -99999 -99999 -99999 -99999 -99999 -99999 -99999 -99999 -99999 -99999 -99999 -99999 -99999 -99999 -99999 -99999 -99999 -99999 -99999 -99999 -99999
 -99999 -99999 -99999 -99999 -99999 -1150.9129638671875 -1156.930908203125 -1162.9224853515625 -1168.8974609375 -1174.8031005859375 -1180.6416015625 -1186.41259765625 -1192.04248046875 -1197.5391845703125 -1202.904296875 -1208.10205078125 -1213.0997314453125 -1217.9539794921875 -1222.675048828125 -1227.2918701171875 -1231.7900390625 -1236.161865234375 -1240.400634765625 -1244.5264892578125 -1248.6280517578125 -1252.3770751953125 -1255.4410400390625 -1257.4923095703125 -1258.29736328125 -1258.6253662109375 -1258.9970703125 -1259.739501953125 -1261.0999755859375 -1263.385986328125 -1266.2930908203125 -1269.64306640625 -1273.472412109375 -1277.592529296875 -1281.8175048828125 -1286.099853515625 -1290.34814453125 -1294.4747314453125 -1298.456787109375 -1302.2684326171875 -1305.8924560546875 -1309.260986328125 -1312.4586181640625 -1315.3936767578125 -1318.056396484375 -1320.5205078125 -1322.786865234375 -1324.8470458984375 -1326.6658935546875 -1328.246337890625 -1329.624267578125 -1330.80029296875 -1331.7747802734375 -1332.5015869140625 -1333.0045166015625 -1333.3084716796875 -1333.4149169921875 -1333.3251953125 -1332.9871826171875 -1332.448486328125 -1331.7254638671875 -1330.8223876953125 -1329.744140625 -1328.44287109375 -1326.98388671875 -1325.3768310546875 -1323.6298828125 -1321.748046875 -1319.71435546875 -1317.6085205078125 -1315.4241943359375 -1313.10205078125 -1310.713134765625 -99999 -99999 -99999 -99999 -99999 -99999 -99999 -99999 -99999 -99999 -99999 -99999 -99999 -99999 -99999 -99999 -99999 -99999 -99999 -99999 -99999 -99999 -99999 -99999 -99999 -99999 -99999 -99999 -99999 -99999 -99999 -99999 -99999 -99999 -99999 -99999 -99999 -99999 -99999 -99999 -99999 -99999 -99999 -99999 -99999 -99999 -99999 -99999 -99999 -99999 -99999 -99999 -99999 -99999 -99999 -99999 -99999 -99999 -99999 -99999 -99999 -99999 -99999 -99999 -99999 -99999 -99999 -99999 -99999 -99999 -99999 -99999 -99999 -99999 -99999 -99999 -99999 -99999 -99999 -99999 -99999 -99999 -99999 -99999 -99999 -99999 -99999 -99999 -99999 -99999 -99999 -99999 -99999 -99999 -99999 -99999 -99999 -99999 -99999 -99999 -99999 -99999 -99999 -99999 -99999 -99999 -99999 -99999 -99999 -99999 -99999 -99999 -99999 -99999 -99999 -99999 -99999 -99999 -99999 -99999 -99999 -99999
 -99999 -99999 -99999 -99999 -99999 -1147.259033203125 -1153.3331298828125 -1159.3929443359375 -1165.41943359375 -1171.4072265625 -1177.333984375 -1183.1529541015625 -1188.866455078125 -1194.4287109375 -1199.789794921875 -1204.9764404296875 -1209.975341796875 -1214.80810546875 -1219.4884033203125 -1224.0225830078125 -1228.4644775390625 -1232.7625732421875 -1236.89013671875 -1240.982177734375 -1245.0272216796875 -1248.70556640625 -1251.6690673828125 -1253.84326171875 -1255.3394775390625 -1256.34619140625 -1257.109375 -1258.226806640625 -1259.7694091796875 -1261.786865234375 -1264.294189453125 -1267.3702392578125 -1270.7327880859375 -1274.4307861328125 -1278.292236328125 -1282.18896484375 -1286.0849609375 -1289.93505859375 -1293.701416015625 -1297.274658203125 -1300.674072265625 -1303.9007568359375 -1306.943603515625 -1309.787841796875 -1312.4014892578125 -1314.8182373046875 -1316.99609375 -1318.9256591796875 -1320.6873779296875 -1322.248779296875 -1323.60888671875 -1324.7197265625 -1325.62744140625 -1326.3406982421875 -1326.8604736328125 -1327.1710205078125 -1327.2403564453125 -1327.12060546875 -1326.8157958984375 -1326.328857421875 -1325.6353759765625 -1324.7362060546875 -1323.6722412109375 -1322.4495849609375 -1321.077880859375 -1319.52392578125 -1317.826171875 -1316.04931640625 -1314.1087646484375 -99999 -99999 -99999 -99999 -99999 -99999 -99999 -99999 -99999 -99999 -99999 -99999 -99999 -99999 -99999 -99999 -99999 -99999 -99999 -99999 -99999 -99999 -99999 -99999 -99999 -99999 -99999 -99999 -99999 -99999 -99999 -99999 -99999 -99999 -99999 -99999 -99999 -99999 -99999 -99999 -99999 -99999 -99999 -99999 -99999 -99999 -99999 -99999 -99999 -99999 -99999 -99999 -99999 -99999 -99999 -99999 -99999 -99999 -99999 -99999 -99999 -99999 -99999 -99999 -99999 -99999 -99999 -99999 -99999 -99999 -99999 -99999 -99999 -99999 -99999 -99999 -99999 -99999 -99999 -99999 -99999 -99999 -99999 -99999 -99999 -99999 -99999 -99999 -99999 -99999 -99999 -99999 -99999 -99999 -99999 -99999 -99999 -99999 -99999 -99999 -99999 -99999 -99999 -99999 -99999 -99999 -99999 -99999 -99999 -99999 -99999 -99999 -99999 -99999 -99999 -99999 -99999 -99999 -99999 -99999 -99999 -99999 -99999 -99999 -99999 -99999
 -99999 -99999 -99999 -99999 -99999 -1143.393798828125 -1149.5028076171875 -1155.6273193359375 -1161.72998046875 -1167.7828369140625 -1173.7794189453125 -1179.691162109375 -1185.474853515625 -1191.078369140625 -1196.5050048828125 -1201.705810546875 -1206.673828125 -1211.42041015625 -1216.0128173828125 -1220.48974609375 -1224.8970947265625 -1229.1614990234375 -1233.3388671875 -1237.39990234375 -1241.2633056640625 -1244.7637939453125 -1247.796142578125 -1250.2598876953125 -1252.0091552734375 -1253.435546875 -1254.7401123046875 -1256.090576171875 -1257.6695556640625 -1259.6728515625 -1262.0880126953125 -1264.83251953125 -1267.8671875 -1271.2078857421875 -1274.7020263671875 -1278.2764892578125 -1281.9310302734375 -1285.481689453125 -1288.9527587890625 -1292.322509765625 -1295.5811767578125 -1298.671630859375 -1301.5357666015625 -1304.2294921875 -1306.7447509765625 -1309.069091796875 -1311.187744140625 -1313.12060546875 -1314.8316650390625 -1316.338623046875 -1317.616943359375 -1318.672119140625 -1319.57421875 -1320.2669677734375 -1320.7344970703125 -1321.0098876953125 -1321.1090087890625 -1321.0167236328125 -1320.71728515625 -1320.2177734375 -1319.549072265625 -1318.72119140625 -1317.70703125 -1316.548828125 -1315.2332763671875 -99999 -99999 -99999 -99999 -99999 -99999 -99999 -99999 -99999 -99999 -99999 -99999 -99999 -99999 -99999 -99999 -99999 -99999 -99999 -99999 -99999 -99999 -99999 -99999 -99999 -99999 -99999 -99999 -99999 -99999 -99999 -99999 -99999 -99999 -99999 -99999 -99999 -99999 -99999 -99999 -99999 -99999 -99999 -99999 -99999 -99999 -99999 -99999 -99999 -99999 -99999 -99999 -99999 -99999 -99999 -99999 -99999 -99999 -99999 -99999 -99999 -99999 -99999 -99999 -99999 -99999 -99999 -99999 -99999 -99999 -99999 -99999 -99999 -99999 -99999 -99999 -99999 -99999 -99999 -99999 -99999 -99999 -99999 -99999 -99999 -99999 -99999 -99999 -99999 -99999 -99999 -99999 -99999 -99999 -99999 -99999 -99999 -99999 -99999 -99999 -99999 -99999 -99999 -99999 -99999 -99999 -99999 -99999 -99999 -99999 -99999 -99999 -99999 -99999 -99999 -99999 -99999 -99999 -99999 -99999 -99999 -99999 -99999 -99999 -99999 -99999 -99999 -99999 -99999 -99999
 -99999 -99999 -99999 -99999 -99999 -1139.3116455078125 -1145.4505615234375 -1151.6141357421875 -1157.7974853515625 -1163.944580078125 -1170.025634765625 -1176.0084228515625 -1181.917724609375 -1187.572998046875 -1193.035400390625 -1198.228759765625 -1203.162353515625 -1207.853271484375 -1212.3724365234375 -1216.7584228515625 -1221.104736328125 -1225.403076171875 -1229.548095703125 -1233.5401611328125 -1237.3280029296875 -1240.7901611328125 -1243.76611328125 -1246.3299560546875 -1248.4462890625 -1250.24072265625 -1251.7747802734375 -1253.378173828125 -1255.1556396484375 -1257.1397705078125 -1259.4041748046875 -1262.00244140625 -1264.85546875 -1267.87548828125 -1271.1514892578125 -1274.3927001953125 -1277.7020263671875 -1281.010009765625 -1284.3076171875 -1287.4896240234375 -1290.5252685546875 -1293.424560546875 -1296.186279296875 -1298.7845458984375 -1301.185546875 -1303.38720703125 -1305.4150390625 -1307.258544921875 -1308.9100341796875 -1310.3575439453125 -1311.6134033203125 -1312.6756591796875 -1313.615478515625 -1314.2666015625 -1314.6995849609375 -1314.95654296875 -1315.0731201171875 -1314.9996337890625 -1314.706298828125 -1314.2032470703125 -1313.552734375 -99999 -99999 -99999 -99999 -99999 -99999 -99999 -99999 -99999 -99999 -99999 -99999 -99999 -99999 -99999 -99999 -99999 -99999 -99999 -99999 -99999 -99999 -99999 -99999 -99999 -99999 -99999 -99999 -99999 -99999 -99999 -99999 -99999 -99999 -99999 -99999 -99999 -99999 -99999 -99999 -99999 -99999 -99999 -99999 -99999 -99999 -99999 -99999 -99999 -99999 -99999 -99999 -99999 -99999 -99999 -99999 -99999 -99999 -99999 -99999 -99999 -99999 -99999 -99999 -99999 -99999 -99999 -99999 -99999 -99999 -99999 -99999 -99999 -99999 -99999 -99999 -99999 -99999 -99999 -99999 -99999 -99999 -99999 -99999 -99999 -99999 -99999 -99999 -99999 -99999 -99999 -99999 -99999 -99999 -99999 -99999 -99999 -99999 -99999 -99999 -99999 -99999 -99999 -99999 -99999 -99999 -99999 -99999 -99999 -99999 -99999 -99999 -99999 -99999 -99999 -99999 -99999 -99999 -99999 -99999 -99999 -99999 -99999 -99999 -99999 -99999 -99999 -99999 -99999 -99999 -99999 -99999 -99999 -99999
 -99999 -99999 -99999 -99999 -99999 -1135.0294189453125 -1141.1702880859375 -1147.3770751953125 -1153.59814453125 -1159.821044921875 -1166.0020751953125 -1172.123779296875 -1178.097900390625 -1183.8720703125 -1189.4337158203125 -1194.627197265625 -1199.5350341796875 -1204.1348876953125 -1208.5394287109375 -1212.89404296875 -1217.20458984375 -1221.5067138671875 -1225.614990234375 -1229.5467529296875 -1233.23291015625 -1236.6160888671875 -1239.684814453125 -1242.327880859375 -1244.59716796875 -1246.6173095703125 -1248.4859619140625 -1250.28955078125 -1252.153564453125 -1254.1884765625 -1256.437255859375 -1258.879638671875 -1261.5216064453125 -1264.3804931640625 -1267.3717041015625 -1270.409423828125 -1273.515625 -1276.6112060546875 -1279.64013671875 -1282.6058349609375 -1285.502197265625 -1288.2783203125 -1290.8905029296875 -1293.334228515625 -1295.6363525390625 -1297.763916015625 -1299.7232666015625 -1301.4794921875 -1303.0528564453125 -1304.4483642578125 -1305.6549072265625 -1306.683349609375 -1307.5030517578125 -1308.1434326171875 -1308.5977783203125 -1308.8790283203125 -1308.9656982421875 -99999 -99999 -99999 -99999 -99999 -99999 -99999 -99999 -99999 -99999 -99999 -99999 -99999 -99999 -99999 -99999 -99999 -99999 -99999 -99999 -99999 -99999 -99999 -99999 -99999 -99999 -99999 -99999 -99999 -99999 -99999 -99999 -99999 -99999 -99999 -99999 -99999 -99999 -99999 -99999 -99999 -99999 -99999 -99999 -99999 -99999 -99999 -99999 -99999 -99999 -99999 -99999 -99999 -99999 -99999 -99999 -99999 -99999 -99999 -99999 -99999 -99999 -99999 -99999 -99999 -99999 -99999 -99999 -99999 -99999 -99999 -99999 -99999 -99999 -99999 -99999 -99999 -99999 -99999 -99999 -99999 -99999 -99999 -99999 -99999 -99999 -99999 -99999 -99999 -99999 -99999 -99999 -99999 -99999 -99999 -99999 -99999 -99999 -99999 -99999 -99999 -99999 -99999 -99999 -99999 -99999 -99999 -99999 -99999 -99999 -99999 -99999 -99999 -99999 -99999 -99999 -99999 -99999 -99999 -99999 -99999 -99999 -99999 -99999 -99999 -99999 -99999 -99999 -99999 -99999 -99999 -99999 -99999 -99999 -99999 -99999 -99999 -99999
 -99999 -99999 -99999 -99999 -99999 -99999 -1136.6436767578125 -1142.8662109375 -1149.1409912109375 -1155.4471435546875 -1161.723876953125 -1167.930419921875 -1174.06005859375 -1179.99169921875 -1185.629638671875 -1190.9248046875 -1195.7733154296875 -1200.276611328125 -1204.6383056640625 -1208.964599609375 -1213.2613525390625 -1217.4462890625 -1221.51025390625 -1225.3719482421875 -1228.979736328125 -1232.3345947265625 -1235.400634765625 -1238.138671875 -1240.6075439453125 -1242.7967529296875 -1244.824951171875 -1246.7952880859375 -1248.8057861328125 -1250.89306640625 -1253.1156005859375 -1255.4981689453125 -1258.03564453125 -1260.691650390625 -1263.4503173828125 -1266.344970703125 -1269.3271484375 -1272.10693359375 -1274.9825439453125 -1277.803955078125 -1280.5072021484375 -1283.0997314453125 -1285.586181640625 -1287.9390869140625 -1290.1505126953125 -1292.1715087890625 -1294.027587890625 -1295.7216796875 -1297.2437744140625 -1298.59814453125 -1299.74658203125 -1300.7249755859375 -1301.516845703125 -99999 -99999 -99999 -99999 -99999 -99999 -99999 -99999 -99999 -99999 -99999 -99999 -99999 -99999 -99999 -99999 -99999 -99999 -99999 -99999 -99999 -99999 -99999 -99999 -99999 -99999 -99999 -99999 -99999 -99999 -99999 -99999 -99999 -99999 -99999 -99999 -99999 -99999 -99999 -99999 -99999 -99999 -99999 -99999 -99999 -99999 -99999 -99999 -99999 -99999 -99999 -99999 -99999 -99999 -99999 -99999 -99999 -99999 -99999 -99999 -99999 -99999 -99999 -99999 -99999 -99999 -99999 -99999 -99999 -99999 -99999 -99999 -99999 -99999 -99999 -99999 -99999 -99999 -99999 -99999 -99999 -99999 -99999 -99999 -99999 -99999 -99999 -99999 -99999 -99999 -99999 -99999 -99999 -99999 -99999 -99999 -99999 -99999 -99999 -99999 -99999 -99999 -99999 -99999 -99999 -99999 -99999 -99999 -99999 -99999 -99999 -99999 -99999 -99999 -99999 -99999 -99999 -99999 -99999 -99999 -99999 -99999 -99999 -99999 -99999 -99999 -99999 -99999 -99999 -99999 -99999 -99999 -99999 -99999 -99999 -99999 -99999 -99999 -99999 -99999 -99999 -99999
 -99999 -99999 -99999 -99999 -99999 -99999 -1131.9012451171875 -1138.10986328125 -1144.4117431640625 -1150.74853515625 -1157.131103515625 -1163.4910888671875 -1169.7503662109375 -1175.888427734375 -1181.7420654296875 -1187.0628662109375 -1191.92529296875 -1196.3663330078125 -1200.6829833984375 -1204.94970703125 -1209.1702880859375 -1213.2841796875 -1217.2547607421875 -1221.0284423828125 -1224.7149658203125 -1227.993896484375 -1231.012939453125 -1233.7999267578125 -1236.354248046875 -1238.7049560546875 -1240.922119140625 -1243.0355224609375 -1245.135498046875 -1247.2779541015625 -1249.503662109375 -1251.827392578125 -1254.275390625 -1256.8282470703125 -1259.4632568359375 -1262.1517333984375 -1264.84716796875 -1267.593017578125 -1270.3070068359375 -1272.91650390625 -1275.487548828125 -1277.968017578125 -1280.34228515625 -1282.552490234375 -1284.63623046875 -1286.5777587890625 -1288.3720703125 -1290.01171875 -1291.4620361328125 -99999 -99999 -99999 -99999 -99999 -99999 -99999 -99999 -99999 -99999 -99999 -99999 -99999 -99999 -99999 -99999 -99999 -99999 -99999 -99999 -99999 -99999 -99999 -99999 -99999 -99999 -99999 -99999 -99999 -99999 -99999 -99999 -99999 -99999 -99999 -99999 -99999 -99999 -99999 -99999 -99999 -99999 -99999 -99999 -99999 -99999 -99999 -99999 -99999 -99999 -99999 -99999 -99999 -99999 -99999 -99999 -99999 -99999 -99999 -99999 -99999 -99999 -99999 -99999 -99999 -99999 -99999 -99999 -99999 -99999 -99999 -99999 -99999 -99999 -99999 -99999 -99999 -99999 -99999 -99999 -99999 -99999 -99999 -99999 -99999 -99999 -99999 -99999 -99999 -99999 -99999 -99999 -99999 -99999 -99999 -99999 -99999 -99999 -99999 -99999 -99999 -99999 -99999 -99999 -99999 -99999 -99999 -99999 -99999 -99999 -99999 -99999 -99999 -99999 -99999 -99999 -99999 -99999 -99999 -99999 -99999 -99999 -99999 -99999 -99999 -99999 -99999 -99999 -99999 -99999 -99999 -99999 -99999 -99999 -99999 -99999 -99999 -99999 -99999 -99999 -99999 -99999 -99999 -99999 -99999 -99999
 -99999 -99999 -99999 -99999 -99999 -99999 -99999 -1133.1036376953125 -1139.3897705078125 -1145.7711181640625 -1152.2030029296875 -1158.6566162109375 -1165.079833984375 -1171.4739990234375 -1177.6571044921875 -1183.2587890625 -1187.975830078125 -1192.3338623046875 -1196.5863037109375 -1200.7891845703125 -1204.910400390625 -1208.9212646484375 -1212.8004150390625 -1216.522705078125 -1220.0767822265625 -1223.406005859375 -1226.5272216796875 -1229.3408203125 -1231.985107421875 -1234.4287109375 -1236.74658203125 -1238.9803466796875 -1241.17578125 -1243.3804931640625 -1245.63623046875 -1247.9390869140625 -1250.318115234375 -1252.7642822265625 -1255.27734375 -1257.8369140625 -1260.4154052734375 -1263.000732421875 -1265.5400390625 -1268.0977783203125 -1270.5045166015625 -1272.8096923828125 -1275.0438232421875 -1277.16796875 -1279.1715087890625 -99999 -99999 -99999 -99999 -99999 -99999 -99999 -99999 -99999 -99999 -99999 -99999 -99999 -99999 -99999 -99999 -99999 -99999 -99999 -99999 -99999 -99999 -99999 -99999 -99999 -99999 -99999 -99999 -99999 -99999 -99999 -99999 -99999 -99999 -99999 -99999 -99999 -99999 -99999 -99999 -99999 -99999 -99999 -99999 -99999 -99999 -99999 -99999 -99999 -99999 -99999 -99999 -99999 -99999 -99999 -99999 -99999 -99999 -99999 -99999 -99999 -99999 -99999 -99999 -99999 -99999 -99999 -99999 -99999 -99999 -99999 -99999 -99999 -99999 -99999 -99999 -99999 -99999 -99999 -99999 -99999 -99999 -99999 -99999 -99999 -99999 -99999 -99999 -99999 -99999 -99999 -99999 -99999 -99999 -99999 -99999 -99999 -99999 -99999 -99999 -99999 -99999 -99999 -99999 -99999 -99999 -99999 -99999 -99999 -99999 -99999 -99999 -99999 -99999 -99999 -99999 -99999 -99999 -99999 -99999 -99999 -99999 -99999 -99999 -99999 -99999 -99999 -99999 -99999 -99999 -99999 -99999 -99999 -99999 -99999 -99999 -99999 -99999 -99999 -99999 -99999 -99999 -99999 -99999 -99999 -99999 -99999 -99999 -99999 -99999
 -99999 -99999 -99999 -99999 -99999 -99999 -99999 -1127.8524169921875 -1134.1041259765625 -1140.4835205078125 -1146.9263916015625 -1153.4429931640625 -1159.99169921875 -1166.5313720703125 -1172.976318359375 -1178.9549560546875 -1183.7239990234375 -1187.983642578125 -1192.1708984375 -1196.3077392578125 -1200.371826171875 -1204.342041015625 -1208.1943359375 -1211.8739013671875 -1215.3634033203125 -1218.6710205078125 -1221.826904296875 -1224.7432861328125 -1227.469482421875 -1229.9727783203125 -1232.3958740234375 -1234.7100830078125 -1236.982666015625 -1239.240234375 -1241.505615234375 -1243.8048095703125 -1246.1549072265625 -1248.539306640625 -1250.9580078125 -1253.4031982421875 -1255.8607177734375 -1258.3074951171875 -1260.725830078125 -1263.1011962890625 -1265.4212646484375 -99999 -99999 -99999 -99999 -99999 -99999 -99999 -99999 -99999 -99999 -99999 -99999 -99999 -99999 -99999 -99999 -99999 -99999 -99999 -99999 -99999 -99999 -99999 -99999 -99999 -99999 -99999 -99999 -99999 -99999 -99999 -99999 -99999 -99999 -99999 -99999 -99999 -99999 -99999 -99999 -99999 -99999 -99999 -99999 -99999 -99999 -99999 -99999 -99999 -99999 -99999 -99999 -99999 -99999 -99999 -99999 -99999 -99999 -99999 -99999 -99999 -99999 -99999 -99999 -99999 -99999 -99999 -99999 -99999 -99999 -99999 -99999 -99999 -99999 -99999 -99999 -99999 -99999 -99999 -99999 -99999 -99999 -99999 -99999 -99999 -99999 -99999 -99999 -99999 -99999 -99999 -99999 -99999 -99999 -99999 -99999 -99999 -99999 -99999 -99999 -99999 -99999 -99999 -99999 -99999 -99999 -99999 -99999 -99999 -99999 -99999 -99999 -99999 -99999 -99999 -99999 -99999 -99999 -99999 -99999 -99999 -99999 -99999 -99999 -99999 -99999 -99999 -99999 -99999 -99999 -99999 -99999 -99999 -99999 -99999 -99999 -99999 -99999 -99999 -99999 -99999 -99999 -99999 -99999 -99999 -99999 -99999 -99999 -99999 -99999 -99999 -99999 -99999 -99999
 -99999 -99999 -99999 -99999 -99999 -99999 -99999 -1122.3720703125 -1128.5782470703125 -1134.88427734375 -1141.316162109375 -1147.82275390625 -1154.348876953125 -1160.933837890625 -1167.412841796875 -1173.3046875 -1178.48876953125 -1183.0159912109375 -1187.256591796875 -1191.451171875 -1195.541748046875 -1199.4814453125 -1203.319091796875 -1206.987548828125 -1210.5123291015625 -1213.8470458984375 -1216.9644775390625 -1219.9093017578125 -1222.7188720703125 -1225.374755859375 -1227.8592529296875 -1230.229248046875 -1232.56884765625 -1234.8646240234375 -1237.1580810546875 -1239.4578857421875 -1241.7716064453125 -1244.1063232421875 -1246.4681396484375 -1248.832763671875 -1251.189208984375 -99999 -99999 -99999 -99999 -99999 -99999 -99999 -99999 -99999 -99999 -99999 -99999 -99999 -99999 -99999 -99999 -99999 -99999 -99999 -99999 -99999 -99999 -99999 -99999 -99999 -99999 -99999 -99999 -99999 -99999 -99999 -99999 -99999 -99999 -99999 -99999 -99999 -99999 -99999 -99999 -99999 -99999 -99999 -99999 -99999 -99999 -99999 -99999 -99999 -99999 -99999 -99999 -99999 -99999 -99999 -99999 -99999 -99999 -99999 -99999 -99999 -99999 -99999 -99999 -99999 -99999 -99999 -99999 -99999 -99999 -99999 -99999 -99999 -99999 -99999 -99999 -99999 -99999 -99999 -99999 -99999 -99999 -99999 -99999 -99999 -99999 -99999 -99999 -99999 -99999 -99999 -99999 -99999 -99999 -99999 -99999 -99999 -99999 -99999 -99999 -99999 -99999 -99999 -99999 -99999 -99999 -99999 -99999 -99999 -99999 -99999 -99999 -99999 -99999 -99999 -99999 -99999 -99999 -99999 -99999 -99999 -99999 -99999 -99999 -99999 -99999 -99999 -99999 -99999 -99999 -99999 -99999 -99999 -99999 -99999 -99999 -99999 -99999 -99999 -99999 -99999 -99999 -99999 -99999 -99999 -99999 -99999 -99999 -99999 -99999 -99999 -99999 -99999 -99999 -99999 -99999 -99999 -99999
 -99999 -99999 -99999 -99999 -99999 -99999 -99999 -99999 -1122.82177734375 -1129.0992431640625 -1135.4447021484375 -1141.9139404296875 -1148.406982421875 -1154.8721923828125 -1161.2025146484375 -1167.30126953125 -1172.58837890625 -1177.468017578125 -1181.9490966796875 -1186.243408203125 -1190.378173828125 -1194.3917236328125 -1198.2608642578125 -1201.951171875 -1205.461669921875 -1208.8087158203125 -1211.9959716796875 -1215.005126953125 -1217.8316650390625 -1220.5155029296875 -1223.1064453125 -1225.6475830078125 -1227.968994140625 -1230.3018798828125 -1232.619384765625 -1234.9205322265625 -1237.2227783203125 -99999 -99999 -99999 -99999 -99999 -99999 -99999 -99999 -99999 -99999 -99999 -99999 -99999 -99999 -99999 -99999 -99999 -99999 -99999 -99999 -99999 -99999 -99999 -99999 -99999 -99999 -99999 -99999 -99999 -99999 -99999 -99999 -99999 -99999 -99999 -99999 -99999 -99999 -99999 -99999 -99999 -99999 -99999 -99999 -99999 -99999 -99999 -99999 -99999 -99999 -99999 -99999 -99999 -99999 -99999 -99999 -99999 -99999 -99999 -99999 -99999 -99999 -99999 -99999 -99999 -99999 -99999 -99999 -99999 -99999 -99999 -99999 -99999 -99999 -99999 -99999 -99999 -99999 -99999 -99999 -99999 -99999 -99999 -99999 -99999 -99999 -99999 -99999 -99999 -99999 -99999 -99999 -99999 -99999 -99999 -99999 -99999 -99999 -99999 -99999 -99999 -99999 -99999 -99999 -99999 -99999 -99999 -99999 -99999 -99999 -99999 -99999 -99999 -99999 -99999 -99999 -99999 -99999 -99999 -99999 -99999 -99999 -99999 -99999 -99999 -99999 -99999 -99999 -99999 -99999 -99999 -99999 -99999 -99999 -99999 -99999 -99999 -99999 -99999 -99999 -99999 -99999 -99999 -99999 -99999 -99999 -99999 -99999 -99999 -99999 -99999 -99999 -99999 -99999 -99999 -99999 -99999 -99999 -99999 -99999 -99999 -99999
 -99999 -99999 -99999 -99999 -99999 -99999 -99999 -99999 -1116.9140625 -1123.0933837890625 -1129.4254150390625 -1135.8070068359375 -1142.2591552734375 -1148.701416015625 -1154.9989013671875 -1160.951171875 -1166.5047607421875 -1171.584228515625 -1176.322998046875 -1180.81640625 -1185.0028076171875 -1189.0546875 -1192.955810546875 -1196.69189453125 -1200.2662353515625 -1203.662353515625 -1206.87109375 -1209.9185791015625 -1212.8214111328125 -1215.5836181640625 -1218.202880859375 -1220.7635498046875 -1223.1978759765625 -99999 -99999 -99999 -99999 -99999 -99999 -99999 -99999 -99999 -99999 -99999 -99999 -99999 -99999 -99999 -99999 -99999 -99999 -99999 -99999 -99999 -99999 -99999 -99999 -99999 -99999 -99999 -99999 -99999 -99999 -99999 -99999 -99999 -99999 -99999 -99999 -99999 -99999 -99999 -99999 -99999 -99999 -99999 -99999 -99999 -99999 -99999 -99999 -99999 -99999 -99999 -99999 -99999 -99999 -99999 -99999 -99999 -99999 -99999 -99999 -99999 -99999 -99999 -99999 -99999 -99999 -99999 -99999 -99999 -99999 -99999 -99999 -99999 -99999 -99999 -99999 -99999 -99999 -99999 -99999 -99999 -99999 -99999 -99999 -99999 -99999 -99999 -99999 -99999 -99999 -99999 -99999 -99999 -99999 -99999 -99999 -99999 -99999 -99999 -99999 -99999 -99999 -99999 -99999 -99999 -99999 -99999 -99999 -99999 -99999 -99999 -99999 -99999 -99999 -99999 -99999 -99999 -99999 -99999 -99999 -99999 -99999 -99999 -99999 -99999 -99999 -99999 -99999 -99999 -99999 -99999 -99999 -99999 -99999 -99999 -99999 -99999 -99999 -99999 -99999 -99999 -99999 -99999 -99999 -99999 -99999 -99999 -99999 -99999 -99999 -99999 -99999 -99999 -99999 -99999 -99999 -99999 -99999 -99999 -99999 -99999 -99999 -99999 -99999 -99999 -99999
 -99999 -99999 -99999 -99999 -99999 -99999 -99999 -99999 -99999 -99999 -1123.2698974609375 -1129.6707763671875 -1136.1141357421875 -1142.4638671875 -1148.716552734375 -1154.6700439453125 -1160.29443359375 -1165.502685546875 -1170.415771484375 -1175.0284423828125 -1179.4486083984375 -1183.5810546875 -1187.5135498046875 -1191.2850341796875 -1194.8973388671875 -1198.3402099609375 -1201.6259765625 -1204.7213134765625 -1207.6634521484375 -99999 -99999 -99999 -99999 -99999 -99999 -99999 -99999 -99999 -99999 -99999 -99999 -99999 -99999 -99999 -99999 -99999 -99999 -99999 -99999 -99999 -99999 -99999 -99999 -99999 -99999 -99999 -99999 -99999 -99999 -99999 -99999 -99999 -99999 -99999 -99999 -99999 -99999 -99999 -99999 -99999 -99999 -99999 -99999 -99999 -99999 -99999 -99999 -99999 -99999 -99999 -99999 -99999 -99999 -99999 -99999 -99999 -99999 -99999 -99999 -99999 -99999 -99999 -99999 -99999 -99999 -99999 -99999 -99999 -99999 -99999 -99999 -99999 -99999 -99999 -99999 -99999 -99999 -99999 -99999 -99999 -99999 -99999 -99999 -99999 -99999 -99999 -99999 -99999 -99999 -99999 -99999 -99999 -99999 -99999 -99999 -99999 -99999 -99999 -99999 -99999 -99999 -99999 -99999 -99999 -99999 -99999 -99999 -99999 -99999 -99999 -99999 -99999 -99999 -99999 -99999 -99999 -99999 -99999 -99999 -99999 -99999 -99999 -99999 -99999 -99999 -99999 -99999 -99999 -99999 -99999 -99999 -99999 -99999 -99999 -99999 -99999 -99999 -99999 -99999 -99999 -99999 -99999 -99999 -99999 -99999 -99999 -99999 -99999 -99999 -99999 -99999 -99999 -99999 -99999 -99999 -99999 -99999 -99999 -99999 -99999 -99999 -99999 -99999 -99999 -99999 -99999 -99999 -99999 -99999
 -99999 -99999 -99999 -99999 -99999 -99999 -99999 -99999 -99999 -99999 -99999 -1123.498291015625 -1129.9444580078125 -1136.30224609375 -1142.477783203125 -1148.39501953125 -1154.0782470703125 -1159.4031982421875 -1164.3900146484375 -1169.13037109375 -1173.62646484375 -1177.8863525390625 -1181.9521484375 -1185.742919921875 -99999 -99999 -99999 -99999 -99999 -99999 -99999 -99999 -99999 -99999 -99999 -99999 -99999 -99999 -99999 -99999 -99999 -99999 -99999 -99999 -99999 -99999 -99999 -99999 -99999 -99999 -99999 -99999 -99999 -99999 -99999 -99999 -99999 -99999 -99999 -99999 -99999 -99999 -99999 -99999 -99999 -99999 -99999 -99999 -99999 -99999 -99999 -99999 -99999 -99999 -99999 -99999 -99999 -99999 -99999 -99999 -99999 -99999 -99999 -99999 -99999 -99999 -99999 -99999 -99999 -99999 -99999 -99999 -99999 -99999 -99999 -99999 -99999 -99999 -99999 -99999 -99999 -99999 -99999 -99999 -99999 -99999 -99999 -99999 -99999 -99999 -99999 -99999 -99999 -99999 -99999 -99999 -99999 -99999 -99999 -99999 -99999 -99999 -99999 -99999 -99999 -99999 -99999 -99999 -99999 -99999 -99999 -99999 -99999 -99999 -99999 -99999 -99999 -99999 -99999 -99999 -99999 -99999 -99999 -99999 -99999 -99999 -99999 -99999 -99999 -99999 -99999 -99999 -99999 -99999 -99999 -99999 -99999 -99999 -99999 -99999 -99999 -99999 -99999 -99999 -99999 -99999 -99999 -99999 -99999 -99999 -99999 -99999 -99999 -99999 -99999 -99999 -99999 -99999 -99999 -99999 -99999 -99999 -99999 -99999 -99999 -99999 -99999 -99999 -99999 -99999 -99999 -99999 -99999 -99999 -99999 -99999 -99999 -99999 -99999
 -99999 -99999 -99999 -99999 -99999 -99999 -99999 -99999 -99999 -99999 -99999 -99999 -1123.8099365234375 -1130.1171875 -1136.276611328125 -1142.1822509765625 -1147.837890625 -1153.242431640625 -1158.3511962890625 -1163.157470703125 -99999 -99999 -99999 -99999 -99999 -99999 -99999 -99999 -99999 -99999 -99999 -99999 -99999 -99999 -99999 -99999 -99999 -99999 -99999 -99999 -99999 -99999 -99999 -99999 -99999 -99999 -99999 -99999 -99999 -99999 -99999 -99999 -99999 -99999 -99999 -99999 -99999 -99999 -99999 -99999 -99999 -99999 -99999 -99999 -99999 -99999 -99999 -99999 -99999 -99999 -99999 -99999 -99999 -99999 -99999 -99999 -99999 -99999 -99999 -99999 -99999 -99999 -99999 -99999 -99999 -99999 -99999 -99999 -99999 -99999 -99999 -99999 -99999 -99999 -99999 -99999 -99999 -99999 -99999 -99999 -99999 -99999 -99999 -99999 -99999 -99999 -99999 -99999 -99999 -99999 -99999 -99999 -99999 -99999 -99999 -99999 -99999 -99999 -99999 -99999 -99999 -99999 -99999 -99999 -99999 -99999 -99999 -99999 -99999 -99999 -99999 -99999 -99999 -99999 -99999 -99999 -99999 -99999 -99999 -99999 -99999 -99999 -99999 -99999 -99999 -99999 -99999 -99999 -99999 -99999 -99999 -99999 -99999 -99999 -99999 -99999 -99999 -99999 -99999 -99999 -99999 -99999 -99999 -99999 -99999 -99999 -99999 -99999 -99999 -99999 -99999 -99999 -99999 -99999 -99999 -99999 -99999 -99999 -99999 -99999 -99999 -99999 -99999 -99999 -99999 -99999 -99999 -99999 -99999 -99999 -99999 -99999 -99999 -99999 -99999 -99999 -99999 -99999 -99999
 -99999 -99999 -99999 -99999 -99999 -99999 -99999 -99999 -99999 -99999 -99999 -99999 -99999 -99999 -1130.1102294921875 -1136.0667724609375 -99999 -99999 -99999 -99999 -99999 -99999 -99999 -99999 -99999 -99999 -99999 -99999 -99999 -99999 -99999 -99999 -99999 -99999 -99999 -99999 -99999 -99999 -99999 -99999 -99999 -99999 -99999 -99999 -99999 -99999 -99999 -99999 -99999 -99999 -99999 -99999 -99999 -99999 -99999 -99999 -99999 -99999 -99999 -99999 -99999 -99999 -99999 -99999 -99999 -99999 -99999 -99999 -99999 -99999 -99999 -99999 -99999 -99999 -99999 -99999 -99999 -99999 -99999 -99999 -99999 -99999 -99999 -99999 -99999 -99999 -99999 -99999 -99999 -99999 -99999 -99999 -99999 -99999 -99999 -99999 -99999 -99999 -99999 -99999 -99999 -99999 -99999 -99999 -99999 -99999 -99999 -99999 -99999 -99999 -99999 -99999 -99999 -99999 -99999 -99999 -99999 -99999 -99999 -99999 -99999 -99999 -99999 -99999 -99999 -99999 -99999 -99999 -99999 -99999 -99999 -99999 -99999 -99999 -99999 -99999 -99999 -99999 -99999 -99999 -99999 -99999 -99999 -99999 -99999 -99999 -99999 -99999 -99999 -99999 -99999 -99999 -99999 -99999 -99999 -99999 -99999 -99999 -99999 -99999 -99999 -99999 -99999 -99999 -99999 -99999 -99999 -99999 -99999 -99999 -99999 -99999 -99999 -99999 -99999 -99999 -99999 -99999 -99999 -99999 -99999 -99999 -99999 -99999 -99999 -99999 -99999 -99999 -99999 -99999 -99999 -99999 -99999 -99999 -99999 -99999 -99999 -99999 -99999
