ncols        229
nrows        213
xllcorner    207242.524482158362
yllcorner    8951309.872862134129
cellsize     50.000000000000
NODATA_value  -99999
 -99999.0 -99999 -99999 -99999 -99999 -99999 -99999 -99999 -99999 -99999 -99999 -99999 -99999 -99999 -99999 -99999 -99999 -99999 -99999 -99999 -99999 -99999 -99999 -99999 -99999 -99999 -99999 -99999 -99999 -99999 -99999 -99999 -99999 -99999 -99999 -99999 -99999 -99999 -99999 -99999 -99999 -99999 -99999 -99999 -99999 -99999 -99999 -99999 -99999 -99999 -99999 -99999 -99999 -99999 -99999 -99999 -99999 -99999 -99999 -99999 -99999 -99999 -99999 -99999 -99999 -99999 -99999 -99999 -99999 -99999 -99999 -99999 -99999 -99999 -99999 -99999 -99999 -99999 -99999 -99999 -99999 -99999 -99999 -99999 -99999 -99999 -99999 -99999 -99999 -99999 -99999 -99999 -99999 -99999 -99999 -99999 -99999 -99999 -99999 -99999 -99999 -99999 -99999 -99999 -99999 -99999 -99999 -99999 -99999 -99999 -99999 -99999 -99999 -99999 -99999 -99999 -99999 -99999 -99999 -99999 -99999 -99999 -99999 -99999 -99999 -99999 -99999 -99999 -99999 -99999 -99999 -99999 -99999 -99999 -99999 -99999 -99999 -99999 -99999 -99999 -99999 -99999 -99999 -99999 -99999 -99999 -99999 -99999 -99999 -99999 -99999 -99999 -99999 -99999 -99999 -99999 -99999 -99999 -99999 -99999 -99999 -99999 -99999 -99999 -99999 -99999 -99999 -99999 -99999 -99999 -99999 -99999 -99999 -99999 -99999 -99999 -99999 -99999 -99999 -99999 -99999 -99999 -99999 -99999 -99999 -99999 -99999 -99999 -99999 -99999 -99999 -99999 -99999 -99999 -99999 -99999 -99999 -99999 -99999 -99999 -99999 -99999 -99999 -99999 -99999 -99999 -99999 -99999 -99999 -99999 -99999 -99999 -99999 -99999 -99999 -99999 -99999 -99999 -99999 -99999 -99999 -99999 -99999 -99999 -99999 -99999 -99999 -99999 -99999
 -99999 -99999 -99999 -99999 -99999 -99999 -99999 -99999 -99999 -99999 -99999 -99999 -99999 -99999 -99999 -99999 -99999 -99999 -99999 -99999 -99999 -99999 -99999 -99999 -99999 -99999 -99999 -99999 -99999 -99999 -99999 -99999 -99999 -99999 -99999 -99999 -99999 -99999 -99999 -99999 -99999 -99999 -99999 -99999 -99999 -99999 -99999 -99999 -99999 -99999 -99999 -99999 -99999 -99999 -99999 -99999 -99999 -99999 -99999 -99999 -99999 -99999 -99999 -99999 -99999 -99999 -99999 -99999 -99999 -99999 -99999 -99999 -99999 -99999 -99999 -99999 -99999 -99999 -99999 -99999 -99999 -99999 -99999 -99999 -99999 -99999 -99999 -99999 -99999 -99999 -99999 -99999 -99999 -99999 -99999 -99999 -99999 -99999 -99999 -99999 -99999 -99999 -99999 -99999 -99999 -99999 -99999 -99999 -99999 -99999 -99999 -99999 -99999 -99999 -99999 -99999 -99999 -99999 -99999 -99999 -99999 -99999 -99999 -99999 -99999 -99999 -99999 -99999 -99999 -99999 -99999 -99999 -99999 -99999 -99999 -99999 -99999 -99999 -99999 -99999 -99999 -99999 -99999 -99999 -99999 -99999 -99999 -99999 -99999 -99999 -99999 -99999 -99999 -99999 -99999 -99999 -99999 -99999 -99999 -99999 -99999 -99999 -99999 -99999 -99999 -99999 -99999 -99999 -99999 -99999 -99999 -99999 -99999 -99999 -99999 -99999 -99999 -99999 -99999 -99999 -99999 -99999 -99999 -99999 -99999 -99999 -99999 -99999 -99999 -99999 -99999 -99999 -99999 -99999 -99999 -99999 -99999 -99999 -99999 -99999 -99999 -99999 -99999 -99999 -99999 -99999 -99999 -99999 -99999 -99999 -99999 -99999 -99999 -99999 -99999 -99999 -99999 -99999 -99999 -99999 39.324245452880859375 35.624752044677734375 32.011608123779296875 -99999 -99999 -99999 -99999 -99999 -99999
 -99999 -99999 -99999 -99999 -99999 -99999 -99999 -99999 -99999 -99999 -99999 -99999 -99999 -99999 -99999 -99999 -99999 -99999 -99999 -99999 -99999 -99999 -99999 -99999 -99999 -99999 -99999 -99999 -99999 -99999 -99999 -99999 -99999 -99999 -99999 -99999 -99999 -99999 -99999 -99999 -99999 -99999 -99999 -99999 -99999 -99999 -99999 -99999 -99999 -99999 -99999 -99999 -99999 -99999 -99999 -99999 -99999 -99999 -99999 -99999 -99999 -99999 -99999 -99999 -99999 -99999 -99999 -99999 -99999 -99999 -99999 -99999 -99999 -99999 -99999 -99999 -99999 -99999 -99999 -99999 -99999 -99999 -99999 -99999 -99999 -99999 -99999 -99999 -99999 -99999 -99999 -99999 -99999 -99999 -99999 -99999 -99999 -99999 -99999 -99999 -99999 -99999 -99999 -99999 -99999 -99999 -99999 -99999 -99999 -99999 -99999 -99999 -99999 -99999 -99999 -99999 -99999 -99999 -99999 -99999 -99999 -99999 -99999 -99999 -99999 -99999 -99999 -99999 -99999 -99999 -99999 -99999 -99999 -99999 -99999 -99999 -99999 -99999 -99999 -99999 -99999 -99999 -99999 -99999 -99999 -99999 -99999 -99999 -99999 -99999 -99999 -99999 -99999 -99999 -99999 -99999 -99999 -99999 -99999 -99999 -99999 -99999 -99999 -99999 -99999 -99999 -99999 -99999 -99999 -99999 -99999 -99999 -99999 -99999 -99999 -99999 -99999 -99999 -99999 -99999 -99999 -99999 -99999 -99999 -99999 -99999 -99999 -99999 -99999 -99999 -99999 -99999 -99999 -99999 -99999 -99999 -99999 -99999 -99999 -99999 -99999 -99999 -99999 -99999 -99999 -99999 -99999 -99999 -99999 -99999 -99999 -99999 -99999 -99999 -99999 -99999 -99999 53.7635955810546875 49.94388580322265625 45.914615631103515625 42.060955047607421875 38.322223663330078125 34.628009796142578125 30.943012237548828125 -99999 -99999 -99999 -99999 -99999
 -99999 -99999 -99999 -99999 -99999 -99999 -99999 -99999 -99999 -99999 -99999 -99999 -99999 -99999 -99999 -99999 -99999 -99999 -99999 -99999 -99999 -99999 -99999 -99999 -99999 -99999 -99999 -99999 -99999 -99999 -99999 -99999 -99999 -99999 -99999 -99999 -99999 -99999 -99999 -99999 -99999 -99999 -99999 -99999 -99999 -99999 -99999 -99999 -99999 -99999 -99999 -99999 -99999 -99999 -99999 -99999 -99999 -99999 -99999 -99999 -99999 -99999 -99999 -99999 -99999 -99999 -99999 -99999 -99999 -99999 -99999 -99999 -99999 -99999 -99999 -99999 -99999 -99999 -99999 -99999 -99999 -99999 -99999 -99999 -99999 -99999 -99999 -99999 -99999 -99999 -99999 -99999 -99999 -99999 -99999 -99999 -99999 -99999 -99999 -99999 -99999 -99999 -99999 -99999 -99999 -99999 -99999 -99999 -99999 -99999 -99999 -99999 -99999 -99999 -99999 -99999 -99999 -99999 -99999 -99999 -99999 -99999 -99999 -99999 -99999 -99999 -99999 -99999 -99999 -99999 -99999 -99999 -99999 -99999 -99999 -99999 -99999 -99999 -99999 -99999 -99999 -99999 -99999 -99999 -99999 -99999 -99999 -99999 -99999 -99999 -99999 -99999 -99999 -99999 -99999 -99999 -99999 -99999 -99999 -99999 -99999 -99999 -99999 -99999 -99999 -99999 -99999 -99999 -99999 -99999 -99999 -99999 -99999 -99999 -99999 -99999 -99999 -99999 -99999 -99999 -99999 -99999 -99999 -99999 -99999 -99999 -99999 -99999 -99999 -99999 -99999 -99999 -99999 -99999 -99999 -99999 -99999 -99999 -99999 -99999 -99999 -99999 -99999 -99999 -99999 -99999 -99999 -99999 -99999 -99999 -99999 -99999 -99999 -99999 -99999 66.451904296875 61.32749176025390625 57.03569793701171875 52.158908843994140625 48.73268890380859375 44.93183135986328125 41.077541351318359375 37.28594207763671875 33.5255584716796875 29.706878662109375 -99999 -99999 -99999 -99999
 -99999 -99999 -99999 -99999 -99999 -99999 -99999 -99999 -99999 -99999 -99999 -99999 -99999 -99999 -99999 -99999 -99999 -99999 -99999 -99999 -99999 -99999 -99999 -99999 -99999 -99999 -99999 -99999 -99999 -99999 -99999 -99999 -99999 -99999 -99999 -99999 -99999 -99999 -99999 -99999 -99999 -99999 -99999 -99999 -99999 -99999 -99999 -99999 -99999 -99999 -99999 -99999 -99999 -99999 -99999 -99999 -99999 -99999 -99999 -99999 -99999 -99999 -99999 -99999 -99999 -99999 -99999 -99999 -99999 -99999 -99999 -99999 -99999 -99999 -99999 -99999 -99999 -99999 -99999 -99999 -99999 -99999 -99999 -99999 -99999 -99999 -99999 -99999 -99999 -99999 -99999 -99999 -99999 -99999 -99999 -99999 -99999 -99999 -99999 -99999 -99999 -99999 -99999 -99999 -99999 -99999 -99999 -99999 -99999 -99999 -99999 -99999 -99999 -99999 -99999 -99999 -99999 -99999 -99999 -99999 -99999 -99999 -99999 -99999 -99999 -99999 -99999 -99999 -99999 -99999 -99999 -99999 -99999 -99999 -99999 -99999 -99999 -99999 -99999 -99999 -99999 -99999 -99999 -99999 -99999 -99999 -99999 -99999 -99999 -99999 -99999 -99999 -99999 -99999 -99999 -99999 -99999 -99999 -99999 -99999 -99999 -99999 -99999 -99999 -99999 -99999 -99999 -99999 -99999 -99999 -99999 -99999 -99999 -99999 -99999 -99999 -99999 -99999 -99999 -99999 -99999 -99999 -99999 -99999 -99999 -99999 -99999 -99999 -99999 -99999 -99999 -99999 -99999 -99999 -99999 -99999 -99999 -99999 -99999 -99999 -99999 -99999 -99999 -99999 -99999 -99999 -99999 -99999 -99999 -99999 -99999 -99999 81.94324493408203125 79.2575836181640625 75.39554595947265625 70.234375 64.85820770263671875 59.47061920166015625 55.608814239501953125 51.692325592041015625 47.7960662841796875 43.90616607666015625 39.94818115234375 36.01784515380859375 32.10184478759765625 28.20020294189453125 24.3486480712890625 -99999 -99999
 -99999 -99999 -99999 -99999 -99999 -99999 -99999 -99999 -99999 -99999 -99999 -99999 -99999 -99999 -99999 -99999 -99999 -99999 -99999 -99999 -99999 -99999 -99999 -99999 -99999 -99999 -99999 -99999 -99999 -99999 -99999 -99999 -99999 -99999 -99999 -99999 -99999 -99999 -99999 -99999 -99999 -99999 -99999 -99999 -99999 -99999 -99999 -99999 -99999 -99999 -99999 -99999 -99999 -99999 -99999 -99999 -99999 -99999 -99999 -99999 -99999 -99999 -99999 -99999 -99999 -99999 -99999 -99999 -99999 -99999 -99999 -99999 -99999 -99999 -99999 -99999 -99999 -99999 -99999 -99999 -99999 -99999 -99999 -99999 -99999 -99999 -99999 -99999 -99999 -99999 -99999 -99999 -99999 -99999 -99999 -99999 -99999 -99999 -99999 -99999 -99999 -99999 -99999 -99999 -99999 -99999 -99999 -99999 -99999 -99999 -99999 -99999 -99999 -99999 -99999 -99999 -99999 -99999 -99999 -99999 -99999 -99999 -99999 -99999 -99999 -99999 -99999 -99999 -99999 -99999 -99999 -99999 -99999 -99999 -99999 -99999 -99999 -99999 -99999 -99999 -99999 -99999 -99999 -99999 -99999 -99999 -99999 -99999 -99999 -99999 -99999 -99999 -99999 -99999 -99999 -99999 -99999 -99999 -99999 -99999 -99999 -99999 -99999 -99999 -99999 -99999 -99999 -99999 -99999 -99999 -99999 -99999 -99999 -99999 -99999 -99999 -99999 -99999 -99999 -99999 -99999 -99999 -99999 -99999 -99999 -99999 -99999 -99999 -99999 -99999 -99999 -99999 -99999 -99999 -99999 -99999 -99999 -99999 -99999 -99999 -99999 -99999 -99999 -99999 -99999 -99999 -99999 -99999 -99999 -99999 87.11859893798828125 86.75154876708984375 85.9774169921875 83.66847991943359375 79.8220672607421875 74.6237030029296875 68.67438507080078125 63.672016143798828125 59.04306793212890625 54.8049774169921875 50.85858154296875 46.72545623779296875 42.62010955810546875 38.526470184326171875 34.435199737548828125 30.352617263793945312 26.401121139526367188 22.253866195678710938 -99999
 -99999 -99999 -99999 -99999 -99999 -99999 -99999 -99999 -99999 -99999 -99999 -99999 -99999 -99999 -99999 -99999 -99999 -99999 -99999 -99999 -99999 -99999 -99999 -99999 -99999 -99999 -99999 -99999 -99999 -99999 -99999 -99999 -99999 -99999 -99999 -99999 -99999 -99999 -99999 -99999 -99999 -99999 -99999 -99999 -99999 -99999 -99999 -99999 -99999 -99999 -99999 -99999 -99999 -99999 -99999 -99999 -99999 -99999 -99999 -99999 -99999 -99999 -99999 -99999 -99999 -99999 -99999 -99999 -99999 -99999 -99999 -99999 -99999 -99999 -99999 -99999 -99999 -99999 -99999 -99999 -99999 -99999 -99999 -99999 -99999 -99999 -99999 -99999 -99999 -99999 -99999 -99999 -99999 -99999 -99999 -99999 -99999 -99999 -99999 -99999 -99999 -99999 -99999 -99999 -99999 -99999 -99999 -99999 -99999 -99999 -99999 -99999 -99999 -99999 -99999 -99999 -99999 -99999 -99999 -99999 -99999 -99999 -99999 -99999 -99999 -99999 -99999 -99999 -99999 -99999 -99999 -99999 -99999 -99999 -99999 -99999 -99999 -99999 -99999 -99999 -99999 -99999 -99999 -99999 -99999 -99999 -99999 -99999 -99999 -99999 -99999 -99999 -99999 -99999 -99999 -99999 -99999 -99999 -99999 -99999 -99999 -99999 -99999 -99999 -99999 -99999 -99999 -99999 -99999 -99999 -99999 -99999 -99999 -99999 -99999 -99999 -99999 -99999 -99999 -99999 -99999 -99999 -99999 -99999 -99999 -99999 -99999 -99999 -99999 -99999 -99999 -99999 -99999 -99999 -99999 -99999 -99999 -99999 -99999 -99999 -99999 -99999 -99999 -99999 -99999 -99999 -99999 -99999 -99999 88.32051849365234375 88.5106201171875 89.05028533935546875 89.35943603515625 88.51496124267578125 85.30106353759765625 79.599639892578125 73.61746978759765625 67.87612152099609375 63.020343780517578125 58.464565277099609375 53.84930419921875 49.436962127685546875 45.198162078857421875 40.907688140869140625 36.625133514404296875 32.45735931396484375 28.343759536743164062 24.019601821899414062 19.847627639770507812
 -99999 -99999 -99999 -99999 -99999 -99999 -99999 -99999 -99999 -99999 -99999 -99999 -99999 -99999 -99999 -99999 -99999 -99999 -99999 -99999 -99999 -99999 -99999 -99999 -99999 -99999 -99999 -99999 -99999 -99999 -99999 -99999 -99999 -99999 -99999 -99999 -99999 -99999 -99999 -99999 -99999 -99999 -99999 -99999 -99999 -99999 -99999 -99999 -99999 -99999 -99999 -99999 -99999 -99999 -99999 -99999 -99999 -99999 -99999 -99999 -99999 -99999 -99999 -99999 -99999 -99999 -99999 -99999 -99999 -99999 -99999 -99999 -99999 -99999 -99999 -99999 -99999 -99999 -99999 -99999 -99999 -99999 -99999 -99999 -99999 -99999 -99999 -99999 -99999 -99999 -99999 -99999 -99999 -99999 -99999 -99999 -99999 -99999 -99999 -99999 -99999 -99999 -99999 -99999 -99999 -99999 -99999 -99999 -99999 -99999 -99999 -99999 -99999 -99999 -99999 -99999 -99999 -99999 -99999 -99999 -99999 -99999 -99999 -99999 -99999 -99999 -99999 -99999 -99999 -99999 -99999 -99999 -99999 -99999 -99999 -99999 -99999 -99999 -99999 -99999 -99999 -99999 -99999 -99999 -99999 -99999 -99999 -99999 -99999 -99999 -99999 -99999 -99999 -99999 -99999 -99999 -99999 -99999 -99999 -99999 -99999 -99999 -99999 -99999 -99999 -99999 -99999 -99999 -99999 -99999 -99999 -99999 -99999 -99999 -99999 -99999 -99999 -99999 -99999 -99999 -99999 -99999 -99999 -99999 -99999 -99999 -99999 -99999 -99999 -99999 -99999 -99999 -99999 -99999 -99999 -99999 -99999 -99999 -99999 -99999 -99999 -99999 -99999 -99999 -99999 -99999 -99999 -99999 88.71453857421875 88.363037109375 88.7125396728515625 89.9871826171875 91.91022491455078125 92.900238037109375 89.9963226318359375 84.26540374755859375 77.82337188720703125 71.85807037353515625 66.4789276123046875 61.422176361083984375 56.7398681640625 52.110980987548828125 47.51727294921875 43.014057159423828125 38.667346954345703125 34.317073822021484375 30.056093215942382812 25.672637939453125 21.392503738403320312
 -99999 -99999 -99999 -99999 -99999 -99999 -99999 -99999 -99999 -99999 -99999 -99999 -99999 -99999 -99999 -99999 -99999 -99999 -99999 -99999 -99999 -99999 -99999 -99999 -99999 -99999 -99999 -99999 -99999 -99999 -99999 -99999 -99999 -99999 -99999 -99999 -99999 -99999 -99999 -99999 -99999 -99999 -99999 -99999 -99999 -99999 -99999 -99999 -99999 -99999 -99999 -99999 -99999 -99999 -99999 -99999 -99999 -99999 -99999 -99999 -99999 -99999 -99999 -99999 -99999 -99999 -99999 -99999 -99999 -99999 -99999 -99999 -99999 -99999 -99999 -99999 -99999 -99999 -99999 -99999 -99999 -99999 -99999 -99999 -99999 -99999 -99999 -99999 -99999 -99999 -99999 -99999 -99999 -99999 -99999 -99999 -99999 -99999 -99999 -99999 -99999 -99999 -99999 -99999 -99999 -99999 -99999 -99999 -99999 -99999 -99999 -99999 -99999 -99999 -99999 -99999 -99999 -99999 -99999 -99999 -99999 -99999 -99999 -99999 -99999 -99999 -99999 -99999 -99999 -99999 -99999 -99999 -99999 -99999 -99999 -99999 -99999 -99999 -99999 -99999 -99999 -99999 -99999 -99999 -99999 -99999 -99999 -99999 -99999 -99999 -99999 -99999 -99999 -99999 -99999 -99999 -99999 -99999 -99999 -99999 -99999 -99999 -99999 -99999 -99999 -99999 -99999 -99999 -99999 -99999 -99999 -99999 -99999 -99999 -99999 -99999 -99999 -99999 -99999 -99999 -99999 -99999 -99999 -99999 -99999 -99999 -99999 -99999 -99999 -99999 -99999 -99999 -99999 -99999 -99999 -99999 -99999 -99999 -99999 -99999 -99999 -99999 -99999 -99999 -99999 -99999 91.2097625732421875 89.5101470947265625 88.0894622802734375 87.29607391357421875 87.38773345947265625 88.62592315673828125 91.54376220703125 94.87973785400390625 92.7640380859375 86.7636871337890625 80.58678436279296875 74.7292938232421875 69.259552001953125 64.04949951171875 59.02630615234375 54.254749298095703125 49.624691009521484375 45.02767181396484375 40.430957794189453125 36.026844024658203125 31.60651397705078125 27.120454788208007812 22.750913619995117188
 -99999 -99999 -99999 -99999 -99999 -99999 -99999 -99999 -99999 -99999 -99999 -99999 -99999 -99999 -99999 -99999 -99999 -99999 -99999 -99999 -99999 -99999 -99999 -99999 -99999 -99999 -99999 -99999 -99999 -99999 -99999 -99999 -99999 -99999 -99999 -99999 -99999 -99999 -99999 -99999 -99999 -99999 -99999 -99999 -99999 -99999 -99999 -99999 -99999 -99999 -99999 -99999 -99999 -99999 -99999 -99999 -99999 -99999 -99999 -99999 -99999 -99999 -99999 -99999 -99999 -99999 -99999 -99999 -99999 -99999 -99999 -99999 -99999 -99999 -99999 -99999 -99999 -99999 -99999 -99999 -99999 -99999 -99999 -99999 -99999 -99999 -99999 -99999 -99999 -99999 -99999 -99999 -99999 -99999 -99999 -99999 -99999 -99999 -99999 -99999 -99999 -99999 -99999 -99999 -99999 -99999 -99999 -99999 -99999 -99999 -99999 -99999 -99999 -99999 -99999 -99999 -99999 -99999 -99999 -99999 -99999 -99999 -99999 -99999 -99999 -99999 -99999 -99999 -99999 -99999 -99999 -99999 -99999 -99999 -99999 -99999 -99999 -99999 -99999 -99999 -99999 -99999 -99999 -99999 -99999 -99999 -99999 -99999 -99999 -99999 -99999 -99999 -99999 -99999 -99999 -99999 -99999 -99999 -99999 -99999 -99999 -99999 -99999 -99999 -99999 -99999 -99999 -99999 -99999 -99999 -99999 -99999 -99999 -99999 -99999 -99999 -99999 -99999 -99999 -99999 -99999 -99999 -99999 -99999 -99999 -99999 -99999 -99999 -99999 -99999 -99999 -99999 -99999 -99999 -99999 -99999 -99999 -99999 -99999 -99999 -99999 -99999 -99999 -99999 -99999 93.67562103271484375 91.42507171630859375 89.276519775390625 87.35882568359375 85.77567291259765625 84.79427337646484375 84.47491455078125 87.09638214111328125 90.8348236083984375 90.1969757080078125 86.68912506103515625 81.39987945556640625 76.030853271484375 70.8492431640625 65.79103851318359375 60.891880035400390625 56.04320526123046875 51.242633819580078125 46.528095245361328125 41.9600372314453125 37.473178863525390625 32.870090484619140625 28.394525527954101562 23.953802108764648438
 -99999 -99999 -99999 -99999 -99999 -99999 -99999 -99999 -99999 -99999 -99999 -99999 -99999 -99999 -99999 -99999 -99999 -99999 -99999 -99999 -99999 -99999 -99999 -99999 -99999 -99999 -99999 -99999 -99999 -99999 -99999 -99999 -99999 -99999 -99999 -99999 -99999 -99999 -99999 -99999 -99999 -99999 -99999 -99999 -99999 -99999 -99999 -99999 -99999 -99999 -99999 -99999 -99999 -99999 -99999 -99999 -99999 -99999 -99999 -99999 -99999 -99999 -99999 -99999 -99999 -99999 -99999 -99999 -99999 -99999 -99999 -99999 -99999 -99999 -99999 -99999 -99999 -99999 -99999 -99999 -99999 -99999 -99999 -99999 -99999 -99999 -99999 -99999 -99999 -99999 -99999 -99999 -99999 -99999 -99999 -99999 -99999 -99999 -99999 -99999 -99999 -99999 -99999 -99999 -99999 -99999 -99999 -99999 -99999 -99999 -99999 -99999 -99999 -99999 -99999 -99999 -99999 -99999 -99999 -99999 -99999 -99999 -99999 -99999 -99999 -99999 -99999 -99999 -99999 -99999 -99999 -99999 -99999 -99999 -99999 -99999 -99999 -99999 -99999 -99999 -99999 -99999 -99999 -99999 -99999 -99999 -99999 -99999 -99999 -99999 -99999 -99999 -99999 -99999 -99999 -99999 -99999 -99999 -99999 -99999 -99999 -99999 -99999 -99999 -99999 -99999 -99999 -99999 -99999 -99999 -99999 -99999 -99999 -99999 -99999 -99999 -99999 -99999 -99999 -99999 -99999 -99999 -99999 -99999 -99999 -99999 -99999 -99999 -99999 -99999 -99999 -99999 -99999 -99999 -99999 -99999 -99999 -99999 -99999 -99999 -99999 -99999 -99999 -99999 96.92476654052734375 94.62184906005859375 92.06728363037109375 89.18175506591796875 86.30228424072265625 84.10639190673828125 82.5066680908203125 81.46210479736328125 82.71128082275390625 85.6914825439453125 86.29039764404296875 84.21600341796875 80.631866455078125 76.348480224609375 71.60237884521484375 66.8571319580078125 62.048248291015625 57.28777313232421875 52.574802398681640625 47.842655181884765625 43.139461517333984375 38.6455078125 33.976581573486328125 29.43129730224609375 24.93768310546875
 -99999 -99999 -99999 -99999 -99999 -99999 -99999 -99999 -99999 -99999 -99999 -99999 -99999 -99999 -99999 -99999 -99999 -99999 -99999 -99999 -99999 -99999 -99999 -99999 -99999 -99999 -99999 -99999 -99999 -99999 -99999 -99999 -99999 -99999 -99999 -99999 -99999 -99999 -99999 -99999 -99999 -99999 -99999 -99999 -99999 -99999 -99999 -99999 -99999 -99999 -99999 -99999 -99999 -99999 -99999 -99999 -99999 -99999 -99999 -99999 -99999 -99999 -99999 -99999 -99999 -99999 -99999 -99999 -99999 -99999 -99999 -99999 -99999 -99999 -99999 -99999 -99999 -99999 -99999 -99999 -99999 -99999 -99999 -99999 -99999 -99999 -99999 -99999 -99999 -99999 -99999 -99999 -99999 -99999 -99999 -99999 -99999 -99999 -99999 -99999 -99999 -99999 -99999 -99999 -99999 -99999 -99999 -99999 -99999 -99999 -99999 -99999 -99999 -99999 -99999 -99999 -99999 -99999 -99999 -99999 -99999 -99999 -99999 -99999 -99999 -99999 -99999 -99999 -99999 -99999 -99999 -99999 -99999 -99999 -99999 -99999 -99999 -99999 -99999 -99999 -99999 -99999 -99999 -99999 -99999 -99999 -99999 -99999 -99999 -99999 -99999 -99999 -99999 -99999 -99999 -99999 -99999 -99999 -99999 -99999 -99999 -99999 -99999 -99999 -99999 -99999 -99999 -99999 -99999 -99999 -99999 -99999 -99999 -99999 -99999 -99999 -99999 -99999 -99999 -99999 -99999 -99999 -99999 -99999 -99999 -99999 -99999 -99999 -99999 -99999 -99999 -99999 -99999 -99999 -99999 -99999 -99999 -99999 -99999 -99999 -99999 -99999 -99999 100.39305877685546875 98.45279693603515625 95.93122100830078125 92.94927215576171875 89.59447479248046875 86.09142303466796875 82.69870758056640625 80.98795318603515625 80.654296875 81.3597869873046875 82.90847015380859375 83.29671478271484375 82.15268707275390625 79.3507537841796875 75.7847900390625 71.6791534423828125 67.27730560302734375 62.7289886474609375 58.08353424072265625 53.376621246337890625 48.696155548095703125 44.138446807861328125 39.5196685791015625 34.82570648193359375 30.230070114135742188 25.654926300048828125
 -99999 -99999 -99999 -99999 -99999 -99999 -99999 -99999 -99999 -99999 -99999 -99999 -99999 -99999 -99999 -99999 -99999 -99999 -99999 -99999 -99999 -99999 -99999 -99999 -99999 -99999 -99999 -99999 -99999 -99999 -99999 -99999 -99999 -99999 -99999 -99999 -99999 -99999 -99999 -99999 -99999 -99999 -99999 -99999 -99999 -99999 -99999 -99999 -99999 -99999 -99999 -99999 -99999 -99999 -99999 -99999 -99999 -99999 -99999 -99999 -99999 -99999 -99999 -99999 -99999 -99999 -99999 -99999 -99999 -99999 -99999 -99999 -99999 -99999 -99999 -99999 -99999 -99999 -99999 -99999 -99999 -99999 -99999 -99999 -99999 -99999 -99999 -99999 -99999 -99999 -99999 -99999 -99999 -99999 -99999 -99999 -99999 -99999 -99999 -99999 -99999 -99999 -99999 -99999 -99999 -99999 -99999 -99999 -99999 -99999 -99999 -99999 -99999 -99999 -99999 -99999 -99999 -99999 -99999 -99999 -99999 -99999 -99999 -99999 -99999 -99999 -99999 -99999 -99999 -99999 -99999 -99999 -99999 -99999 -99999 -99999 -99999 -99999 -99999 -99999 -99999 -99999 -99999 -99999 -99999 -99999 -99999 -99999 -99999 -99999 -99999 -99999 -99999 -99999 -99999 -99999 -99999 -99999 -99999 -99999 -99999 -99999 -99999 -99999 -99999 -99999 -99999 -99999 -99999 -99999 -99999 -99999 -99999 -99999 -99999 -99999 -99999 -99999 -99999 -99999 -99999 -99999 -99999 -99999 -99999 -99999 -99999 -99999 -99999 -99999 -99999 -99999 -99999 -99999 -99999 -99999 -99999 -99999 -99999 -99999 -99999 105.069427490234375 103.6219635009765625 102.00823974609375 100.0589141845703125 97.72451019287109375 94.694793701171875 90.916778564453125 86.47443389892578125 82.6363372802734375 80.572784423828125 80.5244598388671875 80.87149810791015625 81.32799530029296875 81.22953033447265625 80.123809814453125 77.9917449951171875 75.0866241455078125 71.26270294189453125 67.23635101318359375 62.927921295166015625 58.461063385009765625 53.89810943603515625 49.262653350830078125 44.63159942626953125 39.9783172607421875 35.350494384765625 30.793478012084960938 26.2975311279296875
 -99999 -99999 -99999 -99999 -99999 -99999 -99999 -99999 -99999 -99999 -99999 -99999 -99999 -99999 -99999 -99999 -99999 -99999 -99999 -99999 -99999 -99999 -99999 -99999 -99999 -99999 -99999 -99999 -99999 -99999 -99999 -99999 -99999 -99999 -99999 -99999 -99999 -99999 -99999 -99999 -99999 -99999 -99999 -99999 -99999 -99999 -99999 -99999 -99999 -99999 -99999 -99999 -99999 -99999 -99999 -99999 -99999 -99999 -99999 -99999 -99999 -99999 -99999 -99999 -99999 -99999 -99999 -99999 -99999 -99999 -99999 -99999 -99999 -99999 -99999 -99999 -99999 -99999 -99999 -99999 -99999 -99999 -99999 -99999 -99999 -99999 -99999 -99999 -99999 -99999 -99999 -99999 -99999 -99999 -99999 -99999 -99999 -99999 -99999 -99999 -99999 -99999 -99999 -99999 -99999 -99999 -99999 -99999 -99999 -99999 -99999 -99999 -99999 -99999 -99999 -99999 -99999 -99999 -99999 -99999 -99999 -99999 -99999 -99999 -99999 -99999 -99999 -99999 -99999 -99999 -99999 -99999 -99999 -99999 -99999 -99999 -99999 -99999 -99999 -99999 -99999 -99999 -99999 -99999 -99999 -99999 -99999 -99999 -99999 -99999 -99999 -99999 -99999 -99999 -99999 -99999 -99999 -99999 -99999 -99999 -99999 -99999 -99999 -99999 -99999 -99999 -99999 -99999 -99999 -99999 -99999 -99999 -99999 -99999 -99999 -99999 -99999 -99999 -99999 -99999 -99999 -99999 -99999 -99999 -99999 -99999 -99999 -99999 -99999 -99999 -99999 -99999 -99999 -99999 -99999 -99999 -99999 -99999 -99999 -99999 107.6707763671875 106.29099273681640625 104.94110870361328125 103.59708404541015625 102.05666351318359375 100.0397186279296875 97.08428192138671875 93.19823455810546875 88.78924560546875 84.601654052734375 82.48076629638671875 81.54177093505859375 81.107635498046875 80.778289794921875 80.19959259033203125 78.8233642578125 76.8586883544921875 74.04674530029296875 70.63019561767578125 66.8705596923828125 62.7880096435546875 58.482975006103515625 54.0026092529296875 49.456935882568359375 44.909740447998046875 40.385486602783203125 35.81324005126953125 31.234106063842773438 26.657329559326171875
 -99999 -99999 -99999 -99999 -99999 -99999 -99999 -99999 -99999 -99999 -99999 -99999 -99999 -99999 -99999 -99999 -99999 -99999 -99999 -99999 -99999 -99999 -99999 -99999 -99999 -99999 -99999 -99999 -99999 -99999 -99999 -99999 -99999 -99999 -99999 -99999 -99999 -99999 -99999 -99999 -99999 -99999 -99999 -99999 -99999 -99999 -99999 -99999 -99999 -99999 -99999 -99999 -99999 -99999 -99999 -99999 -99999 -99999 -99999 -99999 -99999 -99999 -99999 -99999 -99999 -99999 -99999 -99999 -99999 -99999 -99999 -99999 -99999 -99999 -99999 -99999 -99999 -99999 -99999 -99999 -99999 -99999 -99999 -99999 -99999 -99999 -99999 -99999 -99999 -99999 -99999 -99999 -99999 -99999 -99999 -99999 -99999 -99999 -99999 -99999 -99999 -99999 -99999 -99999 -99999 -99999 -99999 -99999 -99999 -99999 -99999 -99999 -99999 -99999 -99999 -99999 -99999 -99999 -99999 -99999 -99999 -99999 -99999 -99999 -99999 -99999 -99999 -99999 -99999 -99999 -99999 -99999 -99999 -99999 -99999 -99999 -99999 -99999 -99999 -99999 -99999 -99999 -99999 -99999 -99999 -99999 -99999 -99999 -99999 -99999 -99999 -99999 -99999 -99999 -99999 -99999 -99999 -99999 -99999 -99999 -99999 -99999 -99999 -99999 -99999 -99999 -99999 -99999 -99999 -99999 -99999 -99999 -99999 -99999 -99999 -99999 -99999 -99999 -99999 -99999 -99999 -99999 -99999 -99999 -99999 -99999 -99999 -99999 -99999 -99999 -99999 -99999 -99999 -99999 -99999 -99999 -99999 -99999 -99999 110.10361480712890625 108.7470703125 107.43726348876953125 106.12641143798828125 105.01367950439453125 103.9556427001953125 102.66654205322265625 100.3079071044921875 96.6540985107421875 92.07805633544921875 88.1030120849609375 85.10938262939453125 83.1279754638671875 81.922515869140625 80.83609771728515625 79.56438446044921875 78.05669403076171875 75.87281036376953125 73.102630615234375 69.94228363037109375 66.3521881103515625 62.3906097412109375 58.2208251953125 53.8290557861328125 49.538959503173828125 45.093585968017578125 40.473201751708984375 35.911594390869140625 31.375568389892578125 26.81383514404296875
 -99999 -99999 -99999 -99999 -99999 -99999 -99999 -99999 -99999 -99999 -99999 -99999 -99999 -99999 -99999 -99999 -99999 -99999 -99999 -99999 -99999 -99999 -99999 -99999 -99999 -99999 -99999 -99999 -99999 -99999 -99999 -99999 -99999 -99999 -99999 -99999 -99999 -99999 -99999 -99999 -99999 -99999 -99999 -99999 -99999 -99999 -99999 -99999 -99999 -99999 -99999 -99999 -99999 -99999 -99999 -99999 -99999 -99999 -99999 -99999 -99999 -99999 -99999 -99999 -99999 -99999 -99999 -99999 -99999 -99999 -99999 -99999 -99999 -99999 -99999 -99999 -99999 -99999 -99999 -99999 -99999 -99999 -99999 -99999 -99999 -99999 -99999 -99999 -99999 -99999 -99999 -99999 -99999 -99999 -99999 -99999 -99999 -99999 -99999 -99999 -99999 -99999 -99999 -99999 -99999 -99999 -99999 -99999 -99999 -99999 -99999 -99999 -99999 -99999 -99999 -99999 -99999 -99999 -99999 -99999 -99999 -99999 -99999 -99999 -99999 -99999 -99999 -99999 -99999 -99999 -99999 -99999 -99999 -99999 -99999 -99999 -99999 -99999 -99999 -99999 -99999 -99999 -99999 -99999 -99999 -99999 -99999 -99999 -99999 -99999 -99999 -99999 -99999 -99999 -99999 -99999 -99999 -99999 -99999 -99999 -99999 -99999 -99999 -99999 -99999 -99999 -99999 -99999 -99999 -99999 -99999 -99999 -99999 -99999 -99999 -99999 -99999 -99999 -99999 -99999 -99999 -99999 -99999 -99999 -99999 -99999 -99999 -99999 -99999 -99999 -99999 -99999 -99999 -99999 -99999 -99999 -99999 113.87842559814453125 112.56882476806640625 111.08165740966796875 109.56798553466796875 108.07376861572265625 106.6960296630859375 105.69582366943359375 105.330596923828125 105.01180267333984375 103.4160919189453125 99.64232635498046875 95.1694183349609375 90.81772613525390625 87.532012939453125 85.0052947998046875 82.95078277587890625 81.22446441650390625 79.48122406005859375 77.60321807861328125 75.15601348876953125 72.401702880859375 69.17022705078125 65.68779754638671875 61.760852813720703125 57.847881317138671875 53.601238250732421875 49.38156890869140625 44.81752777099609375 40.352176666259765625 35.859996795654296875 31.310359954833984375 26.732244491577148438
 -99999 -99999 -99999 -99999 -99999 -99999 -99999 -99999 -99999 -99999 -99999 -99999 -99999 -99999 -99999 -99999 -99999 -99999 -99999 -99999 -99999 -99999 -99999 -99999 -99999 -99999 -99999 -99999 -99999 -99999 -99999 -99999 -99999 -99999 -99999 -99999 -99999 -99999 -99999 -99999 -99999 -99999 -99999 -99999 -99999 -99999 -99999 -99999 -99999 -99999 -99999 -99999 -99999 -99999 -99999 -99999 -99999 -99999 -99999 -99999 -99999 -99999 -99999 -99999 -99999 -99999 -99999 -99999 -99999 -99999 -99999 -99999 -99999 -99999 -99999 -99999 -99999 -99999 -99999 -99999 -99999 -99999 -99999 -99999 -99999 -99999 -99999 -99999 -99999 -99999 -99999 -99999 -99999 -99999 -99999 -99999 -99999 -99999 -99999 -99999 -99999 -99999 -99999 -99999 -99999 -99999 -99999 -99999 -99999 -99999 -99999 -99999 -99999 -99999 -99999 -99999 -99999 -99999 -99999 -99999 -99999 -99999 -99999 -99999 -99999 -99999 -99999 -99999 -99999 -99999 -99999 -99999 -99999 -99999 -99999 -99999 -99999 -99999 -99999 -99999 -99999 -99999 -99999 -99999 -99999 -99999 -99999 -99999 -99999 -99999 -99999 -99999 -99999 -99999 -99999 -99999 -99999 -99999 -99999 -99999 -99999 -99999 -99999 -99999 -99999 -99999 -99999 -99999 -99999 -99999 -99999 -99999 -99999 -99999 -99999 -99999 -99999 -99999 -99999 -99999 -99999 -99999 -99999 -99999 -99999 -99999 -99999 -99999 -99999 -99999 -99999 -99999 -99999 -99999 -99999 -99999 116.30658721923828125 115.08423614501953125 113.698516845703125 112.10992431640625 110.39678955078125 108.437896728515625 106.67485809326171875 105.50400543212890625 105.25159454345703125 105.719512939453125 105.55458831787109375 101.57350921630859375 97.17241668701171875 93.07059478759765625 89.4605865478515625 86.4115142822265625 83.989013671875 81.8359375 79.56670379638671875 77.14978790283203125 74.52156829833984375 71.69132232666015625 68.4575042724609375 65.04116058349609375 61.25736236572265625 57.26041412353515625 53.197601318359375 48.865055084228515625 44.479618072509765625 40.051609039306640625 35.567821502685546875 31.032709121704101562 26.512067794799804688
 -99999 -99999 -99999 -99999 -99999 -99999 -99999 -99999 -99999 -99999 -99999 -99999 -99999 -99999 -99999 -99999 -99999 -99999 -99999 -99999 -99999 -99999 -99999 -99999 -99999 -99999 -99999 -99999 -99999 -99999 -99999 -99999 -99999 -99999 -99999 -99999 -99999 -99999 -99999 -99999 -99999 -99999 -99999 -99999 -99999 -99999 -99999 -99999 -99999 -99999 -99999 -99999 -99999 -99999 -99999 -99999 -99999 -99999 -99999 -99999 -99999 -99999 -99999 -99999 -99999 -99999 -99999 -99999 -99999 -99999 -99999 -99999 -99999 -99999 -99999 -99999 -99999 -99999 -99999 -99999 -99999 -99999 -99999 -99999 -99999 -99999 -99999 -99999 -99999 -99999 -99999 -99999 -99999 -99999 -99999 -99999 -99999 -99999 -99999 -99999 -99999 -99999 -99999 -99999 -99999 -99999 -99999 -99999 -99999 -99999 -99999 -99999 -99999 -99999 -99999 -99999 -99999 -99999 -99999 -99999 -99999 -99999 -99999 -99999 -99999 -99999 -99999 -99999 -99999 -99999 -99999 -99999 -99999 -99999 -99999 -99999 -99999 -99999 -99999 -99999 -99999 -99999 -99999 -99999 -99999 -99999 -99999 -99999 -99999 -99999 -99999 -99999 -99999 -99999 -99999 -99999 -99999 -99999 -99999 -99999 -99999 -99999 -99999 -99999 -99999 -99999 -99999 -99999 -99999 -99999 -99999 -99999 -99999 -99999 -99999 -99999 -99999 -99999 -99999 -99999 -99999 -99999 -99999 -99999 -99999 -99999 -99999 -99999 -99999 -99999 -99999 -99999 -99999 -99999 -99999 118.685943603515625 117.64952850341796875 116.43543243408203125 114.9962615966796875 113.3017425537109375 111.321563720703125 109.00388336181640625 106.44571685791015625 104.27370452880859375 103.553680419921875 104.00975799560546875 103.4114990234375 101.3402557373046875 98.01261138916015625 94.16645050048828125 90.69142913818359375 87.60521697998046875 84.89833831787109375 82.07757568359375 79.53021240234375 76.8621673583984375 74.0106048583984375 71.1035919189453125 67.8577728271484375 64.30814361572265625 60.55687713623046875 56.63823699951171875 52.579833984375 48.287471771240234375 43.95552825927734375 39.5723724365234375 35.111114501953125 30.620977401733398438 26.111986160278320312
 -99999 -99999 -99999 -99999 -99999 -99999 -99999 -99999 -99999 -99999 -99999 -99999 -99999 -99999 -99999 -99999 -99999 -99999 -99999 -99999 -99999 -99999 -99999 -99999 -99999 -99999 -99999 -99999 -99999 -99999 -99999 -99999 -99999 -99999 -99999 -99999 -99999 -99999 -99999 -99999 -99999 -99999 -99999 -99999 -99999 -99999 -99999 -99999 -99999 -99999 -99999 -99999 -99999 -99999 -99999 -99999 -99999 -99999 -99999 -99999 -99999 -99999 -99999 -99999 -99999 -99999 -99999 -99999 -99999 -99999 -99999 -99999 -99999 -99999 -99999 -99999 -99999 -99999 -99999 -99999 -99999 -99999 -99999 -99999 -99999 -99999 -99999 -99999 -99999 -99999 -99999 -99999 -99999 -99999 -99999 -99999 -99999 -99999 -99999 -99999 -99999 -99999 -99999 -99999 -99999 -99999 -99999 -99999 -99999 -99999 -99999 -99999 -99999 -99999 -99999 -99999 -99999 -99999 -99999 -99999 -99999 -99999 -99999 -99999 -99999 -99999 -99999 -99999 -99999 -99999 -99999 -99999 -99999 -99999 -99999 -99999 -99999 -99999 -99999 -99999 -99999 -99999 -99999 -99999 -99999 -99999 -99999 -99999 -99999 -99999 -99999 -99999 -99999 -99999 -99999 -99999 -99999 -99999 -99999 -99999 -99999 -99999 -99999 -99999 -99999 -99999 -99999 -99999 -99999 -99999 -99999 -99999 -99999 -99999 -99999 -99999 -99999 -99999 -99999 -99999 -99999 -99999 -99999 -99999 -99999 -99999 -99999 -99999 -99999 -99999 -99999 -99999 -99999 121.56774139404296875 120.91489410400390625 120.05998992919921875 119.0506134033203125 117.74320220947265625 116.36235809326171875 114.64786529541015625 112.559478759765625 109.9986419677734375 106.92035675048828125 103.31878662109375 102.08632659912109375 102.33759307861328125 102.02471923828125 100.28583526611328125 97.50945281982421875 94.43627166748046875 91.41302490234375 88.261688232421875 85.34195709228515625 82.33356475830078125 79.541229248046875 76.75555419921875 73.7468109130859375 70.53437042236328125 67.14501953125 63.55959320068359375 59.799312591552734375 55.952136993408203125 51.7710723876953125 47.579456329345703125 43.306873321533203125 38.959285736083984375 34.501575469970703125 30.04067230224609375 25.609502792358398438
 -99999 -99999 -99999 -99999 -99999 -99999 -99999 -99999 -99999 -99999 -99999 -99999 -99999 -99999 -99999 -99999 -99999 -99999 -99999 -99999 -99999 -99999 -99999 -99999 -99999 -99999 -99999 -99999 -99999 -99999 -99999 -99999 -99999 -99999 -99999 -99999 -99999 -99999 -99999 -99999 -99999 -99999 -99999 -99999 -99999 -99999 -99999 -99999 -99999 -99999 -99999 -99999 -99999 -99999 -99999 -99999 -99999 -99999 -99999 -99999 -99999 -99999 -99999 -99999 -99999 -99999 -99999 -99999 -99999 -99999 -99999 -99999 -99999 -99999 -99999 -99999 -99999 -99999 -99999 -99999 -99999 -99999 -99999 -99999 -99999 -99999 -99999 -99999 -99999 -99999 -99999 -99999 -99999 -99999 -99999 -99999 -99999 -99999 -99999 -99999 -99999 -99999 -99999 -99999 -99999 -99999 -99999 -99999 -99999 -99999 -99999 -99999 -99999 -99999 -99999 -99999 -99999 -99999 -99999 -99999 -99999 -99999 -99999 -99999 -99999 -99999 -99999 -99999 -99999 -99999 -99999 -99999 -99999 -99999 -99999 -99999 -99999 -99999 -99999 -99999 -99999 -99999 -99999 -99999 -99999 -99999 -99999 -99999 -99999 -99999 -99999 -99999 -99999 -99999 -99999 -99999 -99999 -99999 -99999 -99999 -99999 -99999 -99999 -99999 -99999 -99999 -99999 -99999 -99999 -99999 -99999 -99999 -99999 -99999 -99999 -99999 -99999 -99999 -99999 -99999 -99999 -99999 -99999 -99999 -99999 -99999 -99999 -99999 -99999 -99999 -99999 -99999 123.547393798828125 123.12286376953125 122.2817840576171875 121.2599334716796875 120.205230712890625 119.00841522216796875 117.70301055908203125 116.2460479736328125 114.26236724853515625 111.5722808837890625 108.44855499267578125 105.0414886474609375 102.86698150634765625 102.15966796875 101.4938201904296875 100.02645111083984375 97.661468505859375 94.82497406005859375 91.7859649658203125 88.69402313232421875 85.630126953125 82.6063232421875 79.55220794677734375 76.4500274658203125 73.24256134033203125 69.91729736328125 66.444793701171875 62.886249542236328125 59.023174285888671875 55.051601409912109375 51.002407073974609375 46.814380645751953125 42.521266937255859375 38.151241302490234375 33.752704620361328125 29.40822601318359375 24.892393112182617188
 -99999 -99999 -99999 -99999 -99999 -99999 -99999 -99999 -99999 -99999 -99999 -99999 -99999 -99999 -99999 -99999 -99999 -99999 -99999 -99999 -99999 -99999 -99999 -99999 -99999 -99999 -99999 -99999 -99999 -99999 -99999 -99999 -99999 -99999 -99999 -99999 -99999 -99999 -99999 -99999 -99999 -99999 -99999 -99999 -99999 -99999 -99999 -99999 -99999 -99999 -99999 -99999 -99999 -99999 -99999 -99999 -99999 -99999 -99999 -99999 -99999 -99999 -99999 -99999 -99999 -99999 -99999 -99999 -99999 -99999 -99999 -99999 -99999 -99999 -99999 -99999 -99999 -99999 -99999 -99999 -99999 -99999 -99999 -99999 -99999 -99999 -99999 -99999 -99999 -99999 -99999 -99999 -99999 -99999 -99999 -99999 -99999 -99999 -99999 -99999 -99999 -99999 -99999 -99999 -99999 -99999 -99999 -99999 -99999 -99999 -99999 -99999 -99999 -99999 -99999 -99999 -99999 -99999 -99999 -99999 -99999 -99999 -99999 -99999 -99999 -99999 -99999 -99999 -99999 -99999 -99999 -99999 -99999 -99999 -99999 -99999 -99999 -99999 -99999 -99999 -99999 -99999 -99999 -99999 -99999 -99999 -99999 -99999 -99999 -99999 -99999 -99999 -99999 -99999 -99999 -99999 -99999 -99999 -99999 -99999 -99999 -99999 -99999 -99999 -99999 -99999 -99999 -99999 -99999 -99999 -99999 -99999 -99999 -99999 -99999 -99999 -99999 -99999 -99999 -99999 -99999 -99999 -99999 -99999 -99999 -99999 -99999 -99999 -99999 -99999 -99999 125.2496490478515625 125.0951385498046875 124.52898406982421875 123.70529937744140625 122.56386566162109375 121.23667144775390625 119.971893310546875 118.903717041015625 117.7617950439453125 116.098480224609375 113.755401611328125 110.501556396484375 107.31871795654296875 104.78037261962890625 103.1104583740234375 101.572418212890625 99.7681732177734375 97.44605255126953125 94.7664794921875 91.86631011962890625 88.82964324951171875 85.70121002197265625 82.547393798828125 79.3466949462890625 76.08261871337890625 72.74205780029296875 69.2615966796875 65.7665557861328125 62.00415802001953125 58.144916534423828125 54.158313751220703125 50.07621002197265625 45.90009307861328125 41.624088287353515625 37.291683197021484375 32.959514617919921875 28.52075958251953125 24.077754974365234375
 -99999 -99999 -99999 -99999 -99999 -99999 -99999 -99999 -99999 -99999 -99999 -99999 -99999 -99999 -99999 -99999 -99999 -99999 -99999 -99999 -99999 -99999 -99999 -99999 -99999 -99999 -99999 -99999 -99999 -99999 -99999 -99999 -99999 -99999 -99999 -99999 -99999 -99999 -99999 -99999 -99999 -99999 -99999 -99999 -99999 -99999 -99999 -99999 -99999 -99999 -99999 -99999 -99999 -99999 -99999 -99999 -99999 -99999 -99999 -99999 -99999 -99999 -99999 -99999 -99999 -99999 -99999 -99999 -99999 -99999 -99999 -99999 -99999 -99999 -99999 -99999 -99999 -99999 -99999 -99999 -99999 -99999 -99999 -99999 -99999 -99999 -99999 -99999 -99999 -99999 -99999 -99999 -99999 -99999 -99999 -99999 -99999 -99999 -99999 -99999 -99999 -99999 -99999 -99999 -99999 -99999 -99999 -99999 -99999 -99999 -99999 -99999 -99999 -99999 -99999 -99999 -99999 -99999 -99999 -99999 -99999 -99999 -99999 -99999 -99999 -99999 -99999 -99999 -99999 -99999 -99999 -99999 -99999 -99999 -99999 -99999 -99999 -99999 -99999 -99999 -99999 -99999 -99999 -99999 -99999 -99999 -99999 -99999 -99999 -99999 -99999 -99999 -99999 -99999 -99999 -99999 -99999 -99999 -99999 -99999 -99999 -99999 -99999 -99999 -99999 -99999 -99999 -99999 -99999 -99999 -99999 -99999 -99999 -99999 -99999 -99999 -99999 -99999 -99999 -99999 -99999 -99999 -99999 -99999 -99999 -99999 -99999 -99999 -99999 125.52300262451171875 126.40685272216796875 126.8736572265625 126.87691497802734375 126.2314300537109375 125.03217315673828125 123.51558685302734375 122.10955047607421875 120.81151580810546875 119.751800537109375 119.0051422119140625 118.3502349853515625 115.7155609130859375 112.57634735107421875 109.32476043701171875 106.45001983642578125 104.09993743896484375 102.0904998779296875 99.896820068359375 97.453277587890625 94.7886505126953125 91.86859130859375 88.76761627197265625 85.59702301025390625 82.3531951904296875 79.0272216796875 75.61243438720703125 72.1539306640625 68.6331024169921875 64.92150115966796875 61.099552154541015625 57.21311187744140625 53.227237701416015625 49.116756439208984375 44.907756805419921875 40.6255950927734375 36.30416107177734375 31.9593505859375 27.553447723388671875 23.155796051025390625
 -99999 -99999 -99999 -99999 -99999 -99999 -99999 -99999 -99999 -99999 -99999 -99999 -99999 -99999 -99999 -99999 -99999 -99999 -99999 -99999 -99999 -99999 -99999 -99999 -99999 -99999 -99999 -99999 -99999 -99999 -99999 -99999 -99999 -99999 -99999 -99999 -99999 -99999 -99999 -99999 -99999 -99999 -99999 -99999 -99999 -99999 -99999 -99999 -99999 -99999 -99999 -99999 -99999 -99999 -99999 -99999 -99999 -99999 -99999 -99999 -99999 -99999 -99999 -99999 -99999 -99999 -99999 -99999 -99999 -99999 -99999 -99999 -99999 -99999 -99999 -99999 -99999 -99999 -99999 -99999 -99999 -99999 -99999 -99999 -99999 -99999 -99999 -99999 -99999 -99999 -99999 -99999 -99999 -99999 -99999 -99999 -99999 -99999 -99999 -99999 -99999 -99999 -99999 -99999 -99999 -99999 -99999 -99999 -99999 -99999 -99999 -99999 -99999 -99999 -99999 -99999 -99999 -99999 -99999 -99999 -99999 -99999 -99999 -99999 -99999 -99999 -99999 -99999 -99999 -99999 -99999 -99999 -99999 -99999 -99999 -99999 -99999 -99999 -99999 -99999 -99999 -99999 -99999 -99999 -99999 -99999 -99999 -99999 -99999 -99999 -99999 -99999 -99999 -99999 -99999 -99999 -99999 -99999 -99999 -99999 -99999 -99999 -99999 -99999 -99999 -99999 -99999 -99999 -99999 -99999 -99999 -99999 -99999 -99999 -99999 -99999 -99999 -99999 -99999 -99999 -99999 -99999 -99999 -99999 -99999 -99999 -99999 -99999 125.2547454833984375 126.85073089599609375 128.064178466796875 128.64508056640625 128.5740814208984375 127.86281585693359375 126.53912353515625 124.68759918212890625 122.55591583251953125 120.846038818359375 119.85340118408203125 119.3952484130859375 118.5399322509765625 116.81383514404296875 113.62261962890625 110.58759307861328125 107.71067047119140625 105.05620574951171875 102.65676116943359375 100.17382049560546875 97.54494476318359375 94.74167633056640625 91.73656463623046875 88.6114349365234375 85.36159515380859375 82.005523681640625 78.57991790771484375 75.12270355224609375 71.52651214599609375 67.811004638671875 64.0727691650390625 60.221630096435546875 56.24504852294921875 52.17427825927734375 48.034900665283203125 43.81827545166015625 39.53311920166015625 35.258026123046875 30.864084243774414062 26.490064620971679688 22.124267578125
 -99999 -99999 -99999 -99999 -99999 -99999 -99999 -99999 -99999 -99999 -99999 -99999 -99999 -99999 -99999 -99999 -99999 -99999 -99999 -99999 -99999 -99999 -99999 -99999 -99999 -99999 -99999 -99999 -99999 -99999 -99999 -99999 -99999 -99999 -99999 -99999 -99999 -99999 -99999 -99999 -99999 -99999 -99999 -99999 -99999 -99999 -99999 -99999 -99999 -99999 -99999 -99999 -99999 -99999 -99999 -99999 -99999 -99999 -99999 -99999 -99999 -99999 -99999 -99999 -99999 -99999 -99999 -99999 -99999 -99999 -99999 -99999 -99999 -99999 -99999 -99999 -99999 -99999 -99999 -99999 -99999 -99999 -99999 -99999 -99999 -99999 -99999 -99999 -99999 -99999 -99999 -99999 -99999 -99999 -99999 -99999 -99999 -99999 -99999 -99999 -99999 -99999 -99999 -99999 -99999 -99999 -99999 -99999 -99999 -99999 -99999 -99999 -99999 -99999 -99999 -99999 -99999 -99999 -99999 -99999 -99999 -99999 -99999 -99999 -99999 -99999 -99999 -99999 -99999 -99999 -99999 -99999 -99999 -99999 -99999 -99999 -99999 -99999 -99999 -99999 -99999 -99999 -99999 -99999 -99999 -99999 -99999 -99999 -99999 -99999 -99999 -99999 -99999 -99999 -99999 -99999 -99999 -99999 -99999 -99999 -99999 -99999 -99999 -99999 -99999 -99999 -99999 -99999 -99999 -99999 -99999 -99999 -99999 -99999 -99999 -99999 -99999 -99999 -99999 -99999 -99999 -99999 -99999 -99999 -99999 -99999 -99999 123.98604583740234375 126.100372314453125 128.0327301025390625 129.64337158203125 130.7478790283203125 130.9370574951171875 130.24102783203125 128.5417938232421875 125.958099365234375 122.9987640380859375 120.59865570068359375 119.23834228515625 118.6568145751953125 118.06699371337890625 116.33441162109375 113.9886627197265625 111.23215484619140625 108.437744140625 105.773162841796875 103.0149688720703125 100.22432708740234375 97.49233245849609375 94.61428070068359375 91.53983306884765625 88.32276153564453125 85.003753662109375 81.6173248291015625 78.09676361083984375 74.46167755126953125 70.8086700439453125 67.0149993896484375 63.136249542236328125 59.21009063720703125 55.18944549560546875 51.076263427734375 46.868976593017578125 42.66472625732421875 38.376850128173828125 34.021579742431640625 29.67432403564453125 25.314092636108398438 20.958417892456054688
 -99999 -99999 -99999 -99999 -99999 -99999 -99999 -99999 -99999 -99999 -99999 -99999 -99999 -99999 -99999 -99999 -99999 -99999 -99999 -99999 -99999 -99999 -99999 -99999 -99999 -99999 -99999 -99999 -99999 -99999 -99999 -99999 -99999 -99999 -99999 -99999 -99999 -99999 -99999 -99999 -99999 -99999 -99999 -99999 -99999 -99999 -99999 -99999 -99999 -99999 -99999 -99999 -99999 -99999 -99999 -99999 -99999 -99999 -99999 -99999 -99999 -99999 -99999 -99999 -99999 -99999 -99999 -99999 -99999 -99999 -99999 -99999 -99999 -99999 -99999 -99999 -99999 -99999 -99999 -99999 -99999 -99999 -99999 -99999 -99999 -99999 -99999 -99999 -99999 -99999 -99999 -99999 -99999 -99999 -99999 -99999 -99999 -99999 -99999 -99999 -99999 -99999 -99999 -99999 -99999 -99999 -99999 -99999 -99999 -99999 -99999 -99999 -99999 -99999 -99999 -99999 -99999 -99999 -99999 -99999 -99999 -99999 -99999 -99999 -99999 -99999 -99999 -99999 -99999 -99999 -99999 -99999 -99999 -99999 -99999 -99999 -99999 -99999 -99999 -99999 -99999 -99999 -99999 -99999 -99999 -99999 -99999 -99999 -99999 -99999 -99999 -99999 -99999 -99999 -99999 -99999 -99999 -99999 -99999 -99999 -99999 -99999 -99999 -99999 -99999 -99999 -99999 -99999 -99999 -99999 -99999 -99999 -99999 -99999 -99999 -99999 -99999 -99999 -99999 -99999 -99999 -99999 -99999 -99999 -99999 119.1871795654296875 121.6844329833984375 124.2847747802734375 126.91292572021484375 129.1894073486328125 131.173431396484375 132.726043701171875 133.3575439453125 132.770843505859375 130.748504638671875 127.49701690673828125 123.64720916748046875 120.29489898681640625 118.68897247314453125 118.001007080078125 117.4652557373046875 116.1389923095703125 114.039031982421875 111.57403564453125 108.908294677734375 106.11827850341796875 103.28745269775390625 100.4869842529296875 97.53194427490234375 94.462738037109375 91.2133941650390625 87.95365142822265625 84.5874786376953125 80.98602294921875 77.38474273681640625 73.6683807373046875 69.9111175537109375 66.07244110107421875 62.14391326904296875 58.104228973388671875 53.987125396728515625 49.86023712158203125 45.678668975830078125 41.36008453369140625 37.086517333984375 32.77400970458984375 28.427143096923828125 24.063724517822265625 19.704469680786132812
 -99999 -99999 -99999 -99999 -99999 -99999 -99999 -99999 -99999 -99999 -99999 -99999 -99999 -99999 -99999 -99999 -99999 -99999 -99999 -99999 -99999 -99999 -99999 -99999 -99999 -99999 -99999 -99999 -99999 -99999 -99999 -99999 -99999 -99999 -99999 -99999 -99999 -99999 -99999 -99999 -99999 -99999 -99999 -99999 -99999 -99999 -99999 -99999 -99999 -99999 -99999 -99999 -99999 -99999 -99999 -99999 -99999 -99999 -99999 -99999 -99999 -99999 -99999 -99999 -99999 -99999 -99999 -99999 -99999 -99999 -99999 -99999 -99999 -99999 -99999 -99999 -99999 -99999 -99999 -99999 -99999 -99999 -99999 -99999 -99999 -99999 -99999 -99999 -99999 -99999 -99999 -99999 -99999 -99999 -99999 -99999 -99999 -99999 -99999 -99999 -99999 -99999 -99999 -99999 -99999 -99999 -99999 -99999 -99999 -99999 -99999 -99999 -99999 -99999 -99999 -99999 -99999 -99999 -99999 -99999 -99999 -99999 -99999 -99999 -99999 -99999 -99999 -99999 -99999 -99999 -99999 -99999 -99999 -99999 -99999 -99999 -99999 -99999 -99999 -99999 -99999 -99999 -99999 -99999 -99999 -99999 -99999 -99999 -99999 -99999 -99999 -99999 -99999 -99999 -99999 -99999 -99999 -99999 -99999 -99999 -99999 -99999 -99999 -99999 -99999 -99999 -99999 -99999 -99999 -99999 -99999 -99999 -99999 -99999 -99999 -99999 -99999 -99999 -99999 -99999 -99999 -99999 -99999 -99999 116.0983428955078125 118.62491607666015625 121.402801513671875 124.1405029296875 127.03487396240234375 129.9159393310546875 132.5149688720703125 134.669708251953125 136.0384521484375 136.0782318115234375 134.2343292236328125 130.3099822998046875 124.7031402587890625 120.59212493896484375 119.23339080810546875 118.41384124755859375 117.45074462890625 116.0249176025390625 114.040252685546875 111.6612701416015625 109.0221405029296875 106.24967193603515625 103.33367156982421875 100.5024261474609375 97.339508056640625 94.137725830078125 90.85334014892578125 87.46485137939453125 83.9769287109375 80.394012451171875 76.6969757080078125 72.9117584228515625 69.042694091796875 65.10269927978515625 61.074581146240234375 56.97756195068359375 52.8576812744140625 48.63195037841796875 44.415462493896484375 40.09743499755859375 35.75568389892578125 31.409200668334960938 27.067775726318359375 22.739475250244140625 18.385431289672851562
 -99999 -99999 -99999 -99999 -99999 -99999 -99999 -99999 -99999 -99999 -99999 -99999 -99999 -99999 -99999 -99999 -99999 -99999 -99999 -99999 -99999 -99999 -99999 -99999 -99999 -99999 -99999 -99999 -99999 -99999 -99999 -99999 -99999 -99999 -99999 -99999 -99999 -99999 -99999 -99999 -99999 -99999 -99999 -99999 -99999 -99999 -99999 -99999 -99999 -99999 -99999 -99999 -99999 -99999 -99999 -99999 -99999 -99999 -99999 -99999 -99999 -99999 -99999 -99999 -99999 -99999 -99999 -99999 -99999 -99999 -99999 -99999 -99999 -99999 -99999 -99999 -99999 -99999 -99999 -99999 -99999 -99999 -99999 -99999 -99999 -99999 -99999 -99999 -99999 -99999 -99999 -99999 -99999 -99999 -99999 -99999 -99999 -99999 -99999 -99999 -99999 -99999 -99999 -99999 -99999 -99999 -99999 -99999 -99999 -99999 -99999 -99999 -99999 -99999 -99999 -99999 -99999 -99999 -99999 -99999 -99999 -99999 -99999 -99999 -99999 -99999 -99999 -99999 -99999 -99999 -99999 -99999 -99999 -99999 -99999 -99999 -99999 -99999 -99999 -99999 -99999 -99999 -99999 -99999 -99999 -99999 -99999 -99999 -99999 -99999 -99999 -99999 -99999 -99999 -99999 -99999 -99999 -99999 -99999 -99999 -99999 -99999 -99999 -99999 -99999 -99999 -99999 -99999 -99999 -99999 -99999 -99999 -99999 -99999 -99999 -99999 -99999 -99999 -99999 -99999 -99999 -99999 -99999 112.75879669189453125 115.17049407958984375 117.64279937744140625 120.4935150146484375 123.450469970703125 126.65932464599609375 129.9897918701171875 133.363983154296875 136.4771270751953125 138.7825164794921875 139.7756195068359375 138.603607177734375 134.6033172607421875 128.799072265625 123.92220306396484375 121.16086578369140625 119.719970703125 118.16309356689453125 116.297149658203125 114.1439971923828125 111.70615386962890625 109.03675079345703125 106.2131195068359375 103.27069091796875 100.21324920654296875 97.01348114013671875 93.7588348388671875 90.40673828125 86.9329833984375 83.33760833740234375 79.65227508544921875 75.88082122802734375 72.02462005615234375 68.0699920654296875 64.0316009521484375 59.9320831298828125 55.81111907958984375 51.609050750732421875 47.312366485595703125 42.996868133544921875 38.67572784423828125 34.351654052734375 30.016971588134765625 25.640520095825195312 21.274522781372070312 16.970600128173828125
 -99999 -99999 -99999 -99999 -99999 -99999 -99999 -99999 -99999 -99999 -99999 -99999 -99999 -99999 -99999 -99999 -99999 -99999 -99999 -99999 -99999 -99999 -99999 -99999 -99999 -99999 -99999 -99999 -99999 -99999 -99999 -99999 -99999 -99999 -99999 -99999 -99999 -99999 -99999 -99999 -99999 -99999 -99999 -99999 -99999 -99999 -99999 -99999 -99999 -99999 -99999 -99999 -99999 -99999 -99999 -99999 -99999 -99999 -99999 -99999 -99999 -99999 -99999 -99999 -99999 -99999 -99999 -99999 -99999 -99999 -99999 -99999 -99999 -99999 -99999 -99999 -99999 -99999 -99999 -99999 -99999 -99999 -99999 -99999 -99999 -99999 -99999 -99999 -99999 -99999 -99999 -99999 -99999 -99999 -99999 -99999 -99999 -99999 -99999 -99999 -99999 -99999 -99999 -99999 -99999 -99999 -99999 -99999 -99999 -99999 -99999 -99999 -99999 -99999 -99999 -99999 -99999 -99999 -99999 -99999 -99999 -99999 -99999 -99999 -99999 -99999 -99999 -99999 -99999 -99999 -99999 -99999 -99999 -99999 -99999 -99999 -99999 -99999 -99999 -99999 -99999 -99999 -99999 -99999 -99999 -99999 -99999 -99999 -99999 -99999 -99999 -99999 -99999 -99999 -99999 -99999 -99999 -99999 -99999 -99999 -99999 -99999 -99999 -99999 -99999 -99999 -99999 -99999 -99999 -99999 -99999 -99999 -99999 -99999 -99999 -99999 -99999 -99999 -99999 -99999 -99999 107.53989410400390625 109.48131561279296875 111.5746917724609375 113.7941436767578125 116.2224273681640625 118.9648590087890625 122.10190582275390625 125.6331024169921875 129.4130706787109375 133.3129119873046875 137.16168212890625 140.7130889892578125 143.3597564697265625 143.21441650390625 139.80108642578125 133.86029052734375 128.42120361328125 124.54518890380859375 121.64479827880859375 119.12590789794921875 116.76450347900390625 114.2824554443359375 111.74944305419921875 108.95526885986328125 106.032318115234375 103.001800537109375 99.87023162841796875 96.6627349853515625 93.29921722412109375 89.8329620361328125 86.258636474609375 82.5975341796875 78.85662841796875 74.9898681640625 71.0372161865234375 67.0079803466796875 62.941471099853515625 58.776874542236328125 54.521572113037109375 50.221038818359375 45.926342010498046875 41.604862213134765625 37.24707794189453125 32.86017608642578125 28.47167205810546875 24.125528335571289062 19.832614898681640625 15.48093414306640625
 -99999 -99999 -99999 -99999 -99999 -99999 -99999 -99999 -99999 -99999 -99999 -99999 -99999 -99999 -99999 -99999 -99999 -99999 -99999 -99999 -99999 -99999 -99999 -99999 -99999 -99999 -99999 -99999 -99999 -99999 -99999 -99999 -99999 -99999 -99999 -99999 -99999 -99999 -99999 -99999 -99999 -99999 -99999 -99999 -99999 -99999 -99999 -99999 -99999 -99999 -99999 -99999 -99999 -99999 -99999 -99999 -99999 -99999 -99999 -99999 -99999 -99999 -99999 -99999 -99999 -99999 -99999 -99999 -99999 -99999 -99999 -99999 -99999 -99999 -99999 -99999 -99999 -99999 -99999 -99999 -99999 -99999 -99999 -99999 -99999 -99999 -99999 -99999 -99999 -99999 -99999 -99999 -99999 -99999 -99999 -99999 -99999 -99999 -99999 -99999 -99999 -99999 -99999 -99999 -99999 -99999 -99999 -99999 -99999 -99999 -99999 -99999 -99999 -99999 -99999 -99999 -99999 -99999 -99999 -99999 -99999 -99999 -99999 -99999 -99999 -99999 -99999 -99999 -99999 -99999 -99999 -99999 -99999 -99999 -99999 -99999 -99999 -99999 -99999 -99999 -99999 -99999 -99999 -99999 -99999 -99999 -99999 -99999 -99999 -99999 -99999 -99999 -99999 -99999 -99999 -99999 -99999 -99999 -99999 -99999 -99999 -99999 -99999 -99999 -99999 -99999 -99999 -99999 -99999 -99999 -99999 -99999 -99999 -99999 -99999 -99999 -99999 -99999 -99999 -99999 104.80437469482421875 106.52443695068359375 108.23198699951171875 110.11669921875 111.9787139892578125 114.22943878173828125 116.910491943359375 120.07346343994140625 123.70977020263671875 127.72504425048828125 132.0627288818359375 136.45611572265625 140.7966461181640625 144.71270751953125 145.9437255859375 142.6875152587890625 136.871795654296875 131.379669189453125 126.84650421142578125 123.23703765869140625 120.12741851806640625 117.26317596435546875 114.44922637939453125 111.5593109130859375 108.65837860107421875 105.71572113037109375 102.58791351318359375 99.4110107421875 96.08995819091796875 92.677459716796875 89.1638031005859375 85.54836273193359375 81.813690185546875 77.96673583984375 74.0308837890625 70.02471923828125 65.94293975830078125 61.713169097900390625 57.480754852294921875 53.20461273193359375 48.868122100830078125 44.498180389404296875 40.093769073486328125 35.699359893798828125 31.314599990844726562 26.960596084594726562 22.564466476440429688 18.226877212524414062 13.934573173522949219
 -99999 -99999 -99999 -99999 -99999 -99999 -99999 -99999 -99999 -99999 -99999 -99999 -99999 -99999 -99999 -99999 -99999 -99999 -99999 -99999 -99999 -99999 -99999 -99999 -99999 -99999 -99999 -99999 -99999 -99999 -99999 -99999 -99999 -99999 -99999 -99999 -99999 -99999 -99999 -99999 -99999 -99999 -99999 -99999 -99999 -99999 -99999 -99999 -99999 -99999 -99999 -99999 -99999 -99999 -99999 -99999 -99999 -99999 -99999 -99999 -99999 -99999 -99999 -99999 -99999 -99999 -99999 -99999 -99999 -99999 -99999 -99999 -99999 -99999 -99999 -99999 -99999 -99999 -99999 -99999 -99999 -99999 -99999 -99999 -99999 -99999 -99999 -99999 -99999 -99999 -99999 -99999 -99999 -99999 -99999 -99999 -99999 -99999 -99999 -99999 -99999 -99999 -99999 -99999 -99999 -99999 -99999 -99999 -99999 -99999 -99999 -99999 -99999 -99999 -99999 -99999 -99999 -99999 -99999 -99999 -99999 -99999 -99999 -99999 -99999 -99999 -99999 -99999 -99999 -99999 -99999 -99999 -99999 -99999 -99999 -99999 -99999 -99999 -99999 -99999 -99999 -99999 -99999 -99999 -99999 -99999 -99999 -99999 -99999 -99999 -99999 -99999 -99999 -99999 -99999 -99999 -99999 -99999 -99999 -99999 -99999 -99999 -99999 -99999 -99999 -99999 -99999 -99999 -99999 -99999 -99999 -99999 -99999 -99999 -99999 -99999 -99999 -99999 -99999 102.3681488037109375 103.979888916015625 105.53440093994140625 106.9003143310546875 108.27776336669921875 109.894805908203125 111.8264923095703125 114.2408294677734375 117.21906280517578125 120.8762664794921875 125.0224609375 129.3619537353515625 133.705108642578125 138.3591156005859375 142.3636016845703125 143.8120269775390625 141.4510040283203125 137.1170501708984375 132.3662109375 127.9234161376953125 124.0036468505859375 120.53580474853515625 117.36175537109375 114.3063201904296875 111.328887939453125 108.3524322509765625 105.20928955078125 102.0212249755859375 98.80956268310546875 95.43756103515625 91.98748779296875 88.40021514892578125 84.7081451416015625 80.9146575927734375 77.03302001953125 73.0482635498046875 68.926666259765625 64.76523590087890625 60.51299285888671875 56.173786163330078125 51.800510406494140625 47.41761016845703125 43.003490447998046875 38.567943572998046875 34.133708953857421875 29.719423294067382812 25.323459625244140625 20.950258255004882812 16.620958328247070312 12.33216094970703125
 -99999 -99999 -99999 -99999 -99999 -99999 -99999 -99999 -99999 -99999 -99999 -99999 -99999 -99999 -99999 -99999 -99999 -99999 -99999 -99999 -99999 -99999 -99999 -99999 -99999 -99999 -99999 -99999 -99999 -99999 -99999 -99999 -99999 -99999 -99999 -99999 -99999 -99999 -99999 -99999 -99999 -99999 -99999 -99999 -99999 -99999 -99999 -99999 -99999 -99999 -99999 -99999 -99999 -99999 -99999 -99999 -99999 -99999 -99999 -99999 -99999 -99999 -99999 -99999 -99999 -99999 -99999 -99999 -99999 -99999 -99999 -99999 -99999 -99999 -99999 -99999 -99999 -99999 -99999 -99999 -99999 -99999 -99999 -99999 -99999 -99999 -99999 -99999 -99999 -99999 -99999 -99999 -99999 -99999 -99999 -99999 -99999 -99999 -99999 -99999 -99999 -99999 -99999 -99999 -99999 -99999 -99999 -99999 -99999 -99999 -99999 -99999 -99999 -99999 -99999 -99999 -99999 -99999 -99999 -99999 -99999 -99999 -99999 -99999 -99999 -99999 -99999 -99999 -99999 -99999 -99999 -99999 -99999 -99999 -99999 -99999 -99999 -99999 -99999 -99999 -99999 -99999 -99999 -99999 -99999 -99999 -99999 -99999 -99999 -99999 -99999 -99999 -99999 -99999 -99999 -99999 -99999 -99999 -99999 -99999 -99999 -99999 -99999 -99999 -99999 -99999 -99999 -99999 -99999 -99999 -99999 -99999 -99999 -99999 -99999 -99999 -99999 98.27335357666015625 100.16112518310546875 101.833343505859375 103.2471160888671875 104.379241943359375 105.40948486328125 106.421051025390625 107.53342437744140625 108.92999267578125 110.9185333251953125 113.60588836669921875 117.12754058837890625 121.32392120361328125 125.68224334716796875 129.5809478759765625 133.0284576416015625 136.8123016357421875 138.74249267578125 137.9336700439453125 134.8894805908203125 131.1297454833984375 127.34136962890625 123.6961669921875 120.1894378662109375 116.98221588134765625 113.883056640625 110.7884674072265625 107.6652374267578125 104.52664947509765625 101.36562347412109375 98.10198974609375 94.65059661865234375 91.1448974609375 87.56400299072265625 83.856109619140625 80.0519561767578125 76.02637481689453125 72.00389862060546875 67.802581787109375 63.516925811767578125 59.191692352294921875 54.84644317626953125 50.426418304443359375 45.93701934814453125 41.449337005615234375 36.981266021728515625 32.519924163818359375 28.054370880126953125 23.645799636840820312 19.269397735595703125 14.95899200439453125 10.682629585266113281
 -99999 -99999 -99999 -99999 -99999 -99999 -99999 -99999 -99999 -99999 -99999 -99999 -99999 -99999 -99999 -99999 -99999 -99999 -99999 -99999 -99999 -99999 -99999 -99999 -99999 -99999 -99999 -99999 -99999 -99999 -99999 -99999 -99999 -99999 -99999 -99999 -99999 -99999 -99999 -99999 -99999 -99999 -99999 -99999 -99999 -99999 -99999 -99999 -99999 -99999 -99999 -99999 -99999 -99999 -99999 -99999 -99999 -99999 -99999 -99999 -99999 -99999 -99999 -99999 -99999 -99999 -99999 -99999 -99999 -99999 -99999 -99999 -99999 -99999 -99999 -99999 -99999 -99999 -99999 -99999 -99999 -99999 -99999 -99999 -99999 -99999 -99999 -99999 -99999 -99999 -99999 -99999 -99999 -99999 -99999 -99999 -99999 -99999 -99999 -99999 -99999 -99999 -99999 -99999 -99999 -99999 -99999 -99999 -99999 -99999 -99999 -99999 -99999 -99999 -99999 -99999 -99999 -99999 -99999 -99999 -99999 -99999 -99999 -99999 -99999 -99999 -99999 -99999 -99999 -99999 -99999 -99999 -99999 -99999 -99999 -99999 -99999 -99999 -99999 -99999 -99999 -99999 -99999 -99999 -99999 -99999 -99999 -99999 -99999 -99999 -99999 -99999 -99999 -99999 -99999 -99999 -99999 -99999 -99999 -99999 -99999 -99999 -99999 -99999 -99999 -99999 -99999 -99999 -99999 -99999 -99999 -99999 -99999 -99999 -99999 -99999 95.87535858154296875 98.0393524169921875 99.87326812744140625 101.3585968017578125 102.54810333251953125 103.43956756591796875 104.0604248046875 104.58929443359375 105.06949615478515625 105.78693389892578125 106.95633697509765625 108.95488739013671875 112.25591278076171875 116.682281494140625 121.3204803466796875 125.20507049560546875 128.338348388671875 131.3054656982421875 133.0635528564453125 132.9420013427734375 131.3464813232421875 128.7313385009765625 125.540740966796875 122.29723358154296875 119.149139404296875 116.09023284912109375 112.99222564697265625 109.9115753173828125 106.86469268798828125 103.75675201416015625 100.51288604736328125 97.19577789306640625 93.83335113525390625 90.382659912109375 86.592803955078125 82.884918212890625 79.02617645263671875 74.97780609130859375 70.82176971435546875 66.608612060546875 62.327854156494140625 57.940471649169921875 53.44521331787109375 48.93575286865234375 44.42427825927734375 39.890064239501953125 35.362407684326171875 30.83454132080078125 26.358274459838867188 21.929075241088867188 17.5543975830078125 13.235077857971191406 8.9777536392211914062
 -99999 -99999 -99999 -99999 -99999 -99999 -99999 -99999 -99999 -99999 -99999 -99999 -99999 -99999 -99999 -99999 -99999 -99999 -99999 -99999 -99999 -99999 -99999 -99999 -99999 -99999 -99999 -99999 -99999 -99999 -99999 -99999 -99999 -99999 -99999 -99999 -99999 -99999 -99999 -99999 -99999 -99999 -99999 -99999 -99999 -99999 -99999 -99999 -99999 -99999 -99999 -99999 -99999 -99999 -99999 -99999 -99999 -99999 -99999 -99999 -99999 -99999 -99999 -99999 -99999 -99999 -99999 -99999 -99999 -99999 -99999 -99999 -99999 -99999 -99999 -99999 -99999 -99999 -99999 -99999 -99999 -99999 -99999 -99999 -99999 -99999 -99999 -99999 -99999 -99999 -99999 -99999 -99999 -99999 -99999 -99999 -99999 -99999 -99999 -99999 -99999 -99999 -99999 -99999 -99999 -99999 -99999 -99999 -99999 -99999 -99999 -99999 -99999 -99999 -99999 -99999 -99999 -99999 -99999 -99999 -99999 -99999 -99999 -99999 -99999 -99999 -99999 -99999 -99999 -99999 -99999 -99999 -99999 -99999 -99999 -99999 -99999 -99999 -99999 -99999 -99999 -99999 -99999 -99999 -99999 -99999 -99999 -99999 -99999 -99999 -99999 -99999 -99999 -99999 -99999 -99999 -99999 -99999 -99999 -99999 -99999 -99999 -99999 -99999 -99999 -99999 -99999 -99999 -99999 -99999 -99999 -99999 -99999 -99999 -99999 93.24967193603515625 95.69500732421875 97.82916259765625 99.64212799072265625 101.10301971435546875 102.13763427734375 102.77785491943359375 103.00260162353515625 102.9185028076171875 102.612884521484375 102.55449676513671875 102.9494171142578125 104.0759735107421875 106.615447998046875 110.937591552734375 116.15848541259765625 120.21160888671875 123.3043365478515625 125.78795623779296875 127.589813232421875 127.9396514892578125 126.97607421875 125.173095703125 122.868896484375 120.22174835205078125 117.35115814208984375 114.51430511474609375 111.64582061767578125 108.7271270751953125 105.73764801025390625 102.64464569091796875 99.4742279052734375 96.22057342529296875 92.8486785888671875 89.3321380615234375 85.683074951171875 81.90981292724609375 77.9970550537109375 73.92173004150390625 69.74742889404296875 65.461761474609375 61.04742431640625 56.577251434326171875 52.066997528076171875 47.514644622802734375 42.9045867919921875 38.268764495849609375 33.704296112060546875 29.155084609985351562 24.648311614990234375 20.195283889770507812 15.819363594055175781 11.492071151733398438 7.2768735885620117188
 -99999 -99999 -99999 -99999 -99999 -99999 -99999 -99999 -99999 -99999 -99999 -99999 -99999 -99999 -99999 -99999 -99999 -99999 -99999 -99999 -99999 -99999 -99999 -99999 -99999 -99999 -99999 -99999 -99999 -99999 -99999 -99999 -99999 -99999 -99999 -99999 -99999 -99999 -99999 -99999 -99999 -99999 -99999 -99999 -99999 -99999 -99999 -99999 -99999 -99999 -99999 -99999 -99999 -99999 -99999 -99999 -99999 -99999 -99999 -99999 -99999 -99999 -99999 -99999 -99999 -99999 -99999 -99999 -99999 -99999 -99999 -99999 -99999 -99999 -99999 -99999 -99999 -99999 -99999 -99999 -99999 -99999 -99999 -99999 -99999 -99999 -99999 -99999 -99999 -99999 -99999 -99999 -99999 -99999 -99999 -99999 -99999 -99999 -99999 -99999 -99999 -99999 -99999 -99999 -99999 -99999 -99999 -99999 -99999 -99999 -99999 -99999 -99999 -99999 -99999 -99999 -99999 -99999 -99999 -99999 -99999 -99999 -99999 -99999 -99999 -99999 -99999 -99999 -99999 -99999 -99999 -99999 -99999 -99999 -99999 -99999 -99999 -99999 -99999 -99999 -99999 -99999 -99999 -99999 -99999 -99999 -99999 -99999 -99999 -99999 -99999 -99999 -99999 -99999 -99999 -99999 -99999 -99999 -99999 -99999 -99999 -99999 -99999 -99999 -99999 -99999 -99999 -99999 -99999 -99999 -99999 -99999 -99999 87.28699493408203125 90.318328857421875 92.99597930908203125 95.48331451416015625 97.69631195068359375 99.57818603515625 101.08141326904296875 102.08099365234375 102.44891357421875 102.32415008544921875 101.81172943115234375 100.92657470703125 99.79046630859375 98.7462158203125 98.33693695068359375 99.99524688720703125 104.15915679931640625 109.53070831298828125 114.24932861328125 117.5767974853515625 120.18798828125 121.9206390380859375 122.6952056884765625 122.52498626708984375 121.40578460693359375 119.5815277099609375 117.49591064453125 115.1752166748046875 112.6780242919921875 109.99005889892578125 107.2100372314453125 104.397369384765625 101.4661865234375 98.384918212890625 95.1611480712890625 91.81539154052734375 88.32067108154296875 84.68135833740234375 80.8910980224609375 76.95343780517578125 72.8308563232421875 68.6357574462890625 64.28369140625 59.845569610595703125 55.31671905517578125 50.71363067626953125 46.0594024658203125 41.378326416015625 36.689388275146484375 32.042011260986328125 27.43389129638671875 22.892360687255859375 18.4156036376953125 14.044721603393554688 9.7504119873046875 5.5226297378540039062
 -99999 -99999 -99999 -99999 -99999 -99999 -99999 -99999 -99999 -99999 -99999 -99999 -99999 -99999 -99999 -99999 -99999 -99999 -99999 -99999 -99999 -99999 -99999 -99999 -99999 -99999 -99999 -99999 -99999 -99999 -99999 -99999 -99999 -99999 -99999 -99999 -99999 -99999 -99999 -99999 -99999 -99999 -99999 -99999 -99999 -99999 -99999 -99999 -99999 -99999 -99999 -99999 -99999 -99999 -99999 -99999 -99999 -99999 -99999 -99999 -99999 -99999 -99999 -99999 -99999 -99999 -99999 -99999 -99999 -99999 -99999 -99999 -99999 -99999 -99999 -99999 -99999 -99999 -99999 -99999 -99999 -99999 -99999 -99999 -99999 -99999 -99999 -99999 -99999 -99999 -99999 -99999 -99999 -99999 -99999 -99999 -99999 -99999 -99999 -99999 -99999 -99999 -99999 -99999 -99999 -99999 -99999 -99999 -99999 -99999 -99999 -99999 -99999 -99999 -99999 -99999 -99999 -99999 -99999 -99999 -99999 -99999 -99999 -99999 -99999 -99999 -99999 -99999 -99999 -99999 -99999 -99999 -99999 -99999 -99999 -99999 -99999 -99999 -99999 -99999 -99999 -99999 -99999 -99999 -99999 -99999 -99999 -99999 -99999 -99999 -99999 -99999 -99999 -99999 -99999 -99999 -99999 -99999 -99999 -99999 -99999 -99999 -99999 -99999 -99999 -99999 -99999 -99999 -99999 -99999 -99999 -99999 83.79991912841796875 86.86464691162109375 89.92014312744140625 92.70864105224609375 95.3979339599609375 97.79709625244140625 99.8438262939453125 101.434906005859375 102.39713287353515625 102.73492431640625 102.33002471923828125 101.20665740966796875 99.58756256103515625 97.74953460693359375 95.805572509765625 93.951568603515625 92.6159210205078125 97.48889923095703125 103.1464996337890625 107.9951019287109375 111.7293853759765625 114.5849456787109375 116.60540008544921875 117.62509918212890625 117.8501129150390625 117.34586334228515625 116.2077789306640625 114.56690216064453125 112.58806610107421875 110.40537261962890625 108.0829925537109375 105.5980987548828125 102.9086151123046875 100.09001922607421875 97.144744873046875 94.010345458984375 90.755279541015625 87.29515838623046875 83.695404052734375 79.8787078857421875 75.9449615478515625 71.82568359375 67.55950927734375 63.170528411865234375 58.64327239990234375 54.032161712646484375 49.331378936767578125 44.572650909423828125 39.803882598876953125 35.068500518798828125 30.3672027587890625 25.70862579345703125 21.139286041259765625 16.661937713623046875 12.267930984497070312 7.961475372314453125 3.7846426963806152344
 -99999 -99999 -99999 -99999 -99999 -99999 -99999 -99999 -99999 -99999 -99999 -99999 -99999 -99999 -99999 -99999 -99999 -99999 -99999 -99999 -99999 -99999 -99999 -99999 -99999 -99999 -99999 -99999 -99999 -99999 -99999 -99999 -99999 -99999 -99999 -99999 -99999 -99999 -99999 -99999 -99999 -99999 -99999 -99999 -99999 -99999 -99999 -99999 -99999 -99999 -99999 -99999 -99999 -99999 -99999 -99999 -99999 -99999 -99999 -99999 -99999 -99999 -99999 -99999 -99999 -99999 -99999 -99999 -99999 -99999 -99999 -99999 -99999 -99999 -99999 -99999 -99999 -99999 -99999 -99999 -99999 -99999 -99999 -99999 -99999 -99999 -99999 -99999 -99999 -99999 -99999 -99999 -99999 -99999 -99999 -99999 -99999 -99999 -99999 -99999 -99999 -99999 -99999 -99999 -99999 -99999 -99999 -99999 -99999 -99999 -99999 -99999 -99999 -99999 -99999 -99999 -99999 -99999 -99999 -99999 -99999 -99999 -99999 -99999 -99999 -99999 -99999 -99999 -99999 -99999 -99999 -99999 -99999 -99999 -99999 -99999 -99999 -99999 -99999 -99999 -99999 -99999 -99999 -99999 -99999 -99999 -99999 -99999 -99999 -99999 -99999 -99999 -99999 -99999 -99999 -99999 -99999 -99999 -99999 -99999 -99999 -99999 -99999 -99999 -99999 -99999 -99999 -99999 -99999 -99999 -99999 79.8839874267578125 83.19907379150390625 86.34650421142578125 89.47229766845703125 92.510528564453125 95.3972320556640625 97.9724884033203125 100.185272216796875 101.95523834228515625 103.11507415771484375 103.4632415771484375 102.81436920166015625 101.42675018310546875 99.432373046875 96.914398193359375 94.4639129638671875 92.0236053466796875 90.63623809814453125 94.02545166015625 98.44643402099609375 102.8349761962890625 106.6262664794921875 109.36432647705078125 111.42076873779296875 112.7810516357421875 113.4081878662109375 113.27294158935546875 112.5740814208984375 111.41684722900390625 109.89827728271484375 108.0927276611328125 105.989013671875 103.71038055419921875 101.27402496337890625 98.669677734375 95.83419036865234375 92.83895111083984375 89.662506103515625 86.2545013427734375 82.71102142333984375 78.9308319091796875 74.979827880859375 70.86345672607421875 66.55588531494140625 62.0940704345703125 57.53644561767578125 52.79758453369140625 47.9805450439453125 43.169589996337890625 38.344112396240234375 33.500217437744140625 28.702928543090820312 24.019372940063476562 19.40682220458984375 14.876226425170898438 10.433360099792480469 6.2331461906433105469 -99999
 -99999 -99999 -99999 -99999 -99999 -99999 -99999 -99999 -99999 -99999 -99999 -99999 -99999 -99999 -99999 -99999 -99999 -99999 -99999 -99999 -99999 -99999 -99999 -99999 -99999 -99999 -99999 -99999 -99999 -99999 -99999 -99999 -99999 -99999 -99999 -99999 -99999 -99999 -99999 -99999 -99999 -99999 -99999 -99999 -99999 -99999 -99999 -99999 -99999 -99999 -99999 -99999 -99999 -99999 -99999 -99999 -99999 -99999 -99999 -99999 -99999 -99999 -99999 -99999 -99999 -99999 -99999 -99999 -99999 -99999 -99999 -99999 -99999 -99999 -99999 -99999 -99999 -99999 -99999 -99999 -99999 -99999 -99999 -99999 -99999 -99999 -99999 -99999 -99999 -99999 -99999 -99999 -99999 -99999 -99999 -99999 -99999 -99999 -99999 -99999 -99999 -99999 -99999 -99999 -99999 -99999 -99999 -99999 -99999 -99999 -99999 -99999 -99999 -99999 -99999 -99999 -99999 -99999 -99999 -99999 -99999 -99999 -99999 -99999 -99999 -99999 -99999 -99999 -99999 -99999 -99999 -99999 -99999 -99999 -99999 -99999 -99999 -99999 -99999 -99999 -99999 -99999 -99999 -99999 -99999 -99999 -99999 -99999 -99999 -99999 -99999 -99999 -99999 -99999 -99999 -99999 -99999 -99999 -99999 -99999 -99999 -99999 -99999 -99999 -99999 -99999 -99999 -99999 -99999 72.49738311767578125 75.78925323486328125 79.1031494140625 82.41629791259765625 85.76236724853515625 89.04628753662109375 92.214813232421875 95.24074554443359375 98.0670013427734375 100.6449432373046875 102.69921112060546875 104.0750579833984375 104.61154937744140625 104.1908721923828125 102.38552093505859375 99.827850341796875 97.0912322998046875 94.50225067138671875 92.30164337158203125 91.29152679443359375 92.75019073486328125 95.77944183349609375 99.04071807861328125 102.1107635498046875 104.80371856689453125 106.952667236328125 108.34405517578125 109.07452392578125 109.28624725341796875 109.03011322021484375 108.26079559326171875 107.06514739990234375 105.55800628662109375 103.83290863037109375 101.82544708251953125 99.577056884765625 97.12842559814453125 94.48851776123046875 91.658294677734375 88.57672119140625 85.261077880859375 81.7551422119140625 78.055084228515625 74.11893463134765625 69.9601593017578125 65.61736297607421875 61.10518646240234375 56.40592193603515625 51.6403045654296875 46.777263641357421875 41.808582305908203125 36.859027862548828125 31.965929031372070312 27.13092041015625 22.351612091064453125 17.669267654418945312 13.1694793701171875 8.7625894546508789062 4.5057826042175292969 -99999
 -99999 -99999 -99999 -99999 -99999 -99999 -99999 -99999 -99999 -99999 -99999 -99999 -99999 -99999 -99999 -99999 -99999 -99999 -99999 -99999 -99999 -99999 -99999 -99999 -99999 -99999 -99999 -99999 -99999 -99999 -99999 -99999 -99999 -99999 -99999 -99999 -99999 -99999 -99999 -99999 -99999 -99999 -99999 -99999 -99999 -99999 -99999 -99999 -99999 -99999 -99999 -99999 -99999 -99999 -99999 -99999 -99999 -99999 -99999 -99999 -99999 -99999 -99999 -99999 -99999 -99999 -99999 -99999 -99999 -99999 -99999 -99999 -99999 -99999 -99999 -99999 -99999 -99999 -99999 -99999 -99999 -99999 -99999 -99999 -99999 -99999 -99999 -99999 -99999 -99999 -99999 -99999 -99999 -99999 -99999 -99999 -99999 -99999 -99999 -99999 -99999 -99999 -99999 -99999 -99999 -99999 -99999 -99999 -99999 -99999 -99999 -99999 -99999 -99999 -99999 -99999 -99999 -99999 -99999 -99999 -99999 -99999 -99999 -99999 -99999 -99999 -99999 -99999 -99999 -99999 -99999 -99999 -99999 -99999 -99999 -99999 -99999 -99999 -99999 -99999 -99999 -99999 -99999 -99999 -99999 -99999 -99999 -99999 -99999 -99999 -99999 -99999 -99999 -99999 -99999 -99999 -99999 -99999 -99999 -99999 -99999 -99999 -99999 -99999 -99999 -99999 -99999 -99999 68.224273681640625 71.53652191162109375 74.83933258056640625 78.26215362548828125 81.69525146484375 85.11403656005859375 88.49472808837890625 91.8161468505859375 95.01691436767578125 98.043853759765625 100.8598175048828125 103.33925628662109375 105.35929107666015625 106.37169647216796875 105.91602325439453125 104.0278778076171875 101.0682525634765625 97.79093170166015625 95.1641082763671875 93.1106719970703125 92.14312744140625 92.4128265380859375 94.004302978515625 96.31128692626953125 98.82161712646484375 100.9665069580078125 102.7253875732421875 104.20699310302734375 105.199554443359375 105.67333984375 105.5754547119140625 105.09490966796875 104.30669403076171875 103.1102294921875 101.61663818359375 99.88291168212890625 97.9101715087890625 95.68833160400390625 93.18997955322265625 90.4726409912109375 87.5294342041015625 84.37140655517578125 80.93585968017578125 77.2355194091796875 73.31024932861328125 69.1508636474609375 64.77913665771484375 60.217830657958984375 55.51155853271484375 50.5718231201171875 45.561565399169921875 40.55313873291015625 35.514957427978515625 30.494485855102539062 25.551328659057617188 20.704843521118164062 16.007753372192382812 11.479113578796386719 7.083545684814453125 2.8395206928253173828 -99999
 -99999 -99999 -99999 -99999 -99999 -99999 -99999 -99999 -99999 -99999 -99999 -99999 -99999 -99999 -99999 -99999 -99999 -99999 -99999 -99999 -99999 -99999 -99999 -99999 -99999 -99999 -99999 -99999 -99999 -99999 -99999 -99999 -99999 -99999 -99999 -99999 -99999 -99999 -99999 -99999 -99999 -99999 -99999 -99999 -99999 -99999 -99999 -99999 -99999 -99999 -99999 -99999 -99999 -99999 -99999 -99999 -99999 -99999 -99999 -99999 -99999 -99999 -99999 -99999 -99999 -99999 -99999 -99999 -99999 -99999 -99999 -99999 -99999 -99999 -99999 -99999 -99999 -99999 -99999 -99999 -99999 -99999 -99999 -99999 -99999 -99999 -99999 -99999 -99999 -99999 -99999 -99999 -99999 -99999 -99999 -99999 -99999 -99999 -99999 -99999 -99999 -99999 -99999 -99999 -99999 -99999 -99999 -99999 -99999 -99999 -99999 -99999 -99999 -99999 -99999 -99999 -99999 -99999 -99999 -99999 -99999 -99999 -99999 -99999 -99999 -99999 -99999 -99999 -99999 -99999 -99999 -99999 -99999 -99999 -99999 -99999 -99999 -99999 -99999 -99999 -99999 -99999 -99999 -99999 -99999 -99999 -99999 -99999 -99999 -99999 -99999 -99999 -99999 -99999 -99999 -99999 -99999 -99999 -99999 -99999 -99999 -99999 -99999 -99999 -99999 -99999 -99999 64.13405609130859375 67.27178955078125 70.53420257568359375 73.95847320556640625 77.4391632080078125 80.9346923828125 84.40637969970703125 87.83109283447265625 91.18523406982421875 94.4744720458984375 97.6865997314453125 100.8020172119140625 103.70709991455078125 106.2152252197265625 108.1658477783203125 108.623992919921875 106.54578399658203125 102.57643890380859375 99.01590728759765625 96.16362762451171875 93.77507781982421875 92.44104766845703125 91.97144317626953125 92.58115386962890625 94.0279998779296875 95.74864959716796875 97.5702056884765625 99.2245330810546875 100.6231689453125 101.625 102.14185333251953125 102.35428619384765625 102.16999053955078125 101.597991943359375 100.69814300537109375 99.53784942626953125 98.01479339599609375 96.24102020263671875 94.220703125 91.95659637451171875 89.43068695068359375 86.59195709228515625 83.50394439697265625 80.16510772705078125 76.57506561279296875 72.69893646240234375 68.61104583740234375 64.16551971435546875 59.48557281494140625 54.629055023193359375 49.65949249267578125 44.568325042724609375 39.413486480712890625 34.24993896484375 29.150373458862304688 24.052501678466796875 19.189022064208984375 14.449825286865234375 9.8657379150390625 5.4490532875061035156 1.2317988872528076172 -99999
 -99999 -99999 -99999 -99999 -99999 -99999 -99999 -99999 -99999 -99999 -99999 -99999 -99999 -99999 -99999 -99999 -99999 -99999 -99999 -99999 -99999 -99999 -99999 -99999 -99999 -99999 -99999 -99999 -99999 -99999 -99999 -99999 -99999 -99999 -99999 -99999 -99999 -99999 -99999 -99999 -99999 -99999 -99999 -99999 -99999 -99999 -99999 -99999 -99999 -99999 -99999 -99999 -99999 -99999 -99999 -99999 -99999 -99999 -99999 -99999 -99999 -99999 -99999 -99999 -99999 -99999 -99999 -99999 -99999 -99999 -99999 -99999 -99999 -99999 -99999 -99999 -99999 -99999 -99999 -99999 -99999 -99999 -99999 -99999 -99999 -99999 -99999 -99999 -99999 -99999 -99999 -99999 -99999 -99999 -99999 -99999 -99999 -99999 -99999 -99999 -99999 -99999 -99999 -99999 -99999 -99999 -99999 -99999 -99999 -99999 -99999 -99999 -99999 -99999 -99999 -99999 -99999 -99999 -99999 -99999 -99999 -99999 -99999 -99999 -99999 -99999 -99999 -99999 -99999 -99999 -99999 -99999 -99999 -99999 -99999 -99999 -99999 -99999 -99999 -99999 -99999 -99999 -99999 -99999 -99999 -99999 -99999 -99999 -99999 -99999 -99999 -99999 -99999 -99999 -99999 -99999 -99999 -99999 -99999 -99999 -99999 -99999 -99999 -99999 -99999 57.5327301025390625 60.14886474609375 63.0259246826171875 66.2804107666015625 69.6722259521484375 73.15357208251953125 76.66779327392578125 80.1858673095703125 83.6229705810546875 87.0091094970703125 90.32329559326171875 93.59490203857421875 96.8128204345703125 100.04811859130859375 103.3111572265625 106.5147857666015625 109.4835205078125 111.63849639892578125 109.80017852783203125 105.40204620361328125 100.8553314208984375 97.3285369873046875 94.2211151123046875 92.30097198486328125 91.361480712890625 91.2949981689453125 91.93833160400390625 93.11838531494140625 94.5906982421875 96.0163726806640625 97.27767181396484375 98.333282470703125 99.0504302978515625 99.50628662109375 99.4465179443359375 99.08058929443359375 98.4320831298828125 97.51398468017578125 96.24994659423828125 94.75733184814453125 92.91461181640625 90.80812835693359375 88.437347412109375 85.79878997802734375 82.8814849853515625 79.61096954345703125 76.05155181884765625 72.2384490966796875 68.09194183349609375 63.628509521484375 58.94467926025390625 54.060169219970703125 48.992771148681640625 43.738353729248046875 38.43888092041015625 33.12066650390625 27.873378753662109375 22.739595413208007812 17.726915359497070312 12.911635398864746094 8.3318510055541992188 3.9456169605255126953 -99999 -99999
 -99999 -99999 -99999 -99999 -99999 -99999 -99999 -99999 -99999 -99999 -99999 -99999 -99999 -99999 -99999 -99999 -99999 -99999 -99999 -99999 -99999 -99999 -99999 -99999 -99999 -99999 -99999 -99999 -99999 -99999 -99999 -99999 -99999 -99999 -99999 -99999 -99999 -99999 -99999 -99999 -99999 -99999 -99999 -99999 -99999 -99999 -99999 -99999 -99999 -99999 -99999 -99999 -99999 -99999 -99999 -99999 -99999 -99999 -99999 -99999 -99999 -99999 -99999 -99999 -99999 -99999 -99999 -99999 -99999 -99999 -99999 -99999 -99999 -99999 -99999 -99999 -99999 -99999 -99999 -99999 -99999 -99999 -99999 -99999 -99999 -99999 -99999 -99999 -99999 -99999 -99999 -99999 -99999 -99999 -99999 -99999 -99999 -99999 -99999 -99999 -99999 -99999 -99999 -99999 -99999 -99999 -99999 -99999 -99999 -99999 -99999 -99999 -99999 -99999 -99999 -99999 -99999 -99999 -99999 -99999 -99999 -99999 -99999 -99999 -99999 -99999 -99999 -99999 -99999 -99999 -99999 -99999 -99999 -99999 -99999 -99999 -99999 -99999 -99999 -99999 -99999 -99999 -99999 -99999 -99999 -99999 -99999 -99999 -99999 -99999 -99999 -99999 -99999 -99999 -99999 -99999 -99999 -99999 -99999 -99999 -99999 -99999 -99999 -99999 54.266132354736328125 56.3549652099609375 59.103759765625 62.159122467041015625 65.492462158203125 68.95970916748046875 72.4810943603515625 75.9850616455078125 79.43347930908203125 82.8164215087890625 86.093292236328125 89.23828125 92.29947662353515625 95.35330963134765625 98.45172119140625 101.72735595703125 105.147857666015625 108.7589263916015625 112.38362884521484375 112.4810943603515625 107.34058380126953125 101.89760589599609375 97.58370208740234375 94.1730804443359375 91.6588592529296875 90.09470367431640625 89.5599822998046875 89.879791259765625 90.6669158935546875 91.7895050048828125 93.08269500732421875 94.282806396484375 95.335174560546875 96.1208953857421875 96.66259765625 96.862335205078125 96.8505859375 96.397735595703125 95.625396728515625 94.6055145263671875 93.29367828369140625 91.71425628662109375 89.85898590087890625 87.6500244140625 85.13690948486328125 82.3256072998046875 79.21254730224609375 75.77716827392578125 71.95395660400390625 67.83829498291015625 63.442291259765625 58.733180999755859375 53.680065155029296875 48.42165374755859375 43.06021881103515625 37.650928497314453125 32.19766998291015625 26.773975372314453125 21.511266708374023438 16.431348800659179688 11.567844390869140625 6.9485559463500976562 2.5457386970520019531 -99999 -99999
 -99999 -99999 -99999 -99999 -99999 -99999 -99999 -99999 -99999 -99999 -99999 -99999 -99999 -99999 -99999 -99999 -99999 -99999 -99999 -99999 -99999 -99999 -99999 -99999 -99999 -99999 -99999 -99999 -99999 -99999 -99999 -99999 -99999 -99999 -99999 -99999 -99999 -99999 -99999 -99999 -99999 -99999 -99999 -99999 -99999 -99999 -99999 -99999 -99999 -99999 -99999 -99999 -99999 -99999 -99999 -99999 -99999 -99999 -99999 -99999 -99999 -99999 -99999 -99999 -99999 -99999 -99999 -99999 -99999 -99999 -99999 -99999 -99999 -99999 -99999 -99999 -99999 -99999 -99999 -99999 -99999 -99999 -99999 -99999 -99999 -99999 -99999 -99999 -99999 -99999 -99999 -99999 -99999 -99999 -99999 -99999 -99999 -99999 -99999 -99999 -99999 -99999 -99999 -99999 -99999 -99999 -99999 -99999 -99999 -99999 -99999 -99999 -99999 -99999 -99999 -99999 -99999 -99999 -99999 -99999 -99999 -99999 -99999 -99999 -99999 -99999 -99999 -99999 -99999 -99999 -99999 -99999 -99999 -99999 -99999 -99999 -99999 -99999 -99999 -99999 -99999 -99999 -99999 -99999 -99999 -99999 -99999 -99999 -99999 -99999 -99999 -99999 -99999 -99999 -99999 -99999 -99999 -99999 -99999 -99999 -99999 -99999 -99999 51.785503387451171875 53.078746795654296875 55.33142852783203125 58.21773529052734375 61.52211761474609375 65.0034332275390625 68.5082855224609375 72.00254058837890625 75.46562957763671875 78.816802978515625 82.01638031005859375 85.05886077880859375 87.98126983642578125 90.75998687744140625 93.400848388671875 95.97977447509765625 98.8101043701171875 101.94379425048828125 105.4394073486328125 108.55165863037109375 108.96768951416015625 105.26056671142578125 100.8651123046875 96.44348907470703125 92.703521728515625 89.96192169189453125 88.30577850341796875 87.51703643798828125 87.47106170654296875 88.11000823974609375 89.15041351318359375 90.34854888916015625 91.4904937744140625 92.62499237060546875 93.48802947998046875 94.1352691650390625 94.51043701171875 94.6330718994140625 94.40570068359375 93.90950775146484375 93.1232452392578125 92.07036590576171875 90.66222381591796875 88.970550537109375 86.985076904296875 84.69646453857421875 82.0315399169921875 79.0252838134765625 75.740020751953125 72.01446533203125 67.92699432373046875 63.425739288330078125 58.562408447265625 53.534503936767578125 48.283794403076171875 42.79584503173828125 37.08789825439453125 31.49497222900390625 25.897954940795898438 20.47931671142578125 15.257168769836425781 10.387085914611816406 5.7281637191772460938 1.365946650505065918 -99999 -99999
 -99999 -99999 -99999 -99999 -99999 -99999 -99999 -99999 -99999 -99999 -99999 -99999 -99999 -99999 -99999 -99999 -99999 -99999 -99999 -99999 -99999 -99999 -99999 -99999 -99999 -99999 -99999 -99999 -99999 -99999 -99999 -99999 -99999 -99999 -99999 -99999 -99999 -99999 -99999 -99999 -99999 -99999 -99999 -99999 -99999 -99999 -99999 -99999 -99999 -99999 -99999 -99999 -99999 -99999 -99999 -99999 -99999 -99999 -99999 -99999 -99999 -99999 -99999 -99999 -99999 -99999 -99999 -99999 -99999 -99999 -99999 -99999 -99999 -99999 -99999 -99999 -99999 -99999 -99999 -99999 -99999 -99999 -99999 -99999 -99999 -99999 -99999 -99999 -99999 -99999 -99999 -99999 -99999 -99999 -99999 -99999 -99999 -99999 -99999 -99999 -99999 -99999 -99999 -99999 -99999 -99999 -99999 -99999 -99999 -99999 -99999 -99999 -99999 -99999 -99999 -99999 -99999 -99999 -99999 -99999 -99999 -99999 -99999 -99999 -99999 -99999 -99999 -99999 -99999 -99999 -99999 -99999 -99999 -99999 -99999 -99999 -99999 -99999 -99999 -99999 -99999 -99999 -99999 -99999 -99999 -99999 -99999 -99999 -99999 -99999 -99999 -99999 -99999 -99999 -99999 -99999 -99999 -99999 -99999 -99999 -99999 50.505390167236328125 50.7993621826171875 50.849864959716796875 51.852275848388671875 54.427570343017578125 57.860382080078125 61.383365631103515625 64.92530059814453125 68.4131011962890625 71.81259918212890625 75.15811920166015625 78.301666259765625 81.2953033447265625 84.0790557861328125 86.67191314697265625 89.00592041015625 91.1173858642578125 92.9788818359375 94.79616546630859375 97.353515625 100.20745086669921875 102.7227783203125 103.1203765869140625 101.2610015869140625 97.4086456298828125 93.5238800048828125 90.15227508544921875 87.34891510009765625 85.520172119140625 84.7409210205078125 84.94690704345703125 85.5831146240234375 86.509002685546875 87.706268310546875 88.87722015380859375 90.06817626953125 91.04187774658203125 91.88272857666015625 92.4133148193359375 92.67072296142578125 92.68096923828125 92.44338226318359375 91.80884552001953125 90.94509124755859375 89.807769775390625 88.3396759033203125 86.51119232177734375 84.37436676025390625 81.89716339111328125 79.07553863525390625 75.86309814453125 72.22721099853515625 68.137481689453125 63.74114227294921875 59.012172698974609375 53.824863433837890625 48.303409576416015625 42.608184814453125 36.860965728759765625 30.985460281372070312 25.23757171630859375 19.702789306640625 14.407877922058105469 9.4022426605224609375 4.7364544868469238281 0.39047646522521972656 -99999 -99999
 -99999 -99999 -99999 -99999 -99999 -99999 -99999 -99999 -99999 -99999 -99999 -99999 -99999 -99999 -99999 -99999 -99999 -99999 -99999 -99999 -99999 -99999 -99999 -99999 -99999 -99999 -99999 -99999 -99999 -99999 -99999 -99999 -99999 -99999 -99999 -99999 -99999 -99999 -99999 -99999 -99999 -99999 -99999 -99999 -99999 -99999 -99999 -99999 -99999 -99999 -99999 -99999 -99999 -99999 -99999 -99999 -99999 -99999 -99999 -99999 -99999 -99999 -99999 -99999 -99999 -99999 -99999 -99999 -99999 -99999 -99999 -99999 -99999 -99999 -99999 -99999 -99999 -99999 -99999 -99999 -99999 -99999 -99999 -99999 -99999 -99999 -99999 -99999 -99999 -99999 -99999 -99999 -99999 -99999 -99999 -99999 -99999 -99999 -99999 -99999 -99999 -99999 -99999 -99999 -99999 -99999 -99999 -99999 -99999 -99999 -99999 -99999 -99999 -99999 -99999 -99999 -99999 -99999 -99999 -99999 -99999 -99999 -99999 -99999 -99999 -99999 -99999 -99999 -99999 -99999 -99999 -99999 -99999 -99999 -99999 -99999 -99999 -99999 -99999 -99999 -99999 -99999 -99999 -99999 -99999 -99999 -99999 -99999 -99999 -99999 -99999 -99999 -99999 -99999 -99999 -99999 -99999 -99999 -99999 -99999 50.28572845458984375 50.54930877685546875 50.456874847412109375 49.42694091796875 50.933048248291015625 54.3773193359375 58.259593963623046875 61.80828094482421875 65.35733795166015625 68.71114349365234375 71.97150421142578125 75.01422882080078125 78.009735107421875 80.8003387451171875 83.2801055908203125 85.42718505859375 87.17498779296875 88.62313079833984375 89.7994537353515625 90.9223785400390625 92.439697265625 94.93944549560546875 96.85451507568359375 97.12615203857421875 95.69904327392578125 92.99884033203125 89.45780181884765625 86.11480712890625 83.56402587890625 82.00753021240234375 81.37853240966796875 81.718017578125 82.64810943603515625 83.994964599609375 85.21256256103515625 86.571075439453125 87.8149261474609375 88.89827728271484375 89.79822540283203125 90.498504638671875 90.96968841552734375 91.15023040771484375 91.0472412109375 90.75608062744140625 90.0345611572265625 89.06768798828125 87.81098175048828125 86.2457733154296875 84.32515716552734375 81.99050140380859375 79.30345916748046875 76.24289703369140625 72.75098419189453125 68.85439300537109375 64.442474365234375 59.534069061279296875 54.32004547119140625 48.860500335693359375 43.08507537841796875 36.963153839111328125 30.912389755249023438 24.908254623413085938 19.164415359497070312 13.809004783630371094 8.7820653915405273438 4.0651898384094238281 -99999 -99999 -99999
 -99999 -99999 -99999 -99999 -99999 -99999 -99999 -99999 -99999 -99999 -99999 -99999 -99999 -99999 -99999 -99999 -99999 -99999 -99999 -99999 -99999 -99999 -99999 -99999 -99999 -99999 -99999 -99999 -99999 -99999 -99999 -99999 -99999 -99999 -99999 -99999 -99999 -99999 -99999 -99999 -99999 -99999 -99999 -99999 -99999 -99999 -99999 -99999 -99999 -99999 -99999 -99999 -99999 -99999 -99999 -99999 -99999 -99999 -99999 -99999 -99999 -99999 -99999 -99999 -99999 -99999 -99999 -99999 -99999 -99999 -99999 -99999 -99999 -99999 -99999 -99999 -99999 -99999 -99999 -99999 -99999 -99999 -99999 -99999 -99999 -99999 -99999 -99999 -99999 -99999 -99999 -99999 -99999 -99999 -99999 -99999 -99999 -99999 -99999 -99999 -99999 -99999 -99999 -99999 -99999 -99999 -99999 -99999 -99999 -99999 -99999 -99999 -99999 -99999 -99999 -99999 -99999 -99999 -99999 -99999 -99999 -99999 -99999 -99999 -99999 -99999 -99999 -99999 -99999 -99999 -99999 -99999 -99999 -99999 -99999 -99999 -99999 -99999 -99999 -99999 -99999 -99999 -99999 -99999 -99999 -99999 -99999 -99999 -99999 -99999 -99999 -99999 -99999 -99999 -99999 -99999 -99999 -99999 50.87166595458984375 51.0708770751953125 51.218662261962890625 50.960544586181640625 50.3330230712890625 49.887622833251953125 51.776676177978515625 55.327610015869140625 59.549224853515625 63.36688995361328125 66.46759033203125 69.35556793212890625 72.38474273681640625 75.25719451904296875 78.04021453857421875 80.40676116943359375 82.46231842041015625 84.21836090087890625 85.645263671875 86.66949462890625 86.99124908447265625 87.52223968505859375 88.82440948486328125 90.49062347412109375 91.70906829833984375 91.6854705810546875 90.29099273681640625 87.8543243408203125 84.66359710693359375 81.58014678955078125 79.30130767822265625 77.81829833984375 77.8491363525390625 78.70816802978515625 79.94132232666015625 81.43140411376953125 82.933746337890625 84.4559478759765625 85.7677459716796875 86.94657135009765625 87.99909210205078125 88.805328369140625 89.410064697265625 89.77574920654296875 89.90277862548828125 89.7581939697265625 89.28678131103515625 88.5944061279296875 87.509521484375 86.1143341064453125 84.3938446044921875 82.3250732421875 79.852142333984375 77.02610015869140625 73.6325531005859375 69.68599700927734375 65.359619140625 60.684276580810546875 55.503223419189453125 49.7036895751953125 43.71665191650390625 37.498016357421875 31.138757705688476562 25.014986038208007812 19.208333969116210938 13.584896087646484375 8.4305400848388671875 3.7859683036804199219 -99999 -99999 -99999
 -99999 -99999 -99999 -99999 -99999 -99999 -99999 -99999 -99999 -99999 -99999 -99999 -99999 -99999 -99999 -99999 -99999 -99999 -99999 -99999 -99999 -99999 -99999 -99999 -99999 -99999 -99999 -99999 -99999 -99999 -99999 -99999 -99999 -99999 -99999 -99999 -99999 -99999 -99999 -99999 -99999 -99999 -99999 -99999 -99999 -99999 -99999 -99999 -99999 -99999 -99999 -99999 -99999 -99999 -99999 -99999 -99999 -99999 -99999 -99999 -99999 -99999 -99999 -99999 -99999 -99999 -99999 -99999 -99999 -99999 -99999 -99999 -99999 -99999 -99999 -99999 -99999 -99999 -99999 -99999 -99999 -99999 -99999 -99999 -99999 -99999 -99999 -99999 -99999 -99999 -99999 -99999 -99999 -99999 -99999 -99999 -99999 -99999 -99999 -99999 -99999 -99999 -99999 -99999 -99999 -99999 -99999 -99999 -99999 -99999 -99999 -99999 -99999 -99999 -99999 -99999 -99999 -99999 -99999 -99999 -99999 -99999 -99999 -99999 -99999 -99999 -99999 -99999 -99999 -99999 -99999 -99999 -99999 -99999 -99999 -99999 -99999 -99999 -99999 -99999 -99999 -99999 -99999 -99999 -99999 -99999 -99999 -99999 -99999 -99999 -99999 -99999 -99999 -99999 -99999 -99999 -99999 52.267780303955078125 52.5056304931640625 52.62497711181640625 52.6435546875 52.564495086669921875 52.46075439453125 52.882720947265625 54.755741119384765625 58.425434112548828125 62.611675262451171875 65.36151123046875 67.889251708984375 70.58895111083984375 73.12744140625 75.66503143310546875 78.01041412353515625 80.1085357666015625 81.90062713623046875 83.30345916748046875 84.29477691650390625 84.8754730224609375 85.0546112060546875 85.187408447265625 85.76428985595703125 86.4442596435546875 87.07105255126953125 86.6539154052734375 85.20257568359375 82.93267822265625 79.93444061279296875 77.0178985595703125 74.33758544921875 73.4318389892578125 74.72107696533203125 75.9366912841796875 77.44527435302734375 79.226776123046875 80.8814697265625 82.61257171630859375 84.010406494140625 85.26043701171875 86.397125244140625 87.3566131591796875 88.12003326416015625 88.61542510986328125 88.924957275390625 88.95206451416015625 88.6890411376953125 88.16611480712890625 87.3616790771484375 86.25572967529296875 84.7173919677734375 82.808837890625 80.5225067138671875 77.86161041259765625 74.81778717041015625 71.0093841552734375 66.9089508056640625 62.022930145263671875 56.780620574951171875 51.154186248779296875 45.018890380859375 38.488193511962890625 32.03980255126953125 25.419437408447265625 19.242063522338867188 13.687341690063476562 8.5417757034301757812 3.7162983417510986328 -99999 -99999 -99999
 -99999 -99999 -99999 -99999 -99999 -99999 -99999 -99999 -99999 -99999 -99999 -99999 -99999 -99999 -99999 -99999 -99999 -99999 -99999 -99999 -99999 -99999 -99999 -99999 -99999 -99999 -99999 -99999 -99999 -99999 -99999 -99999 -99999 -99999 -99999 -99999 -99999 -99999 -99999 -99999 -99999 -99999 -99999 -99999 -99999 -99999 -99999 -99999 -99999 -99999 -99999 -99999 -99999 -99999 -99999 -99999 -99999 -99999 -99999 -99999 -99999 -99999 -99999 -99999 -99999 -99999 -99999 -99999 -99999 -99999 -99999 -99999 -99999 -99999 -99999 -99999 -99999 -99999 -99999 -99999 -99999 -99999 -99999 -99999 -99999 -99999 -99999 -99999 -99999 -99999 -99999 -99999 -99999 -99999 -99999 -99999 -99999 -99999 -99999 -99999 -99999 -99999 -99999 -99999 -99999 -99999 -99999 -99999 -99999 -99999 -99999 -99999 -99999 -99999 -99999 -99999 -99999 -99999 -99999 -99999 -99999 -99999 -99999 -99999 -99999 -99999 -99999 -99999 -99999 -99999 -99999 -99999 -99999 -99999 -99999 -99999 -99999 -99999 -99999 -99999 -99999 -99999 -99999 -99999 -99999 -99999 -99999 -99999 -99999 -99999 -99999 -99999 -99999 -99999 -99999 53.367748260498046875 53.870426177978515625 54.25696563720703125 54.578121185302734375 54.8702392578125 55.11751556396484375 55.372371673583984375 55.86072540283203125 56.960689544677734375 59.191020965576171875 62.541454315185546875 65.791839599609375 67.99185943603515625 69.69072723388671875 71.8542938232421875 74.14229583740234375 76.25244140625 78.27864837646484375 80.0786285400390625 81.44153594970703125 82.360107421875 82.95092010498046875 83.20552825927734375 83.0026702880859375 82.89594268798828125 82.96622467041015625 82.92612457275390625 82.82012176513671875 82.13768768310546875 80.88312530517578125 78.92470550537109375 76.303466796875 73.433624267578125 66.83184051513671875 70.38503265380859375 72.40234375 73.96553802490234375 75.5675811767578125 77.32958984375 79.2308197021484375 81.0710906982421875 82.4727325439453125 83.8572845458984375 85.04418182373046875 86.0999603271484375 86.9425506591796875 87.6147308349609375 88.092987060546875 88.3487396240234375 88.28615570068359375 87.98378753662109375 87.3638458251953125 86.44008636474609375 85.18987274169921875 83.59047698974609375 81.50286865234375 78.96820068359375 76.10941314697265625 72.6665496826171875 68.4410400390625 63.94054412841796875 58.903095245361328125 53.11113739013671875 46.857479095458984375 40.130039215087890625 33.1729736328125 26.495061874389648438 20.179027557373046875 14.207175254821777344 8.9185819625854492188 4.2138662338256835938 -99999 -99999 -99999
 -99999 -99999 -99999 -99999 -99999 -99999 -99999 -99999 -99999 -99999 -99999 -99999 -99999 -99999 -99999 -99999 -99999 -99999 -99999 -99999 -99999 -99999 -99999 -99999 -99999 -99999 -99999 -99999 -99999 -99999 -99999 -99999 -99999 -99999 -99999 -99999 -99999 -99999 -99999 -99999 -99999 -99999 -99999 -99999 -99999 -99999 -99999 -99999 -99999 -99999 -99999 -99999 -99999 -99999 -99999 -99999 -99999 -99999 -99999 -99999 -99999 -99999 -99999 -99999 -99999 -99999 -99999 -99999 -99999 -99999 -99999 -99999 -99999 -99999 -99999 -99999 -99999 -99999 -99999 -99999 -99999 -99999 -99999 -99999 -99999 -99999 -99999 -99999 -99999 -99999 -99999 -99999 -99999 -99999 -99999 -99999 -99999 -99999 -99999 -99999 -99999 -99999 -99999 -99999 -99999 -99999 -99999 -99999 -99999 -99999 -99999 -99999 -99999 -99999 -99999 -99999 -99999 -99999 -99999 -99999 -99999 -99999 -99999 -99999 -99999 -99999 -99999 -99999 -99999 -99999 -99999 -99999 -99999 -99999 -99999 -99999 -99999 -99999 -99999 -99999 -99999 -99999 -99999 -99999 -99999 -99999 -99999 -99999 -99999 -99999 -99999 -99999 -99999 -99999 54.770824432373046875 55.477203369140625 56.1351470947265625 56.726131439208984375 57.26006317138671875 57.724918365478515625 58.22565460205078125 58.857501983642578125 59.788906097412109375 61.1419219970703125 63.204402923583984375 65.973114013671875 68.50016021728515625 69.5047607421875 71.4469451904296875 73.43819427490234375 75.09426116943359375 76.96160888671875 78.8190155029296875 80.1263275146484375 81.00873565673828125 81.4739227294921875 81.4129486083984375 81.08754730224609375 80.60575103759765625 80.13182830810546875 79.7871856689453125 79.7498321533203125 79.379302978515625 78.7141571044921875 77.5205841064453125 75.8659210205078125 73.57498931884765625 70.79483795166015625 69.927154541015625 68.4521331787109375 70.7312164306640625 72.653656005859375 74.3517608642578125 76.10588836669921875 77.98017120361328125 79.6396484375 81.2411346435546875 82.64488983154296875 83.90900421142578125 85.003326416015625 86.0061492919921875 86.79032135009765625 87.34680938720703125 87.82061767578125 87.96579742431640625 87.89435577392578125 87.5665435791015625 86.89995574951171875 85.850830078125 84.43894195556640625 82.63851165771484375 80.4267730712890625 77.68520355224609375 74.50060272216796875 70.78668212890625 66.34500885009765625 61.30834197998046875 55.638896942138671875 49.36517333984375 42.465282440185546875 35.194366455078125 27.867925643920898438 21.269510269165039062 15.488849639892578125 10.22437286376953125 5.3103995323181152344 -99999 -99999 -99999
 -99999 -99999 -99999 -99999 -99999 -99999 -99999 -99999 -99999 -99999 -99999 -99999 -99999 -99999 -99999 -99999 -99999 -99999 -99999 -99999 -99999 -99999 -99999 -99999 -99999 -99999 -99999 -99999 -99999 -99999 -99999 -99999 -99999 -99999 -99999 -99999 -99999 -99999 -99999 -99999 -99999 -99999 -99999 -99999 -99999 -99999 -99999 -99999 -99999 -99999 -99999 -99999 -99999 -99999 -99999 -99999 -99999 -99999 -99999 -99999 -99999 -99999 -99999 -99999 -99999 -99999 -99999 -99999 -99999 -99999 -99999 -99999 -99999 -99999 -99999 -99999 -99999 -99999 -99999 -99999 -99999 -99999 -99999 -99999 -99999 -99999 -99999 -99999 -99999 -99999 -99999 -99999 -99999 -99999 -99999 -99999 -99999 -99999 -99999 -99999 -99999 -99999 -99999 -99999 -99999 -99999 -99999 -99999 -99999 -99999 -99999 -99999 -99999 -99999 -99999 -99999 -99999 -99999 -99999 -99999 -99999 -99999 -99999 -99999 -99999 -99999 -99999 -99999 -99999 -99999 -99999 -99999 -99999 -99999 -99999 -99999 -99999 -99999 -99999 -99999 -99999 -99999 -99999 -99999 -99999 -99999 -99999 -99999 -99999 -99999 -99999 -99999 54.9802093505859375 56.052822113037109375 56.979736328125 57.88062286376953125 58.74322509765625 59.552738189697265625 60.30570220947265625 60.981693267822265625 61.7721099853515625 62.6783599853515625 63.80577850341796875 65.2195892333984375 67.21588897705078125 69.14759063720703125 70.81568145751953125 72.38451385498046875 74.0108184814453125 75.1658172607421875 76.37097930908203125 77.8880615234375 79.53209686279296875 80.456146240234375 80.59946441650390625 80.24672698974609375 79.52562713623046875 78.581451416015625 77.846588134765625 77.35135650634765625 76.9418792724609375 76.63123321533203125 76.388671875 75.8968505859375 75.08036041259765625 73.78777313232421875 72.15332794189453125 70.5226898193359375 68.81208038330078125 69.89212799072265625 70.63718414306640625 72.17775726318359375 73.73468780517578125 75.33687591552734375 77.0726470947265625 78.72210693359375 80.3046875 81.67757415771484375 82.9362335205078125 84.123931884765625 85.17299652099609375 86.12241363525390625 86.97316741943359375 87.42191314697265625 87.81604766845703125 87.92378997802734375 87.7949676513671875 87.38283538818359375 86.6709136962890625 85.5540008544921875 83.94756317138671875 81.92462158203125 79.434967041015625 76.5130157470703125 73.0143585205078125 68.89499664306640625 64.3674163818359375 58.971843719482421875 52.798328399658203125 45.812694549560546875 37.862483978271484375 30.063711166381835938 23.214029312133789062 17.113368988037109375 11.832877159118652344 -99999 -99999 -99999 -99999
 -99999 -99999 -99999 -99999 -99999 -99999 -99999 -99999 -99999 -99999 -99999 -99999 -99999 -99999 -99999 -99999 -99999 -99999 -99999 -99999 -99999 -99999 -99999 -99999 -99999 -99999 -99999 -99999 -99999 -99999 -99999 -99999 -99999 -99999 -99999 -99999 -99999 -99999 -99999 -99999 -99999 -99999 -99999 -99999 -99999 -99999 -99999 -99999 -99999 -99999 -99999 -99999 -99999 -99999 -99999 -99999 -99999 -99999 -99999 -99999 -99999 -99999 -99999 -99999 -99999 -99999 -99999 -99999 -99999 -99999 -99999 -99999 -99999 -99999 -99999 -99999 -99999 -99999 -99999 -99999 -99999 -99999 -99999 -99999 -99999 -99999 -99999 -99999 -99999 -99999 -99999 -99999 -99999 -99999 -99999 -99999 -99999 -99999 -99999 -99999 -99999 -99999 -99999 -99999 -99999 -99999 -99999 -99999 -99999 -99999 -99999 -99999 -99999 -99999 -99999 -99999 -99999 -99999 -99999 -99999 -99999 -99999 -99999 -99999 -99999 -99999 -99999 -99999 -99999 -99999 -99999 -99999 -99999 -99999 -99999 -99999 -99999 -99999 -99999 -99999 -99999 -99999 -99999 -99999 -99999 -99999 -99999 -99999 -99999 -99999 54.609470367431640625 55.851818084716796875 57.06800079345703125 58.245731353759765625 59.3946075439453125 60.569515228271484375 61.63036346435546875 62.63592529296875 63.6462860107421875 64.65142059326171875 65.6884918212890625 66.80052947998046875 68.09728240966796875 69.57697296142578125 71.16312408447265625 72.78131103515625 74.27239227294921875 75.54434967041015625 76.4566192626953125 76.717681884765625 77.5937042236328125 79.5024261474609375 80.7880706787109375 80.78653717041015625 79.7451324462890625 78.40596771240234375 77.07921600341796875 75.922271728515625 74.98431396484375 74.40590667724609375 74.12895965576171875 74.02829742431640625 73.91310882568359375 73.63301849365234375 73.1410369873046875 72.23050689697265625 71.1588897705078125 70.5922698974609375 70.34609222412109375 70.05463409423828125 70.826568603515625 72.22080230712890625 73.549774169921875 74.97536468505859375 76.55924224853515625 78.02629852294921875 79.521697998046875 80.8404083251953125 82.13974761962890625 83.3399505615234375 84.45694732666015625 85.416259765625 86.37398529052734375 87.06679534912109375 87.6317901611328125 88.017120361328125 88.18172454833984375 87.97570037841796875 87.45494842529296875 86.61354827880859375 85.342010498046875 83.66211700439453125 81.34380340576171875 78.6100311279296875 75.40052032470703125 71.8253936767578125 67.549774169921875 62.61489105224609375 56.774936676025390625 49.811031341552734375 41.3032379150390625 32.653858184814453125 25.262226104736328125 19.735647201538085938 14.350887298583984375 -99999 -99999 -99999 -99999
 -99999 -99999 -99999 -99999 -99999 -99999 -99999 -99999 -99999 -99999 -99999 -99999 -99999 -99999 -99999 -99999 -99999 -99999 -99999 -99999 -99999 -99999 -99999 -99999 -99999 -99999 -99999 -99999 -99999 -99999 -99999 -99999 -99999 -99999 -99999 -99999 -99999 -99999 -99999 -99999 -99999 -99999 -99999 -99999 -99999 -99999 -99999 -99999 -99999 -99999 -99999 -99999 -99999 -99999 -99999 -99999 -99999 -99999 -99999 -99999 -99999 -99999 -99999 -99999 -99999 -99999 -99999 -99999 -99999 -99999 -99999 -99999 -99999 -99999 -99999 -99999 -99999 -99999 -99999 -99999 -99999 -99999 -99999 -99999 -99999 -99999 -99999 -99999 -99999 -99999 -99999 -99999 -99999 -99999 -99999 -99999 -99999 -99999 -99999 -99999 -99999 -99999 -99999 -99999 -99999 -99999 -99999 -99999 -99999 -99999 -99999 -99999 -99999 -99999 -99999 -99999 -99999 -99999 -99999 -99999 -99999 -99999 -99999 -99999 -99999 -99999 -99999 -99999 -99999 -99999 -99999 -99999 -99999 -99999 -99999 -99999 -99999 -99999 -99999 -99999 -99999 -99999 -99999 -99999 -99999 -99999 -99999 -99999 -99999 54.9539794921875 56.3634796142578125 57.800266265869140625 59.255321502685546875 60.699550628662109375 62.0848388671875 63.428234100341796875 64.7420806884765625 66.03656768798828125 67.259368896484375 68.46770477294921875 69.72052764892578125 71.07764434814453125 72.46538543701171875 73.9240264892578125 75.43543243408203125 76.83931732177734375 78.06410980224609375 78.952484130859375 79.66068267822265625 79.81243133544921875 80.34653472900390625 81.9927825927734375 82.67266082763671875 81.03565216064453125 78.58330535888671875 76.23735809326171875 74.3215484619140625 72.8854827880859375 72.0031280517578125 71.6372222900390625 71.53850555419921875 71.63396453857421875 71.85662841796875 72.04421234130859375 71.852874755859375 71.70111083984375 71.5907745361328125 71.04485321044921875 70.74161529541015625 71.137969970703125 71.7031402587890625 72.6661529541015625 73.7097015380859375 74.86711883544921875 76.2347259521484375 77.56629180908203125 78.9004669189453125 80.2039642333984375 81.423675537109375 82.59760284423828125 83.77666473388671875 84.89096832275390625 85.85765838623046875 86.7814788818359375 87.54717254638671875 88.06966400146484375 88.40167236328125 88.5840606689453125 88.45285797119140625 87.805145263671875 86.76323699951171875 85.284454345703125 83.25482177734375 80.77471923828125 77.742828369140625 74.426361083984375 70.813751220703125 66.606048583984375 61.802112579345703125 55.126491546630859375 46.398487091064453125 36.974460601806640625 28.973649978637695312 23.06524658203125 17.528966903686523438 -99999 -99999 -99999 -99999
 -99999 -99999 -99999 -99999 -99999 -99999 -99999 -99999 -99999 -99999 -99999 -99999 -99999 -99999 -99999 -99999 -99999 -99999 -99999 -99999 -99999 -99999 -99999 -99999 -99999 -99999 -99999 -99999 -99999 -99999 -99999 -99999 -99999 -99999 -99999 -99999 -99999 -99999 -99999 -99999 -99999 -99999 -99999 -99999 -99999 -99999 -99999 -99999 -99999 -99999 -99999 -99999 -99999 -99999 -99999 -99999 -99999 -99999 -99999 -99999 -99999 -99999 -99999 -99999 -99999 -99999 -99999 -99999 -99999 -99999 -99999 -99999 -99999 -99999 -99999 -99999 -99999 -99999 -99999 -99999 -99999 -99999 -99999 -99999 -99999 -99999 -99999 -99999 -99999 -99999 -99999 -99999 -99999 -99999 -99999 -99999 -99999 -99999 -99999 -99999 -99999 -99999 -99999 -99999 -99999 -99999 -99999 -99999 -99999 -99999 -99999 -99999 -99999 -99999 -99999 -99999 -99999 -99999 -99999 -99999 -99999 -99999 -99999 -99999 -99999 -99999 -99999 -99999 -99999 -99999 -99999 -99999 -99999 -99999 -99999 -99999 -99999 -99999 -99999 -99999 -99999 -99999 -99999 -99999 -99999 -99999 -99999 53.530307769775390625 55.005786895751953125 56.55496978759765625 58.180095672607421875 59.87139892578125 61.56585693359375 63.241729736328125 64.91265106201171875 66.5281982421875 68.05987548828125 69.52655029296875 70.99896240234375 72.53897857666015625 74.0246734619140625 75.4758453369140625 76.903411865234375 78.47730255126953125 79.971588134765625 81.257110595703125 82.25742340087890625 82.88733673095703125 83.25177001953125 83.2720489501953125 83.6370086669921875 84.18593597412109375 83.5795440673828125 80.62961578369140625 76.8007354736328125 73.47971343994140625 71.17919158935546875 69.84882354736328125 69.11920166015625 68.923980712890625 69.25104522705078125 69.838409423828125 70.4244232177734375 70.83377838134765625 71.3907623291015625 71.5988311767578125 71.49886322021484375 71.559600830078125 71.809051513671875 72.06473541259765625 72.5592498779296875 73.24088287353515625 74.0938568115234375 75.026763916015625 76.1400146484375 77.24051666259765625 78.44678497314453125 79.60095977783203125 80.75966644287109375 81.96259307861328125 83.0923004150390625 84.27108001708984375 85.38330841064453125 86.4029388427734375 87.3779144287109375 88.10886383056640625 88.76197052001953125 89.1428375244140625 89.2252960205078125 88.9760284423828125 88.30089569091796875 87.00372314453125 85.11544036865234375 82.7654571533203125 79.799896240234375 76.7455596923828125 73.59712982177734375 70.2747650146484375 66.69940185546875 61.38812255859375 52.62158966064453125 42.784641265869140625 34.836856842041015625 27.618427276611328125 21.168943405151367188 -99999 -99999 -99999 -99999
 -99999 -99999 -99999 -99999 -99999 -99999 -99999 -99999 -99999 -99999 -99999 -99999 -99999 -99999 -99999 -99999 -99999 -99999 -99999 -99999 -99999 -99999 -99999 -99999 -99999 -99999 -99999 -99999 -99999 -99999 -99999 -99999 -99999 -99999 -99999 -99999 -99999 -99999 -99999 -99999 -99999 -99999 -99999 -99999 -99999 -99999 -99999 -99999 -99999 -99999 -99999 -99999 -99999 -99999 -99999 -99999 -99999 -99999 -99999 -99999 -99999 -99999 -99999 -99999 -99999 -99999 -99999 -99999 -99999 -99999 -99999 -99999 -99999 -99999 -99999 -99999 -99999 -99999 -99999 -99999 -99999 -99999 -99999 -99999 -99999 -99999 -99999 -99999 -99999 -99999 -99999 -99999 -99999 -99999 -99999 -99999 -99999 -99999 -99999 -99999 -99999 -99999 -99999 -99999 -99999 -99999 -99999 -99999 -99999 -99999 -99999 -99999 -99999 -99999 -99999 -99999 -99999 -99999 -99999 -99999 -99999 -99999 -99999 -99999 -99999 -99999 -99999 -99999 -99999 -99999 -99999 -99999 -99999 -99999 -99999 -99999 -99999 -99999 -99999 -99999 -99999 -99999 -99999 -99999 -99999 -99999 53.284526824951171875 54.767208099365234375 56.397861480712890625 58.2180633544921875 60.118740081787109375 62.06866455078125 64.02909088134765625 65.94324493408203125 67.83942413330078125 69.664825439453125 71.50347137451171875 73.27095794677734375 74.98621368408203125 76.62172698974609375 78.22495269775390625 79.85923004150390625 81.47171783447265625 83.0104827880859375 84.4268798828125 85.62284088134765625 86.5264739990234375 87.03282928466796875 87.0670623779296875 86.48323822021484375 85.897552490234375 85.18862152099609375 83.112884521484375 78.76831817626953125 73.9232635498046875 70.45624542236328125 68.10736846923828125 66.8058319091796875 66.4914703369140625 66.81026458740234375 67.51113128662109375 68.40334320068359375 69.4686126708984375 70.40746307373046875 71.22014617919921875 71.885955810546875 72.453338623046875 72.83434295654296875 72.9266357421875 73.1446685791015625 73.5846405029296875 73.98642730712890625 74.5914764404296875 75.24965667724609375 76.1605377197265625 77.01024627685546875 77.971099853515625 79.05034637451171875 80.152557373046875 81.29071807861328125 82.52431488037109375 83.68820953369140625 84.8309783935546875 85.95855712890625 87.0995330810546875 88.06465911865234375 88.92296600341796875 89.63671875 90.05877685546875 90.0678863525390625 89.63722991943359375 88.69305419921875 87.05660247802734375 84.6161956787109375 81.61026763916015625 78.35543060302734375 75.1286163330078125 72.49167633056640625 70.38925933837890625 66.39601898193359375 58.145496368408203125 48.43670654296875 39.631771087646484375 32.218189239501953125 -99999 -99999 -99999 -99999 -99999
 -99999 -99999 -99999 -99999 -99999 -99999 -99999 -99999 -99999 -99999 -99999 -99999 -99999 -99999 -99999 -99999 -99999 -99999 -99999 -99999 -99999 -99999 -99999 -99999 -99999 -99999 -99999 -99999 -99999 -99999 -99999 -99999 -99999 -99999 -99999 -99999 -99999 -99999 -99999 -99999 -99999 -99999 -99999 -99999 -99999 -99999 -99999 -99999 -99999 -99999 -99999 -99999 -99999 -99999 -99999 -99999 -99999 -99999 -99999 -99999 -99999 -99999 -99999 -99999 -99999 -99999 -99999 -99999 -99999 -99999 -99999 -99999 -99999 -99999 -99999 -99999 -99999 -99999 -99999 -99999 -99999 -99999 -99999 -99999 -99999 -99999 -99999 -99999 -99999 -99999 -99999 -99999 -99999 -99999 -99999 -99999 -99999 -99999 -99999 -99999 -99999 -99999 -99999 -99999 -99999 -99999 -99999 -99999 -99999 -99999 -99999 -99999 -99999 -99999 -99999 -99999 -99999 -99999 -99999 -99999 -99999 -99999 -99999 -99999 -99999 -99999 -99999 -99999 -99999 -99999 -99999 -99999 -99999 -99999 -99999 -99999 -99999 -99999 -99999 -99999 -99999 -99999 -99999 -99999 51.652011871337890625 52.803386688232421875 54.279140472412109375 56.088802337646484375 58.027057647705078125 60.095584869384765625 62.1988525390625 64.36702728271484375 66.62194061279296875 68.81124114990234375 70.9368896484375 73.0095367431640625 75.03566741943359375 77.00196075439453125 78.8894805908203125 80.73133087158203125 82.533111572265625 84.29099273681640625 85.98848724365234375 87.56984710693359375 88.9811859130859375 90.16147613525390625 90.89522552490234375 91.16538238525390625 90.8116455078125 89.73148345947265625 88.1183319091796875 85.40441131591796875 81.70798492431640625 76.82108306884765625 71.71311187744140625 67.41417694091796875 65.45892333984375 64.51177215576171875 64.47167205810546875 65.18161773681640625 66.3446807861328125 67.76030731201171875 69.27901458740234375 70.75771331787109375 72.0185394287109375 73.0121307373046875 73.5749664306640625 73.85759735107421875 74.13347625732421875 74.52793121337890625 74.67606353759765625 74.870269775390625 75.1558837890625 75.62783050537109375 76.109466552734375 76.7442474365234375 77.60106658935546875 78.493133544921875 79.472991943359375 80.57883453369140625 81.68502044677734375 82.9612274169921875 84.17583465576171875 85.41024017333984375 86.56229400634765625 87.86113739013671875 88.952239990234375 89.891632080078125 90.61380767822265625 91.09278106689453125 91.0202789306640625 90.30643463134765625 88.8097076416015625 86.4937591552734375 83.26027679443359375 79.2251434326171875 75.6669921875 72.884307861328125 70.5410003662109375 66.9949951171875 60.463687896728515625 51.990970611572265625 43.598079681396484375 35.9442138671875 -99999 -99999 -99999 -99999 -99999
 -99999 -99999 -99999 -99999 -99999 -99999 -99999 -99999 -99999 -99999 -99999 -99999 -99999 -99999 -99999 -99999 -99999 -99999 -99999 -99999 -99999 -99999 -99999 -99999 -99999 -99999 -99999 -99999 -99999 -99999 -99999 -99999 -99999 -99999 -99999 -99999 -99999 -99999 -99999 -99999 -99999 -99999 -99999 -99999 -99999 -99999 -99999 -99999 -99999 -99999 -99999 -99999 -99999 -99999 -99999 -99999 -99999 -99999 -99999 -99999 -99999 -99999 -99999 -99999 -99999 -99999 -99999 -99999 -99999 -99999 -99999 -99999 -99999 -99999 -99999 -99999 -99999 -99999 -99999 -99999 -99999 -99999 -99999 -99999 -99999 -99999 -99999 -99999 -99999 -99999 -99999 -99999 -99999 -99999 -99999 -99999 -99999 -99999 -99999 -99999 -99999 -99999 -99999 -99999 -99999 -99999 -99999 -99999 -99999 -99999 -99999 -99999 -99999 -99999 -99999 -99999 -99999 -99999 -99999 -99999 -99999 -99999 -99999 -99999 -99999 -99999 -99999 -99999 -99999 -99999 -99999 -99999 -99999 -99999 -99999 -99999 -99999 -99999 -99999 -99999 -99999 -99999 -99999 51.238037109375 52.28881072998046875 53.797332763671875 55.463134765625 57.3863372802734375 59.542743682861328125 61.869228363037109375 64.2982025146484375 66.76593780517578125 69.24114227294921875 71.69429779052734375 74.0967864990234375 76.40145111083984375 78.6474609375 80.8040313720703125 82.86656951904296875 84.85404205322265625 86.7716827392578125 88.61872100830078125 90.34061431884765625 92.00527191162109375 93.46533203125 94.5630645751953125 95.1614227294921875 95.2154541015625 94.60793304443359375 92.858306884765625 90.00229644775390625 86.2914886474609375 81.82265472412109375 76.52220916748046875 70.98043060302734375 66.733154296875 64.24564361572265625 63.209751129150390625 63.381023406982421875 64.53050994873046875 66.1841888427734375 68.04573822021484375 69.9988861083984375 71.81884765625 73.26421356201171875 74.332550048828125 75.2324371337890625 75.81876373291015625 75.9221343994140625 75.9825592041015625 75.92047119140625 75.7638702392578125 75.77845001220703125 75.869476318359375 76.22069549560546875 76.5235595703125 77.108062744140625 77.87050628662109375 78.7534332275390625 79.73126220703125 80.9793243408203125 82.08756256103515625 83.36057281494140625 84.721893310546875 86.01789093017578125 87.389984130859375 88.727691650390625 89.97393035888671875 90.86434173583984375 91.82788848876953125 92.15074920654296875 91.88567352294921875 90.86713409423828125 88.5231170654296875 84.73668670654296875 80.06246185302734375 75.208648681640625 72.1480255126953125 69.791229248046875 66.383148193359375 60.8560028076171875 54.07111358642578125 46.39685821533203125 38.750400543212890625 -99999 -99999 -99999 -99999 -99999
 -99999 -99999 -99999 -99999 -99999 -99999 -99999 -99999 -99999 -99999 -99999 -99999 -99999 -99999 -99999 -99999 -99999 -99999 -99999 -99999 -99999 -99999 -99999 -99999 -99999 -99999 -99999 -99999 -99999 -99999 -99999 -99999 -99999 -99999 -99999 -99999 -99999 -99999 -99999 -99999 -99999 -99999 -99999 -99999 -99999 -99999 -99999 -99999 -99999 -99999 -99999 -99999 -99999 -99999 -99999 -99999 -99999 -99999 -99999 -99999 -99999 -99999 -99999 -99999 -99999 -99999 -99999 -99999 -99999 -99999 -99999 -99999 -99999 -99999 -99999 -99999 -99999 -99999 -99999 -99999 -99999 -99999 -99999 -99999 -99999 -99999 -99999 -99999 -99999 -99999 -99999 -99999 -99999 -99999 -99999 -99999 -99999 -99999 -99999 -99999 -99999 -99999 -99999 -99999 -99999 -99999 -99999 -99999 -99999 -99999 -99999 -99999 -99999 -99999 -99999 -99999 -99999 -99999 -99999 -99999 -99999 -99999 -99999 -99999 -99999 -99999 -99999 -99999 -99999 -99999 -99999 -99999 -99999 -99999 -99999 -99999 -99999 -99999 -99999 -99999 -99999 50.6738128662109375 51.01517486572265625 51.730136871337890625 52.9417724609375 54.55141448974609375 56.5137786865234375 58.74552154541015625 61.225757598876953125 63.8390350341796875 66.55042266845703125 69.302764892578125 72.0413818359375 74.7466888427734375 77.38140869140625 79.9217987060546875 82.3415985107421875 84.6750030517578125 86.8415069580078125 88.9076690673828125 90.91400146484375 92.77860260009765625 94.5828857421875 96.23442840576171875 97.66217041015625 98.83172607421875 99.44158172607421875 99.1087646484375 97.8631134033203125 95.60660552978515625 92.2428436279296875 87.96849822998046875 82.98577880859375 77.69051361083984375 72.42485809326171875 67.985809326171875 64.79428863525390625 63.427242279052734375 63.771793365478515625 65.07938385009765625 67.05517578125 69.37036895751953125 71.60467529296875 73.590423583984375 75.37227630615234375 76.7935791015625 77.5448150634765625 77.76174163818359375 77.78041839599609375 77.62412261962890625 77.21970367431640625 76.78460693359375 76.3420562744140625 76.17650604248046875 76.0227813720703125 76.144622802734375 76.54332733154296875 77.07961273193359375 77.88818359375 78.74759674072265625 79.89223480224609375 81.09749603271484375 82.38990020751953125 83.739410400390625 85.1615142822265625 86.61486053466796875 88.103759765625 89.59459686279296875 90.9944915771484375 92.19744873046875 93.06150054931640625 93.4281463623046875 92.84088897705078125 91.11861419677734375 87.56496429443359375 81.7093658447265625 76.25031280517578125 72.45697021484375 69.712158203125 66.23955535888671875 61.137714385986328125 54.916500091552734375 47.97315216064453125 -99999 -99999 -99999 -99999 -99999 -99999
 -99999 -99999 -99999 -99999 -99999 -99999 -99999 -99999 -99999 -99999 -99999 -99999 -99999 -99999 -99999 -99999 -99999 -99999 -99999 -99999 -99999 -99999 -99999 -99999 -99999 -99999 -99999 -99999 -99999 -99999 -99999 -99999 -99999 -99999 -99999 -99999 -99999 -99999 -99999 -99999 -99999 -99999 -99999 -99999 -99999 -99999 -99999 -99999 -99999 -99999 -99999 -99999 -99999 -99999 -99999 -99999 -99999 -99999 -99999 -99999 -99999 -99999 -99999 -99999 -99999 -99999 -99999 -99999 -99999 -99999 -99999 -99999 -99999 -99999 -99999 -99999 -99999 -99999 -99999 -99999 -99999 -99999 -99999 -99999 -99999 -99999 -99999 -99999 -99999 -99999 -99999 -99999 -99999 -99999 -99999 -99999 -99999 -99999 -99999 -99999 -99999 -99999 -99999 -99999 -99999 -99999 -99999 -99999 -99999 -99999 -99999 -99999 -99999 -99999 -99999 -99999 -99999 -99999 -99999 -99999 -99999 -99999 -99999 -99999 -99999 -99999 -99999 -99999 -99999 -99999 -99999 -99999 -99999 -99999 -99999 -99999 -99999 -99999 -99999 -99999 51.2099151611328125 50.97260284423828125 51.178680419921875 52.1783294677734375 53.6616363525390625 55.435184478759765625 57.6217193603515625 60.145336151123046875 62.980381011962890625 65.84368896484375 68.8984527587890625 71.97002410888671875 75.00067138671875 77.96353912353515625 80.78388214111328125 83.49155426025390625 86.0634307861328125 88.50229644775390625 90.802398681640625 92.94136810302734375 94.9427337646484375 96.81996917724609375 98.58612060546875 100.19727325439453125 101.60400390625 102.7141265869140625 103.36544036865234375 102.83147430419921875 100.9765472412109375 98.1683197021484375 94.48419952392578125 90.0317535400390625 85.1151275634765625 79.9478302001953125 75.03079986572265625 70.7503204345703125 67.46404266357421875 65.80387115478515625 65.62839508056640625 67.10320281982421875 69.2808990478515625 71.68730926513671875 74.179290771484375 76.486968994140625 78.231048583984375 79.42144012451171875 80.1528472900390625 80.4006195068359375 80.1275787353515625 79.43312835693359375 78.549530029296875 77.6077728271484375 76.81121063232421875 76.26409912109375 75.80306243896484375 75.63260650634765625 75.81188201904296875 76.2235870361328125 76.86000823974609375 77.77706146240234375 78.7924957275390625 79.87903594970703125 81.1640777587890625 82.56502532958984375 83.8889923095703125 85.52426910400390625 87.140716552734375 88.7807769775390625 90.49517059326171875 92.1241912841796875 93.4183197021484375 94.28513336181640625 94.463897705078125 93.68856048583984375 90.78061676025390625 85.281646728515625 78.9263763427734375 74.57782745361328125 70.66846466064453125 66.43926239013671875 61.37366485595703125 55.5420989990234375 49.027896881103515625 -99999 -99999 -99999 -99999 -99999 -99999
 -99999 -99999 -99999 -99999 -99999 -99999 -99999 -99999 -99999 -99999 -99999 -99999 -99999 -99999 -99999 -99999 -99999 -99999 -99999 -99999 -99999 -99999 -99999 -99999 -99999 -99999 -99999 -99999 -99999 -99999 -99999 -99999 -99999 -99999 -99999 -99999 -99999 -99999 -99999 -99999 -99999 -99999 -99999 -99999 -99999 -99999 -99999 -99999 -99999 -99999 -99999 -99999 -99999 -99999 -99999 -99999 -99999 -99999 -99999 -99999 -99999 -99999 -99999 -99999 -99999 -99999 -99999 -99999 -99999 -99999 -99999 -99999 -99999 -99999 -99999 -99999 -99999 -99999 -99999 -99999 -99999 -99999 -99999 -99999 -99999 -99999 -99999 -99999 -99999 -99999 -99999 -99999 -99999 -99999 -99999 -99999 -99999 -99999 -99999 -99999 -99999 -99999 -99999 -99999 -99999 -99999 -99999 -99999 -99999 -99999 -99999 -99999 -99999 -99999 -99999 -99999 -99999 -99999 -99999 -99999 78.83579254150390625 77.70587921142578125 76.45479583740234375 74.96979522705078125 73.39521026611328125 71.76728057861328125 70.114410400390625 68.369232177734375 66.62424468994140625 64.86069488525390625 63.15918731689453125 61.578929901123046875 59.9277496337890625 58.37560272216796875 57.02008056640625 55.7317352294921875 54.625110626220703125 53.57208251953125 53.012935638427734375 52.309551239013671875 51.299747467041015625 51.19623565673828125 51.74042510986328125 52.756801605224609375 54.400402069091796875 56.5324249267578125 59.05945587158203125 61.80745697021484375 64.8062591552734375 67.9689178466796875 71.44158172607421875 74.7351837158203125 78.018951416015625 81.23265838623046875 84.304168701171875 87.210906982421875 89.893707275390625 92.40478515625 94.724151611328125 96.887237548828125 98.87201690673828125 100.6705780029296875 102.36495208740234375 103.83365631103515625 105.094879150390625 106.05275726318359375 106.61661529541015625 106.11728668212890625 103.85950469970703125 100.79557037353515625 96.95491790771484375 92.55355072021484375 87.86695098876953125 82.96454620361328125 78.34314727783203125 74.4479522705078125 71.4937744140625 69.71825408935546875 69.4996337890625 70.4371337890625 72.66454315185546875 75.12642669677734375 77.63165283203125 79.9057769775390625 81.74853515625 83.01508331298828125 83.48990631103515625 83.11602783203125 82.32379913330078125 81.18083953857421875 79.8705596923828125 78.477142333984375 77.14859771728515625 76.13924407958984375 75.3514404296875 74.89134979248046875 74.87516021728515625 75.14836883544921875 75.68923187255859375 76.35834503173828125 77.46982574462890625 78.53839874267578125 79.80777740478515625 81.0843353271484375 82.5815887451171875 84.06093597412109375 85.62325286865234375 87.4166412353515625 89.30365753173828125 91.24163818359375 93.05126190185546875 94.4895477294921875 95.25151824951171875 95.1305694580078125 92.8008575439453125 87.76892852783203125 81.7889556884765625 76.47061920166015625 71.5607757568359375 66.76276397705078125 61.43918609619140625 55.662425994873046875 -99999 -99999 -99999 -99999 -99999 -99999 -99999
 -99999 -99999 -99999 -99999 -99999 -99999 -99999 -99999 -99999 -99999 -99999 -99999 -99999 -99999 -99999 -99999 -99999 -99999 -99999 -99999 -99999 -99999 -99999 -99999 -99999 -99999 -99999 -99999 -99999 -99999 -99999 -99999 -99999 -99999 -99999 -99999 -99999 -99999 -99999 -99999 -99999 -99999 -99999 -99999 -99999 -99999 -99999 -99999 -99999 -99999 -99999 -99999 -99999 -99999 -99999 -99999 -99999 -99999 -99999 -99999 -99999 -99999 -99999 -99999 -99999 -99999 -99999 -99999 -99999 -99999 -99999 -99999 -99999 -99999 -99999 -99999 -99999 -99999 -99999 -99999 -99999 -99999 -99999 -99999 -99999 -99999 -99999 -99999 -99999 -99999 -99999 -99999 -99999 -99999 -99999 -99999 -99999 -99999 -99999 -99999 -99999 -99999 -99999 54.92440032958984375 57.342655181884765625 60.3637237548828125 63.585735321044921875 66.81534576416015625 69.90484619140625 72.87640380859375 75.6013336181640625 78.01187896728515625 80.00128936767578125 81.58982086181640625 82.732452392578125 83.44266510009765625 83.74613189697265625 83.78617095947265625 83.17101287841796875 82.4306182861328125 81.4484100341796875 80.181060791015625 78.73681640625 77.168792724609375 75.37078094482421875 73.60071563720703125 71.751861572265625 69.89461517333984375 67.95835113525390625 66.15885162353515625 64.41307830810546875 62.655597686767578125 60.9949493408203125 59.4828948974609375 57.899181365966796875 56.646739959716796875 55.408557891845703125 54.28023529052734375 53.355438232421875 52.652538299560546875 51.894588470458984375 51.44122314453125 51.8879547119140625 53.34952545166015625 55.37615966796875 57.73486328125 60.483180999755859375 63.5746002197265625 66.92613983154296875 70.3757171630859375 73.9527587890625 77.63138580322265625 81.28265380859375 84.70073699951171875 87.92566680908203125 90.96318817138671875 93.79096221923828125 96.37668609619140625 98.67539215087890625 100.79982757568359375 102.71884918212890625 104.413818359375 105.8749847412109375 107.163970947265625 108.195159912109375 108.79669952392578125 109.15042877197265625 108.3858184814453125 106.36145782470703125 103.37401580810546875 99.6744537353515625 95.469329833984375 90.99616241455078125 86.58731842041015625 82.44846343994140625 78.84981536865234375 76.08928680419921875 74.5777435302734375 74.22652435302734375 75.1768798828125 76.91371917724609375 79.18204498291015625 81.75634002685546875 84.02666473388671875 85.75582122802734375 86.71624755859375 86.93199920654296875 86.22753143310546875 84.7900543212890625 83.0869140625 80.963348388671875 78.8999176025390625 77.1239471435546875 75.73041534423828125 74.571075439453125 73.84522247314453125 73.7152099609375 73.91419219970703125 74.411834716796875 75.151336669921875 75.94879150390625 77.05321502685546875 78.25701141357421875 79.434661865234375 80.87353515625 82.13703155517578125 83.6807403564453125 85.45922088623046875 87.46823883056640625 89.599273681640625 91.6674957275390625 93.42440032958984375 94.35573577880859375 94.3542022705078125 92.39127349853515625 87.97759246826171875 82.5451812744140625 77.21292877197265625 72.0740814208984375 66.74791717529296875 61.3518524169921875 55.47235870361328125 -99999 -99999 -99999 -99999 -99999 -99999 -99999
 -99999 -99999 -99999 -99999 -99999 -99999 -99999 -99999 -99999 -99999 -99999 -99999 -99999 -99999 -99999 -99999 -99999 -99999 -99999 -99999 -99999 -99999 -99999 -99999 -99999 -99999 -99999 -99999 -99999 -99999 -99999 -99999 -99999 -99999 -99999 -99999 -99999 -99999 -99999 -99999 -99999 -99999 -99999 -99999 -99999 -99999 -99999 -99999 -99999 -99999 -99999 -99999 -99999 -99999 -99999 -99999 -99999 -99999 -99999 -99999 -99999 -99999 -99999 -99999 -99999 -99999 -99999 -99999 -99999 -99999 -99999 -99999 -99999 -99999 -99999 -99999 -99999 -99999 -99999 -99999 -99999 -99999 -99999 -99999 -99999 -99999 -99999 -99999 -99999 -99999 -99999 -99999 -99999 -99999 -99999 -99999 -99999 -99999 -99999 -99999 -99999 -99999 53.873828887939453125 55.331562042236328125 58.6507720947265625 62.460681915283203125 66.06951141357421875 69.504852294921875 72.8939666748046875 76.0534515380859375 78.89968109130859375 81.4151153564453125 83.51639556884765625 85.10512542724609375 86.18187713623046875 86.8229522705078125 87.049041748046875 86.88861846923828125 86.16886138916015625 85.2332763671875 84.009765625 82.5627899169921875 80.96312713623046875 79.1890411376953125 77.287139892578125 75.3779144287109375 73.42498779296875 71.435302734375 69.46112060546875 67.501312255859375 65.61949920654296875 63.820850372314453125 61.9892730712890625 60.3631591796875 58.72216796875 57.340274810791015625 56.043514251708984375 54.92395782470703125 53.9355621337890625 52.920070648193359375 52.143268585205078125 51.132488250732421875 52.321727752685546875 54.2970733642578125 56.59241485595703125 59.191925048828125 62.13787078857421875 65.39597320556640625 69.0211029052734375 72.93868255615234375 76.88733673095703125 80.80579376220703125 84.569305419921875 88.3167877197265625 91.78905487060546875 94.90769195556640625 97.753753662109375 100.37982940673828125 102.661163330078125 104.66748809814453125 106.4338226318359375 107.9475250244140625 109.2493133544921875 110.37287139892578125 111.2149810791015625 111.61293792724609375 111.45526123046875 110.60579681396484375 108.66180419921875 105.91024017333984375 102.50240325927734375 98.6871337890625 94.61835479736328125 90.5467529296875 86.7503204345703125 83.60211944580078125 81.26099395751953125 79.88495635986328125 79.6013031005859375 80.31183624267578125 81.829071044921875 83.90538787841796875 86.435028076171875 88.64325714111328125 90.218017578125 90.87024688720703125 90.5492095947265625 89.25112152099609375 87.19693756103515625 84.4912872314453125 81.787017822265625 79.1455230712890625 76.7439422607421875 74.9008026123046875 73.65282440185546875 72.69925689697265625 72.328338623046875 72.425445556640625 72.79280853271484375 73.49151611328125 74.36809539794921875 75.4868316650390625 76.655120849609375 77.8523406982421875 78.89571380615234375 79.930999755859375 81.2214813232421875 82.9605255126953125 84.823516845703125 87.06756591796875 89.4121551513671875 91.4068145751953125 92.1905975341796875 91.8056488037109375 89.77823638916015625 86.387908935546875 81.73138427734375 76.70767974853515625 71.54209136962890625 66.15670013427734375 60.707576751708984375 -99999 -99999 -99999 -99999 -99999 -99999 -99999 -99999
 -99999 -99999 -99999 -99999 -99999 -99999 -99999 -99999 -99999 -99999 -99999 -99999 -99999 -99999 -99999 -99999 -99999 -99999 -99999 -99999 -99999 -99999 -99999 -99999 -99999 -99999 -99999 -99999 -99999 -99999 -99999 -99999 -99999 -99999 -99999 -99999 -99999 -99999 -99999 -99999 -99999 -99999 -99999 -99999 -99999 -99999 -99999 -99999 -99999 -99999 -99999 -99999 -99999 -99999 -99999 -99999 -99999 -99999 -99999 -99999 -99999 -99999 -99999 -99999 -99999 -99999 -99999 -99999 -99999 -99999 -99999 -99999 -99999 -99999 -99999 -99999 -99999 -99999 -99999 -99999 -99999 -99999 -99999 -99999 -99999 -99999 -99999 -99999 -99999 -99999 -99999 -99999 -99999 -99999 -99999 -99999 -99999 -99999 -99999 -99999 -99999 -99999 54.284671783447265625 56.511486053466796875 61.087574005126953125 65.2502288818359375 68.93182373046875 72.561798095703125 76.0686492919921875 79.42507171630859375 82.479949951171875 85.05091094970703125 87.132110595703125 88.76786041259765625 89.82672119140625 90.32515716552734375 90.32155609130859375 89.9082183837890625 89.10613250732421875 87.97003173828125 86.58554840087890625 84.9322509765625 83.12281036376953125 81.22800445556640625 79.14501953125 77.07227325439453125 74.95767974853515625 72.91009521484375 70.77352142333984375 68.7731475830078125 66.80902099609375 64.890228271484375 63.0962677001953125 61.3480072021484375 59.6829986572265625 58.321308135986328125 56.746051788330078125 55.5304718017578125 54.5609588623046875 53.254055023193359375 51.993099212646484375 51.907382965087890625 53.53166961669921875 55.85282135009765625 58.230255126953125 60.85321044921875 63.95648193359375 67.5718841552734375 71.4735107421875 75.57929229736328125 79.8371734619140625 84.17794036865234375 88.2448577880859375 92.11290740966796875 95.70430755615234375 98.94121551513671875 101.83451080322265625 104.41410064697265625 106.65070343017578125 108.5590972900390625 110.21356964111328125 111.5554351806640625 112.61786651611328125 113.39458465576171875 114.14981842041015625 114.41205596923828125 114.0890655517578125 113.06273651123046875 111.25444793701171875 108.72357940673828125 105.56423187255859375 102.03389739990234375 98.33113861083984375 94.73508453369140625 91.42394256591796875 88.5949859619140625 86.4849700927734375 85.19011688232421875 84.91811370849609375 85.56334686279296875 86.98016357421875 88.96234130859375 91.36377716064453125 93.294891357421875 94.58219146728515625 94.991180419921875 94.36626434326171875 92.48795318603515625 89.25441741943359375 85.82958984375 82.0569000244140625 78.67604827880859375 75.97383880615234375 73.75121307373046875 72.06768798828125 71.11505889892578125 70.66388702392578125 70.84630584716796875 71.270294189453125 71.9811553955078125 72.73484039306640625 73.8343963623046875 74.81371307373046875 75.8530426025390625 76.930450439453125 77.58690643310546875 78.5453643798828125 79.7105865478515625 81.5012359619140625 83.5851898193359375 86.058868408203125 88.02325439453125 88.8563232421875 88.2053985595703125 86.41046905517578125 83.51554107666015625 79.5942840576171875 74.9599761962890625 70.10953521728515625 64.855682373046875 59.512012481689453125 -99999 -99999 -99999 -99999 -99999 -99999 -99999 -99999
 -99999 -99999 -99999 -99999 -99999 -99999 -99999 -99999 -99999 -99999 -99999 -99999 -99999 -99999 -99999 -99999 -99999 -99999 -99999 -99999 -99999 -99999 -99999 -99999 -99999 -99999 -99999 -99999 -99999 -99999 -99999 -99999 -99999 -99999 -99999 -99999 -99999 -99999 -99999 -99999 -99999 -99999 -99999 -99999 -99999 -99999 -99999 -99999 -99999 -99999 -99999 -99999 -99999 -99999 -99999 -99999 -99999 -99999 -99999 -99999 -99999 -99999 -99999 -99999 -99999 -99999 -99999 -99999 -99999 -99999 -99999 -99999 -99999 -99999 -99999 -99999 -99999 -99999 -99999 -99999 -99999 -99999 -99999 -99999 -99999 -99999 -99999 -99999 -99999 -99999 -99999 -99999 -99999 -99999 -99999 -99999 -99999 -99999 -99999 -99999 -99999 -99999 56.994464874267578125 60.214046478271484375 64.7980499267578125 68.77851104736328125 72.16544342041015625 75.87874603271484375 79.55309295654296875 82.97647857666015625 86.19011688232421875 88.7737274169921875 91.1062164306640625 92.57004547119140625 93.41719818115234375 93.80786895751953125 93.67865753173828125 93.0787811279296875 92.16443634033203125 90.680877685546875 88.9586944580078125 87.17084503173828125 85.19306182861328125 83.0867767333984375 80.84323883056640625 78.69661712646484375 76.46942901611328125 74.266937255859375 72.113616943359375 70.006866455078125 68.00146484375 66.055084228515625 64.195587158203125 62.43837738037109375 60.62181854248046875 59.1726226806640625 57.835285186767578125 56.550167083740234375 55.339832305908203125 54.334136962890625 53.67996978759765625 53.707653045654296875 55.792079925537109375 58.293323516845703125 60.303501129150390625 62.89025115966796875 66.0442352294921875 69.7527923583984375 73.9499359130859375 78.576934814453125 83.1903228759765625 87.75972747802734375 92.10146331787109375 96.06511688232421875 99.74117279052734375 103.07347869873046875 106.0318145751953125 108.5867919921875 110.78633880615234375 112.5682220458984375 113.99430084228515625 115.13315582275390625 116.09705352783203125 116.8189697265625 117.29111480712890625 117.43279266357421875 116.95452880859375 115.78887939453125 114.00530242919921875 111.65113067626953125 108.81180572509765625 105.65566253662109375 102.29979705810546875 99.03897857666015625 96.02243804931640625 93.43422698974609375 91.584442138671875 90.51873779296875 90.2181396484375 90.67476654052734375 91.83890533447265625 93.62386322021484375 95.6486358642578125 97.42449188232421875 98.697998046875 99.1880645751953125 98.13189697265625 95.09210968017578125 91.006683349609375 86.26361846923828125 81.70531463623046875 77.710540771484375 74.3440399169921875 71.99798583984375 70.47615814208984375 69.3715667724609375 68.85231781005859375 69.09992218017578125 69.48920440673828125 70.185638427734375 71.14696502685546875 72.16251373291015625 73.27263641357421875 74.305023193359375 74.8661956787109375 75.2714691162109375 75.5511322021484375 76.120452880859375 77.29611968994140625 79.93050384521484375 81.96381378173828125 83.52008056640625 84.315887451171875 84.0006866455078125 82.58258056640625 80.23020172119140625 76.62725830078125 72.477691650390625 67.81946563720703125 62.79004669189453125 -99999 -99999 -99999 -99999 -99999 -99999 -99999 -99999 -99999
 -99999 -99999 -99999 -99999 -99999 -99999 -99999 -99999 -99999 -99999 -99999 -99999 -99999 -99999 -99999 -99999 -99999 -99999 -99999 -99999 -99999 -99999 -99999 -99999 -99999 -99999 -99999 -99999 -99999 -99999 -99999 -99999 -99999 -99999 -99999 -99999 -99999 -99999 -99999 -99999 -99999 -99999 -99999 -99999 -99999 -99999 -99999 -99999 -99999 -99999 -99999 -99999 -99999 -99999 -99999 -99999 -99999 -99999 -99999 -99999 -99999 -99999 -99999 -99999 -99999 -99999 -99999 -99999 -99999 -99999 -99999 -99999 -99999 -99999 -99999 -99999 -99999 -99999 -99999 -99999 -99999 -99999 -99999 -99999 -99999 -99999 -99999 -99999 -99999 -99999 -99999 -99999 -99999 -99999 -99999 -99999 -99999 -99999 -99999 -99999 -99999 57.9889678955078125 60.694667816162109375 64.30519866943359375 68.33666229248046875 71.8321533203125 75.3144378662109375 79.15795135498046875 83.21605682373046875 86.88648223876953125 90.21677398681640625 92.84066009521484375 94.93453216552734375 96.36170196533203125 97.1710662841796875 97.40598297119140625 96.95662689208984375 96.017364501953125 94.85515594482421875 93.20893096923828125 91.32555389404296875 89.3129119873046875 87.10064697265625 84.9070587158203125 82.46543121337890625 80.17337799072265625 77.85793304443359375 75.64287567138671875 73.357391357421875 71.23191070556640625 69.14704132080078125 67.1717376708984375 65.317291259765625 63.553737640380859375 61.8782501220703125 60.423709869384765625 58.8219146728515625 57.67999267578125 56.8003997802734375 55.819202423095703125 55.748775482177734375 56.8072052001953125 58.483356475830078125 60.258544921875 62.390331268310546875 64.91176605224609375 68.20992279052734375 72.2579345703125 76.79535675048828125 81.67059326171875 86.7009735107421875 91.59088897705078125 96.16400909423828125 100.3604736328125 104.09017181396484375 107.37751007080078125 110.3381500244140625 112.8609619140625 114.96581268310546875 116.61429595947265625 117.932708740234375 118.990234375 119.754180908203125 120.4671630859375 120.75116729736328125 120.59999847412109375 119.98154449462890625 118.8441925048828125 117.167755126953125 114.878753662109375 112.2104949951171875 109.2991943359375 106.269256591796875 103.2816009521484375 100.60431671142578125 98.31015777587890625 96.54544830322265625 95.38304901123046875 94.9521331787109375 95.333709716796875 96.26357269287109375 97.6514434814453125 99.28265380859375 100.8836517333984375 102.058807373046875 102.5571441650390625 101.40825653076171875 97.58565521240234375 91.79140472412109375 85.944671630859375 80.2597198486328125 75.650360107421875 72.31939697265625 69.85672760009765625 68.25225067138671875 67.2430877685546875 67.0402984619140625 67.20809173583984375 67.66828155517578125 68.4219207763671875 69.40744781494140625 70.6530609130859375 71.58234405517578125 72.73111724853515625 73.3816680908203125 73.32003021240234375 72.8782958984375 71.9239349365234375 72.839874267578125 75.01248931884765625 77.5816497802734375 79.02584075927734375 79.7148590087890625 79.4049224853515625 78.2476959228515625 76.08219146728515625 72.939605712890625 69.26122283935546875 64.982513427734375 60.21622467041015625 -99999 -99999 -99999 -99999 -99999 -99999 -99999 -99999 -99999
 -99999 -99999 -99999 -99999 -99999 -99999 -99999 -99999 -99999 -99999 -99999 -99999 -99999 -99999 -99999 -99999 -99999 -99999 -99999 -99999 -99999 -99999 -99999 -99999 -99999 -99999 -99999 -99999 -99999 -99999 -99999 -99999 -99999 -99999 -99999 -99999 -99999 -99999 -99999 -99999 -99999 -99999 -99999 -99999 -99999 -99999 -99999 -99999 -99999 -99999 -99999 -99999 -99999 -99999 -99999 -99999 -99999 -99999 -99999 -99999 -99999 -99999 -99999 -99999 -99999 -99999 -99999 -99999 -99999 -99999 -99999 -99999 -99999 -99999 -99999 -99999 -99999 -99999 -99999 -99999 -99999 -99999 -99999 -99999 -99999 -99999 -99999 -99999 -99999 -99999 -99999 -99999 -99999 -99999 -99999 -99999 -99999 -99999 -99999 -99999 -99999 60.703136444091796875 63.8433990478515625 67.521148681640625 71.261199951171875 74.83766937255859375 78.50788116455078125 82.67882537841796875 86.91341400146484375 90.98006439208984375 94.24222564697265625 97.07308197021484375 99.04351806640625 100.32647705078125 100.8676300048828125 100.7357025146484375 100.11385345458984375 99.02542877197265625 97.58933258056640625 95.55358123779296875 93.5391693115234375 91.202667236328125 88.7730865478515625 86.3804168701171875 83.89908599853515625 81.52124786376953125 79.08014678955078125 76.81124114990234375 74.53464508056640625 72.35108184814453125 70.30518341064453125 68.326934814453125 66.47960662841796875 64.7563323974609375 63.021610260009765625 61.641139984130859375 60.495525360107421875 59.3935699462890625 58.5758209228515625 58.071964263916015625 58.129604339599609375 58.9278411865234375 60.508068084716796875 62.488739013671875 64.377593994140625 67.1357574462890625 70.64362335205078125 74.9209442138671875 79.755615234375 85.05413055419921875 90.63887786865234375 95.917236328125 100.60744476318359375 104.747039794921875 108.4652252197265625 111.75146484375 114.7004241943359375 117.22727203369140625 119.35638427734375 120.92313385009765625 122.0106353759765625 122.97035980224609375 123.81302642822265625 124.2783050537109375 124.4253997802734375 124.1802520751953125 123.455322265625 122.16065216064453125 120.4229888916015625 118.28827667236328125 115.7993316650390625 113.04232025146484375 110.25608062744140625 107.48329925537109375 104.9441070556640625 102.705413818359375 101.01027679443359375 99.900634765625 99.33935546875 99.31449127197265625 99.79103851318359375 100.79392242431640625 101.923797607421875 103.06815338134765625 104.07851409912109375 104.9154815673828125 103.6288909912109375 98.3096923828125 91.18099212646484375 83.89783477783203125 77.63397979736328125 72.68001556396484375 69.2922515869140625 67.0803375244140625 65.96593475341796875 65.50019073486328125 65.1641845703125 65.48358154296875 66.14022064208984375 66.81951141357421875 67.83039093017578125 68.9075775146484375 70.364410400390625 71.5626068115234375 72.36232757568359375 72.24715423583984375 71.2409820556640625 69.53455352783203125 68.5717620849609375 70.53635406494140625 73.10753631591796875 74.49622344970703125 75.0569915771484375 74.89357757568359375 73.77616119384765625 71.70220947265625 69.04071807861328125 65.4641876220703125 61.4384002685546875 -99999 -99999 -99999 -99999 -99999 -99999 -99999 -99999 -99999 -99999
 -99999 -99999 -99999 -99999 -99999 -99999 -99999 -99999 -99999 -99999 -99999 -99999 -99999 -99999 -99999 -99999 -99999 -99999 -99999 -99999 -99999 -99999 -99999 -99999 -99999 -99999 -99999 -99999 -99999 -99999 -99999 -99999 -99999 -99999 -99999 -99999 -99999 -99999 -99999 -99999 -99999 -99999 -99999 -99999 -99999 -99999 -99999 -99999 -99999 -99999 -99999 -99999 -99999 -99999 -99999 -99999 -99999 -99999 -99999 -99999 -99999 -99999 -99999 -99999 -99999 -99999 -99999 -99999 -99999 -99999 -99999 -99999 -99999 -99999 -99999 -99999 -99999 -99999 -99999 -99999 -99999 -99999 -99999 -99999 -99999 -99999 -99999 -99999 -99999 -99999 -99999 -99999 -99999 -99999 -99999 -99999 -99999 -99999 -99999 -99999 -99999 63.299350738525390625 66.79744720458984375 70.38065338134765625 74.3214263916015625 78.16796112060546875 82.04576873779296875 86.4720611572265625 90.87279510498046875 95.17165374755859375 98.581085205078125 101.14990234375 102.9818572998046875 104.055023193359375 104.43117523193359375 104.1527862548828125 103.17547607421875 101.55605316162109375 99.84295654296875 97.7079620361328125 95.26027679443359375 92.8648529052734375 90.25670623779296875 87.74927520751953125 85.13201141357421875 82.637237548828125 80.20256805419921875 77.88489532470703125 75.5746612548828125 73.4365997314453125 71.386077880859375 69.4594573974609375 67.69687652587890625 66.0365753173828125 64.50380706787109375 63.22927093505859375 61.9913330078125 61.11397552490234375 60.6844024658203125 60.47991943359375 60.675830841064453125 61.743289947509765625 63.10897064208984375 64.7750244140625 67.0704803466796875 69.9015655517578125 73.4755706787109375 77.70896148681640625 82.731292724609375 88.82219696044921875 94.97669219970703125 100.49994659423828125 105.30200958251953125 109.36292266845703125 112.9783782958984375 116.0890655517578125 118.951995849609375 121.6384124755859375 123.92977142333984375 125.453125 126.52185821533203125 127.379791259765625 128.056365966796875 128.4410247802734375 128.412078857421875 127.9174346923828125 127.04637908935546875 125.70876312255859375 123.952117919921875 121.84951019287109375 119.46735382080078125 116.8306732177734375 114.09838104248046875 111.457733154296875 109.040283203125 106.89394378662109375 105.10772705078125 103.755035400390625 102.95532989501953125 102.64942169189453125 102.69208526611328125 102.96634674072265625 103.41156768798828125 103.9625701904296875 104.15386962890625 103.5946044921875 101.2110595703125 96.1778717041015625 88.6188812255859375 80.37255096435546875 73.72353363037109375 68.9588623046875 65.87763214111328125 64.199920654296875 63.606113433837890625 63.517665863037109375 63.702350616455078125 63.919002532958984375 64.4913330078125 65.131378173828125 65.926483154296875 67.2620849609375 68.843231201171875 70.6887359619140625 72.112274169921875 71.9084625244140625 71.0514984130859375 69.48392486572265625 67.9952392578125 68.43947601318359375 69.61229705810546875 70.58411407470703125 70.947967529296875 70.52576446533203125 69.27802276611328125 67.38326263427734375 64.7633209228515625 61.551502227783203125 57.73722076416015625 -99999 -99999 -99999 -99999 -99999 -99999 -99999 -99999 -99999 -99999
 -99999 -99999 -99999 -99999 -99999 -99999 -99999 -99999 -99999 -99999 -99999 -99999 -99999 -99999 -99999 -99999 -99999 -99999 -99999 -99999 -99999 -99999 -99999 -99999 -99999 -99999 -99999 -99999 -99999 -99999 -99999 -99999 -99999 -99999 -99999 -99999 -99999 -99999 -99999 -99999 -99999 -99999 -99999 -99999 -99999 -99999 -99999 -99999 -99999 -99999 -99999 -99999 -99999 -99999 -99999 -99999 -99999 -99999 -99999 -99999 -99999 -99999 -99999 -99999 -99999 -99999 -99999 -99999 -99999 -99999 -99999 -99999 -99999 -99999 -99999 -99999 -99999 -99999 -99999 -99999 -99999 -99999 -99999 -99999 -99999 -99999 -99999 -99999 -99999 -99999 -99999 -99999 -99999 -99999 -99999 -99999 -99999 -99999 -99999 -99999 61.9583282470703125 65.6426239013671875 69.39481353759765625 73.37432098388671875 77.3388824462890625 81.62481689453125 85.883758544921875 90.47905731201171875 95.08521270751953125 99.59333038330078125 102.63993072509765625 105.145782470703125 106.899688720703125 107.833831787109375 107.7471466064453125 107.03240966796875 105.8658905029296875 104.0311126708984375 101.83392333984375 99.366729736328125 96.8294525146484375 94.16790771484375 91.38724517822265625 88.71938323974609375 86.1143035888671875 83.583831787109375 81.10019683837890625 78.7831573486328125 76.542938232421875 74.4217681884765625 72.42638397216796875 70.586212158203125 68.87459564208984375 67.32935333251953125 65.956451416015625 64.7649993896484375 63.97216033935546875 63.266448974609375 62.92746734619140625 62.93781280517578125 63.35865020751953125 64.35587310791015625 65.929229736328125 67.9611663818359375 70.1854095458984375 73.071258544921875 76.663177490234375 80.76338958740234375 86.12511444091796875 93.1603240966796875 100.04212188720703125 105.70951080322265625 110.347320556640625 114.00151824951171875 117.23824310302734375 120.20073699951171875 123.03524017333984375 125.78900909423828125 128.38922119140625 130.2053070068359375 131.2169647216796875 131.98828125 132.5158538818359375 132.6797027587890625 132.489227294921875 131.8757781982421875 130.866302490234375 129.4573211669921875 127.63944244384765625 125.48590850830078125 123.06612396240234375 120.52347564697265625 117.9295806884765625 115.32425689697265625 112.86090087890625 110.65355682373046875 108.77681732177734375 107.24990081787109375 106.1358184814453125 105.3184051513671875 104.79149627685546875 104.44170379638671875 104.191741943359375 103.45855712890625 102.4942626953125 100.7811431884765625 97.45195770263671875 91.68762969970703125 83.90558624267578125 75.27309417724609375 68.8991241455078125 64.9592437744140625 62.47306060791015625 61.409511566162109375 61.497035980224609375 62.341533660888671875 62.8571929931640625 63.117862701416015625 63.485805511474609375 63.761165618896484375 64.23297119140625 65.38405609130859375 67.23192596435546875 69.74786376953125 72.1345367431640625 72.4800567626953125 71.1028594970703125 69.29840087890625 67.69390106201171875 67.03920745849609375 67.25302886962890625 67.33612060546875 67.205169677734375 66.20777130126953125 64.8673553466796875 63.00392913818359375 60.468708038330078125 57.141086578369140625 -99999 -99999 -99999 -99999 -99999 -99999 -99999 -99999 -99999 -99999 -99999
 -99999 -99999 -99999 -99999 -99999 -99999 -99999 -99999 -99999 -99999 -99999 -99999 -99999 -99999 -99999 -99999 -99999 -99999 -99999 -99999 -99999 -99999 -99999 -99999 -99999 -99999 -99999 -99999 -99999 -99999 -99999 -99999 -99999 -99999 -99999 -99999 -99999 -99999 -99999 -99999 -99999 -99999 -99999 -99999 -99999 -99999 -99999 -99999 -99999 -99999 -99999 -99999 -99999 -99999 -99999 -99999 -99999 -99999 -99999 -99999 -99999 -99999 -99999 -99999 -99999 -99999 -99999 -99999 -99999 -99999 -99999 -99999 -99999 -99999 -99999 -99999 -99999 -99999 -99999 -99999 -99999 -99999 -99999 -99999 -99999 -99999 -99999 -99999 -99999 -99999 -99999 -99999 -99999 -99999 -99999 -99999 -99999 -99999 -99999 -99999 63.737030029296875 67.57819366455078125 71.65821075439453125 75.92354583740234375 80.078399658203125 84.7285614013671875 89.28353118896484375 94.12465667724609375 99.2362823486328125 103.4011077880859375 106.10720062255859375 108.654937744140625 110.425048828125 111.0377197265625 110.76628875732421875 109.59946441650390625 107.84905242919921875 105.83617401123046875 103.48101043701171875 100.74916839599609375 97.8713836669921875 95.06815338134765625 92.210601806640625 89.44208526611328125 86.80694580078125 84.26323699951171875 81.82016754150390625 79.5531005859375 77.3347625732421875 75.31905364990234375 73.41783905029296875 71.6421661376953125 70.09764862060546875 68.69174957275390625 67.48665618896484375 66.461883544921875 65.7677001953125 65.356597900390625 65.29669189453125 65.584442138671875 66.2995147705078125 67.38159942626953125 69.02109527587890625 71.00937652587890625 73.674285888671875 76.7459869384765625 80.3313446044921875 84.5291900634765625 90.518646240234375 98.35683441162109375 105.88721466064453125 111.17934417724609375 115.0912017822265625 118.400238037109375 121.34568023681640625 124.04189300537109375 126.7096405029296875 129.444580078125 132.3532257080078125 134.5970916748046875 135.8116302490234375 136.515716552734375 136.9599609375 137.044921875 136.73504638671875 135.964569091796875 134.778961181640625 133.2216644287109375 131.33135986328125 129.1702117919921875 126.74002838134765625 124.150482177734375 121.49658966064453125 118.9149932861328125 116.4261627197265625 114.1175079345703125 112.04454803466796875 110.240692138671875 108.7203826904296875 107.40946197509765625 106.31589508056640625 105.2949066162109375 104.09413909912109375 102.570648193359375 100.5711822509765625 97.330474853515625 92.76847076416015625 86.52101898193359375 78.5756683349609375 70.31548309326171875 64.63928985595703125 60.973361968994140625 59.290340423583984375 59.38031768798828125 60.34246826171875 61.7413482666015625 62.898479461669921875 63.19271087646484375 63.15291595458984375 62.96805572509765625 62.92496490478515625 63.249805450439453125 64.766754150390625 67.82523345947265625 71.585906982421875 72.78246307373046875 70.88727569580078125 68.6956939697265625 67.0078887939453125 66.0069427490234375 64.99945068359375 64.12442779541015625 63.365802764892578125 62.21680450439453125 60.6041259765625 58.4500732421875 55.832355499267578125 52.797878265380859375 -99999 -99999 -99999 -99999 -99999 -99999 -99999 -99999 -99999 -99999 -99999
 -99999 -99999 -99999 -99999 -99999 -99999 -99999 -99999 -99999 -99999 -99999 -99999 -99999 -99999 -99999 -99999 -99999 -99999 -99999 -99999 -99999 -99999 -99999 -99999 -99999 -99999 -99999 -99999 -99999 -99999 -99999 -99999 -99999 -99999 -99999 -99999 -99999 -99999 -99999 -99999 -99999 -99999 -99999 -99999 -99999 -99999 -99999 -99999 -99999 -99999 -99999 -99999 -99999 -99999 -99999 -99999 -99999 -99999 -99999 -99999 -99999 -99999 -99999 -99999 -99999 -99999 -99999 -99999 -99999 -99999 -99999 -99999 -99999 -99999 -99999 -99999 -99999 -99999 -99999 -99999 -99999 -99999 -99999 -99999 -99999 -99999 -99999 -99999 -99999 -99999 -99999 -99999 -99999 -99999 -99999 -99999 -99999 -99999 -99999 -99999 65.176361083984375 69.21723175048828125 73.4405364990234375 78.03757476806640625 82.62107086181640625 87.161590576171875 91.881072998046875 96.7677764892578125 101.56600189208984375 105.4442138671875 108.8430328369140625 111.91188812255859375 113.59236907958984375 113.402435302734375 112.7521820068359375 111.60821533203125 109.75757598876953125 107.19931793212890625 104.40966033935546875 101.52700042724609375 98.48865509033203125 95.534210205078125 92.608917236328125 89.8392791748046875 87.20041656494140625 84.72588348388671875 82.35693359375 80.16039276123046875 78.058929443359375 76.103118896484375 74.29447174072265625 72.64670562744140625 71.2546539306640625 69.97962188720703125 68.98773193359375 68.18520355224609375 67.71364593505859375 67.6102142333984375 67.790771484375 68.29103851318359375 69.16712188720703125 70.4887847900390625 72.394561767578125 74.670013427734375 77.28884124755859375 80.5439453125 84.6026763916015625 89.464111328125 96.18285369873046875 104.7420196533203125 111.8145904541015625 116.368316650390625 119.4810638427734375 122.2857666015625 125.07450103759765625 127.53844451904296875 130.04925537109375 132.960296630859375 136.008087158203125 138.4025421142578125 139.978759765625 141.00982666015625 141.515045166015625 141.445343017578125 140.9508819580078125 140.056427001953125 138.7664337158203125 137.1019439697265625 135.05755615234375 132.753753662109375 130.2762451171875 127.66228485107421875 124.95948028564453125 122.274139404296875 119.65801239013671875 117.21683502197265625 114.91490936279296875 112.80622100830078125 110.8948822021484375 109.13697052001953125 107.41527557373046875 105.60608673095703125 103.63216400146484375 101.26752471923828125 98.241607666015625 94.2103118896484375 89.13193511962890625 82.53591156005859375 74.9931640625 67.66194915771484375 61.915851593017578125 58.397953033447265625 57.18877410888671875 57.9796142578125 60.4661865234375 62.604343414306640625 64.1964874267578125 64.3243408203125 63.5325164794921875 62.462406158447265625 61.527984619140625 60.84332275390625 61.640697479248046875 64.33929443359375 68.75832366943359375 70.5706787109375 69.22721099853515625 67.43365478515625 65.61014556884765625 63.902736663818359375 62.5641937255859375 61.097232818603515625 59.656848907470703125 58.086215972900390625 56.175434112548828125 53.919361114501953125 51.2174224853515625 48.3042144775390625 -99999 -99999 -99999 -99999 -99999 -99999 -99999 -99999 -99999 -99999 -99999
 -99999 -99999 -99999 -99999 -99999 -99999 -99999 -99999 -99999 -99999 -99999 -99999 -99999 -99999 -99999 -99999 -99999 -99999 -99999 -99999 -99999 -99999 -99999 -99999 -99999 -99999 -99999 -99999 -99999 -99999 -99999 -99999 -99999 -99999 -99999 -99999 -99999 -99999 -99999 -99999 -99999 -99999 -99999 -99999 -99999 -99999 -99999 -99999 -99999 -99999 -99999 -99999 -99999 -99999 -99999 -99999 -99999 -99999 -99999 -99999 -99999 -99999 -99999 -99999 -99999 -99999 -99999 -99999 -99999 -99999 -99999 -99999 -99999 -99999 -99999 -99999 -99999 -99999 -99999 -99999 -99999 -99999 -99999 -99999 -99999 -99999 -99999 -99999 -99999 -99999 -99999 -99999 -99999 -99999 -99999 -99999 -99999 -99999 -99999 62.075931549072265625 66.18541717529296875 70.56945037841796875 74.905059814453125 79.4678955078125 84.312530517578125 89.13285064697265625 93.94889068603515625 99.0291900634765625 103.451446533203125 107.49930572509765625 111.0651397705078125 114.7336883544921875 115.5930633544921875 115.511688232421875 114.242645263671875 112.5829620361328125 110.60071563720703125 108.07001495361328125 105.15262603759765625 101.797271728515625 98.6283416748046875 95.53277587890625 92.5843963623046875 89.8188323974609375 87.30376434326171875 84.90706634521484375 82.60986328125 80.54236602783203125 78.5413055419921875 76.76369476318359375 75.10741424560546875 73.6036224365234375 72.3408203125 71.27895355224609375 70.47682952880859375 69.9026336669921875 69.73203277587890625 69.88465118408203125 70.15416717529296875 71.00385284423828125 72.216278076171875 73.83205413818359375 75.65062713623046875 78.14923858642578125 81.10042572021484375 84.58158111572265625 88.7630615234375 94.04306793212890625 100.9339599609375 108.81396484375 115.63956451416015625 119.47417449951171875 122.4312591552734375 125.40990447998046875 128.435455322265625 130.8834381103515625 133.7075042724609375 136.78900146484375 139.8993682861328125 142.53826904296875 144.3859100341796875 145.41461181640625 145.8530731201171875 145.8090667724609375 145.2684783935546875 144.2057647705078125 142.686187744140625 140.867401123046875 138.7339935302734375 136.337188720703125 133.702728271484375 130.958160400390625 128.2023468017578125 125.41954803466796875 122.65091705322265625 119.97776031494140625 117.42598724365234375 115.08647918701171875 112.72723388671875 110.41082763671875 108.16619873046875 105.79242706298828125 103.1893463134765625 100.0262298583984375 96.27405548095703125 91.7656097412109375 86.3804779052734375 80.06226348876953125 73.25032806396484375 66.6851806640625 61.440586090087890625 57.82010650634765625 56.669101715087890625 58.270191192626953125 61.86299896240234375 65.406219482421875 67.2222747802734375 67.0252532958984375 64.9858245849609375 62.731964111328125 60.990306854248046875 59.548938751220703125 58.774322509765625 60.38330078125 63.84122467041015625 66.486175537109375 66.53853607177734375 65.21469879150390625 63.43106842041015625 61.5565185546875 59.664691925048828125 57.913051605224609375 55.928554534912109375 53.898044586181640625 51.67552947998046875 49.34268951416015625 46.667881011962890625 -99999 -99999 -99999 -99999 -99999 -99999 -99999 -99999 -99999 -99999 -99999 -99999
 -99999 -99999 -99999 -99999 -99999 -99999 -99999 -99999 -99999 -99999 -99999 -99999 -99999 -99999 -99999 -99999 -99999 -99999 -99999 -99999 -99999 -99999 -99999 -99999 -99999 -99999 -99999 -99999 -99999 -99999 -99999 -99999 -99999 -99999 -99999 -99999 -99999 -99999 -99999 -99999 -99999 -99999 -99999 -99999 -99999 -99999 -99999 -99999 -99999 -99999 -99999 -99999 -99999 -99999 -99999 -99999 -99999 -99999 -99999 -99999 -99999 -99999 -99999 -99999 -99999 -99999 -99999 -99999 -99999 -99999 -99999 -99999 -99999 -99999 -99999 -99999 -99999 -99999 -99999 -99999 -99999 -99999 -99999 -99999 -99999 -99999 -99999 -99999 -99999 -99999 -99999 -99999 -99999 -99999 -99999 -99999 -99999 -99999 -99999 62.56768798828125 66.83361053466796875 71.16872406005859375 75.887847900390625 80.63257598876953125 85.40782928466796875 90.2770233154296875 95.02666473388671875 99.94280242919921875 104.4080047607421875 108.46889495849609375 112.20703887939453125 115.10643768310546875 116.11316680908203125 115.15689849853515625 114.48331451416015625 113.42118072509765625 111.079376220703125 108.05817413330078125 104.81107330322265625 101.35367584228515625 98.1282958984375 94.95111083984375 92.09398651123046875 89.493682861328125 87.0712127685546875 84.9204559326171875 82.76549530029296875 80.8435821533203125 78.999908447265625 77.3173675537109375 75.7800445556640625 74.4210052490234375 73.386383056640625 72.4920806884765625 71.84696197509765625 71.5167388916015625 71.50341033935546875 71.8991241455078125 72.68366241455078125 73.7764892578125 75.2021942138671875 76.97005462646484375 79.2079010009765625 81.75251007080078125 84.77338409423828125 88.33282470703125 92.56246185302734375 97.61808013916015625 103.5726318359375 109.91976165771484375 115.724090576171875 119.88510894775390625 123.4006195068359375 127.52082061767578125 131.579681396484375 134.73736572265625 137.569091796875 141.0694732666015625 144.2864837646484375 146.8137969970703125 148.638916015625 149.85205078125 150.3365478515625 150.1767578125 149.417724609375 148.2363433837890625 146.62664794921875 144.5827178955078125 142.2369842529296875 139.69061279296875 137.01141357421875 134.157196044921875 131.1937103271484375 128.230010986328125 125.37339019775390625 122.462158203125 119.6553192138671875 116.92488861083984375 114.239715576171875 111.56229400634765625 108.75576019287109375 105.81577301025390625 102.58526611328125 98.96073150634765625 94.84246826171875 90.1047210693359375 84.617523193359375 78.69879150390625 72.74849700927734375 67.17059326171875 62.6896820068359375 59.5908355712890625 58.258472442626953125 60.954448699951171875 65.8020477294921875 70.39690399169921875 72.2020263671875 70.9864044189453125 67.86806488037109375 63.969562530517578125 61.436305999755859375 60.1092071533203125 59.651744842529296875 60.280574798583984375 62.442691802978515625 63.964080810546875 63.92279815673828125 62.6886749267578125 60.8527679443359375 58.798229217529296875 56.45166778564453125 54.21288299560546875 52.001064300537109375 49.82486724853515625 47.26006317138671875 44.57769775390625 41.8044891357421875 -99999 -99999 -99999 -99999 -99999 -99999 -99999 -99999 -99999 -99999 -99999 -99999
 -99999 -99999 -99999 -99999 -99999 -99999 -99999 -99999 -99999 -99999 -99999 -99999 -99999 -99999 -99999 -99999 -99999 -99999 -99999 -99999 -99999 -99999 -99999 -99999 -99999 -99999 -99999 -99999 -99999 -99999 -99999 -99999 -99999 -99999 -99999 -99999 -99999 -99999 -99999 -99999 -99999 -99999 -99999 -99999 -99999 -99999 -99999 -99999 -99999 -99999 -99999 -99999 -99999 -99999 -99999 -99999 -99999 -99999 -99999 -99999 -99999 -99999 -99999 -99999 -99999 -99999 -99999 -99999 -99999 -99999 -99999 -99999 -99999 -99999 -99999 -99999 -99999 -99999 -99999 -99999 -99999 -99999 -99999 -99999 -99999 -99999 -99999 -99999 -99999 -99999 -99999 -99999 -99999 -99999 -99999 -99999 -99999 -99999 -99999 62.540462493896484375 66.98040008544921875 71.45697784423828125 76.1239776611328125 80.89397430419921875 85.92362213134765625 90.6978912353515625 95.48139190673828125 100.1113128662109375 104.41611480712890625 108.39945220947265625 111.68389129638671875 113.89829254150390625 114.67073822021484375 114.6197357177734375 114.08667755126953125 112.97274017333984375 110.9781036376953125 107.69544219970703125 103.86145782470703125 100.2545013427734375 96.8395233154296875 93.90012359619140625 91.19492340087890625 88.7726898193359375 86.60059356689453125 84.60507965087890625 82.7050628662109375 80.87371826171875 79.19527435302734375 77.72145843505859375 76.34398651123046875 75.18354034423828125 74.22393798828125 73.5615234375 73.20464324951171875 73.06266021728515625 73.37220001220703125 74.15074920654296875 74.9685516357421875 76.317901611328125 78.10227203369140625 80.18233489990234375 82.49983978271484375 85.336456298828125 88.40358734130859375 91.78125 95.58370208740234375 99.94692230224609375 104.834228515625 109.899993896484375 114.768402099609375 119.13399505615234375 123.42037200927734375 129.0548248291015625 134.6995086669921875 138.5089569091796875 142.047393798828125 145.3971405029296875 148.5657958984375 151.206390380859375 153.13275146484375 154.2873382568359375 154.655059814453125 154.423553466796875 153.54998779296875 152.1472625732421875 150.285980224609375 148.1182861328125 145.6840362548828125 142.932159423828125 140.005645751953125 137.004241943359375 134.0045623779296875 130.8764495849609375 127.76540374755859375 124.69762420654296875 121.64288330078125 118.60729217529296875 115.549285888671875 112.46257781982421875 109.2679595947265625 105.89937591552734375 102.30132293701171875 98.30474853515625 93.85721588134765625 88.99957275390625 83.813140869140625 78.36667633056640625 73.076507568359375 68.38988494873046875 64.76486968994140625 62.746601104736328125 63.151218414306640625 66.10968780517578125 71.25948333740234375 77.0331878662109375 79.18167877197265625 77.37160491943359375 70.88297271728515625 65.70733642578125 62.7244110107421875 62.28150177001953125 61.901798248291015625 62.3279266357421875 63.32428741455078125 63.18972015380859375 62.40293121337890625 60.689899444580078125 58.4344940185546875 55.810001373291015625 53.19680023193359375 50.394847869873046875 47.7179412841796875 45.173980712890625 42.55553436279296875 39.81288909912109375 -99999 -99999 -99999 -99999 -99999 -99999 -99999 -99999 -99999 -99999 -99999 -99999 -99999
 -99999 -99999 -99999 -99999 -99999 -99999 -99999 -99999 -99999 -99999 -99999 -99999 -99999 -99999 -99999 -99999 -99999 -99999 -99999 -99999 -99999 -99999 -99999 -99999 -99999 -99999 -99999 -99999 -99999 -99999 -99999 -99999 -99999 -99999 -99999 -99999 -99999 -99999 -99999 -99999 -99999 -99999 -99999 -99999 -99999 -99999 -99999 -99999 -99999 -99999 -99999 -99999 -99999 -99999 -99999 -99999 -99999 -99999 -99999 -99999 -99999 -99999 -99999 -99999 -99999 -99999 -99999 -99999 -99999 -99999 -99999 -99999 -99999 -99999 -99999 -99999 -99999 -99999 -99999 -99999 -99999 -99999 -99999 -99999 -99999 -99999 -99999 -99999 -99999 -99999 -99999 -99999 -99999 -99999 -99999 -99999 -99999 -99999 -99999 62.13349151611328125 66.4829864501953125 71.14484405517578125 75.9257965087890625 80.69373321533203125 85.47357177734375 90.33336639404296875 95.01800537109375 99.609375 103.715057373046875 107.2103118896484375 110.131744384765625 112.2512664794921875 113.41365814208984375 113.74497222900390625 113.79766082763671875 113.188507080078125 110.37786865234375 106.159942626953125 101.97681427001953125 98.256927490234375 95.043792724609375 92.2280120849609375 89.80301666259765625 87.72385406494140625 85.915771484375 84.1744537353515625 82.45670318603515625 80.88465118408203125 79.393463134765625 78.05420684814453125 76.80167388916015625 75.74737548828125 75.07482147216796875 74.51781463623046875 74.2558135986328125 74.3827667236328125 74.92386627197265625 75.8652496337890625 77.15201568603515625 78.8945159912109375 80.87081146240234375 83.21944427490234375 85.78816986083984375 88.78420257568359375 91.76776885986328125 94.97866058349609375 98.30474090576171875 101.83437347412109375 105.51250457763671875 109.478363037109375 113.64418792724609375 118.21152496337890625 123.47672271728515625 129.133026123046875 135.3800048828125 140.7582855224609375 145.4052734375 149.447540283203125 152.902191162109375 155.589996337890625 157.4661865234375 158.579803466796875 158.9071502685546875 158.5239410400390625 157.4743194580078125 155.9175262451171875 153.82501220703125 151.4614715576171875 148.805084228515625 145.9066619873046875 142.8604736328125 139.6934967041015625 136.4738922119140625 133.279205322265625 129.9544219970703125 126.666534423828125 123.39308929443359375 120.06401824951171875 116.71337890625 113.30031585693359375 109.79335784912109375 106.10123443603515625 102.1410064697265625 97.9521331787109375 93.465850830078125 88.69834136962890625 83.6818084716796875 78.73897552490234375 74.06568145751953125 70.09668731689453125 67.16475677490234375 66.100555419921875 66.97637939453125 70.75255584716796875 76.8835906982421875 83.61858367919921875 87.5282440185546875 83.01792144775390625 74.98726654052734375 67.01239776611328125 65.6648101806640625 66.32785797119140625 66.67815399169921875 66.0847930908203125 64.65747833251953125 63.318164825439453125 61.29339599609375 58.73453521728515625 55.495670318603515625 52.272235870361328125 49.264736175537109375 46.336273193359375 43.32302093505859375 40.42613983154296875 37.66284942626953125 34.83132171630859375 -99999 -99999 -99999 -99999 -99999 -99999 -99999 -99999 -99999 -99999 -99999 -99999 -99999
 -99999 -99999 -99999 -99999 -99999 -99999 -99999 -99999 -99999 -99999 -99999 -99999 -99999 -99999 -99999 -99999 -99999 -99999 -99999 -99999 -99999 -99999 -99999 -99999 -99999 -99999 -99999 -99999 -99999 -99999 -99999 -99999 -99999 -99999 -99999 -99999 -99999 -99999 -99999 -99999 -99999 -99999 -99999 -99999 -99999 -99999 -99999 -99999 -99999 -99999 -99999 -99999 -99999 -99999 -99999 -99999 -99999 -99999 -99999 -99999 -99999 -99999 -99999 -99999 -99999 -99999 -99999 -99999 -99999 -99999 -99999 -99999 -99999 -99999 -99999 -99999 -99999 -99999 -99999 -99999 -99999 -99999 -99999 -99999 -99999 -99999 -99999 -99999 -99999 -99999 -99999 -99999 -99999 -99999 -99999 -99999 -99999 -99999 57.081760406494140625 61.28554534912109375 65.71706390380859375 70.441802978515625 75.00594329833984375 79.8520965576171875 84.63243865966796875 89.4075775146484375 93.90917205810546875 98.093353271484375 102.0036773681640625 105.54578399658203125 108.29999542236328125 110.1698150634765625 111.28142547607421875 111.79943084716796875 111.79561614990234375 111.34349822998046875 107.63677215576171875 103.31909942626953125 99.0931396484375 95.39167022705078125 92.34990692138671875 90.08795928955078125 88.17486572265625 86.51624298095703125 85.0402069091796875 83.6226959228515625 82.2218170166015625 80.81429290771484375 79.47820281982421875 78.22809600830078125 77.0975189208984375 76.24777984619140625 75.5832061767578125 75.25374603271484375 75.29628753662109375 75.5938262939453125 76.392913818359375 77.60910797119140625 79.12088775634765625 81.0616912841796875 83.4386138916015625 86.16474151611328125 89.08043670654296875 92.11878204345703125 95.19963836669921875 98.1623077392578125 101.0126495361328125 103.7947845458984375 106.401153564453125 109.15120697021484375 112.5220184326171875 117.22444915771484375 123.05622100830078125 129.8764495849609375 136.0911712646484375 143.04638671875 148.5439910888671875 153.1737823486328125 156.8728179931640625 159.63970947265625 161.61590576171875 162.7396697998046875 162.9869232177734375 162.334381103515625 161.15655517578125 159.36859130859375 157.1325531005859375 154.4916839599609375 151.619659423828125 148.5800933837890625 145.3945770263671875 142.15826416015625 138.7302703857421875 135.3027801513671875 131.8853759765625 128.445770263671875 124.951507568359375 121.34699249267578125 117.7830810546875 114.12325286865234375 110.31314849853515625 106.3848876953125 102.29952239990234375 97.973541259765625 93.47849273681640625 88.7945556640625 84.12203216552734375 79.51374053955078125 75.198699951171875 71.8209075927734375 69.5373077392578125 68.74285125732421875 69.82199859619140625 73.26985931396484375 78.45671844482421875 85.974945068359375 92.32971954345703125 89.91872406005859375 75.25662994384765625 71.44649505615234375 72.15576171875 73.275421142578125 73.07947540283203125 70.78798675537109375 67.730499267578125 64.56551361083984375 60.42128753662109375 56.37255859375 52.475860595703125 48.744415283203125 45.060482025146484375 41.5841827392578125 38.541477203369140625 35.61617279052734375 32.66826629638671875 -99999 -99999 -99999 -99999 -99999 -99999 -99999 -99999 -99999 -99999 -99999 -99999 -99999 -99999
 -99999 -99999 -99999 -99999 -99999 -99999 -99999 -99999 -99999 -99999 -99999 -99999 -99999 -99999 -99999 -99999 -99999 -99999 -99999 -99999 -99999 -99999 -99999 -99999 -99999 -99999 -99999 -99999 -99999 -99999 -99999 -99999 -99999 -99999 -99999 -99999 -99999 -99999 -99999 -99999 -99999 -99999 -99999 -99999 -99999 -99999 -99999 -99999 -99999 -99999 -99999 -99999 -99999 -99999 -99999 -99999 -99999 -99999 -99999 -99999 -99999 -99999 -99999 -99999 -99999 -99999 -99999 -99999 -99999 -99999 -99999 -99999 -99999 -99999 -99999 -99999 -99999 -99999 -99999 -99999 -99999 -99999 -99999 -99999 -99999 -99999 -99999 -99999 -99999 -99999 -99999 -99999 -99999 -99999 -99999 -99999 -99999 -99999 55.82128143310546875 60.06365966796875 64.5023651123046875 69.0862579345703125 73.82221221923828125 78.5050201416015625 83.1609649658203125 87.8084564208984375 92.255523681640625 96.43126678466796875 100.02801513671875 103.043609619140625 105.6208953857421875 107.52593994140625 108.675689697265625 109.0963897705078125 108.5786895751953125 106.8216400146484375 103.74353790283203125 99.421905517578125 95.30242919921875 91.88861846923828125 89.48198699951171875 87.7399444580078125 86.5117340087890625 85.3759002685546875 84.2196502685546875 83.02187347412109375 81.87408447265625 80.61590576171875 79.4350738525390625 78.3210906982421875 77.3064422607421875 76.4988250732421875 76.1352996826171875 75.862396240234375 76.00128936767578125 76.44129180908203125 77.50439453125 78.90299224853515625 80.744781494140625 83.12963104248046875 85.82575225830078125 88.92725372314453125 92.08663177490234375 95.56447601318359375 98.734619140625 101.641937255859375 104.12490081787109375 106.1496429443359375 107.78401947021484375 109.4911346435546875 111.895843505859375 116.76885986328125 123.47936248779296875 130.55035400390625 138.181060791015625 145.043121337890625 151.336090087890625 156.3816070556640625 160.4694061279296875 163.4637908935546875 165.4453887939453125 166.5497894287109375 166.6761322021484375 166.022003173828125 164.5597991943359375 162.432098388671875 159.9221343994140625 157.134002685546875 154.0998992919921875 150.9127197265625 147.579071044921875 144.168914794921875 140.721527099609375 137.2181549072265625 133.6303558349609375 129.9643096923828125 126.274505615234375 122.56316375732421875 118.77919769287109375 114.86498260498046875 110.90317535400390625 106.822662353515625 102.59839630126953125 98.262664794921875 93.83101654052734375 89.29986572265625 84.80483245849609375 80.56354522705078125 76.70293426513671875 73.4604949951171875 71.1783599853515625 70.17287445068359375 70.64777374267578125 73.1002960205078125 76.886444091796875 81.19039154052734375 85.1251220703125 85.18524169921875 82.30785369873046875 80.1556854248046875 83.46479034423828125 83.403594970703125 79.87702178955078125 75.59412384033203125 70.6640472412109375 64.83248138427734375 59.14423370361328125 53.822261810302734375 48.99755096435546875 44.535503387451171875 40.383098602294921875 36.58495330810546875 33.326740264892578125 30.327127456665039062 27.413946151733398438 -99999 -99999 -99999 -99999 -99999 -99999 -99999 -99999 -99999 -99999 -99999 -99999 -99999 -99999
 -99999 -99999 -99999 -99999 -99999 -99999 -99999 -99999 -99999 -99999 -99999 -99999 -99999 -99999 -99999 -99999 -99999 -99999 -99999 -99999 -99999 -99999 -99999 -99999 -99999 -99999 -99999 -99999 -99999 -99999 -99999 -99999 -99999 -99999 -99999 -99999 -99999 -99999 -99999 -99999 -99999 -99999 -99999 -99999 -99999 -99999 -99999 -99999 -99999 -99999 -99999 -99999 -99999 -99999 -99999 -99999 -99999 -99999 -99999 -99999 -99999 -99999 -99999 -99999 -99999 -99999 -99999 -99999 -99999 -99999 -99999 -99999 -99999 -99999 -99999 -99999 -99999 -99999 -99999 -99999 -99999 -99999 -99999 -99999 -99999 -99999 -99999 -99999 -99999 -99999 -99999 -99999 -99999 -99999 -99999 -99999 -99999 -99999 54.272796630859375 58.480220794677734375 62.86215972900390625 67.38318634033203125 72.00348663330078125 76.6391754150390625 81.39150238037109375 85.80078125 90.0550079345703125 93.97493743896484375 97.66506195068359375 100.670501708984375 102.91472625732421875 104.43956756591796875 105.29894256591796875 105.4617462158203125 104.752227783203125 102.79604339599609375 99.47048187255859375 95.49523162841796875 91.334747314453125 88.1343841552734375 86.30545806884765625 85.5798492431640625 84.89710235595703125 84.22388458251953125 83.50981903076171875 82.614410400390625 81.66065216064453125 80.520538330078125 79.4201812744140625 78.3298187255859375 77.3984222412109375 76.76129150390625 76.3602294921875 76.25524139404296875 76.5672760009765625 77.198028564453125 78.38948822021484375 80.0457763671875 82.145172119140625 84.798675537109375 87.79199981689453125 91.37169647216796875 94.99462127685546875 98.85628509521484375 102.44972991943359375 105.52410888671875 107.855621337890625 109.5702056884765625 110.63561248779296875 111.4575653076171875 112.95416259765625 117.71669769287109375 124.7367706298828125 132.44635009765625 139.832855224609375 147.1057891845703125 153.576202392578125 159.2653961181640625 163.53997802734375 166.491241455078125 168.7519683837890625 169.9488677978515625 170.0424041748046875 169.1138458251953125 167.317779541015625 165.014251708984375 162.3424530029296875 159.3901519775390625 156.19793701171875 152.8697052001953125 149.4734954833984375 145.997406005859375 142.4115142822265625 138.788055419921875 135.09320068359375 131.362457275390625 127.55461883544921875 123.63431549072265625 119.6466217041015625 115.59765625 111.4798736572265625 107.30133819580078125 103.02866363525390625 98.696807861328125 94.3311614990234375 90.01557159423828125 85.77874755859375 81.74835968017578125 78.02462005615234375 74.8650360107421875 72.599639892578125 71.1977996826171875 70.71781158447265625 71.27718353271484375 72.43999481201171875 73.98810577392578125 75.0758514404296875 75.7046966552734375 85.7623748779296875 93.53722381591796875 95.9174041748046875 92.706024169921875 86.9715576171875 80.10468292236328125 71.9475250244140625 63.922821044921875 56.76061248779296875 50.39797210693359375 44.540966033935546875 39.57392120361328125 35.333507537841796875 31.514617919921875 27.972341537475585938 24.699857711791992188 -99999 -99999 -99999 -99999 -99999 -99999 -99999 -99999 -99999 -99999 -99999 -99999 -99999 -99999 -99999
 -99999 -99999 -99999 -99999 -99999 -99999 -99999 -99999 -99999 -99999 -99999 -99999 -99999 -99999 -99999 -99999 -99999 -99999 -99999 -99999 -99999 -99999 -99999 -99999 -99999 -99999 -99999 -99999 -99999 -99999 -99999 -99999 -99999 -99999 -99999 -99999 -99999 -99999 -99999 -99999 -99999 -99999 -99999 -99999 -99999 -99999 -99999 -99999 -99999 -99999 -99999 -99999 -99999 -99999 -99999 -99999 -99999 -99999 -99999 -99999 -99999 -99999 -99999 -99999 -99999 -99999 -99999 -99999 -99999 -99999 -99999 -99999 -99999 -99999 -99999 -99999 -99999 -99999 -99999 -99999 -99999 -99999 -99999 -99999 -99999 -99999 -99999 -99999 -99999 -99999 -99999 -99999 -99999 -99999 -99999 -99999 -99999 -99999 52.43491363525390625 56.590641021728515625 60.953609466552734375 65.41101837158203125 69.9696807861328125 74.481597900390625 79.078521728515625 83.44020843505859375 87.66501617431640625 91.40042877197265625 94.75089263916015625 97.55426025390625 99.8860931396484375 101.49266815185546875 102.1153564453125 101.89876556396484375 100.789337158203125 98.72983551025390625 95.95278167724609375 92.08788299560546875 88.1258392333984375 85.0455780029296875 83.8786773681640625 83.80300140380859375 83.73680877685546875 83.55649566650390625 83.1042938232421875 82.3990631103515625 81.575469970703125 80.4452362060546875 79.3282318115234375 78.2713165283203125 77.41605377197265625 76.7904510498046875 76.492767333984375 76.49329376220703125 76.847137451171875 77.65349578857421875 78.9720916748046875 80.74640655517578125 83.07476043701171875 86.01984405517578125 89.49858856201171875 93.4225921630859375 97.81253814697265625 102.281463623046875 106.2986297607421875 109.76930999755859375 112.26038360595703125 113.7493438720703125 114.6967926025390625 115.60540771484375 117.2399749755859375 121.58646392822265625 127.8762054443359375 134.88531494140625 142.13031005859375 149.170623779296875 155.6273651123046875 161.30096435546875 165.63702392578125 168.835479736328125 171.4598846435546875 173.0096588134765625 173.0087890625 171.6575469970703125 169.5659942626953125 167.007720947265625 164.1545257568359375 161.06268310546875 157.7935638427734375 154.420562744140625 150.966522216796875 147.4161224365234375 143.7998809814453125 140.1569671630859375 136.4283599853515625 132.578399658203125 128.6155853271484375 124.58917999267578125 120.4848175048828125 116.31175994873046875 112.06421661376953125 107.79309844970703125 103.50820159912109375 99.2310028076171875 95.019317626953125 90.85297393798828125 86.79103851318359375 82.98412322998046875 79.41927337646484375 76.2371826171875 73.611724853515625 71.55898284912109375 70.298370361328125 69.62470245361328125 69.47547149658203125 69.44583892822265625 71.42339324951171875 77.04740142822265625 89.41416168212890625 99.90447235107421875 102.9865875244140625 99.46825408935546875 90.75301361083984375 80.4555511474609375 71.052825927734375 61.5442047119140625 52.984752655029296875 45.46923828125 39.252349853515625 34.034698486328125 29.469333648681640625 25.711854934692382812 22.428363800048828125 19.507457733154296875 -99999 -99999 -99999 -99999 -99999 -99999 -99999 -99999 -99999 -99999 -99999 -99999 -99999 -99999 -99999
 -99999 -99999 -99999 -99999 -99999 -99999 -99999 -99999 -99999 -99999 -99999 -99999 -99999 -99999 -99999 -99999 -99999 -99999 -99999 -99999 -99999 -99999 -99999 -99999 -99999 -99999 -99999 -99999 -99999 -99999 -99999 -99999 -99999 -99999 -99999 -99999 -99999 -99999 -99999 -99999 -99999 -99999 -99999 -99999 -99999 -99999 -99999 -99999 -99999 -99999 -99999 -99999 -99999 -99999 -99999 -99999 -99999 -99999 -99999 -99999 -99999 -99999 -99999 -99999 -99999 -99999 -99999 -99999 -99999 -99999 -99999 -99999 -99999 -99999 -99999 -99999 -99999 -99999 -99999 -99999 -99999 -99999 -99999 -99999 -99999 -99999 -99999 -99999 -99999 -99999 -99999 -99999 -99999 -99999 -99999 -99999 -99999 -99999 50.311679840087890625 54.455852508544921875 58.681262969970703125 63.07384490966796875 67.64592742919921875 72.12177276611328125 76.57563018798828125 80.79064178466796875 84.90924072265625 88.61434173583984375 91.84070587158203125 94.6431121826171875 96.7044677734375 98.08902740478515625 98.81447601318359375 98.82863616943359375 97.69832611083984375 95.81217193603515625 93.21002197265625 89.94229888916015625 86.35746002197265625 84.08477020263671875 83.08087921142578125 82.99503326416015625 83.17745208740234375 83.26416778564453125 83.07659149169921875 82.4625244140625 81.3882598876953125 80.3734283447265625 79.2254486083984375 78.1746368408203125 77.2894287109375 76.80216217041015625 76.494110107421875 76.53028106689453125 76.9348297119140625 77.74181365966796875 79.18888092041015625 81.08499908447265625 83.6031036376953125 86.74311065673828125 90.45833587646484375 94.9073638916015625 99.9380645751953125 105.12523651123046875 110.29693603515625 114.3234710693359375 117.39536285400390625 118.7529296875 119.66162109375 120.7845458984375 122.79454803466796875 126.503143310546875 131.651611328125 137.9997100830078125 144.596527099609375 151.1730804443359375 157.3217315673828125 162.8260498046875 167.262481689453125 170.9133453369140625 174.0051116943359375 175.7673492431640625 175.5139923095703125 173.3820037841796875 170.894927978515625 168.1459197998046875 165.2560577392578125 162.214935302734375 158.927276611328125 155.5098724365234375 152.0056610107421875 148.5162200927734375 144.98663330078125 141.2973175048828125 137.4935302734375 133.5975494384765625 129.5991668701171875 125.50072479248046875 121.246978759765625 116.92943572998046875 112.5864715576171875 108.24916839599609375 103.99753570556640625 99.8047943115234375 95.67577362060546875 91.71424102783203125 87.9414215087890625 84.2534027099609375 80.829437255859375 77.6416473388671875 74.7323455810546875 72.3126373291015625 70.35056304931640625 68.56800079345703125 68.05150604248046875 68.99273681640625 72.06357574462890625 79.511749267578125 88.77983856201171875 98.22997283935546875 102.2949981689453125 98.663482666015625 89.053497314453125 77.98821258544921875 67.15274810791015625 56.67150115966796875 47.04236602783203125 39.339336395263671875 33.158847808837890625 27.892368316650390625 23.500452041625976562 19.806884765625 16.819244384765625 -99999 -99999 -99999 -99999 -99999 -99999 -99999 -99999 -99999 -99999 -99999 -99999 -99999 -99999 -99999 -99999
 -99999 -99999 -99999 -99999 -99999 -99999 -99999 -99999 -99999 -99999 -99999 -99999 -99999 -99999 -99999 -99999 -99999 -99999 -99999 -99999 -99999 -99999 -99999 -99999 -99999 -99999 -99999 -99999 -99999 -99999 -99999 -99999 -99999 -99999 -99999 -99999 -99999 -99999 -99999 -99999 -99999 -99999 -99999 -99999 -99999 -99999 -99999 -99999 -99999 -99999 -99999 -99999 -99999 -99999 -99999 -99999 -99999 -99999 -99999 -99999 -99999 -99999 -99999 -99999 -99999 -99999 -99999 -99999 -99999 -99999 -99999 -99999 -99999 -99999 -99999 -99999 -99999 -99999 -99999 -99999 -99999 -99999 -99999 -99999 -99999 -99999 -99999 -99999 -99999 -99999 -99999 -99999 -99999 -99999 -99999 -99999 -99999 -99999 48.13642120361328125 52.046741485595703125 56.2564239501953125 60.563510894775390625 65.02805328369140625 69.5283660888671875 73.9622802734375 78.1327056884765625 82.13532257080078125 85.71666717529296875 88.95993804931640625 91.61266326904296875 93.6270294189453125 95.11991119384765625 95.83341217041015625 95.74272918701171875 94.85178375244140625 93.34323883056640625 91.19548797607421875 88.707489013671875 86.340728759765625 84.4729766845703125 83.38999176025390625 82.99182891845703125 83.30710601806640625 83.6680908203125 83.4639739990234375 82.88519287109375 81.57021331787109375 80.3251800537109375 79.03862762451171875 77.96221160888671875 77.0206298828125 76.6095428466796875 76.30489349365234375 76.4080810546875 76.8597412109375 77.75910186767578125 79.19217681884765625 81.06491851806640625 83.5809173583984375 86.7790374755859375 90.8265380859375 95.57216644287109375 101.38271331787109375 107.68082427978515625 113.732330322265625 119.23195648193359375 122.25005340576171875 123.92293548583984375 124.818450927734375 125.9878692626953125 128.021942138671875 131.286163330078125 135.75 141.120941162109375 146.975738525390625 153.0410614013671875 158.7891693115234375 163.912750244140625 168.4292755126953125 172.354705810546875 175.9177398681640625 178.810089111328125 176.4373931884765625 173.8819580078125 171.2252197265625 168.7645416259765625 165.9216766357421875 162.7352142333984375 159.5022735595703125 156.1945648193359375 152.80645751953125 149.3444366455078125 145.764190673828125 142.1681060791015625 138.4654083251953125 134.583526611328125 130.4794158935546875 126.22800445556640625 121.88555145263671875 117.49558258056640625 113.07398223876953125 108.685546875 104.3610992431640625 100.20357513427734375 96.3066253662109375 92.5959320068359375 88.98033905029296875 85.5694427490234375 82.2620849609375 79.09728240966796875 76.0057525634765625 73.248199462890625 70.977813720703125 69.00434112548828125 67.7275238037109375 69.83160400390625 73.7218017578125 79.70068359375 86.73032379150390625 92.64644622802734375 94.55942535400390625 90.5830841064453125 81.68817138671875 72.19683837890625 60.39792633056640625 48.76911163330078125 39.420665740966796875 31.952878952026367188 26.157039642333984375 21.325664520263671875 17.384046554565429688 14.182745933532714844 11.1548004150390625 -99999 -99999 -99999 -99999 -99999 -99999 -99999 -99999 -99999 -99999 -99999 -99999 -99999 -99999 -99999 -99999
 -99999 -99999 -99999 -99999 -99999 -99999 -99999 -99999 -99999 -99999 -99999 -99999 -99999 -99999 -99999 -99999 -99999 -99999 -99999 -99999 -99999 -99999 -99999 -99999 -99999 -99999 -99999 -99999 -99999 -99999 -99999 -99999 -99999 -99999 -99999 -99999 -99999 -99999 -99999 -99999 -99999 -99999 -99999 -99999 -99999 -99999 -99999 -99999 -99999 -99999 -99999 -99999 -99999 -99999 -99999 -99999 -99999 -99999 -99999 -99999 -99999 -99999 -99999 -99999 -99999 -99999 -99999 -99999 -99999 -99999 -99999 -99999 -99999 -99999 -99999 -99999 -99999 -99999 -99999 -99999 -99999 -99999 -99999 -99999 -99999 -99999 -99999 -99999 -99999 -99999 -99999 -99999 -99999 -99999 -99999 -99999 -99999 -99999 45.565776824951171875 49.4976043701171875 53.69112396240234375 57.944244384765625 62.367275238037109375 66.7503814697265625 71.1225128173828125 75.40753936767578125 79.273162841796875 82.99988555908203125 86.17096710205078125 88.82643890380859375 90.94966888427734375 92.3851318359375 93.1454315185546875 93.24288177490234375 92.73968505859375 91.65399169921875 89.9976348876953125 88.1907196044921875 86.4174957275390625 85.0337066650390625 84.16854095458984375 83.970458984375 84.2510223388671875 84.5675048828125 84.45005035400390625 83.2962646484375 81.81658935546875 80.16367340087890625 78.77579498291015625 77.66396331787109375 76.8748626708984375 76.36098480224609375 76.09186553955078125 76.13763427734375 76.56543731689453125 77.5643768310546875 78.79088592529296875 80.63137054443359375 83.17427825927734375 86.357666015625 90.26869964599609375 95.486968994140625 101.6355743408203125 108.6875 116.50777435302734375 123.61202239990234375 128.3661346435546875 128.9341888427734375 129.484130859375 130.5153656005859375 132.4202423095703125 135.2487640380859375 139.1986846923828125 143.9671173095703125 149.1976470947265625 154.502197265625 159.747314453125 164.6092987060546875 169.0247802734375 172.6934661865234375 175.466888427734375 176.5359039306640625 175.2139129638671875 172.733245849609375 170.7695770263671875 168.5406036376953125 165.8733673095703125 162.8086700439453125 159.59490966796875 156.345306396484375 153.0838470458984375 149.8185272216796875 146.473480224609375 143.003662109375 139.3120880126953125 135.3489990234375 131.256317138671875 126.96665191650390625 122.50726318359375 117.92157745361328125 113.373260498046875 108.92724609375 104.6070404052734375 100.5215301513671875 96.7147674560546875 93.188323974609375 89.9640960693359375 86.9549102783203125 83.8531494140625 80.726043701171875 77.3694305419921875 74.47467803955078125 72.1531829833984375 70.44335174560546875 69.83647918701171875 71.01601409912109375 73.97116851806640625 78.17572784423828125 82.5695648193359375 84.99889373779296875 84.56981658935546875 80.8492584228515625 73.6344146728515625 64.06090545654296875 50.332489013671875 38.242954254150390625 30.390470504760742188 24.16068267822265625 19.216146469116210938 15.109396934509277344 11.823721885681152344 8.6791162490844726562 -99999 -99999 -99999 -99999 -99999 -99999 -99999 -99999 -99999 -99999 -99999 -99999 -99999 -99999 -99999 -99999 -99999
 -99999 -99999 -99999 -99999 -99999 -99999 -99999 -99999 -99999 -99999 -99999 -99999 -99999 -99999 -99999 -99999 -99999 -99999 -99999 -99999 -99999 -99999 -99999 -99999 -99999 -99999 -99999 -99999 -99999 -99999 -99999 -99999 -99999 -99999 -99999 -99999 -99999 -99999 -99999 -99999 -99999 -99999 -99999 -99999 -99999 -99999 -99999 -99999 -99999 -99999 -99999 -99999 -99999 -99999 -99999 -99999 -99999 -99999 -99999 -99999 -99999 -99999 -99999 -99999 -99999 -99999 -99999 -99999 -99999 -99999 -99999 -99999 -99999 -99999 -99999 -99999 -99999 -99999 -99999 -99999 -99999 -99999 -99999 -99999 -99999 -99999 -99999 -99999 -99999 -99999 -99999 -99999 -99999 -99999 -99999 -99999 -99999 -99999 43.02281951904296875 46.88753509521484375 50.87654876708984375 55.189289093017578125 59.619045257568359375 64.0458984375 68.3971405029296875 72.5882568359375 76.6381988525390625 80.3172760009765625 83.44544219970703125 86.2775421142578125 88.4841766357421875 89.99053955078125 91.0866851806640625 91.35033416748046875 91.057769775390625 90.366424560546875 89.3099822998046875 88.0392303466796875 86.8029632568359375 85.86460113525390625 85.2931060791015625 85.13690185546875 85.38858795166015625 85.81783294677734375 85.59793853759765625 83.873504638671875 81.79524993896484375 79.925201416015625 78.48333740234375 77.2355499267578125 76.4687347412109375 76.00786590576171875 75.7395172119140625 75.750762939453125 76.2375030517578125 77.05760955810546875 78.27922821044921875 80.0373077392578125 82.2474822998046875 85.14202880859375 88.9693450927734375 93.79364776611328125 100.05323028564453125 108.02262115478515625 117.0292816162109375 128.13916015625 131.99066162109375 132.2558135986328125 132.5384979248046875 133.6730194091796875 135.6136474609375 138.368865966796875 141.912841796875 146.04425048828125 150.63861083984375 155.534423828125 160.326019287109375 164.6951904296875 168.5363922119140625 171.6647796630859375 173.8482208251953125 174.5090484619140625 173.1603240966796875 170.922576904296875 169.762969970703125 167.9122314453125 165.339080810546875 162.375732421875 159.21759033203125 156.1231231689453125 153.073883056640625 150.0232391357421875 146.90960693359375 143.640960693359375 140.0287933349609375 136.1844482421875 132.0426025390625 127.568817138671875 122.9693603515625 118.27451324462890625 113.56793212890625 109.00018310546875 104.6683197021484375 100.6080474853515625 96.8962860107421875 93.554595947265625 90.66939544677734375 88.06964874267578125 85.51570892333984375 82.543670654296875 79.0931243896484375 75.64350128173828125 72.96002960205078125 71.547119140625 70.77899932861328125 71.30904388427734375 73.0476837158203125 75.4837493896484375 77.16939544677734375 77.90021514892578125 76.1858978271484375 71.31146240234375 63.304046630859375 51.691463470458984375 39.2856597900390625 28.551004409790039062 21.973020553588867188 17.244352340698242188 13.125235557556152344 9.4725589752197265625 6.3912763595581054688 3.7271933555603027344 -99999 -99999 -99999 -99999 -99999 -99999 -99999 -99999 -99999 -99999 -99999 -99999 -99999 -99999 -99999 -99999 -99999
 -99999 -99999 -99999 -99999 -99999 -99999 -99999 -99999 -99999 -99999 -99999 -99999 -99999 -99999 -99999 -99999 -99999 -99999 -99999 -99999 -99999 -99999 -99999 -99999 -99999 -99999 -99999 -99999 -99999 -99999 -99999 -99999 -99999 -99999 -99999 -99999 -99999 -99999 -99999 -99999 -99999 -99999 -99999 -99999 -99999 -99999 -99999 -99999 -99999 -99999 -99999 -99999 -99999 -99999 -99999 -99999 -99999 -99999 -99999 -99999 -99999 -99999 -99999 -99999 -99999 -99999 -99999 -99999 -99999 -99999 -99999 -99999 -99999 -99999 -99999 -99999 -99999 -99999 -99999 -99999 -99999 -99999 -99999 -99999 -99999 -99999 -99999 -99999 -99999 -99999 -99999 -99999 -99999 -99999 -99999 -99999 -99999 -99999 40.573699951171875 44.143543243408203125 48.205387115478515625 52.504486083984375 56.87932586669921875 61.337398529052734375 65.80466461181640625 70.05818939208984375 74.04915618896484375 77.819580078125 81.19500732421875 84.01636505126953125 86.30750274658203125 88.05181884765625 89.35176849365234375 89.9164886474609375 90.02564239501953125 89.72057342529296875 89.02671051025390625 88.2090301513671875 87.389312744140625 86.66124725341796875 86.20258331298828125 86.12650299072265625 86.1625518798828125 86.43921661376953125 85.6395721435546875 83.79808807373046875 81.23455810546875 79.35162353515625 77.99211883544921875 77.00531768798828125 76.20635986328125 75.73085784912109375 75.51457977294921875 75.50011444091796875 75.9046783447265625 76.5897674560546875 77.57694244384765625 79.10288238525390625 81.188018798828125 83.69568634033203125 87.00630950927734375 91.3589630126953125 97.04276275634765625 104.50020599365234375 113.82015228271484375 123.0111846923828125 129.9302825927734375 131.6002197265625 133.3001708984375 135.1298980712890625 137.3841705322265625 140.1317901611328125 143.5516204833984375 147.3930816650390625 151.6822967529296875 156.0189056396484375 160.2175140380859375 164.1380767822265625 167.5915374755859375 170.2989349365234375 172.0050048828125 172.326507568359375 171.448974609375 170.3243408203125 169.0651092529296875 167.38311767578125 164.3919830322265625 161.3439483642578125 158.379241943359375 155.5010223388671875 152.7362823486328125 150.002166748046875 147.169830322265625 144.1877593994140625 140.8337249755859375 137.0554962158203125 132.8193359375 128.24114990234375 123.418853759765625 118.48760223388671875 113.590423583984375 108.8435211181640625 104.33641815185546875 100.242431640625 96.63840484619140625 93.5372467041015625 90.938720703125 88.81166839599609375 87.04082489013671875 84.90161895751953125 81.39420318603515625 77.2322845458984375 74.37155914306640625 72.4105682373046875 71.18213653564453125 70.99929046630859375 71.37335968017578125 71.86035919189453125 71.89737701416015625 70.901519775390625 68.02709197998046875 61.7259063720703125 53.49962615966796875 43.129749298095703125 31.520475387573242188 22.680795669555664062 16.706743240356445312 12.060101509094238281 8.2023687362670898438 4.8453807830810546875 2.0181622505187988281 -99999 -99999 -99999 -99999 -99999 -99999 -99999 -99999 -99999 -99999 -99999 -99999 -99999 -99999 -99999 -99999 -99999 -99999
 -99999 -99999 -99999 -99999 -99999 -99999 -99999 -99999 -99999 -99999 -99999 -99999 -99999 -99999 -99999 -99999 -99999 -99999 -99999 -99999 -99999 -99999 -99999 -99999 -99999 -99999 -99999 -99999 -99999 -99999 -99999 -99999 -99999 -99999 -99999 -99999 -99999 -99999 -99999 -99999 -99999 -99999 -99999 -99999 -99999 -99999 -99999 -99999 -99999 -99999 -99999 -99999 -99999 -99999 -99999 -99999 -99999 -99999 -99999 -99999 -99999 -99999 -99999 -99999 -99999 -99999 -99999 -99999 -99999 -99999 -99999 -99999 -99999 -99999 -99999 -99999 -99999 -99999 -99999 -99999 -99999 -99999 -99999 -99999 -99999 -99999 -99999 -99999 -99999 -99999 -99999 -99999 -99999 -99999 -99999 -99999 -99999 -99999 37.85594940185546875 41.54993438720703125 45.58455657958984375 49.8177947998046875 54.29515838623046875 58.831081390380859375 63.363559722900390625 67.7352447509765625 71.85260772705078125 75.72647857666015625 79.09575653076171875 82.2041473388671875 84.69730377197265625 86.57830047607421875 88.01522064208984375 88.9219512939453125 89.4190673828125 89.37206268310546875 89.0556182861328125 88.5768280029296875 88.0348052978515625 87.4969635009765625 87.030487060546875 86.7886810302734375 86.48683929443359375 85.97980499267578125 84.91028594970703125 82.7140960693359375 80.43883514404296875 78.843841552734375 77.4544219970703125 76.6184234619140625 75.97348785400390625 75.6103057861328125 75.37326812744140625 75.38347625732421875 75.57146453857421875 76.0693817138671875 76.97942352294921875 78.332550048828125 80.04718017578125 82.3511810302734375 84.83852386474609375 87.85800933837890625 92.61566162109375 99.8594207763671875 109.05124664306640625 117.9275360107421875 124.57220458984375 129.160186767578125 132.5194549560546875 135.0489501953125 137.8666534423828125 140.975921630859375 144.4209136962890625 148.1214447021484375 151.992889404296875 155.8989410400390625 159.757537841796875 163.24481201171875 166.228851318359375 168.46466064453125 169.8713836669921875 170.2590179443359375 169.9337158203125 168.9577484130859375 167.8508453369140625 165.5757904052734375 162.7768402099609375 159.9001312255859375 157.0960845947265625 154.44775390625 152.097198486328125 149.838043212890625 147.6135101318359375 144.9743194580078125 141.774169921875 137.95648193359375 133.6160125732421875 128.8250579833984375 123.76515960693359375 118.525421142578125 113.37982940673828125 108.4363250732421875 103.78769683837890625 99.5607757568359375 95.85300445556640625 92.81934356689453125 90.44120025634765625 88.7611083984375 87.5247039794921875 86.31865692138671875 83.4300994873046875 78.97922515869140625 75.33071136474609375 72.901947021484375 71.169586181640625 69.9443206787109375 69.01732635498046875 68.27510833740234375 67.0750885009765625 64.3281402587890625 60.28948211669921875 54.54967498779296875 46.545867919921875 37.165668487548828125 27.898656845092773438 19.577611923217773438 13.577160835266113281 8.7947893142700195312 4.8258275985717773438 1.475100398063659668 -99999 -99999 -99999 -99999 -99999 -99999 -99999 -99999 -99999 -99999 -99999 -99999 -99999 -99999 -99999 -99999 -99999 -99999 -99999
 -99999 -99999 -99999 -99999 -99999 -99999 -99999 -99999 -99999 -99999 -99999 -99999 -99999 -99999 -99999 -99999 -99999 -99999 -99999 -99999 -99999 -99999 -99999 -99999 -99999 -99999 -99999 -99999 -99999 -99999 -99999 -99999 -99999 -99999 -99999 -99999 -99999 -99999 -99999 -99999 -99999 -99999 -99999 -99999 -99999 -99999 -99999 -99999 -99999 -99999 -99999 -99999 -99999 -99999 -99999 -99999 -99999 -99999 -99999 -99999 -99999 -99999 -99999 -99999 -99999 -99999 -99999 -99999 -99999 -99999 -99999 -99999 -99999 -99999 -99999 -99999 -99999 -99999 -99999 -99999 -99999 -99999 -99999 -99999 -99999 -99999 -99999 -99999 -99999 -99999 -99999 -99999 -99999 -99999 -99999 -99999 -99999 -99999 35.268146514892578125 39.027538299560546875 42.9840240478515625 47.24851226806640625 51.797641754150390625 56.43218994140625 61.036407470703125 65.594818115234375 69.976898193359375 73.91745758056640625 77.5427398681640625 80.730316162109375 83.30519866943359375 85.62656402587890625 87.287200927734375 88.38741302490234375 89.092620849609375 89.40349578857421875 89.44641876220703125 89.18631744384765625 88.820831298828125 88.35829925537109375 87.866363525390625 87.30306243896484375 86.71240997314453125 85.82076263427734375 84.2220611572265625 82.23232269287109375 80.05155181884765625 78.53931427001953125 77.29369354248046875 76.42713165283203125 75.9210968017578125 75.7332611083984375 75.45418548583984375 75.319244384765625 75.357940673828125 75.6270599365234375 76.428375244140625 77.6681671142578125 79.3768768310546875 81.39354705810546875 83.45721435546875 85.5767822265625 87.86815643310546875 95.5559844970703125 104.83101654052734375 113.45619964599609375 120.7182464599609375 126.1403961181640625 130.4725189208984375 134.2362213134765625 137.6704559326171875 140.977813720703125 144.521514892578125 148.1163177490234375 151.820465087890625 155.474945068359375 158.891448974609375 161.9331207275390625 164.520294189453125 166.4729156494140625 167.7546844482421875 168.1846160888671875 167.92620849609375 167.0883331298828125 165.6706390380859375 163.65765380859375 160.9388427734375 158.2388763427734375 155.7102508544921875 153.2587890625 151.277862548828125 149.7600250244140625 148.109405517578125 145.82269287109375 142.8533935546875 139.0702972412109375 134.5465240478515625 129.4445343017578125 124.0221710205078125 118.46924591064453125 113.02266693115234375 107.76322174072265625 102.8497467041015625 98.453521728515625 94.63648223876953125 91.56623077392578125 89.27474212646484375 87.64411163330078125 86.59406280517578125 85.47879791259765625 82.98200225830078125 79.13927459716796875 75.5873565673828125 72.7631988525390625 70.38043975830078125 68.50420379638671875 66.81792449951171875 64.852691650390625 62.38382720947265625 59.13622283935546875 54.61358642578125 48.50970458984375 40.931491851806640625 32.74939727783203125 24.882190704345703125 17.601686477661132812 11.448365211486816406 6.5574140548706054688 2.4186801910400390625 -99999 -99999 -99999 -99999 -99999 -99999 -99999 -99999 -99999 -99999 -99999 -99999 -99999 -99999 -99999 -99999 -99999 -99999 -99999 -99999
 -99999 -99999 -99999 -99999 -99999 -99999 -99999 -99999 -99999 -99999 -99999 -99999 -99999 -99999 -99999 -99999 -99999 -99999 -99999 -99999 -99999 -99999 -99999 -99999 -99999 -99999 -99999 -99999 -99999 -99999 -99999 -99999 -99999 -99999 -99999 -99999 -99999 -99999 -99999 -99999 -99999 -99999 -99999 -99999 -99999 -99999 -99999 -99999 -99999 -99999 -99999 -99999 -99999 -99999 -99999 -99999 -99999 -99999 -99999 -99999 -99999 -99999 -99999 -99999 -99999 -99999 -99999 -99999 -99999 -99999 -99999 -99999 -99999 -99999 -99999 -99999 -99999 -99999 -99999 -99999 -99999 -99999 -99999 -99999 -99999 -99999 -99999 -99999 -99999 -99999 -99999 -99999 -99999 -99999 -99999 -99999 -99999 30.07639312744140625 33.11360931396484375 36.702747344970703125 40.52378082275390625 45.049518585205078125 49.69179534912109375 54.39311981201171875 59.1894989013671875 63.82753753662109375 68.27256011962890625 72.5490570068359375 76.40021514892578125 79.671630859375 82.58342742919921875 85.03688812255859375 86.85308074951171875 88.32952880859375 89.31894683837890625 89.835418701171875 90.02324676513671875 90.025543212890625 89.81125640869140625 89.350860595703125 88.77764892578125 88.12636566162109375 87.17369842529296875 85.9365386962890625 84.325347900390625 82.44249725341796875 80.55313873291015625 78.832183837890625 77.42354583740234375 76.4406890869140625 76.42626190185546875 76.28174591064453125 75.9901885986328125 75.4871978759765625 75.19055938720703125 75.33821868896484375 76.02460479736328125 77.26999664306640625 79.08742523193359375 81.2373046875 83.3863983154296875 85.08139801025390625 86.97489166259765625 94.11150360107421875 102.536163330078125 110.51035308837890625 117.54805755615234375 123.59131622314453125 128.6239776611328125 132.8291473388671875 136.721221923828125 140.47650146484375 144.0798492431640625 147.674774169921875 151.19183349609375 154.51739501953125 157.590057373046875 160.345062255859375 162.637359619140625 164.4304656982421875 165.511199951171875 165.9157257080078125 165.772369384765625 164.9604034423828125 163.5881195068359375 161.686065673828125 159.4089202880859375 156.9151611328125 154.2748260498046875 151.561737060546875 150.3829803466796875 149.66180419921875 148.8058013916015625 147.0980224609375 144.2974700927734375 140.363525390625 135.5378875732421875 130.0356292724609375 124.2022247314453125 118.302001953125 112.4832305908203125 106.96878814697265625 101.8176116943359375 97.063812255859375 92.8997955322265625 89.71128082275390625 87.343475341796875 85.77095794677734375 84.518798828125 83.19536590576171875 80.9514617919921875 78.00449371337890625 74.75750732421875 71.65021514892578125 68.991302490234375 66.58869171142578125 64.3434600830078125 61.71643829345703125 58.575756072998046875 54.716625213623046875 49.66449737548828125 43.76197052001953125 37.106876373291015625 29.959611892700195312 22.639568328857421875 15.907225608825683594 10.096620559692382812 5.1401662826538085938 0.89037269353866577148 -99999 -99999 -99999 -99999 -99999 -99999 -99999 -99999 -99999 -99999 -99999 -99999 -99999 -99999 -99999 -99999 -99999 -99999 -99999 -99999
 -99999 -99999 -99999 -99999 -99999 -99999 -99999 -99999 -99999 -99999 -99999 -99999 -99999 -99999 -99999 -99999 -99999 -99999 -99999 -99999 -99999 -99999 -99999 -99999 -99999 -99999 -99999 -99999 -99999 -99999 -99999 -99999 -99999 -99999 -99999 -99999 -99999 -99999 -99999 -99999 -99999 -99999 -99999 -99999 -99999 -99999 -99999 -99999 -99999 -99999 -99999 -99999 -99999 -99999 -99999 -99999 -99999 -99999 -99999 -99999 -99999 -99999 -99999 -99999 -99999 -99999 -99999 -99999 -99999 -99999 -99999 -99999 -99999 -99999 -99999 -99999 -99999 -99999 -99999 -99999 -99999 -99999 -99999 -99999 -99999 -99999 -99999 -99999 -99999 -99999 -99999 -99999 -99999 -99999 -99999 -99999 -99999 28.094333648681640625 31.156499862670898438 34.6221466064453125 38.54193878173828125 43.1737823486328125 47.742275238037109375 52.7302398681640625 57.7629547119140625 62.523677825927734375 67.23641204833984375 71.56217193603515625 75.5149383544921875 79.161712646484375 82.21845245361328125 84.850555419921875 86.967926025390625 88.6983184814453125 89.88942718505859375 90.6231842041015625 91.02825164794921875 91.171234130859375 91.0081329345703125 90.622528076171875 89.9989013671875 89.141021728515625 88.03426361083984375 86.7164306640625 85.11840057373046875 83.0971832275390625 81.33358001708984375 79.53691864013671875 77.93183135986328125 77.20568084716796875 77.515838623046875 77.56882476806640625 76.90108489990234375 75.860076904296875 75.077239990234375 74.96860504150390625 75.665557861328125 77.1020355224609375 79.2950592041015625 81.95528411865234375 84.525299072265625 86.64087677001953125 89.606842041015625 94.86405181884765625 101.5809478759765625 108.58724212646484375 115.4304046630859375 121.49367523193359375 126.78521728515625 131.4381561279296875 135.6407928466796875 139.5862274169921875 143.2996673583984375 146.8133697509765625 150.1305389404296875 153.2432861328125 156.09234619140625 158.601837158203125 160.6807708740234375 162.2082366943359375 163.1757354736328125 163.5912322998046875 163.471893310546875 162.7988433837890625 161.6277008056640625 159.949493408203125 157.8815765380859375 155.58721923828125 152.9049072265625 150.4457244873046875 149.5182342529296875 150.329376220703125 150.1472930908203125 148.831695556640625 146.1459503173828125 141.90130615234375 136.5388641357421875 130.5818634033203125 124.20664215087890625 117.82440948486328125 111.774505615234375 106.045654296875 100.65549468994140625 95.69104766845703125 91.17067718505859375 87.371795654296875 85.064849853515625 83.54876708984375 82.2280120849609375 80.72420501708984375 78.7031707763671875 76.12038421630859375 73.261260986328125 70.38146209716796875 67.55280303955078125 64.6261444091796875 61.695911407470703125 58.5970001220703125 55.07635498046875 50.923038482666015625 46.052753448486328125 40.3890380859375 34.037357330322265625 27.460943222045898438 20.931711196899414062 14.823281288146972656 9.3100423812866210938 4.3904857635498046875 0.12240215390920639038 -99999 -99999 -99999 -99999 -99999 -99999 -99999 -99999 -99999 -99999 -99999 -99999 -99999 -99999 -99999 -99999 -99999 -99999 -99999 -99999
 -99999 -99999 -99999 -99999 -99999 -99999 -99999 -99999 -99999 -99999 -99999 -99999 -99999 -99999 -99999 -99999 -99999 -99999 -99999 -99999 -99999 -99999 -99999 -99999 -99999 -99999 -99999 -99999 -99999 -99999 -99999 -99999 -99999 -99999 -99999 -99999 -99999 -99999 -99999 -99999 -99999 -99999 -99999 -99999 -99999 -99999 -99999 -99999 -99999 -99999 -99999 -99999 -99999 -99999 -99999 -99999 -99999 -99999 -99999 -99999 -99999 -99999 -99999 -99999 -99999 -99999 -99999 -99999 -99999 -99999 -99999 -99999 -99999 -99999 -99999 -99999 -99999 -99999 -99999 -99999 -99999 -99999 -99999 -99999 -99999 -99999 -99999 -99999 -99999 -99999 -99999 -99999 -99999 -99999 -99999 -99999 -99999 26.608188629150390625 29.33322906494140625 32.889095306396484375 37.09249114990234375 41.539783477783203125 46.301357269287109375 51.52657318115234375 56.55356597900390625 61.6536102294921875 66.663726806640625 71.157318115234375 75.33489227294921875 79.0059051513671875 82.3959808349609375 85.2497406005859375 87.50699615478515625 89.392181396484375 90.80681610107421875 91.83780670166015625 92.42078399658203125 92.66164398193359375 92.5812225341796875 92.17594146728515625 91.4945220947265625 90.5897979736328125 89.388153076171875 87.8737335205078125 86.26605224609375 84.46750640869140625 82.64118194580078125 80.96019744873046875 79.6523590087890625 79.14656829833984375 79.7073822021484375 79.489837646484375 77.8724212646484375 76.10173797607421875 74.98993682861328125 74.68030548095703125 75.2625274658203125 77.00164794921875 79.5471343994140625 82.8034210205078125 85.9270172119140625 88.42795562744140625 91.6018524169921875 96.030242919921875 101.7683258056640625 108.06249237060546875 114.20644378662109375 120.03615570068359375 125.328460693359375 130.170166015625 134.51190185546875 138.5146636962890625 142.221160888671875 145.6783447265625 148.8988494873046875 151.864532470703125 154.4796905517578125 156.7097930908203125 158.53460693359375 159.9016876220703125 160.8589630126953125 161.26947021484375 161.1694488525390625 160.5850067138671875 159.6216888427734375 158.3170928955078125 156.7218475341796875 154.77996826171875 152.7125244140625 150.9640045166015625 151.30096435546875 151.7840728759765625 152.149627685546875 151.245574951171875 148.2279815673828125 143.547210693359375 137.6157684326171875 130.839569091796875 123.86531829833984375 117.20999908447265625 110.84674835205078125 105.05268096923828125 99.76009368896484375 94.54199981689453125 89.5876312255859375 85.5526123046875 82.88214111328125 81.48110198974609375 80.11476898193359375 78.48261260986328125 76.46041107177734375 74.062652587890625 71.3669586181640625 68.5003662109375 65.5250396728515625 62.478343963623046875 59.390003204345703125 56.025043487548828125 52.172946929931640625 47.8390960693359375 42.964542388916015625 37.61827850341796875 31.855661392211914062 25.890382766723632812 19.898618698120117188 14.138461112976074219 8.7756195068359375 3.9879629611968994141 -99999 -99999 -99999 -99999 -99999 -99999 -99999 -99999 -99999 -99999 -99999 -99999 -99999 -99999 -99999 -99999 -99999 -99999 -99999 -99999 -99999
 -99999 -99999 -99999 -99999 -99999 -99999 -99999 -99999 -99999 -99999 -99999 -99999 -99999 -99999 -99999 -99999 -99999 -99999 -99999 -99999 -99999 -99999 -99999 -99999 -99999 -99999 -99999 -99999 -99999 -99999 -99999 -99999 -99999 -99999 -99999 -99999 -99999 -99999 -99999 -99999 -99999 -99999 -99999 -99999 -99999 -99999 -99999 -99999 -99999 -99999 -99999 -99999 -99999 -99999 -99999 -99999 -99999 -99999 -99999 -99999 -99999 -99999 -99999 -99999 -99999 -99999 -99999 -99999 -99999 -99999 -99999 -99999 -99999 -99999 -99999 -99999 -99999 -99999 -99999 -99999 -99999 -99999 -99999 -99999 -99999 -99999 -99999 -99999 -99999 -99999 -99999 -99999 -99999 -99999 -99999 -99999 -99999 25.4028778076171875 28.0632476806640625 31.849767684936523438 35.740570068359375 40.46954345703125 45.579212188720703125 50.8180999755859375 56.138423919677734375 61.342761993408203125 66.38086700439453125 71.30426025390625 75.5392913818359375 79.50579071044921875 83.0897369384765625 86.1749725341796875 88.6264495849609375 90.6685333251953125 92.2367401123046875 93.345855712890625 94.136871337890625 94.48020172119140625 94.43834686279296875 94.07111358642578125 93.388702392578125 92.4360504150390625 91.201019287109375 89.6706085205078125 87.929443359375 86.18353271484375 84.4341583251953125 82.8384552001953125 81.69420623779296875 81.45136260986328125 81.643890380859375 80.8697052001953125 78.83168792724609375 76.1805877685546875 74.56345367431640625 74.15106201171875 74.89444732666015625 76.81743621826171875 79.92669677734375 83.307342529296875 86.4512481689453125 89.51293182373046875 92.98180389404296875 97.3187255859375 102.332183837890625 107.93042755126953125 113.57985687255859375 119.1096038818359375 124.3095703125 129.0571441650390625 133.40887451171875 137.427886962890625 141.100006103515625 144.509490966796875 147.5695648193359375 150.280548095703125 152.67303466796875 154.756683349609375 156.402008056640625 157.6453094482421875 158.4334564208984375 158.818389892578125 158.8350677490234375 158.466827392578125 157.7400054931640625 156.7095794677734375 155.5410614013671875 154.4116668701171875 153.3859100341796875 152.8365936279296875 153.01092529296875 153.8904876708984375 154.8257293701171875 154.011871337890625 150.7205657958984375 145.066558837890625 138.144683837890625 130.821624755859375 123.21294403076171875 115.946868896484375 109.63903045654296875 104.2261199951171875 99.12828826904296875 94.15439605712890625 89.0852508544921875 84.83188629150390625 81.949737548828125 80.082000732421875 78.4267425537109375 76.64260101318359375 74.5379791259765625 72.1004791259765625 69.42826080322265625 66.5914154052734375 63.605693817138671875 60.436244964599609375 57.206798553466796875 53.5576324462890625 49.7290802001953125 45.525188446044921875 40.844142913818359375 35.688823699951171875 30.24639892578125 24.711910247802734375 19.134532928466796875 13.766168594360351562 8.676418304443359375 3.9628434181213378906 -99999 -99999 -99999 -99999 -99999 -99999 -99999 -99999 -99999 -99999 -99999 -99999 -99999 -99999 -99999 -99999 -99999 -99999 -99999 -99999 -99999
 -99999 -99999 -99999 -99999 -99999 -99999 -99999 -99999 -99999 -99999 -99999 -99999 -99999 -99999 -99999 -99999 -99999 -99999 -99999 -99999 -99999 -99999 -99999 -99999 -99999 -99999 -99999 -99999 -99999 -99999 -99999 -99999 -99999 -99999 -99999 -99999 -99999 -99999 -99999 -99999 -99999 -99999 -99999 -99999 -99999 -99999 -99999 -99999 -99999 -99999 -99999 -99999 -99999 -99999 -99999 -99999 -99999 -99999 -99999 -99999 -99999 -99999 -99999 -99999 -99999 -99999 -99999 -99999 -99999 -99999 -99999 -99999 -99999 -99999 -99999 -99999 -99999 -99999 -99999 -99999 -99999 -99999 -99999 -99999 -99999 -99999 -99999 -99999 -99999 -99999 -99999 -99999 -99999 -99999 -99999 -99999 -99999 25.059680938720703125 28.104265213012695312 31.117847442626953125 35.207157135009765625 40.0474395751953125 45.215015411376953125 50.5851287841796875 56.2891387939453125 61.6611328125 66.7856597900390625 71.7205963134765625 76.4293975830078125 80.50360870361328125 84.193695068359375 87.421875 90.15436553955078125 92.24886322021484375 94.09221649169921875 95.41753387451171875 96.27325439453125 96.60784912109375 96.72496795654296875 96.476348876953125 95.76593780517578125 94.7286224365234375 93.45322418212890625 91.8913116455078125 90.1279449462890625 88.3082733154296875 86.52797698974609375 84.93840789794921875 83.6619873046875 82.7549896240234375 82.07463836669921875 81.02921295166015625 78.2412872314453125 75.63459014892578125 74.319488525390625 73.8729095458984375 74.4749298095703125 76.94115447998046875 80.4074554443359375 83.8969268798828125 87.328704833984375 90.79987335205078125 94.41790771484375 98.5653839111328125 103.27088165283203125 108.27301025390625 113.5124969482421875 118.65594482421875 123.64141845703125 128.2307891845703125 132.4847259521484375 136.44818115234375 140.023040771484375 143.24212646484375 146.1236724853515625 148.731170654296875 150.91729736328125 152.7229461669921875 154.1855316162109375 155.2848968505859375 156.040618896484375 156.427093505859375 156.449951171875 156.1831817626953125 155.71575927734375 155.1572265625 154.5288238525390625 153.9209442138671875 153.571563720703125 153.8170318603515625 154.613037109375 155.8982391357421875 157.2292327880859375 157.6312408447265625 152.401947021484375 145.984588623046875 138.4627532958984375 129.9216766357421875 121.5778350830078125 114.26696014404296875 107.80767822265625 103.14422607421875 99.158050537109375 94.764007568359375 89.90570831298828125 85.3740234375 82.15106964111328125 79.678497314453125 77.395416259765625 75.17461395263671875 72.813995361328125 70.2945098876953125 67.60356903076171875 64.72035980224609375 61.69890594482421875 58.533840179443359375 55.166351318359375 51.685710906982421875 47.80019378662109375 43.56821441650390625 39.071193695068359375 34.307834625244140625 29.205900192260742188 24.036970138549804688 18.827348709106445312 13.728607177734375 8.898746490478515625 4.3456516265869140625 0.094098366796970367432 -99999 -99999 -99999 -99999 -99999 -99999 -99999 -99999 -99999 -99999 -99999 -99999 -99999 -99999 -99999 -99999 -99999 -99999 -99999 -99999
 -99999 -99999 -99999 -99999 -99999 -99999 -99999 -99999 -99999 -99999 -99999 -99999 -99999 -99999 -99999 -99999 -99999 -99999 -99999 -99999 -99999 -99999 -99999 -99999 -99999 -99999 -99999 -99999 -99999 -99999 -99999 -99999 -99999 -99999 -99999 -99999 -99999 -99999 -99999 -99999 -99999 -99999 -99999 -99999 -99999 -99999 -99999 -99999 -99999 -99999 -99999 -99999 -99999 -99999 -99999 -99999 -99999 -99999 -99999 -99999 -99999 -99999 -99999 -99999 -99999 -99999 -99999 -99999 -99999 -99999 -99999 -99999 -99999 -99999 -99999 -99999 -99999 -99999 -99999 -99999 -99999 -99999 -99999 -99999 -99999 -99999 -99999 -99999 -99999 -99999 -99999 -99999 -99999 -99999 -99999 -99999 -99999 25.3193817138671875 27.7607421875 31.237310409545898438 35.7368927001953125 40.4451141357421875 45.658466339111328125 51.388889312744140625 56.955287933349609375 62.610569000244140625 68.00728607177734375 73.089813232421875 77.85199737548828125 82.21909332275390625 85.8961639404296875 89.2650146484375 92.11884307861328125 94.65775299072265625 96.44272613525390625 97.77466583251953125 98.853179931640625 99.43447113037109375 99.5430145263671875 99.205352783203125 98.53472137451171875 97.530792236328125 96.230682373046875 94.6552581787109375 92.7866973876953125 90.8402252197265625 88.8844451904296875 87.0447540283203125 85.38433074951171875 83.78621673583984375 82.30992889404296875 80.2343902587890625 77.67060089111328125 75.5261383056640625 74.8322906494140625 74.47949981689453125 74.67232513427734375 77.25848388671875 81.50238800048828125 85.27655029296875 88.81665802001953125 92.2339935302734375 95.95464324951171875 99.89670562744140625 104.2085418701171875 108.9451446533203125 113.75653839111328125 118.56906890869140625 123.2753143310546875 127.67752838134765625 131.805938720703125 135.597076416015625 139.0263214111328125 142.1176300048828125 144.8347625732421875 147.1369171142578125 149.0998382568359375 150.725799560546875 152.0368194580078125 152.97747802734375 153.5881500244140625 153.9014129638671875 153.9655303955078125 153.86651611328125 153.5979156494140625 153.25567626953125 153.05352783203125 152.9727783203125 153.21795654296875 153.814239501953125 154.7566375732421875 156.0724334716796875 157.0814056396484375 155.770599365234375 151.872406005859375 145.70013427734375 137.8211822509765625 128.7409820556640625 119.67885589599609375 111.749176025390625 105.51476287841796875 101.258392333984375 99.00545501708984375 95.651824951171875 90.8958282470703125 86.525115966796875 82.7624053955078125 79.53277587890625 76.7581939697265625 74.085784912109375 71.39025115966796875 68.692657470703125 65.90273284912109375 62.974514007568359375 59.96509552001953125 56.81365966796875 53.49913787841796875 50.01680755615234375 46.249805450439453125 42.241466522216796875 37.8784637451171875 33.399265289306640625 28.636257171630859375 23.740549087524414062 18.868007659912109375 14.054758071899414062 9.3895931243896484375 4.9068846702575683594 0.71963685750961303711 -99999 -99999 -99999 -99999 -99999 -99999 -99999 -99999 -99999 -99999 -99999 -99999 -99999 -99999 -99999 -99999 -99999 -99999 -99999 -99999
 -99999 -99999 -99999 -99999 -99999 -99999 -99999 -99999 -99999 -99999 -99999 -99999 -99999 -99999 -99999 -99999 -99999 -99999 -99999 -99999 -99999 -99999 -99999 -99999 -99999 -99999 -99999 -99999 -99999 -99999 -99999 -99999 -99999 -99999 -99999 -99999 -99999 -99999 -99999 -99999 -99999 -99999 -99999 -99999 -99999 -99999 -99999 -99999 -99999 -99999 -99999 -99999 -99999 -99999 -99999 -99999 -99999 -99999 -99999 -99999 -99999 -99999 -99999 -99999 -99999 -99999 -99999 -99999 -99999 -99999 -99999 -99999 -99999 -99999 -99999 -99999 -99999 -99999 -99999 -99999 -99999 -99999 -99999 -99999 -99999 -99999 -99999 -99999 -99999 -99999 -99999 -99999 -99999 -99999 -99999 -99999 -99999 26.328512191772460938 28.99094390869140625 32.299121856689453125 36.63665008544921875 41.55545806884765625 47.011745452880859375 52.929901123046875 58.552913665771484375 64.1990203857421875 69.834747314453125 74.953460693359375 79.7336273193359375 84.29076385498046875 88.25081634521484375 91.6836395263671875 94.58652496337890625 97.15729522705078125 99.20099639892578125 100.914337158203125 101.87248992919921875 102.45188140869140625 102.67800140380859375 102.53879547119140625 101.8592376708984375 100.78873443603515625 99.39452362060546875 97.71039581298828125 95.82935333251953125 93.71346282958984375 91.49973297119140625 89.3517913818359375 87.26679229736328125 85.100067138671875 82.98442840576171875 80.77648162841796875 78.4609375 77.1969451904296875 77.3758392333984375 77.16445159912109375 77.72613525390625 80.64652252197265625 84.28839111328125 87.9039764404296875 91.0406951904296875 94.2491607666015625 97.64250946044921875 101.44280242919921875 105.42870330810546875 109.7407684326171875 114.254547119140625 118.77301025390625 123.16757965087890625 127.4477081298828125 131.3876190185546875 134.9866485595703125 138.1822357177734375 141.066375732421875 143.535614013671875 145.6489410400390625 147.41351318359375 148.790435791015625 149.806182861328125 150.5679473876953125 151.056365966796875 151.2693939208984375 151.3316650390625 151.2588958740234375 151.1691131591796875 151.112640380859375 151.1750946044921875 151.362823486328125 151.8324127197265625 152.6144256591796875 153.5849151611328125 154.43646240234375 154.652313232421875 153.243927001953125 149.427581787109375 144.0450439453125 136.017669677734375 126.7026214599609375 117.14928436279296875 108.9560089111328125 102.5053558349609375 98.5533905029296875 97.198944091796875 95.2302093505859375 91.56996917724609375 87.31310272216796875 83.4077911376953125 79.680999755859375 76.35570526123046875 73.21978759765625 70.1876068115234375 67.23244476318359375 64.26153564453125 61.258880615234375 58.28279876708984375 55.245029449462890625 51.977718353271484375 48.583080291748046875 45.02530670166015625 41.2646026611328125 37.142490386962890625 32.850330352783203125 28.414117813110351562 23.864810943603515625 19.242383956909179688 14.611021041870117188 10.131941795349121094 5.7953104972839355469 1.5931077003479003906 -99999 -99999 -99999 -99999 -99999 -99999 -99999 -99999 -99999 -99999 -99999 -99999 -99999 -99999 -99999 -99999 -99999 -99999 -99999 -99999
 -99999 -99999 -99999 -99999 -99999 -99999 -99999 -99999 -99999 -99999 -99999 -99999 -99999 -99999 -99999 -99999 -99999 -99999 -99999 -99999 -99999 -99999 -99999 -99999 -99999 -99999 -99999 -99999 -99999 -99999 -99999 -99999 -99999 -99999 -99999 -99999 -99999 -99999 -99999 -99999 -99999 -99999 -99999 -99999 -99999 -99999 -99999 -99999 -99999 -99999 -99999 -99999 -99999 -99999 -99999 -99999 -99999 -99999 -99999 -99999 -99999 -99999 -99999 -99999 -99999 -99999 -99999 -99999 -99999 -99999 -99999 -99999 -99999 -99999 -99999 -99999 -99999 -99999 -99999 -99999 -99999 -99999 -99999 -99999 -99999 -99999 -99999 -99999 -99999 -99999 -99999 -99999 -99999 -99999 -99999 -99999 -99999 28.295734405517578125 30.95269775390625 34.522449493408203125 38.5459747314453125 43.853137969970703125 49.290996551513671875 54.964786529541015625 60.95560455322265625 66.6582183837890625 72.18695068359375 77.50875091552734375 82.2990875244140625 86.83066558837890625 90.941009521484375 94.453460693359375 97.52581787109375 100.127197265625 102.437652587890625 104.09766387939453125 105.3176422119140625 106.111785888671875 106.3755035400390625 106.127166748046875 105.54239654541015625 104.6226043701171875 103.15949249267578125 101.328582763671875 99.20580291748046875 97.08281707763671875 94.62274169921875 92.04708099365234375 89.46068572998046875 86.93888092041015625 84.50717926025390625 82.16684722900390625 80.334716796875 79.4028472900390625 80.16104888916015625 83.4537200927734375 84.21087646484375 87.23551177978515625 89.433685302734375 91.370147705078125 93.88179779052734375 96.58263397216796875 99.624267578125 102.95769500732421875 106.73480224609375 110.7614288330078125 115.0120697021484375 119.29477691650390625 123.46186065673828125 127.42389678955078125 131.1470184326171875 134.560028076171875 137.5861358642578125 140.201202392578125 142.4301910400390625 144.25115966796875 145.6923828125 146.7803192138671875 147.62054443359375 148.1343231201171875 148.4114227294921875 148.52899169921875 148.5257110595703125 148.4550933837890625 148.375457763671875 148.3830413818359375 148.5867462158203125 148.9801177978515625 149.613525390625 150.386962890625 151.1846923828125 151.5591583251953125 151.07623291015625 149.486846923828125 146.2906494140625 140.7579345703125 133.0950927734375 123.7837982177734375 114.66165924072265625 106.527496337890625 101.1229705810546875 98.3939208984375 97.14064788818359375 95.70462799072265625 92.33066558837890625 88.2486114501953125 83.98761749267578125 79.85387420654296875 75.93946075439453125 72.29764556884765625 68.9905242919921875 65.7819976806640625 62.743682861328125 59.804065704345703125 56.85890960693359375 53.80341339111328125 50.73279571533203125 47.544025421142578125 44.148193359375 40.532611846923828125 36.743190765380859375 32.79073333740234375 28.573358535766601562 24.239683151245117188 19.895229339599609375 15.500184059143066406 11.138819694519042969 6.8457503318786621094 2.6851701736450195312 -99999 -99999 -99999 -99999 -99999 -99999 -99999 -99999 -99999 -99999 -99999 -99999 -99999 -99999 -99999 -99999 -99999 -99999 -99999 -99999
 -99999 -99999 -99999 -99999 -99999 -99999 -99999 -99999 -99999 -99999 -99999 -99999 -99999 -99999 -99999 -99999 -99999 -99999 -99999 -99999 -99999 -99999 -99999 -99999 -99999 -99999 -99999 -99999 -99999 -99999 -99999 -99999 -99999 -99999 -99999 -99999 -99999 -99999 -99999 -99999 -99999 -99999 -99999 -99999 -99999 -99999 -99999 -99999 -99999 -99999 -99999 -99999 -99999 -99999 -99999 -99999 -99999 -99999 -99999 -99999 -99999 -99999 -99999 -99999 -99999 -99999 -99999 -99999 -99999 -99999 -99999 -99999 -99999 -99999 -99999 -99999 -99999 -99999 -99999 -99999 -99999 -99999 -99999 -99999 -99999 -99999 -99999 -99999 -99999 -99999 -99999 -99999 -99999 -99999 -99999 28.921953201293945312 29.5286865234375 31.128808975219726562 33.758693695068359375 37.16135406494140625 41.80962371826171875 46.72591400146484375 52.400302886962890625 58.28073883056640625 63.916843414306640625 69.6393890380859375 75.25334930419921875 80.42596435546875 85.3210601806640625 89.8274993896484375 93.98651123046875 97.671539306640625 100.85413360595703125 103.6476898193359375 105.9366302490234375 107.79754638671875 109.1742401123046875 110.0641326904296875 110.388763427734375 110.2550811767578125 109.6548004150390625 108.617279052734375 107.2016143798828125 105.4016571044921875 103.2256927490234375 100.68384552001953125 98.02861785888671875 95.25994110107421875 92.41448974609375 89.50649261474609375 86.8027801513671875 84.445831298828125 82.65038299560546875 81.94097900390625 83.03356170654296875 87.06231689453125 91.72579193115234375 93.5270538330078125 93.76053619384765625 94.71486663818359375 96.62218475341796875 98.97924041748046875 101.6631622314453125 104.6406402587890625 108.11215972900390625 111.8912506103515625 115.83319091796875 119.81536865234375 123.86023712158203125 127.735137939453125 131.279144287109375 134.3987274169921875 137.1654052734375 139.508087158203125 141.428497314453125 142.9319915771484375 144.081573486328125 144.9324493408203125 145.4042510986328125 145.6337890625 145.7044830322265625 145.6170654296875 145.4602203369140625 145.3139495849609375 145.23211669921875 145.258270263671875 145.4726409912109375 145.9109344482421875 146.4921722412109375 147.1482696533203125 147.7447509765625 148.11822509765625 147.6110992431640625 145.389892578125 141.7417449951171875 136.4284820556640625 129.3116607666015625 121.9886932373046875 113.44019317626953125 106.0827789306640625 103.65978240966796875 101.9681549072265625 100.2870330810546875 97.50960540771484375 93.94226837158203125 89.63861083984375 84.77974700927734375 79.99486541748046875 75.4630126953125 71.40093994140625 67.7471160888671875 64.395721435546875 61.26758575439453125 58.261493682861328125 55.399234771728515625 52.607273101806640625 49.72808837890625 46.6828765869140625 43.52783966064453125 40.201045989990234375 36.65796661376953125 32.91368865966796875 29.04077911376953125 25.028194427490234375 20.858179092407226562 16.59149169921875 12.366349220275878906 8.1532831192016601562 3.967166900634765625 -99999 -99999 -99999 -99999 -99999 -99999 -99999 -99999 -99999 -99999 -99999 -99999 -99999 -99999 -99999 -99999 -99999 -99999 -99999 -99999
 -99999 -99999 -99999 -99999 -99999 -99999 -99999 -99999 -99999 -99999 -99999 -99999 -99999 -99999 -99999 -99999 -99999 -99999 -99999 -99999 -99999 -99999 -99999 -99999 -99999 -99999 -99999 -99999 -99999 -99999 -99999 -99999 -99999 -99999 -99999 -99999 -99999 -99999 -99999 -99999 -99999 -99999 -99999 -99999 -99999 -99999 -99999 -99999 -99999 -99999 -99999 -99999 -99999 -99999 -99999 -99999 -99999 -99999 -99999 -99999 -99999 -99999 -99999 -99999 -99999 -99999 -99999 -99999 -99999 -99999 -99999 -99999 -99999 -99999 -99999 -99999 -99999 -99999 -99999 -99999 -99999 -99999 -99999 -99999 -99999 -99999 -99999 -99999 -99999 -99999 -99999 -99999 -99999 32.82340240478515625 32.568843841552734375 32.788951873779296875 33.663158416748046875 34.757152557373046875 37.49410247802734375 41.3823089599609375 46.1778717041015625 51.20140838623046875 56.58086395263671875 62.37407684326171875 68.114715576171875 73.49385833740234375 78.93607330322265625 84.1287841796875 88.82053375244140625 93.365936279296875 97.532501220703125 101.32196044921875 104.64246368408203125 107.47101593017578125 109.87227630615234375 111.83406829833984375 113.32917022705078125 114.30788421630859375 114.809112548828125 114.80738067626953125 114.2836151123046875 113.26087188720703125 111.82149505615234375 109.86920928955078125 107.55883026123046875 104.9432373046875 102.10784912109375 99.02445220947265625 95.83892822265625 92.7502899169921875 89.9434051513671875 87.5238800048828125 85.604705810546875 85.2958984375 86.77130126953125 90.07001495361328125 94.60527801513671875 96.43255615234375 96.62697601318359375 97.67046356201171875 99.2867584228515625 101.3665008544921875 103.56781005859375 106.2544097900390625 109.333953857421875 112.816192626953125 116.78842926025390625 120.8278350830078125 124.652862548828125 128.23724365234375 131.5820465087890625 134.5140380859375 137.0023956298828125 139.0074005126953125 140.600677490234375 141.8380584716796875 142.5410919189453125 143.0071868896484375 143.1621856689453125 143.072296142578125 142.8492431640625 142.534576416015625 142.18865966796875 141.871734619140625 141.6455078125 141.63580322265625 141.7514801025390625 142.082977294921875 142.6632080078125 143.3895416259765625 143.8971710205078125 143.8835906982421875 143.195281982421875 141.4826507568359375 138.2071075439453125 132.5677337646484375 125.82228851318359375 119.63423919677734375 115.5188751220703125 112.56856536865234375 110.35931396484375 108.7711334228515625 105.94085693359375 101.21451568603515625 95.94384002685546875 90.79212188720703125 85.3021240234375 79.81502532958984375 74.84589385986328125 70.32305145263671875 66.379852294921875 62.817287445068359375 59.6788330078125 56.8721160888671875 54.187770843505859375 51.492465972900390625 48.8009490966796875 46.082561492919921875 43.228046417236328125 40.138881683349609375 36.89023590087890625 33.473346710205078125 29.831262588500976562 26.005243301391601562 22.046382904052734375 18.013040542602539062 13.845465660095214844 9.6513261795043945312 5.4723591804504394531 1.3208932876586914062 -99999 -99999 -99999 -99999 -99999 -99999 -99999 -99999 -99999 -99999 -99999 -99999 -99999 -99999 -99999 -99999 -99999 -99999 -99999
 -99999 -99999 -99999 -99999 -99999 -99999 -99999 -99999 -99999 -99999 -99999 -99999 -99999 -99999 -99999 -99999 -99999 -99999 -99999 -99999 -99999 -99999 -99999 -99999 -99999 -99999 -99999 -99999 -99999 -99999 -99999 -99999 -99999 -99999 -99999 -99999 -99999 -99999 -99999 -99999 -99999 -99999 -99999 -99999 -99999 -99999 -99999 -99999 -99999 -99999 -99999 -99999 -99999 -99999 -99999 -99999 -99999 -99999 -99999 -99999 -99999 -99999 -99999 -99999 -99999 -99999 -99999 -99999 -99999 -99999 -99999 -99999 -99999 -99999 -99999 -99999 -99999 -99999 -99999 -99999 -99999 -99999 -99999 -99999 -99999 -99999 -99999 -99999 -99999 -99999 -99999 38.25527191162109375 37.94243621826171875 37.686672210693359375 37.572177886962890625 37.602764129638671875 37.792449951171875 39.757915496826171875 42.630001068115234375 46.302242279052734375 51.35625457763671875 56.669864654541015625 61.566005706787109375 67.039886474609375 72.4200897216796875 77.7178955078125 82.971099853515625 88.05066680908203125 92.7688446044921875 97.206756591796875 101.3684539794921875 105.17241668701171875 108.58979034423828125 111.54782867431640625 114.20885467529296875 116.27666473388671875 117.82982635498046875 118.9029388427734375 119.5832672119140625 119.68737030029296875 119.24663543701171875 118.2081298828125 116.72521209716796875 114.80538177490234375 112.474945068359375 109.71495819091796875 106.65120697021484375 103.40139007568359375 99.99524688720703125 96.66732025146484375 93.61483001708984375 91.3659820556640625 89.64803314208984375 89.44768524169921875 90.709014892578125 93.30682373046875 96.15473175048828125 97.8770751953125 98.48388671875 99.96511077880859375 101.9192047119140625 103.80080413818359375 105.50943756103515625 107.5701141357421875 110.5507049560546875 114.149749755859375 117.93707275390625 121.81658935546875 125.66399383544921875 129.1684722900390625 132.222320556640625 134.845367431640625 137.037811279296875 138.79644775390625 139.9746551513671875 140.7371826171875 141.1372833251953125 141.13348388671875 140.8820953369140625 140.4392852783203125 139.8841094970703125 139.2581329345703125 138.6384124755859375 138.1224365234375 137.7622222900390625 137.5019989013671875 137.52703857421875 137.7734222412109375 138.2088775634765625 138.7112884521484375 139.2264862060546875 139.5733489990234375 139.3226318359375 137.95465087890625 135.13037109375 130.5771484375 123.7250823974609375 118.97513580322265625 117.62825775146484375 119.99599456787109375 119.5573883056640625 116.182037353515625 111.16790771484375 105.1832733154296875 98.55997467041015625 91.7453155517578125 85.3684844970703125 79.27362823486328125 73.6104278564453125 68.86309814453125 64.58274078369140625 61.174282073974609375 58.16777801513671875 55.407436370849609375 52.873394012451171875 50.557651519775390625 48.190708160400390625 45.72198486328125 43.136692047119140625 40.373584747314453125 37.446949005126953125 34.258243560791015625 30.889034271240234375 27.33498382568359375 23.577850341796875 19.62110137939453125 15.585139274597167969 11.381417274475097656 7.1479487419128417969 2.91573333740234375 -99999 -99999 -99999 -99999 -99999 -99999 -99999 -99999 -99999 -99999 -99999 -99999 -99999 -99999 -99999 -99999 -99999 -99999 -99999
 -99999 -99999 -99999 -99999 -99999 -99999 -99999 -99999 -99999 -99999 -99999 -99999 -99999 -99999 -99999 -99999 -99999 -99999 -99999 -99999 -99999 -99999 -99999 -99999 -99999 -99999 -99999 -99999 -99999 -99999 -99999 -99999 -99999 -99999 -99999 -99999 -99999 -99999 -99999 -99999 -99999 -99999 -99999 -99999 -99999 -99999 -99999 -99999 -99999 -99999 -99999 -99999 -99999 -99999 -99999 -99999 -99999 -99999 -99999 -99999 -99999 -99999 -99999 -99999 -99999 -99999 -99999 -99999 -99999 -99999 -99999 -99999 -99999 -99999 -99999 -99999 -99999 -99999 -99999 -99999 -99999 -99999 -99999 -99999 -99999 -99999 -99999 -99999 -99999 43.400836944580078125 43.2973785400390625 43.1824798583984375 43.15863037109375 43.270336151123046875 43.456554412841796875 43.65090179443359375 44.004364013671875 44.613773345947265625 48.21028900146484375 53.00087738037109375 57.74494171142578125 62.5625 67.62812042236328125 72.53668212890625 77.68212127685546875 82.5995025634765625 87.4951324462890625 92.3727874755859375 96.91287994384765625 101.4218292236328125 105.54244232177734375 109.32431793212890625 112.865081787109375 115.97783660888671875 118.518341064453125 120.78632354736328125 122.67142486572265625 124.03258514404296875 124.7003326416015625 124.81536865234375 124.46370697021484375 123.5760498046875 122.18070220947265625 120.17502593994140625 117.71729278564453125 114.90621185302734375 111.7935028076171875 108.3904266357421875 104.7121124267578125 101.0076904296875 97.910919189453125 95.94628143310546875 94.48212432861328125 93.9664459228515625 94.65180206298828125 96.3167877197265625 98.3038330078125 99.84410858154296875 101.05748748779296875 102.85839080810546875 104.794219970703125 105.99187469482421875 106.9903564453125 108.84993743896484375 111.5762176513671875 115.25144195556640625 119.36517333984375 123.32637786865234375 126.9548187255859375 130.245819091796875 133.1615447998046875 135.5897979736328125 137.394073486328125 138.6822357177734375 139.5378875732421875 139.84735107421875 139.708099365234375 139.3061981201171875 138.6521759033203125 137.7280426025390625 136.8011016845703125 135.815032958984375 134.8936614990234375 134.061859130859375 133.3983306884765625 132.9813232421875 132.7750091552734375 132.84912109375 133.1363372802734375 133.6448974609375 134.2857818603515625 134.7988433837890625 135.007568359375 134.62091064453125 133.2680816650390625 130.537078857421875 124.2494659423828125 119.5869598388671875 120.1552581787109375 122.26471710205078125 123.76303863525390625 121.14768218994140625 114.49265289306640625 107.01764678955078125 99.23842620849609375 91.95501708984375 84.62540435791015625 78.01557159423828125 72.216766357421875 66.82788848876953125 62.50165557861328125 59.200382232666015625 56.30001068115234375 54.00551605224609375 51.87554931640625 49.799419403076171875 47.717281341552734375 45.599353790283203125 43.348529815673828125 40.872344970703125 38.250904083251953125 35.3802032470703125 32.29230499267578125 28.902189254760742188 25.2829742431640625 21.49737548828125 17.51294708251953125 13.355609893798828125 9.08214569091796875 4.7038960456848144531 0.3326174616813659668 -99999 -99999 -99999 -99999 -99999 -99999 -99999 -99999 -99999 -99999 -99999 -99999 -99999 -99999 -99999 -99999 -99999 -99999
 -99999 -99999 -99999 -99999 -99999 -99999 -99999 -99999 -99999 -99999 -99999 -99999 -99999 -99999 -99999 -99999 -99999 -99999 -99999 -99999 -99999 -99999 -99999 -99999 -99999 -99999 -99999 -99999 -99999 -99999 -99999 -99999 -99999 -99999 -99999 -99999 -99999 -99999 -99999 -99999 -99999 -99999 -99999 -99999 -99999 -99999 -99999 -99999 -99999 -99999 -99999 -99999 -99999 -99999 -99999 -99999 -99999 -99999 -99999 -99999 -99999 -99999 -99999 -99999 -99999 -99999 -99999 -99999 -99999 -99999 -99999 -99999 -99999 -99999 -99999 -99999 -99999 -99999 -99999 -99999 -99999 -99999 -99999 -99999 -99999 -99999 -99999 47.843189239501953125 47.92467498779296875 48.043212890625 48.24826812744140625 48.59291839599609375 49.11589813232421875 49.767314910888671875 50.459300994873046875 51.2140655517578125 52.144428253173828125 53.58280181884765625 56.9735260009765625 61.597286224365234375 65.91080474853515625 69.78083038330078125 73.9272003173828125 78.52435302734375 83.27790069580078125 87.66771697998046875 92.29334259033203125 96.9221649169921875 101.44158935546875 105.56524658203125 109.76543426513671875 113.6428680419921875 117.2757568359375 120.46891021728515625 123.3390960693359375 125.8147430419921875 127.57973480224609375 129.01025390625 129.9758453369140625 130.428436279296875 130.2063140869140625 129.2761993408203125 127.800689697265625 125.86829376220703125 123.48473358154296875 120.609161376953125 117.34897613525390625 113.777374267578125 110.2167205810546875 106.2958526611328125 102.8130340576171875 100.40543365478515625 99.2352294921875 98.78902435302734375 98.802703857421875 99.8370208740234375 101.03221893310546875 102.44019317626953125 103.7224273681640625 105.2779998779296875 107.12018585205078125 108.38632965087890625 108.16583251953125 109.25524139404296875 112.49029541015625 116.7143402099609375 120.94121551513671875 125.0463714599609375 128.732208251953125 131.849334716796875 134.3895416259765625 136.429718017578125 137.9500579833984375 138.9423370361328125 139.2641143798828125 139.1065521240234375 138.51251220703125 137.5084991455078125 136.28582763671875 134.9801483154296875 133.588836669921875 132.19195556640625 130.9129486083984375 129.73077392578125 128.8370819091796875 128.1268157958984375 127.66943359375 127.50489044189453125 127.67105865478515625 128.077972412109375 128.7099151611328125 129.5561981201171875 130.5301055908203125 131.4499664306640625 132.264190673828125 131.343292236328125 127.66262054443359375 123.0452728271484375 122.09827423095703125 122.803009033203125 122.59842681884765625 119.88085174560546875 114.1862335205078125 105.73780059814453125 98.4066009521484375 89.98299407958984375 83.10434722900390625 75.95227813720703125 69.50611114501953125 64.340118408203125 60.147876739501953125 57.01761627197265625 54.65570831298828125 52.636516571044921875 50.84767913818359375 49.19208526611328125 47.51581573486328125 45.724773406982421875 43.790821075439453125 41.69828033447265625 39.37155914306640625 36.755298614501953125 33.893787384033203125 30.7673492431640625 27.379659652709960938 23.6624755859375 19.67400360107421875 15.484056472778320312 11.159970283508300781 6.6966485977172851562 2.1415205001831054688 -99999 -99999 -99999 -99999 -99999 -99999 -99999 -99999 -99999 -99999 -99999 -99999 -99999 -99999 -99999 -99999 -99999 -99999
 -99999 -99999 -99999 -99999 -99999 -99999 -99999 -99999 -99999 -99999 -99999 -99999 -99999 -99999 -99999 -99999 -99999 -99999 -99999 -99999 -99999 -99999 -99999 -99999 -99999 -99999 -99999 -99999 -99999 -99999 -99999 -99999 -99999 -99999 -99999 -99999 -99999 -99999 -99999 -99999 -99999 -99999 -99999 -99999 -99999 -99999 -99999 -99999 -99999 -99999 -99999 -99999 -99999 -99999 -99999 -99999 -99999 -99999 -99999 -99999 -99999 -99999 -99999 -99999 -99999 -99999 -99999 -99999 -99999 -99999 -99999 -99999 -99999 -99999 -99999 -99999 -99999 -99999 -99999 -99999 -99999 -99999 -99999 -99999 -99999 51.68959808349609375 51.871448516845703125 52.08217620849609375 52.377277374267578125 52.829677581787109375 53.524951934814453125 54.450298309326171875 55.471645355224609375 56.56212615966796875 58.12296295166015625 60.276874542236328125 63.364749908447265625 66.169677734375 69.16843414306640625 71.90033721923828125 74.2003631591796875 77.3531341552734375 80.78675079345703125 84.5607757568359375 88.64763641357421875 92.8488006591796875 97.1781768798828125 101.5442047119140625 105.77001190185546875 110.05709075927734375 114.32366943359375 118.111114501953125 121.765899658203125 125.1895904541015625 128.0840606689453125 130.5687408447265625 132.7711944580078125 134.5335693359375 135.642791748046875 136.074981689453125 135.9932708740234375 135.312744140625 134.0059967041015625 131.93994140625 129.2860260009765625 126.3845977783203125 123.26438140869140625 120.10808563232421875 116.4879302978515625 112.54177093505859375 108.55887603759765625 106.167999267578125 104.60593414306640625 103.59268951416015625 103.42752838134765625 103.5996551513671875 104.32176971435546875 105.22841644287109375 106.4803009033203125 107.71259307861328125 108.53424835205078125 108.30170440673828125 107.76755523681640625 109.5640716552734375 113.6412200927734375 118.78614044189453125 123.5413970947265625 127.5675048828125 130.8248138427734375 133.64300537109375 135.96697998046875 137.7737884521484375 138.853790283203125 139.307586669921875 139.19390869140625 138.446502685546875 137.2243804931640625 135.6991729736328125 133.9898529052734375 132.1247100830078125 130.226776123046875 128.4356689453125 126.73270416259765625 125.26305389404296875 123.9910888671875 122.96395111083984375 122.240936279296875 121.776641845703125 121.66921234130859375 121.96968841552734375 122.68328094482421875 123.7030181884765625 124.95001220703125 126.30396270751953125 128.00067138671875 129.37750244140625 126.68344879150390625 123.69850921630859375 121.7213897705078125 120.96813201904296875 120.072723388671875 116.78952789306640625 110.91504669189453125 102.8507537841796875 95.84267425537109375 88.48592376708984375 80.99137115478515625 72.99274444580078125 66.20888519287109375 60.870395660400390625 57.049892425537109375 54.625827789306640625 52.80022430419921875 51.34235382080078125 50.11681365966796875 48.882579803466796875 47.570514678955078125 46.163539886474609375 44.55327606201171875 42.75217437744140625 40.711086273193359375 38.45955657958984375 35.913463592529296875 32.965908050537109375 29.720930099487304688 26.08774566650390625 22.17173004150390625 17.963342666625976562 13.472703933715820312 8.8631811141967773438 4.1417756080627441406 -99999 -99999 -99999 -99999 -99999 -99999 -99999 -99999 -99999 -99999 -99999 -99999 -99999 -99999 -99999 -99999 -99999 -99999
 -99999 -99999 -99999 -99999 -99999 -99999 -99999 -99999 -99999 -99999 -99999 -99999 -99999 -99999 -99999 -99999 -99999 -99999 -99999 -99999 -99999 -99999 -99999 -99999 -99999 -99999 -99999 -99999 -99999 -99999 -99999 -99999 -99999 -99999 -99999 -99999 -99999 -99999 -99999 -99999 -99999 -99999 -99999 -99999 -99999 -99999 -99999 -99999 -99999 -99999 -99999 -99999 -99999 -99999 -99999 -99999 -99999 -99999 -99999 -99999 -99999 -99999 -99999 -99999 -99999 -99999 -99999 -99999 -99999 -99999 -99999 -99999 -99999 -99999 -99999 -99999 -99999 -99999 -99999 -99999 -99999 -99999 55.01788330078125 55.118824005126953125 55.297420501708984375 55.5016632080078125 55.754207611083984375 56.22498321533203125 56.99895477294921875 57.894927978515625 58.84261322021484375 59.934726715087890625 61.571788787841796875 63.81986236572265625 66.3471527099609375 69.09528350830078125 72.9806976318359375 78.50040435791015625 80.81197357177734375 81.02740478515625 82.435333251953125 84.4900054931640625 87.29741668701171875 90.60541534423828125 94.0714569091796875 97.982696533203125 102.00322723388671875 106.1181793212890625 110.36577606201171875 114.515838623046875 118.4799652099609375 122.416107177734375 126.243133544921875 129.761962890625 132.92669677734375 135.7727508544921875 138.075653076171875 139.8682708740234375 141.1807861328125 142.0369415283203125 142.1598052978515625 141.4999237060546875 140.171417236328125 138.1892852783203125 135.576171875 132.4902496337890625 129.000244140625 125.80682373046875 122.89347076416015625 119.09705352783203125 115.304412841796875 112.19463348388671875 110.1080322265625 108.740570068359375 107.91274261474609375 107.8036346435546875 107.95774078369140625 108.47219085693359375 109.13465118408203125 109.45961761474609375 109.8628387451171875 109.75286102294921875 109.5191192626953125 111.20563507080078125 116.59340667724609375 122.1295623779296875 126.68190765380859375 130.3473052978515625 133.3173675537109375 135.75384521484375 137.677154541015625 139.1452178955078125 139.9295654296875 139.993682861328125 139.2860565185546875 137.8923492431640625 136.0899658203125 133.8781890869140625 131.5402069091796875 129.1332855224609375 126.74358367919921875 124.47713470458984375 122.40737152099609375 120.5608062744140625 118.97014617919921875 117.65667724609375 116.6863861083984375 115.96189117431640625 115.52933502197265625 115.46569061279296875 115.99498748779296875 117.21002197265625 118.8358306884765625 120.59845733642578125 122.27910614013671875 123.068115234375 122.42577362060546875 120.98249053955078125 119.4618988037109375 117.908294677734375 115.3302764892578125 111.74524688720703125 106.67995452880859375 100.02825927734375 92.95784759521484375 86.2328033447265625 77.72867584228515625 68.82006072998046875 61.553802490234375 56.759059906005859375 53.979503631591796875 52.284946441650390625 51.26177215576171875 50.481586456298828125 49.696136474609375 48.834774017333984375 47.88056182861328125 46.803379058837890625 45.532001495361328125 44.113552093505859375 42.412815093994140625 40.42429351806640625 38.081806182861328125 35.400600433349609375 32.3682098388671875 28.8988800048828125 24.976772308349609375 20.646816253662109375 16.022199630737304688 11.1966705322265625 6.3298439979553222656 1.2928787469863891602 -99999 -99999 -99999 -99999 -99999 -99999 -99999 -99999 -99999 -99999 -99999 -99999 -99999 -99999 -99999 -99999 -99999
 -99999 -99999 -99999 -99999 -99999 -99999 -99999 -99999 -99999 -99999 -99999 -99999 -99999 -99999 -99999 -99999 -99999 -99999 -99999 -99999 -99999 -99999 -99999 -99999 -99999 -99999 -99999 -99999 -99999 -99999 -99999 -99999 -99999 -99999 -99999 -99999 -99999 -99999 -99999 -99999 -99999 -99999 -99999 -99999 -99999 -99999 -99999 -99999 -99999 -99999 -99999 -99999 -99999 -99999 -99999 -99999 -99999 -99999 -99999 -99999 -99999 -99999 -99999 -99999 -99999 -99999 -99999 -99999 -99999 -99999 -99999 -99999 -99999 -99999 -99999 -99999 -99999 -99999 -99999 -99999 58.154293060302734375 58.26551055908203125 58.40557098388671875 58.5507965087890625 58.748622894287109375 59.1817779541015625 59.803783416748046875 60.55841064453125 61.3968353271484375 62.3766632080078125 63.914318084716796875 65.81195068359375 67.87860870361328125 70.0225677490234375 72.68431854248046875 76.20489501953125 80.49416351318359375 85.7201995849609375 87.2676239013671875 87.5793609619140625 88.774383544921875 90.74065399169921875 93.3250732421875 96.17569732666015625 99.31806182861328125 102.76815032958984375 106.494049072265625 110.45162200927734375 114.471588134765625 118.6010284423828125 122.84938812255859375 126.94217681884765625 130.710845947265625 134.247650146484375 137.689727783203125 140.598388671875 143.197845458984375 145.341400146484375 146.992340087890625 147.88751220703125 148.195098876953125 147.842315673828125 146.676849365234375 144.699432373046875 141.8708648681640625 138.4578857421875 134.73638916015625 131.3902740478515625 128.2752838134765625 124.82989501953125 121.27420806884765625 118.1346588134765625 115.76544189453125 114.0005950927734375 112.71573638916015625 111.99568939208984375 111.78574371337890625 111.7888641357421875 111.93196868896484375 112.388824462890625 112.70182037353515625 112.768035888671875 113.25620269775390625 116.48200225830078125 121.40613555908203125 126.47396087646484375 130.8654327392578125 133.9879150390625 135.8360748291015625 137.7775115966796875 139.598968505859375 140.8081207275390625 141.351104736328125 140.9016876220703125 139.48370361328125 137.4010162353515625 134.7734832763671875 131.97711181640625 129.000885009765625 126.0555267333984375 123.1513824462890625 120.46746826171875 118.035552978515625 115.8716583251953125 114.00307464599609375 112.400543212890625 111.067169189453125 110.0275726318359375 109.35688018798828125 109.02797698974609375 109.11974334716796875 110.38520050048828125 112.3155670166015625 114.424591064453125 116.09429931640625 117.3522796630859375 117.4513092041015625 116.53387451171875 115.070953369140625 113.2135162353515625 111.007171630859375 107.2471160888671875 101.96961212158203125 95.6838836669921875 89.16464996337890625 82.745880126953125 73.55010986328125 63.858734130859375 56.346527099609375 52.103656768798828125 50.6027679443359375 50.2504119873046875 50.239154815673828125 50.007640838623046875 49.655223846435546875 49.111583709716796875 48.447540283203125 47.75040435791015625 46.77931976318359375 45.657756805419921875 44.280788421630859375 42.53656005859375 40.593120574951171875 38.22846221923828125 35.316043853759765625 31.881801605224609375 28.000293731689453125 23.669885635375976562 18.912641525268554688 13.78594970703125 8.5928354263305664062 3.4420611858367919922 -99999 -99999 -99999 -99999 -99999 -99999 -99999 -99999 -99999 -99999 -99999 -99999 -99999 -99999 -99999 -99999 -99999
 -99999 -99999 -99999 -99999 -99999 -99999 -99999 -99999 -99999 -99999 -99999 -99999 -99999 -99999 -99999 -99999 -99999 -99999 -99999 -99999 -99999 -99999 -99999 -99999 -99999 -99999 -99999 -99999 -99999 -99999 -99999 -99999 -99999 -99999 -99999 -99999 -99999 -99999 -99999 -99999 -99999 -99999 -99999 -99999 -99999 -99999 -99999 -99999 -99999 -99999 -99999 -99999 -99999 -99999 -99999 -99999 -99999 -99999 -99999 -99999 -99999 -99999 -99999 -99999 -99999 -99999 -99999 -99999 -99999 -99999 -99999 -99999 -99999 -99999 -99999 -99999 -99999 -99999 61.0752716064453125 61.19469451904296875 61.3160552978515625 61.4389495849609375 61.596828460693359375 61.936611175537109375 62.404552459716796875 62.9430694580078125 63.57281494140625 64.3997802734375 65.66124725341796875 67.21041107177734375 68.88614654541015625 70.77298736572265625 73.08017730712890625 75.82019805908203125 78.73383331298828125 81.74920654296875 84.53818511962890625 86.62798309326171875 89.14177703857421875 91.51490020751953125 93.93827056884765625 96.2357025146484375 98.52266693115234375 101.08063507080078125 103.9410552978515625 107.169891357421875 110.7073822021484375 114.4862213134765625 118.579833984375 122.72690582275390625 126.83274078369140625 130.8949737548828125 134.967376708984375 138.844024658203125 142.331512451171875 145.493255615234375 148.1956024169921875 150.5488739013671875 152.406402587890625 153.670562744140625 154.249114990234375 154.1151275634765625 153.0735931396484375 151.115753173828125 148.2903594970703125 144.7754364013671875 140.742279052734375 136.966796875 133.692901611328125 130.3694610595703125 127.048736572265625 123.869659423828125 121.13085174560546875 118.86840057373046875 117.3616180419921875 116.40734100341796875 115.73284912109375 115.47145843505859375 115.4926910400390625 115.57103729248046875 115.876800537109375 116.7924041748046875 118.66051483154296875 121.7330322265625 126.592010498046875 131.5089569091796875 135.1041259765625 137.1027069091796875 137.922943115234375 139.2988128662109375 141.2152557373046875 142.592193603515625 142.8278045654296875 141.8122406005859375 139.6924896240234375 136.75042724609375 133.528533935546875 129.9927825927734375 126.32366943359375 122.81659698486328125 119.4604034423828125 116.33332061767578125 113.49907684326171875 111.100738525390625 108.925445556640625 107.128692626953125 105.74684906005859375 104.60062408447265625 103.57007598876953125 102.565582275390625 102.236297607421875 103.0347900390625 105.520111083984375 108.0005035400390625 110.0742340087890625 111.27855682373046875 111.6385345458984375 111.26720428466796875 110.2881011962890625 108.40685272216796875 105.640533447265625 101.6361846923828125 96.67264556884765625 90.6429901123046875 83.58301544189453125 76.21744537353515625 67.17813873291015625 57.333660125732421875 49.252727508544921875 47.529483795166015625 48.702548980712890625 49.696674346923828125 50.281421661376953125 50.24427032470703125 50.051692962646484375 49.864131927490234375 49.469554901123046875 48.879871368408203125 48.202030181884765625 47.359127044677734375 46.262958526611328125 44.9051055908203125 43.323558807373046875 41.090671539306640625 38.41318511962890625 35.322727203369140625 31.49369049072265625 26.948350906372070312 21.960300445556640625 16.590265274047851562 11.058584213256835938 5.6012182235717773438 0.25425830483436584473 -99999 -99999 -99999 -99999 -99999 -99999 -99999 -99999 -99999 -99999 -99999 -99999 -99999 -99999 -99999 -99999
 -99999 -99999 -99999 -99999 -99999 -99999 -99999 -99999 -99999 -99999 -99999 -99999 -99999 -99999 -99999 -99999 -99999 -99999 -99999 -99999 -99999 -99999 -99999 -99999 -99999 -99999 -99999 -99999 -99999 -99999 -99999 -99999 -99999 -99999 -99999 -99999 -99999 -99999 -99999 -99999 -99999 -99999 -99999 -99999 -99999 -99999 -99999 -99999 -99999 -99999 -99999 -99999 -99999 -99999 -99999 -99999 -99999 -99999 -99999 -99999 -99999 -99999 -99999 -99999 -99999 -99999 -99999 -99999 -99999 -99999 -99999 -99999 -99999 -99999 -99999 -99999 63.75318145751953125 63.918865203857421875 64.07759857177734375 64.214111328125 64.35009002685546875 64.6006622314453125 64.93833160400390625 65.31177520751953125 65.75946044921875 66.36190032958984375 67.2632904052734375 68.39258575439453125 69.6934356689453125 71.22440338134765625 73.1663665771484375 75.563446044921875 78.30960845947265625 80.8917388916015625 83.9380035400390625 86.5685577392578125 88.6318206787109375 90.116607666015625 92.51030731201171875 95.89020538330078125 98.44414520263671875 100.89295196533203125 103.0666656494140625 105.50034332275390625 108.2016754150390625 111.0524444580078125 114.37314605712890625 118.11733245849609375 122.0423431396484375 126.1785430908203125 130.57623291015625 134.93231201171875 139.0794219970703125 142.9866943359375 146.61187744140625 150.0438690185546875 153.0043792724609375 155.49444580078125 157.5453643798828125 159.1067352294921875 160.061309814453125 160.2740631103515625 159.387664794921875 157.5257110595703125 154.6111297607421875 151.2178802490234375 147.1253662109375 143.1033172607421875 139.401885986328125 135.8037567138671875 132.26715087890625 129.0375213623046875 126.2530670166015625 123.87238311767578125 121.9862518310546875 120.74488067626953125 119.74269866943359375 119.080047607421875 118.7978515625 119.0906524658203125 119.74646759033203125 121.08803558349609375 123.23484039306640625 126.48564910888671875 130.4895477294921875 134.700531005859375 139.1792755126953125 139.188690185546875 138.2795257568359375 140.1878204345703125 143.088348388671875 144.807098388671875 144.78466796875 142.8593292236328125 139.8515625 136.15057373046875 131.9647064208984375 127.593536376953125 123.4767608642578125 119.3751678466796875 115.6154022216796875 112.20243072509765625 109.1107940673828125 106.3687591552734375 104.058807373046875 102.188385009765625 100.5901031494140625 99.47789764404296875 98.54203033447265625 97.4556732177734375 96.350341796875 96.79781341552734375 99.50225067138671875 102.06732940673828125 104.1400299072265625 105.51125335693359375 106.203094482421875 106.1283721923828125 105.1579132080078125 103.082855224609375 100.2960968017578125 96.53607177734375 91.47723388671875 85.4798736572265625 78.8424224853515625 70.649993896484375 60.991397857666015625 50.998256683349609375 44.13193511962890625 44.94828033447265625 49.34500885009765625 51.003025054931640625 51.241886138916015625 51.2990264892578125 51.0754241943359375 50.739559173583984375 50.50591278076171875 50.23133087158203125 49.77707672119140625 49.106159210205078125 48.393146514892578125 47.4698028564453125 46.078914642333984375 44.221477508544921875 42.00112152099609375 38.913478851318359375 35.0949554443359375 30.620187759399414062 25.405710220336914062 19.590929031372070312 13.620059013366699219 7.7835903167724609375 2.3736424446105957031 -99999 -99999 -99999 -99999 -99999 -99999 -99999 -99999 -99999 -99999 -99999 -99999 -99999 -99999 -99999 -99999
 -99999 -99999 -99999 -99999 -99999 -99999 -99999 -99999 -99999 -99999 -99999 -99999 -99999 -99999 -99999 -99999 -99999 -99999 -99999 -99999 -99999 -99999 -99999 -99999 -99999 -99999 -99999 -99999 -99999 -99999 -99999 -99999 -99999 -99999 -99999 -99999 -99999 -99999 -99999 -99999 -99999 -99999 -99999 -99999 -99999 -99999 -99999 -99999 -99999 -99999 -99999 -99999 -99999 -99999 -99999 -99999 -99999 -99999 -99999 -99999 -99999 -99999 -99999 -99999 -99999 -99999 -99999 -99999 -99999 -99999 -99999 -99999 -99999 -99999 66.146942138671875 66.42022705078125 66.65488433837890625 66.83174896240234375 66.9786834716796875 67.192138671875 67.4793548583984375 67.75152587890625 68.10181427001953125 68.5294036865234375 69.12119293212890625 69.8669586181640625 70.78618621826171875 71.9076690673828125 73.34012603759765625 75.1300048828125 77.21767425537109375 79.6529998779296875 82.3463287353515625 85.57201385498046875 88.69354248046875 91.4999237060546875 93.25372314453125 94.26250457763671875 96.63869476318359375 99.99105072021484375 103.22431182861328125 105.268341064453125 107.07711029052734375 109.01885223388671875 111.48450469970703125 114.27866363525390625 117.5776214599609375 121.18109130859375 125.1923675537109375 129.574859619140625 133.964324951171875 138.3588104248046875 142.719970703125 146.9488372802734375 150.887237548828125 154.3558807373046875 157.445953369140625 160.0798492431640625 162.32098388671875 164.091339111328125 165.3359222412109375 165.9704437255859375 165.682373046875 163.741943359375 160.6258697509765625 157.0468597412109375 152.964599609375 148.8346099853515625 144.857421875 141.0897369384765625 137.43035888671875 133.9488983154296875 130.841064453125 128.323883056640625 126.28412628173828125 124.537322998046875 123.36071014404296875 122.73041534423828125 122.47763824462890625 122.7764739990234375 123.37923431396484375 124.72076416015625 126.83301544189453125 129.6378326416015625 133.00640869140625 136.8925628662109375 138.80889892578125 137.2513885498046875 136.6865997314453125 141.326690673828125 145.41070556640625 147.405853271484375 146.7845611572265625 144.1586456298828125 139.8171234130859375 134.9165496826171875 129.8697052001953125 125.07537078857421875 120.38031768798828125 115.93707275390625 111.7955780029296875 107.97676849365234375 104.69835662841796875 101.7777862548828125 99.24347686767578125 97.30865478515625 95.87899017333984375 94.9257354736328125 94.37469482421875 93.76044464111328125 92.7828369140625 93.112396240234375 94.90673828125 96.969512939453125 98.8280181884765625 100.14818572998046875 100.806640625 100.7465057373046875 99.820037841796875 97.97838592529296875 95.14129638671875 91.4083709716796875 86.744384765625 81.10137939453125 74.07076263427734375 66.519683837890625 58.50942230224609375 50.11696624755859375 46.31988525390625 49.77838134765625 53.10550689697265625 53.984729766845703125 53.56742095947265625 52.363910675048828125 52.075626373291015625 52.09799957275390625 51.8995361328125 51.605510711669921875 51.359989166259765625 51.08016204833984375 50.578960418701171875 49.82089996337890625 48.90602874755859375 47.590007781982421875 45.579547882080078125 42.790130615234375 39.132419586181640625 34.637542724609375 29.030111312866210938 22.9278717041015625 16.41359710693359375 10.242917060852050781 4.5533852577209472656 -99999 -99999 -99999 -99999 -99999 -99999 -99999 -99999 -99999 -99999 -99999 -99999 -99999 -99999 -99999 -99999
 -99999 -99999 -99999 -99999 -99999 -99999 -99999 -99999 -99999 -99999 -99999 -99999 -99999 -99999 -99999 -99999 -99999 -99999 -99999 -99999 -99999 -99999 -99999 -99999 -99999 -99999 -99999 -99999 -99999 -99999 -99999 -99999 -99999 -99999 -99999 -99999 -99999 -99999 -99999 -99999 -99999 -99999 -99999 -99999 -99999 -99999 -99999 -99999 -99999 -99999 -99999 -99999 -99999 -99999 -99999 -99999 -99999 -99999 -99999 -99999 -99999 -99999 -99999 -99999 -99999 -99999 -99999 -99999 -99999 -99999 -99999 -99999 68.23377227783203125 68.612762451171875 68.95661163330078125 69.21954345703125 69.43070220947265625 69.69382476806640625 69.97607421875 70.20632171630859375 70.49929046630859375 70.7830657958984375 71.19107818603515625 71.66094970703125 72.26886749267578125 73.01650238037109375 73.9639129638671875 75.170623779296875 76.64311981201171875 78.401214599609375 80.50238800048828125 82.9978790283203125 86.19024658203125 89.41971588134765625 93.136505126953125 96.5037841796875 98.58148956298828125 99.50344085693359375 101.81020355224609375 105.8213653564453125 108.0103912353515625 109.18866729736328125 110.38867950439453125 111.93280029296875 114.04032135009765625 116.715545654296875 119.98101806640625 123.7395782470703125 127.8592681884765625 132.250579833984375 136.86566162109375 141.5791778564453125 146.199371337890625 150.5424652099609375 154.49981689453125 158.1461639404296875 161.4002838134765625 164.1790924072265625 166.38262939453125 168.2458343505859375 169.9115142822265625 171.0438385009765625 171.2750701904296875 169.7279815673828125 166.242950439453125 162.263641357421875 158.25177001953125 153.980743408203125 149.778656005859375 145.621551513671875 141.7816009521484375 138.2959136962890625 135.11859130859375 132.444793701171875 130.16925048828125 128.361724853515625 127.0352325439453125 126.1768341064453125 125.68033599853515625 125.8925933837890625 126.6443328857421875 127.7957916259765625 129.6429595947265625 132.0903778076171875 134.580657958984375 136.752044677734375 137.43292236328125 136.7434844970703125 138.551483154296875 143.395111083984375 149.0424346923828125 151.4753875732421875 149.37225341796875 144.4710693359375 138.88665771484375 133.0573883056640625 127.36963653564453125 122.03202056884765625 117.0752105712890625 112.32494354248046875 107.87433624267578125 103.91693115234375 100.249481201171875 97.20475006103515625 94.693328857421875 92.8213043212890625 91.31998443603515625 90.7457733154296875 90.56060791015625 90.2943572998046875 89.66613006591796875 89.9378662109375 91.11519622802734375 92.73569488525390625 94.2465972900390625 95.45574188232421875 96.00479888916015625 95.83055877685546875 94.92069244384765625 93.2315521240234375 90.68674468994140625 87.1732025146484375 82.657379150390625 77.56182861328125 71.62790679931640625 65.26262664794921875 58.745326995849609375 53.508861541748046875 52.109149932861328125 54.547588348388671875 57.43842315673828125 57.28632354736328125 54.761203765869140625 53.600193023681640625 53.2301025390625 53.257038116455078125 53.350353240966796875 53.283351898193359375 52.995151519775390625 52.66237640380859375 52.50482940673828125 52.32991790771484375 51.84723663330078125 50.791675567626953125 49.14461517333984375 46.788417816162109375 43.41426849365234375 38.9207763671875 33.380615234375 26.3350982666015625 18.878412246704101562 12.6076812744140625 6.6962790489196777344 0.91495645046234130859 -99999 -99999 -99999 -99999 -99999 -99999 -99999 -99999 -99999 -99999 -99999 -99999 -99999 -99999 -99999
 -99999 -99999 -99999 -99999 -99999 -99999 -99999 -99999 -99999 -99999 -99999 -99999 -99999 -99999 -99999 -99999 -99999 -99999 -99999 -99999 -99999 -99999 -99999 -99999 -99999 -99999 -99999 -99999 -99999 -99999 -99999 -99999 -99999 -99999 -99999 -99999 -99999 -99999 -99999 -99999 -99999 -99999 -99999 -99999 -99999 -99999 -99999 -99999 -99999 -99999 -99999 -99999 -99999 -99999 -99999 -99999 -99999 -99999 -99999 -99999 -99999 -99999 -99999 -99999 -99999 -99999 -99999 -99999 -99999 -99999 69.87905120849609375 70.45847320556640625 70.93648529052734375 71.31479644775390625 71.65595245361328125 72.01442718505859375 72.34354400634765625 72.56058502197265625 72.823089599609375 73.11389923095703125 73.40923309326171875 73.7555084228515625 74.14748382568359375 74.679718017578125 75.30144500732421875 76.0281829833984375 76.9777984619140625 78.1223907470703125 79.48737335205078125 81.234710693359375 83.33994293212890625 85.82479095458984375 88.71196746826171875 92.3818359375 96.49394989013671875 101.14965057373046875 106.46022796630859375 111.1058197021484375 113.47609710693359375 113.79398345947265625 112.3899993896484375 112.09535980224609375 112.45955657958984375 113.6373443603515625 115.6965179443359375 118.3665008544921875 121.73114776611328125 125.58382415771484375 129.8444366455078125 134.4255218505859375 139.3931884765625 144.26959228515625 149.054412841796875 153.659027099609375 157.998992919921875 161.7974700927734375 164.8783111572265625 167.4356689453125 169.6803131103515625 171.6087188720703125 173.195526123046875 174.7018585205078125 175.64862060546875 174.6394500732421875 170.9915924072265625 166.8078155517578125 162.47198486328125 158.167724609375 153.8726654052734375 149.722076416015625 145.835906982421875 142.2151031494140625 138.9265594482421875 136.094329833984375 133.6456756591796875 131.6877593994140625 130.1383209228515625 129.0482940673828125 128.71441650390625 128.6735687255859375 129.3455657958984375 130.5283355712890625 132.04962158203125 133.9174957275390625 135.9387054443359375 137.606170654296875 138.9674835205078125 140.2636871337890625 142.971832275390625 149.120819091796875 154.55767822265625 156.173004150390625 151.2783966064453125 144.3412933349609375 136.9391632080078125 130.1052398681640625 124.0109710693359375 118.78661346435546875 113.752288818359375 108.89459228515625 104.0952911376953125 99.62186431884765625 95.82610321044921875 92.95830535888671875 90.66790771484375 88.68550872802734375 87.14679718017578125 86.3402557373046875 86.62740325927734375 86.556793212890625 86.63539886474609375 87.0572662353515625 87.9019775390625 89.12258148193359375 90.32074737548828125 91.2057342529296875 91.64666748046875 91.5379638671875 90.7371063232421875 89.04161834716796875 86.60494232177734375 83.428558349609375 79.59484100341796875 75.03897857666015625 69.8399810791015625 64.6238250732421875 60.172679901123046875 56.96695709228515625 55.9621124267578125 57.308971405029296875 58.7328338623046875 56.807201385498046875 53.716068267822265625 53.39996337890625 54.550960540771484375 55.0987548828125 54.929225921630859375 54.53310394287109375 54.315540313720703125 54.366748809814453125 54.401187896728515625 54.383144378662109375 54.36614990234375 53.962284088134765625 52.8584136962890625 50.78211212158203125 47.64287567138671875 43.616664886474609375 38.130825042724609375 30.967233657836914062 22.477907180786132812 15.161583900451660156 9.056049346923828125 2.9499952793121337891 -99999 -99999 -99999 -99999 -99999 -99999 -99999 -99999 -99999 -99999 -99999 -99999 -99999 -99999 -99999
 -99999 -99999 -99999 -99999 -99999 -99999 -99999 -99999 -99999 -99999 -99999 -99999 -99999 -99999 -99999 -99999 -99999 -99999 -99999 -99999 -99999 -99999 -99999 -99999 -99999 -99999 -99999 -99999 -99999 -99999 -99999 -99999 -99999 -99999 -99999 -99999 -99999 -99999 -99999 -99999 -99999 -99999 -99999 -99999 -99999 -99999 -99999 -99999 -99999 -99999 -99999 -99999 -99999 -99999 -99999 -99999 -99999 -99999 -99999 -99999 -99999 -99999 -99999 -99999 -99999 -99999 -99999 -99999 71.04669952392578125 71.8456573486328125 72.51369476318359375 73.09787750244140625 73.58458709716796875 74.02271270751953125 74.43569183349609375 74.725555419921875 75.03914642333984375 75.3807220458984375 75.6410064697265625 75.9569244384765625 76.286468505859375 76.65287017822265625 77.0767669677734375 77.57744598388671875 78.1650543212890625 78.8607025146484375 79.74173736572265625 80.78400421142578125 82.04364013671875 83.56203460693359375 85.3685455322265625 87.65171051025390625 90.3674468994140625 93.6244049072265625 97.84366607666015625 103.1515350341796875 109.64348602294921875 117.9685821533203125 120.84630584716796875 116.96126556396484375 114.15058135986328125 112.639923095703125 112.8768463134765625 114.04932403564453125 116.2086181640625 119.0781707763671875 122.6166229248046875 126.6747589111328125 131.155517578125 136.0432586669921875 141.2113800048828125 146.4085540771484375 151.656463623046875 156.56915283203125 160.9027862548828125 164.7290496826171875 167.94525146484375 170.4940643310546875 172.314208984375 173.7826995849609375 175.0417633056640625 176.21917724609375 177.319091796875 176.3248138427734375 173.4513702392578125 169.7449493408203125 165.589752197265625 161.3445281982421875 157.0642852783203125 153.024749755859375 149.0066986083984375 145.274993896484375 141.956451416015625 139.0668792724609375 136.4924774169921875 134.42132568359375 132.8161163330078125 131.6581878662109375 131.181732177734375 131.1509552001953125 131.503662109375 132.2906646728515625 133.6795654296875 135.3216400146484375 137.1351776123046875 138.984710693359375 140.8085174560546875 143.5188446044921875 147.9197235107421875 153.8397216796875 159.8377532958984375 159.72637939453125 150.8995819091796875 140.965789794921875 132.615631103515625 125.8318023681640625 120.300140380859375 115.40012359619140625 110.64959716796875 105.51691436767578125 100.53635406494140625 95.8675537109375 91.9582061767578125 89.04625701904296875 86.9906463623046875 85.48235321044921875 83.2816314697265625 82.63831329345703125 82.87982177734375 83.28820037841796875 83.6772918701171875 84.2425994873046875 85.1307525634765625 86.09810638427734375 87.02951812744140625 87.77930450439453125 88.0893402099609375 87.82574462890625 86.99820709228515625 85.5614013671875 83.46422576904296875 80.6482696533203125 77.26204681396484375 73.44843292236328125 69.36773681640625 65.46848297119140625 61.90183258056640625 59.453578948974609375 58.540435791015625 58.64754486083984375 59.042755126953125 56.3520965576171875 54.11461639404296875 55.2611846923828125 56.65412139892578125 57.0468902587890625 56.7364959716796875 56.14167022705078125 55.536075592041015625 55.237018585205078125 55.4835357666015625 56.203632354736328125 56.8299102783203125 56.883480072021484375 56.211551666259765625 54.490200042724609375 51.744731903076171875 47.85846710205078125 42.643451690673828125 35.890865325927734375 26.887594223022460938 18.931844711303710938 11.810051918029785156 5.0496811866760253906 -99999 -99999 -99999 -99999 -99999 -99999 -99999 -99999 -99999 -99999 -99999 -99999 -99999 -99999 -99999
 -99999 -99999 -99999 -99999 -99999 -99999 -99999 -99999 -99999 -99999 -99999 -99999 -99999 -99999 -99999 -99999 -99999 -99999 -99999 -99999 -99999 -99999 -99999 -99999 -99999 -99999 -99999 -99999 -99999 -99999 -99999 -99999 -99999 -99999 -99999 -99999 -99999 -99999 -99999 -99999 -99999 -99999 -99999 -99999 -99999 -99999 -99999 -99999 -99999 -99999 -99999 -99999 -99999 -99999 -99999 -99999 -99999 -99999 -99999 -99999 -99999 -99999 -99999 -99999 -99999 -99999 71.5902862548828125 72.7150115966796875 73.624664306640625 74.435089111328125 75.1220855712890625 75.730621337890625 76.2338409423828125 76.63256072998046875 77.06427764892578125 77.5023040771484375 77.8507843017578125 78.11457061767578125 78.43776702880859375 78.77777862548828125 79.09491729736328125 79.5036163330078125 79.90116119384765625 80.3707122802734375 80.9181060791015625 81.55567169189453125 82.30266571044921875 83.14835357666015625 84.193115234375 85.4940338134765625 87.00177764892578125 88.7873992919921875 90.896514892578125 93.71710205078125 96.9581298828125 100.7746429443359375 105.89209747314453125 110.5804901123046875 112.1575469970703125 111.9019317626953125 110.45668792724609375 110.22528839111328125 111.21076202392578125 113.0988922119140625 115.69058990478515625 118.93259429931640625 122.72786712646484375 127.08991241455078125 131.851959228515625 137.042083740234375 142.409454345703125 147.980621337890625 153.524444580078125 158.80596923828125 163.5194244384765625 167.5649261474609375 170.63128662109375 172.7594757080078125 174.1277618408203125 175.01806640625 175.8730010986328125 176.8256072998046875 177.3158721923828125 176.756195068359375 174.7100830078125 171.385498046875 167.535919189453125 163.52276611328125 159.4432525634765625 155.2983856201171875 151.35711669921875 147.7657470703125 144.3913116455078125 141.3430938720703125 138.8079681396484375 136.6457672119140625 134.9935150146484375 133.79132080078125 133.0106048583984375 132.7348480224609375 133.0149688720703125 133.7072906494140625 134.7422332763671875 136.11236572265625 137.749053955078125 139.6420135498046875 141.97393798828125 144.9214630126953125 148.6397705078125 153.6861419677734375 157.1721649169921875 154.4826507568359375 144.28424072265625 134.0637664794921875 125.946075439453125 120.41072845458984375 116.115447998046875 112.34778594970703125 108.24347686767578125 103.1707916259765625 97.57975006103515625 92.3348541259765625 87.91881561279296875 84.9631195068359375 83.30496978759765625 82.75244140625 81.69594573974609375 80.3222808837890625 80.3398590087890625 80.7448577880859375 81.34595489501953125 81.99188995361328125 82.76483154296875 83.6103668212890625 84.36302947998046875 84.8566131591796875 85.03267669677734375 84.82083892822265625 84.06351470947265625 82.635101318359375 80.81662750244140625 78.48303985595703125 75.7348480224609375 72.4661712646484375 69.19649505615234375 66.04657745361328125 63.3188629150390625 61.47560882568359375 60.6587677001953125 60.187286376953125 59.37339019775390625 58.48967742919921875 57.733966827392578125 58.68987274169921875 59.527740478515625 59.3458251953125 58.34445953369140625 56.9876556396484375 55.947277069091796875 55.73336029052734375 56.3261260986328125 57.49120330810546875 58.48363494873046875 59.291172027587890625 59.137104034423828125 57.7626953125 55.09395599365234375 51.08747100830078125 45.60472869873046875 38.446575164794921875 30.369253158569335938 21.839824676513671875 14.126918792724609375 6.9153804779052734375 -99999 -99999 -99999 -99999 -99999 -99999 -99999 -99999 -99999 -99999 -99999 -99999 -99999 -99999 -99999
 -99999 -99999 -99999 -99999 -99999 -99999 -99999 -99999 -99999 -99999 -99999 -99999 -99999 -99999 -99999 -99999 -99999 -99999 -99999 -99999 -99999 -99999 -99999 -99999 -99999 -99999 -99999 -99999 -99999 -99999 -99999 -99999 -99999 -99999 -99999 -99999 -99999 -99999 -99999 -99999 -99999 -99999 -99999 -99999 -99999 -99999 -99999 -99999 -99999 -99999 -99999 -99999 -99999 -99999 -99999 -99999 -99999 -99999 -99999 -99999 -99999 -99999 -99999 -99999 71.53704071044921875 73.02576446533203125 74.20891571044921875 75.228729248046875 76.19808197021484375 76.9976959228515625 77.688934326171875 78.28610992431640625 78.8241119384765625 79.32891082763671875 79.72429656982421875 80.10880279541015625 80.46604156494140625 80.81595611572265625 81.18065643310546875 81.51561737060546875 81.8697967529296875 82.25235748291015625 82.64788055419921875 83.09991455078125 83.5714111328125 84.1112060546875 84.7353515625 85.47347259521484375 86.198699951171875 87.13419342041015625 88.13187408447265625 89.45947265625 90.94129180908203125 92.57330322265625 94.403472900390625 96.46253204345703125 97.890777587890625 97.51245880126953125 98.637115478515625 101.34386444091796875 104.29296875 106.527740478515625 108.70378875732421875 111.33858489990234375 114.50308990478515625 118.135986328125 122.23058319091796875 126.8716583251953125 131.8707122802734375 137.306121826171875 143.0858917236328125 148.9799346923828125 154.9355621337890625 160.5747528076171875 165.6986083984375 169.9033355712890625 173.0499420166015625 174.88665771484375 175.7961883544921875 175.974365234375 176.5395660400390625 177.206451416015625 177.5339508056640625 176.8071441650390625 174.7990570068359375 172.048858642578125 168.64862060546875 164.749603271484375 160.79534912109375 156.8999786376953125 153.0671539306640625 149.396820068359375 146.066558837890625 143.096038818359375 140.40826416015625 138.248687744140625 136.451629638671875 135.1555328369140625 134.307464599609375 133.928955078125 133.901214599609375 134.33709716796875 135.205413818359375 136.379180908203125 137.8451385498046875 139.4765777587890625 141.384918212890625 143.884368896484375 146.5001373291015625 148.35400390625 148.266754150390625 143.55126953125 133.750732421875 126.06848907470703125 118.56540679931640625 114.01513671875 112.6789398193359375 110.880859375 107.54095458984375 101.97461700439453125 95.271240234375 89.10355377197265625 83.90267181396484375 81.02002716064453125 79.7692718505859375 79.411834716796875 78.945098876953125 78.53733062744140625 78.60167694091796875 78.97554779052734375 79.56909942626953125 80.24566650390625 80.9594879150390625 81.62142181396484375 82.1779632568359375 82.55892181396484375 82.64832305908203125 82.3141937255859375 81.5892333984375 80.47475433349609375 78.8821868896484375 76.8025360107421875 74.503997802734375 72.0274505615234375 69.5009307861328125 66.99018096923828125 64.91938018798828125 63.412792205810546875 62.353542327880859375 61.665081024169921875 61.2276611328125 60.696254730224609375 60.687046051025390625 61.04141998291015625 61.608524322509765625 61.32656097412109375 59.880035400390625 57.272525787353515625 55.449291229248046875 55.0476837158203125 55.9436187744140625 57.869930267333984375 59.99790191650390625 61.51772308349609375 61.560520172119140625 60.155948638916015625 57.31644439697265625 53.449832916259765625 46.941921234130859375 39.790088653564453125 31.78749847412109375 23.579587936401367188 15.603636741638183594 -99999 -99999 -99999 -99999 -99999 -99999 -99999 -99999 -99999 -99999 -99999 -99999 -99999 -99999 -99999 -99999
 -99999 -99999 -99999 -99999 -99999 -99999 -99999 -99999 -99999 -99999 -99999 -99999 -99999 -99999 -99999 -99999 -99999 -99999 -99999 -99999 -99999 -99999 -99999 -99999 -99999 -99999 -99999 -99999 -99999 -99999 -99999 -99999 -99999 -99999 -99999 -99999 -99999 -99999 -99999 -99999 -99999 -99999 -99999 -99999 -99999 -99999 -99999 -99999 -99999 -99999 -99999 -99999 -99999 -99999 -99999 -99999 -99999 -99999 -99999 -99999 -99999 -99999 70.51409912109375 72.4005584716796875 74.087371826171875 75.403289794921875 76.67342376708984375 77.82479095458984375 78.7212677001953125 79.5062408447265625 80.20732879638671875 80.81549072265625 81.31389617919921875 81.82042694091796875 82.28093719482421875 82.69121551513671875 83.08969879150390625 83.474578857421875 83.84647369384765625 84.21425628662109375 84.58003997802734375 84.9803466796875 85.38367462158203125 85.7861480712890625 86.2228240966796875 86.67389678955078125 87.13211822509765625 87.598358154296875 88.125274658203125 88.72716522216796875 89.28815460205078125 89.8401336669921875 90.3975067138671875 91.15015411376953125 91.9002532958984375 92.09690093994140625 91.9897003173828125 89.44495391845703125 90.33654022216796875 94.19281768798828125 98.73749542236328125 102.10581207275390625 105.48607635498046875 109.14107513427734375 112.894927978515625 116.96369171142578125 121.366607666015625 126.13686370849609375 131.3544769287109375 136.9295501708984375 142.9514007568359375 149.1387939453125 155.584442138671875 161.8180084228515625 167.50567626953125 172.0165252685546875 175.336334228515625 176.8610992431640625 177.12957763671875 177.06591796875 177.4499969482421875 177.854461669921875 177.4983062744140625 176.5089874267578125 174.702667236328125 171.9816131591796875 168.800048828125 165.1646881103515625 161.4667816162109375 157.6751251220703125 153.9501953125 150.4620819091796875 147.12017822265625 144.16400146484375 141.4904327392578125 139.2435760498046875 137.414886474609375 135.9560699462890625 134.9576568603515625 134.2999725341796875 134.2110443115234375 134.4819183349609375 135.0580291748046875 135.8357391357421875 136.975128173828125 138.2936248779296875 139.7327117919921875 141.1722869873046875 142.1698455810546875 142.1552886962890625 139.700592041015625 134.044677734375 126.31620025634765625 118.50029754638671875 111.11577606201171875 109.18727874755859375 111.01721954345703125 112.1727142333984375 108.97884368896484375 102.7772674560546875 94.6034698486328125 86.27814483642578125 79.9506683349609375 77.04163360595703125 76.4857635498046875 76.51436614990234375 76.91014862060546875 77.115386962890625 77.38779449462890625 77.87502288818359375 78.4653778076171875 79.06085968017578125 79.63964080810546875 80.17733001708984375 80.60052490234375 80.7730865478515625 80.71923065185546875 80.39014434814453125 79.7090301513671875 78.6738128662109375 77.335357666015625 75.68666839599609375 73.8485260009765625 71.79150390625 69.746795654296875 67.94440460205078125 66.37470245361328125 65.1068878173828125 64.2205352783203125 63.611217498779296875 63.17881011962890625 62.862171173095703125 62.7333984375 62.8843536376953125 62.77764129638671875 62.22872161865234375 60.243671417236328125 56.78729248046875 54.07973480224609375 53.639293670654296875 55.146755218505859375 58.027652740478515625 60.993610382080078125 62.938777923583984375 63.341136932373046875 61.62076568603515625 58.24613189697265625 53.23233795166015625 47.114299774169921875 39.677947998046875 31.844442367553710938 23.872827529907226562 15.938451766967773438 -99999 -99999 -99999 -99999 -99999 -99999 -99999 -99999 -99999 -99999 -99999 -99999 -99999 -99999 -99999 -99999
 -99999 -99999 -99999 -99999 -99999 -99999 -99999 -99999 -99999 -99999 -99999 -99999 -99999 -99999 -99999 -99999 -99999 -99999 -99999 -99999 -99999 -99999 -99999 -99999 -99999 -99999 -99999 -99999 -99999 -99999 -99999 -99999 -99999 -99999 -99999 -99999 -99999 -99999 -99999 -99999 -99999 -99999 -99999 -99999 -99999 -99999 -99999 -99999 -99999 -99999 -99999 -99999 -99999 -99999 -99999 -99999 -99999 -99999 -99999 -99999 68.3991851806640625 70.9543304443359375 73.12940216064453125 75.02933502197265625 76.68186187744140625 78.12697601318359375 79.26645660400390625 80.2639617919921875 81.16387939453125 81.95428466796875 82.64736175537109375 83.24407196044921875 83.83919525146484375 84.32532501220703125 84.78513336181640625 85.2271575927734375 85.6378936767578125 86.07643890380859375 86.45807647705078125 86.8671417236328125 87.26918792724609375 87.66175079345703125 88.06133270263671875 88.45726776123046875 88.83837890625 89.20824432373046875 89.5636138916015625 89.9007568359375 90.1412811279296875 90.29076385498046875 90.4403839111328125 90.47198486328125 90.45133209228515625 90.103546142578125 89.47713470458984375 88.86157989501953125 88.106048583984375 87.65838623046875 88.5354461669921875 91.16027069091796875 94.602630615234375 98.79161834716796875 102.9256134033203125 106.9868621826171875 111.18511962890625 115.583221435546875 120.1424407958984375 125.04419708251953125 130.301116943359375 135.907623291015625 142.0362701416015625 148.67999267578125 155.46795654296875 162.2235107421875 168.4153594970703125 173.8031463623046875 177.4105377197265625 178.720367431640625 178.785614013671875 178.6253814697265625 178.3431396484375 177.9891357421875 177.3396148681640625 175.9908447265625 174.04766845703125 171.34442138671875 168.36712646484375 164.98577880859375 161.4424591064453125 157.7972869873046875 154.188507080078125 150.78204345703125 147.51458740234375 144.5588836669921875 141.9570465087890625 139.5941925048828125 137.7059783935546875 136.1232452392578125 135.032257080078125 134.364990234375 133.960174560546875 133.861328125 134.06976318359375 134.64532470703125 135.404632568359375 136.22479248046875 136.9473876953125 137.336669921875 137.2131195068359375 135.8588409423828125 132.7768707275390625 127.52797698974609375 121.16455841064453125 113.856414794921875 107.6524658203125 108.38470458984375 114.625518798828125 117.36362457275390625 113.47583770751953125 104.39380645751953125 93.95687103271484375 84.17636871337890625 77.6587677001953125 74.92014312744140625 74.50759124755859375 75.0649566650390625 75.91182708740234375 76.4971923828125 76.9660797119140625 77.461639404296875 77.98355865478515625 78.485443115234375 78.93335723876953125 79.238006591796875 79.427703857421875 79.47686004638671875 79.32488250732421875 78.92842864990234375 78.273956298828125 77.39105987548828125 76.1959075927734375 74.86081695556640625 73.35587310791015625 71.8624114990234375 70.34403228759765625 68.8946380615234375 67.64959716796875 66.70697784423828125 66.0285491943359375 65.52942657470703125 65.13165283203125 64.85102081298828125 64.654754638671875 64.2274932861328125 63.55474090576171875 62.038433074951171875 59.250873565673828125 55.363567352294921875 52.151119232177734375 51.212188720703125 53.3998870849609375 57.743244171142578125 61.813182830810546875 64.3972320556640625 64.292022705078125 61.92159271240234375 57.455760955810546875 52.1163482666015625 45.652313232421875 38.378780364990234375 30.775304794311523438 22.904142379760742188 15.12378692626953125 -99999 -99999 -99999 -99999 -99999 -99999 -99999 -99999 -99999 -99999 -99999 -99999 -99999 -99999 -99999 -99999
 -99999 -99999 -99999 -99999 -99999 -99999 -99999 -99999 -99999 -99999 -99999 -99999 -99999 -99999 -99999 -99999 -99999 -99999 -99999 -99999 -99999 -99999 -99999 -99999 -99999 -99999 -99999 -99999 -99999 -99999 -99999 -99999 -99999 -99999 -99999 -99999 -99999 -99999 -99999 -99999 -99999 -99999 -99999 -99999 -99999 -99999 -99999 -99999 -99999 -99999 -99999 -99999 -99999 -99999 -99999 -99999 -99999 -99999 65.14299774169921875 68.35024261474609375 71.25745391845703125 73.6112060546875 75.74936676025390625 77.54621124267578125 79.14048004150390625 80.44258880615234375 81.6445770263671875 82.69194793701171875 83.58695220947265625 84.328887939453125 85.00885009765625 85.5437469482421875 86.16951751708984375 86.7110595703125 87.205108642578125 87.675689697265625 88.1363677978515625 88.578338623046875 89.02744293212890625 89.4571380615234375 89.88777923583984375 90.318267822265625 90.735626220703125 91.1294403076171875 91.498321533203125 91.83029937744140625 92.08321380615234375 92.2523651123046875 92.32025146484375 92.26753997802734375 92.0440673828125 91.51450347900390625 90.80368804931640625 89.82575225830078125 88.6367645263671875 87.1657257080078125 85.77349853515625 85.296600341796875 86.39972686767578125 88.35065460205078125 92.1156768798828125 96.39516448974609375 100.80718231201171875 105.47174072265625 109.96265411376953125 114.45203399658203125 119.01976776123046875 123.70306396484375 128.6928863525390625 134.28839111328125 140.377777099609375 147.02569580078125 154.154632568359375 161.727508544921875 168.5218658447265625 174.5278472900390625 178.912139892578125 180.421417236328125 179.905670166015625 179.3030242919921875 178.6861419677734375 177.80010986328125 176.5985107421875 174.9368896484375 172.8754425048828125 170.2913360595703125 167.3651275634765625 164.0926361083984375 160.6779632568359375 157.2536163330078125 153.816650390625 150.4643402099609375 147.3012237548828125 144.3444366455078125 141.7348785400390625 139.3662261962890625 137.4197845458984375 135.8379669189453125 134.536773681640625 133.5552978515625 132.98150634765625 132.7617950439453125 132.7806854248046875 132.930206298828125 133.148040771484375 133.4517059326171875 133.743682861328125 133.5520477294921875 132.65972900390625 130.7173004150390625 127.6626434326171875 123.47655487060546875 118.68560028076171875 114.0623931884765625 112.2177581787109375 115.41370391845703125 123.436248779296875 127.0207061767578125 120.72638702392578125 106.67795562744140625 93.65677642822265625 84.1324920654296875 77.4202117919921875 75.134979248046875 75.09888458251953125 75.56772613525390625 76.09378814697265625 76.655487060546875 77.4225921630859375 77.91075897216796875 78.19513702392578125 78.45786285400390625 78.66950225830078125 78.792236328125 78.802032470703125 78.653289794921875 78.33416748046875 77.86492919921875 77.22231292724609375 76.40773773193359375 75.44651031494140625 74.3924407958984375 73.1797637939453125 71.9990081787109375 70.86011505126953125 69.8278350830078125 68.9914703369140625 68.28791046142578125 67.7512359619140625 67.36685943603515625 67.1020660400390625 66.770233154296875 66.38433074951171875 65.70104217529296875 64.56639862060546875 62.494060516357421875 59.366664886474609375 55.09976959228515625 50.5343780517578125 49.775852203369140625 51.836151123046875 56.645267486572265625 62.6747283935546875 64.82520294189453125 63.85552215576171875 60.43814849853515625 55.44195556640625 49.46440887451171875 42.898387908935546875 35.950439453125 28.492567062377929688 20.830373764038085938 13.252941131591796875 -99999 -99999 -99999 -99999 -99999 -99999 -99999 -99999 -99999 -99999 -99999 -99999 -99999 -99999 -99999 -99999
 -99999 -99999 -99999 -99999 -99999 -99999 -99999 -99999 -99999 -99999 -99999 -99999 -99999 -99999 -99999 -99999 -99999 -99999 -99999 -99999 -99999 -99999 -99999 -99999 -99999 -99999 -99999 -99999 -99999 -99999 -99999 -99999 -99999 -99999 -99999 -99999 -99999 -99999 -99999 -99999 -99999 -99999 -99999 -99999 -99999 -99999 -99999 -99999 -99999 -99999 -99999 -99999 -99999 -99999 -99999 -99999 60.046875 64.2123260498046875 67.8245391845703125 71.03021240234375 73.75453948974609375 76.21224212646484375 78.312896728515625 80.095458984375 81.613555908203125 82.897705078125 84.040191650390625 85.0271759033203125 85.8289337158203125 86.56984710693359375 87.2694549560546875 87.93787384033203125 88.471343994140625 89.02036285400390625 89.56348419189453125 90.0577392578125 90.53226470947265625 91.03106689453125 91.513671875 92.0055389404296875 92.4495697021484375 92.93859100341796875 93.42055511474609375 93.80681610107421875 94.19513702392578125 94.5587158203125 94.80503082275390625 94.8914337158203125 94.81829833984375 94.536651611328125 94.0538330078125 93.30463409423828125 92.24770355224609375 90.8098602294921875 89.0410003662109375 87.0865631103515625 85.1143646240234375 83.52225494384765625 82.27374267578125 86.37761688232421875 90.8069305419921875 95.51157379150390625 100.2889251708984375 104.82038116455078125 109.336944580078125 113.68933868408203125 117.99073028564453125 122.34535980224609375 126.96611785888671875 131.9524993896484375 137.645965576171875 144.42425537109375 151.924530029296875 159.6269989013671875 167.11907958984375 173.8095703125 178.2804412841796875 179.7997894287109375 179.61663818359375 178.799560546875 177.8172760009765625 176.62310791015625 175.1959075927734375 173.3142547607421875 171.2054901123046875 168.626556396484375 165.7557220458984375 162.7115936279296875 159.4689788818359375 156.105621337890625 152.75592041015625 149.5194854736328125 146.434356689453125 143.5463714599609375 140.9604644775390625 138.63409423828125 136.563568115234375 134.7791900634765625 133.4262542724609375 132.3985595703125 131.6277923583984375 131.0882568359375 130.7782135009765625 130.547698974609375 130.5384674072265625 130.44476318359375 130.2568359375 129.5587921142578125 128.3223876953125 126.38780975341796875 123.6868438720703125 120.599029541015625 117.62638092041015625 115.91049957275390625 117.3142547607421875 123.1637725830078125 132.9105224609375 137.1982421875 123.94316864013671875 106.43953704833984375 92.03745269775390625 84.01854705810546875 79.99454498291015625 78.01625823974609375 77.42053985595703125 77.54579925537109375 78.00666046142578125 78.37683868408203125 78.55597686767578125 78.79262542724609375 78.98636627197265625 79.0240325927734375 78.977386474609375 78.7987060546875 78.52799224853515625 78.1753387451171875 77.7229461669921875 77.16840362548828125 76.504913330078125 75.75072479248046875 74.9447174072265625 74.05429840087890625 73.128143310546875 72.3242340087890625 71.51888275146484375 70.7983245849609375 70.1907501220703125 69.7003631591796875 69.43048858642578125 69.22171783447265625 69.01690673828125 68.70706939697265625 68.2446136474609375 67.42607879638671875 66.078765869140625 64.03173065185546875 61.09619140625 57.438343048095703125 53.62122344970703125 50.935943603515625 50.85528564453125 56.816043853759765625 62.547748565673828125 63.58069610595703125 60.6418304443359375 56.534183502197265625 51.323108673095703125 45.792522430419921875 39.2183380126953125 32.11772918701171875 24.988843917846679688 17.69610595703125 -99999 -99999 -99999 -99999 -99999 -99999 -99999 -99999 -99999 -99999 -99999 -99999 -99999 -99999 -99999 -99999 -99999
 -99999 -99999 -99999 -99999 -99999 -99999 -99999 -99999 -99999 -99999 -99999 -99999 -99999 -99999 -99999 -99999 -99999 -99999 -99999 -99999 -99999 -99999 -99999 -99999 -99999 -99999 -99999 -99999 -99999 -99999 -99999 -99999 -99999 -99999 -99999 -99999 -99999 -99999 -99999 -99999 -99999 -99999 -99999 -99999 -99999 -99999 -99999 -99999 -99999 -99999 -99999 -99999 -99999 -99999 51.826503753662109375 57.615325927734375 62.468128204345703125 66.72753143310546875 70.44477081298828125 73.692718505859375 76.4597320556640625 78.85837554931640625 80.82874298095703125 82.53609466552734375 84.011505126953125 85.24521636962890625 86.2739105224609375 87.212310791015625 88.05265045166015625 88.7687835693359375 89.4145050048828125 90.05976104736328125 90.6520843505859375 91.21002197265625 91.7912445068359375 92.35599517822265625 92.8623504638671875 93.40421295166015625 93.92530059814453125 94.5492706298828125 95.021392822265625 95.4678802490234375 96.055877685546875 96.59958648681640625 96.94826507568359375 97.27211761474609375 97.539886474609375 97.710357666015625 97.70233154296875 97.37262725830078125 96.80469512939453125 95.89649200439453125 94.64524078369140625 93.03412628173828125 91.1199798583984375 88.99134063720703125 86.85337066650390625 85.22827911376953125 85.30991363525390625 87.659820556640625 91.8249359130859375 96.39199066162109375 101.04949951171875 105.51222991943359375 109.70809173583984375 113.6926727294921875 117.4622344970703125 121.22357940673828125 124.93090057373046875 129.19915771484375 134.3586273193359375 140.52764892578125 147.790863037109375 156.2249603271484375 164.2384490966796875 170.5611572265625 174.4847564697265625 176.4510498046875 176.97711181640625 176.6182403564453125 175.7675933837890625 174.49761962890625 173.00555419921875 171.1015167236328125 168.9537811279296875 166.4181976318359375 163.705841064453125 160.7253570556640625 157.55511474609375 154.37890625 151.16046142578125 148.0409698486328125 145.048309326171875 142.261749267578125 139.6221466064453125 137.2584686279296875 135.204833984375 133.4012908935546875 131.857421875 130.55377197265625 129.6483154296875 128.886566162109375 128.34942626953125 127.99437713623046875 127.6887969970703125 127.2460784912109375 126.61284637451171875 125.7730712890625 124.4989776611328125 122.75159454345703125 120.64882659912109375 118.4933624267578125 116.8883209228515625 116.51090240478515625 118.74607086181640625 123.46239471435546875 129.074310302734375 128.2265472412109375 118.27337646484375 101.54822540283203125 91.6721343994140625 85.90973663330078125 83.4602508544921875 82.00542449951171875 81.30657196044921875 81.0308380126953125 80.8944854736328125 80.779052734375 80.81671142578125 80.64397430419921875 80.453033447265625 80.0605316162109375 79.6617584228515625 79.18683624267578125 78.64846038818359375 78.05440521240234375 77.39652252197265625 76.7420501708984375 75.9953765869140625 75.27893829345703125 74.583892822265625 73.8813018798828125 73.2117462158203125 72.60424041748046875 72.06186676025390625 71.607269287109375 71.3295135498046875 71.1608123779296875 71.03121185302734375 70.90459442138671875 70.79303741455078125 70.6240234375 70.22589874267578125 69.4876556396484375 68.34104156494140625 66.673919677734375 64.4163665771484375 61.74468231201171875 59.272136688232421875 56.8082427978515625 53.872524261474609375 52.822460174560546875 60.541194915771484375 58.49395751953125 55.7473907470703125 51.3620758056640625 46.532318115234375 40.677074432373046875 34.356204986572265625 27.800962448120117188 20.661638259887695312 13.702073097229003906 -99999 -99999 -99999 -99999 -99999 -99999 -99999 -99999 -99999 -99999 -99999 -99999 -99999 -99999 -99999 -99999 -99999
 -99999 -99999 -99999 -99999 -99999 -99999 -99999 -99999 -99999 -99999 -99999 -99999 -99999 -99999 -99999 -99999 -99999 -99999 -99999 -99999 -99999 -99999 -99999 -99999 -99999 -99999 -99999 -99999 -99999 -99999 -99999 -99999 -99999 -99999 -99999 -99999 -99999 -99999 -99999 -99999 -99999 -99999 -99999 -99999 -99999 -99999 -99999 -99999 -99999 -99999 -99999 -99999 36.545436859130859375 45.759677886962890625 53.563640594482421875 59.577205657958984375 64.779144287109375 69.29981231689453125 73.02657318115234375 76.33172607421875 79.06363677978515625 81.3014373779296875 83.28015899658203125 84.89559173583984375 86.25676727294921875 87.3494720458984375 88.40792083740234375 89.28655242919921875 90.0557861328125 90.78455352783203125 91.4399261474609375 92.06246185302734375 92.6975250244140625 93.3086395263671875 93.8822784423828125 94.48746490478515625 95.07329559326171875 95.716400146484375 96.21772003173828125 96.8566741943359375 97.45705413818359375 98.13323974609375 98.72817230224609375 99.29389190673828125 99.826507568359375 100.29894256591796875 100.6555023193359375 100.86960601806640625 100.90287017822265625 100.7177886962890625 100.2851715087890625 99.4827117919921875 98.2740936279296875 96.74961090087890625 94.8494110107421875 92.8212890625 91.0433349609375 89.94501495361328125 90.2875518798828125 92.0842132568359375 95.20801544189453125 99.19777679443359375 103.3896484375 107.52721405029296875 111.250244140625 114.7022857666015625 117.72632598876953125 120.475738525390625 123.1228790283203125 126.12564849853515625 129.7062530517578125 135.2486114501953125 142.335418701171875 150.9905548095703125 158.967010498046875 165.07525634765625 169.214569091796875 171.873046875 172.7919769287109375 172.944000244140625 172.4453125 171.40826416015625 170.0704345703125 168.2137451171875 166.1580047607421875 163.765045166015625 161.0540313720703125 158.196807861328125 155.2100830078125 152.192626953125 149.0998687744140625 146.09246826171875 143.153900146484375 140.4069366455078125 137.8193206787109375 135.4214935302734375 133.25396728515625 131.3170318603515625 129.8084259033203125 128.31658935546875 127.2696533203125 126.4365386962890625 125.68316650390625 124.94084930419921875 124.433074951171875 123.940765380859375 123.275177001953125 122.27223968505859375 120.9723358154296875 119.459991455078125 117.76132965087890625 116.1658935546875 115.14214324951171875 115.1166229248046875 116.2316741943359375 117.862823486328125 119.14342498779296875 115.38457489013671875 107.585296630859375 95.56359100341796875 90.11785888671875 89.44644927978515625 88.8066864013671875 87.65813446044921875 86.4560546875 85.71933746337890625 84.77960968017578125 84.1291656494140625 83.32990264892578125 82.927093505859375 82.41422271728515625 81.5437469482421875 80.74892425537109375 79.9305419921875 79.0580596923828125 78.205657958984375 77.30864715576171875 76.50806427001953125 75.69775390625 74.97638702392578125 74.3266448974609375 73.7885284423828125 73.30506134033203125 72.8832244873046875 72.61580657958984375 72.466156005859375 72.37839508056640625 72.3507232666015625 72.4185028076171875 72.54766845703125 72.60390472412109375 72.52008819580078125 72.27443695068359375 71.743194580078125 70.89946746826171875 69.77724456787109375 68.25315093994140625 66.9281463623046875 66.13543701171875 66.05959320068359375 66.786376953125 62.440372467041015625 55.719516754150390625 50.5833282470703125 49.20099639892578125 45.888904571533203125 41.371616363525390625 35.42474365234375 28.857877731323242188 22.014772415161132812 15.561676979064941406 8.9829578399658203125 -99999 -99999 -99999 -99999 -99999 -99999 -99999 -99999 -99999 -99999 -99999 -99999 -99999 -99999 -99999 -99999 -99999
 -99999 -99999 -99999 -99999 -99999 -99999 -99999 -99999 -99999 -99999 -99999 -99999 -99999 -99999 -99999 -99999 -99999 -99999 -99999 -99999 -99999 -99999 -99999 -99999 -99999 -99999 -99999 -99999 -99999 -99999 -99999 -99999 -99999 -99999 -99999 -99999 -99999 -99999 -99999 -99999 -99999 -99999 -99999 -99999 -99999 -99999 -99999 -99999 -99999 -99999 16.086786270141601562 26.204303741455078125 36.67609405517578125 46.61116790771484375 54.84282684326171875 61.63306427001953125 67.1494293212890625 71.63614654541015625 75.5978546142578125 78.91889190673828125 81.444915771484375 83.79663848876953125 85.58225250244140625 87.06598663330078125 88.33977508544921875 89.416717529296875 90.35199737548828125 91.19441986083984375 91.94109344482421875 92.70313262939453125 93.35923004150390625 93.96773529052734375 94.60711669921875 95.23223876953125 95.8928985595703125 96.5530548095703125 97.21074676513671875 97.8116912841796875 98.510833740234375 99.2263336181640625 99.93712615966796875 100.64194488525390625 101.36374664306640625 102.0629119873046875 102.708740234375 103.329559326171875 103.873260498046875 104.31163787841796875 104.58025360107421875 104.59397125244140625 104.377838134765625 103.8940277099609375 103.0779571533203125 101.74124908447265625 100.1420440673828125 98.40777587890625 96.71952056884765625 95.600311279296875 95.81815338134765625 97.2205047607421875 100.0664215087890625 103.71208953857421875 107.4359588623046875 110.825958251953125 113.99196624755859375 116.6977691650390625 118.9496002197265625 120.7402496337890625 122.19046783447265625 123.3748016357421875 124.98157501220703125 128.687591552734375 135.229949951171875 143.826324462890625 152.03607177734375 158.396759033203125 162.8220672607421875 165.815887451171875 167.670684814453125 168.4638214111328125 168.29669189453125 167.5876922607421875 166.440399169921875 164.7896270751953125 162.7467193603515625 160.4701080322265625 157.975799560546875 155.2858428955078125 152.4297637939453125 149.5394287109375 146.5633087158203125 143.65032958984375 140.804595947265625 138.0699615478515625 135.4852447509765625 133.10302734375 130.9346923828125 128.971466064453125 127.312286376953125 125.81374359130859375 124.45960235595703125 123.37453460693359375 122.59366607666015625 121.86408233642578125 121.22104644775390625 120.58200836181640625 119.83123016357421875 118.94063568115234375 117.84149169921875 116.5127410888671875 115.148712158203125 113.75142669677734375 112.56111907958984375 111.929107666015625 111.99895477294921875 111.5378265380859375 109.96157073974609375 106.6593017578125 100.9307708740234375 96.534332275390625 94.1358184814453125 95.80074310302734375 95.9019927978515625 93.86004638671875 92.19753265380859375 90.4405364990234375 89.02480316162109375 87.7694854736328125 86.6544036865234375 85.7061767578125 84.560943603515625 83.3879547119140625 82.1339569091796875 80.95709228515625 79.66010284423828125 78.46471405029296875 77.30426788330078125 76.3104400634765625 75.49950408935546875 74.78908538818359375 74.1804962158203125 73.68061065673828125 73.36075592041015625 73.1950225830078125 73.11675262451171875 73.1161346435546875 73.2419281005859375 73.4813385009765625 73.7317657470703125 73.96234893798828125 74.1655731201171875 74.26653289794921875 74.21146392822265625 73.86351776123046875 73.29019927978515625 72.47724151611328125 71.5597076416015625 70.812591552734375 70.75548553466796875 70.58946990966796875 67.290802001953125 60.419971466064453125 50.640720367431640625 47.763946533203125 44.697422027587890625 41.068828582763671875 35.63726043701171875 29.326000213623046875 22.651058197021484375 16.38990020751953125 9.9316797256469726562 -99999 -99999 -99999 -99999 -99999 -99999 -99999 -99999 -99999 -99999 -99999 -99999 -99999 -99999 -99999 -99999 -99999 -99999
 -99999 -99999 -99999 -99999 -99999 -99999 -99999 -99999 -99999 -99999 -99999 -99999 -99999 -99999 -99999 -99999 -99999 -99999 -99999 -99999 -99999 -99999 -99999 -99999 -99999 -99999 -99999 -99999 -99999 -99999 -99999 -99999 -99999 -99999 -99999 -99999 -99999 -99999 -99999 -99999 -99999 -99999 -99999 -99999 -99999 -99999 -99999 -99999 -99999 5.3244829177856445312 14.727658271789550781 25.9154205322265625 36.955883026123046875 47.4632568359375 56.409641265869140625 63.358489990234375 69.153045654296875 74.1622314453125 78.086700439453125 81.29174041748046875 83.981781005859375 86.021728515625 87.73171234130859375 89.0644378662109375 90.28270721435546875 91.2152557373046875 92.0597076416015625 92.8827056884765625 93.631683349609375 94.35311126708984375 95.00873565673828125 95.6891937255859375 96.3779449462890625 97.0509796142578125 97.739349365234375 98.47525787353515625 99.18553924560546875 99.8855133056640625 100.65647125244140625 101.4383087158203125 102.27861785888671875 103.092315673828125 103.94712066650390625 104.79456329345703125 105.6502838134765625 106.4876861572265625 107.21600341796875 107.88607025146484375 108.47589111328125 108.9256591796875 109.14654541015625 109.03234100341796875 108.65544891357421875 108.00168609619140625 107.00485992431640625 105.59381866455078125 103.99658203125 102.70362091064453125 101.9769744873046875 103.89563751220703125 106.730133056640625 109.7722015380859375 112.80879974365234375 115.6936798095703125 117.9836578369140625 119.91274261474609375 121.33429718017578125 122.0909576416015625 122.3285675048828125 121.9288787841796875 121.09687042236328125 122.03502655029296875 127.8199920654296875 136.4998931884765625 144.7245025634765625 151.3858642578125 156.4506072998046875 159.9278564453125 162.134918212890625 163.4029693603515625 163.6530303955078125 163.196868896484375 162.191497802734375 160.7776336669921875 158.996429443359375 156.90167236328125 154.5328521728515625 152.028167724609375 149.293731689453125 146.478912353515625 143.643798828125 140.839813232421875 138.067291259765625 135.4117889404296875 132.8578033447265625 130.47296142578125 128.2808685302734375 126.21121978759765625 124.340545654296875 122.772552490234375 121.435760498046875 120.25014495849609375 119.318817138671875 118.53513336181640625 117.8072052001953125 117.11322784423828125 116.43959808349609375 115.730743408203125 114.83654022216796875 113.7853851318359375 112.6570587158203125 111.2567291259765625 109.7650604248046875 108.34931182861328125 107.3186492919921875 105.97898101806640625 104.5216217041015625 102.35674285888671875 100.4750823974609375 98.4261322021484375 100.31339263916015625 102.38211822509765625 102.35443115234375 100.17621612548828125 97.46920013427734375 95.1793975830078125 93.318267822265625 91.648773193359375 90.19455718994140625 88.54242706298828125 87.01642608642578125 85.2977752685546875 83.646575927734375 81.9384307861328125 80.2282257080078125 78.767425537109375 77.49127960205078125 76.30500030517578125 75.27008819580078125 74.47272491455078125 73.958770751953125 73.63306427001953125 73.43523406982421875 73.38454437255859375 73.47515106201171875 73.6966400146484375 74.009185791015625 74.38845062255859375 74.80292510986328125 75.20537567138671875 75.52280426025390625 75.72502899169921875 75.798919677734375 75.67620849609375 75.2943267822265625 74.56558990478515625 73.660400390625 72.73316192626953125 71.755859375 69.85669708251953125 65.37424468994140625 58.1980133056640625 51.206027984619140625 45.66394805908203125 41.044506072998046875 37.092681884765625 30.569768905639648438 23.168378829956054688 16.460664749145507812 9.8857316970825195312 3.9777085781097412109 -99999 -99999 -99999 -99999 -99999 -99999 -99999 -99999 -99999 -99999 -99999 -99999 -99999 -99999 -99999 -99999 -99999 -99999
 -99999 -99999 -99999 -99999 -99999 -99999 -99999 -99999 -99999 -99999 -99999 -99999 -99999 -99999 -99999 -99999 -99999 -99999 -99999 -99999 -99999 -99999 -99999 -99999 -99999 -99999 -99999 -99999 -99999 -99999 -99999 -99999 -99999 -99999 -99999 -99999 -99999 -99999 -99999 -99999 -99999 -99999 -99999 -99999 -99999 -99999 -99999 -99999 -99999 5.0970096588134765625 14.788423538208007812 26.292284011840820312 37.603229522705078125 48.502338409423828125 57.809589385986328125 65.27037811279296875 71.54991912841796875 76.4670562744140625 80.56461334228515625 83.6996917724609375 86.20960235595703125 88.13311767578125 89.69701385498046875 90.90114593505859375 91.9296112060546875 92.8171234130859375 93.59401702880859375 94.36801910400390625 95.12302398681640625 95.71405029296875 96.52816009521484375 97.2489166259765625 97.9731292724609375 98.676025390625 99.40973663330078125 100.1323699951171875 100.91500091552734375 101.814208984375 102.6743011474609375 103.54732513427734375 104.472991943359375 105.44998931884765625 106.46213531494140625 107.46131134033203125 108.46854400634765625 109.526702880859375 110.6125030517578125 111.66402435302734375 112.58135223388671875 113.3926849365234375 114.1555633544921875 114.790557861328125 115.208221435546875 115.15166473388671875 114.7574005126953125 114.16919708251953125 113.1048736572265625 111.32761383056640625 110.55893707275390625 111.8190155029296875 114.9112091064453125 117.56345367431640625 119.63646697998046875 121.36357879638671875 122.76943206787109375 123.89270782470703125 124.62972259521484375 124.77680206298828125 124.21250152587890625 122.63944244384765625 120.2455291748046875 118.75689697265625 123.15189361572265625 131.127197265625 138.86016845703125 145.15142822265625 150.272857666015625 154.0435638427734375 156.634796142578125 157.9852142333984375 158.5924835205078125 158.4795684814453125 157.751922607421875 156.5378265380859375 154.932342529296875 153.0497589111328125 150.788665771484375 148.36639404296875 145.793670654296875 143.15081787109375 140.422943115234375 137.71405029296875 135.0303497314453125 132.4247894287109375 129.8918304443359375 127.45919036865234375 125.20644378662109375 123.16471099853515625 121.26436614990234375 119.54920196533203125 118.12017059326171875 116.85410308837890625 115.745941162109375 114.86690521240234375 114.28997802734375 113.81281280517578125 113.18874359130859375 112.6591796875 112.00988006591796875 111.15906524658203125 110.10187530517578125 108.8621673583984375 107.6209259033203125 105.9580535888671875 103.855316162109375 102.55651092529296875 101.53559112548828125 100.96390533447265625 100.98911285400390625 101.89990234375 103.70481109619140625 106.25872039794921875 106.54645538330078125 104.5409088134765625 101.642852783203125 99.186614990234375 97.290374755859375 95.40125274658203125 93.483306884765625 91.3643798828125 89.45172119140625 87.4369354248046875 85.27120208740234375 83.07431793212890625 81.1253204345703125 79.1266326904296875 77.3982696533203125 76.0196380615234375 75.04280853271484375 74.2761993408203125 73.752716064453125 73.4358367919921875 73.396942138671875 73.5110626220703125 73.76142120361328125 74.15900421142578125 74.634735107421875 75.14340972900390625 75.6499481201171875 76.14232635498046875 76.563018798828125 76.863128662109375 76.99851226806640625 76.93976593017578125 76.61456298828125 75.8422393798828125 74.3801422119140625 72.6451416015625 70.86011505126953125 67.40477752685546875 62.33472442626953125 56.14563751220703125 49.18088531494140625 42.838409423828125 38.4874267578125 32.564556121826171875 23.9523162841796875 15.721661567687988281 9.137119293212890625 3.5985970497131347656 -99999 -99999 -99999 -99999 -99999 -99999 -99999 -99999 -99999 -99999 -99999 -99999 -99999 -99999 -99999 -99999 -99999 -99999 -99999
 -99999 -99999 -99999 -99999 -99999 -99999 -99999 -99999 -99999 -99999 -99999 -99999 -99999 -99999 -99999 -99999 -99999 -99999 -99999 -99999 -99999 -99999 -99999 -99999 -99999 -99999 -99999 -99999 -99999 -99999 -99999 -99999 -99999 -99999 -99999 -99999 -99999 -99999 -99999 -99999 -99999 -99999 -99999 -99999 -99999 -99999 -99999 -99999 0.057474832981824874878 6.9270167350769042969 16.69892120361328125 27.57299041748046875 38.6425933837890625 49.380321502685546875 58.842655181884765625 66.86556243896484375 73.38410186767578125 78.67639923095703125 82.8175048828125 85.81697845458984375 88.224761962890625 89.9619903564453125 91.30170440673828125 92.32444000244140625 93.21831512451171875 94.08683013916015625 94.91950225830078125 95.6579132080078125 96.323883056640625 97.0743560791015625 97.83928680419921875 98.62955474853515625 99.38022613525390625 100.18695831298828125 100.94702911376953125 101.8083038330078125 102.7000885009765625 103.5730743408203125 104.53606414794921875 105.5373077392578125 106.5637054443359375 107.67862701416015625 108.81206512451171875 110.07593536376953125 111.321136474609375 112.62750244140625 113.97177886962890625 115.2904510498046875 116.711517333984375 118.148681640625 119.482086181640625 120.72592926025390625 121.86412811279296875 122.9429168701171875 123.7423858642578125 124.10800933837890625 123.794647216796875 123.0236053466796875 122.62825775146484375 123.2310943603515625 125.22437286376953125 126.3748626708984375 127.22930145263671875 127.85785675048828125 128.3866729736328125 128.6108856201171875 128.7563934326171875 128.645263671875 127.666961669921875 125.884521484375 123.1165008544921875 121.2148284912109375 123.646453857421875 129.1102294921875 135.1583251953125 140.6946868896484375 145.348724365234375 148.7901458740234375 151.28302001953125 152.8157501220703125 153.59576416015625 153.664642333984375 153.1471405029296875 152.128173828125 150.6336517333984375 148.8510894775390625 146.7680206298828125 144.5064239501953125 142.077056884765625 139.5561981201171875 136.9696502685546875 134.3554229736328125 131.7409210205078125 129.154388427734375 126.67954254150390625 124.29895782470703125 121.995025634765625 119.8555755615234375 117.93103790283203125 116.08493804931640625 114.4322052001953125 113.1266632080078125 112.12978363037109375 111.22918701171875 110.683746337890625 110.32291412353515625 110.082794189453125 109.90120697021484375 109.59006500244140625 109.01433563232421875 108.11431121826171875 107.10124969482421875 106.28372955322265625 105.09515380859375 102.9786834716796875 101.14437103271484375 100.9688262939453125 101.45613861083984375 102.3577880859375 103.83702850341796875 105.92140960693359375 107.6820068359375 108.32215118408203125 106.734222412109375 104.32625579833984375 102.50531005859375 101.17006683349609375 98.5698089599609375 96.5308685302734375 94.4381866455078125 91.99871826171875 89.3895263671875 86.8559112548828125 84.06966400146484375 81.47266387939453125 79.2918701171875 77.418609619140625 75.862396240234375 74.65000152587890625 73.89505767822265625 73.44063568115234375 73.240814208984375 73.2922821044921875 73.55556488037109375 73.956695556640625 74.451568603515625 75.04402923583984375 75.674652099609375 76.30452728271484375 76.84239959716796875 77.2703857421875 77.5600738525390625 77.642181396484375 77.50386810302734375 77.2093353271484375 76.28204345703125 74.5327911376953125 71.765106201171875 68.5240631103515625 64.5059356689453125 59.21933746337890625 52.86017608642578125 46.1910247802734375 39.813983917236328125 33.4326629638671875 26.4489288330078125 16.718597412109375 8.49370574951171875 2.7694122791290283203 -99999 -99999 -99999 -99999 -99999 -99999 -99999 -99999 -99999 -99999 -99999 -99999 -99999 -99999 -99999 -99999 -99999 -99999 -99999 -99999
 -99999 -99999 -99999 -99999 -99999 -99999 -99999 -99999 -99999 -99999 -99999 -99999 -99999 -99999 -99999 -99999 -99999 -99999 -99999 -99999 -99999 -99999 -99999 -99999 -99999 -99999 -99999 -99999 -99999 -99999 -99999 -99999 -99999 -99999 -99999 -99999 -99999 -99999 -99999 -99999 -99999 -99999 -99999 -99999 -99999 -99999 -99999 -99999 3.5370316505432128906 10.533093452453613281 19.284526824951171875 29.59279632568359375 40.067478179931640625 50.1641845703125 60.59564971923828125 68.8957672119140625 75.741302490234375 80.987762451171875 84.91007232666015625 87.7496337890625 89.89455413818359375 91.3780364990234375 92.5920562744140625 93.5831451416015625 94.39012908935546875 95.11916351318359375 95.89748382568359375 96.550567626953125 97.27252960205078125 98.15256500244140625 98.99259185791015625 99.79735565185546875 100.7041778564453125 101.4898529052734375 102.31563568115234375 103.261627197265625 104.2414703369140625 105.23360443115234375 106.2437286376953125 107.43152618408203125 108.50308990478515625 109.71572113037109375 111.02535247802734375 112.440521240234375 113.8933258056640625 115.37262725830078125 117.0883636474609375 118.87610626220703125 120.71717071533203125 122.63227081298828125 124.5458984375 126.70055389404296875 128.7564544677734375 130.808135986328125 132.7778167724609375 134.531097412109375 135.9298858642578125 136.957550048828125 137.4059906005859375 137.4068145751953125 137.139862060546875 136.0922088623046875 135.282806396484375 134.40771484375 133.7241973876953125 133.3190765380859375 133.111785888671875 132.7698822021484375 132.098785400390625 130.5875396728515625 127.7900390625 125.5773162841796875 126.17438507080078125 129.0533599853515625 133.417633056640625 137.5040130615234375 141.124114990234375 144.1428985595703125 146.462493896484375 148.02960205078125 148.8909912109375 148.920928955078125 148.4648284912109375 147.5252532958984375 146.169097900390625 144.5318603515625 142.604095458984375 140.49591064453125 138.1999664306640625 135.797454833984375 133.31634521484375 130.7786865234375 128.2587890625 125.76557159423828125 123.30519866943359375 120.90718841552734375 118.61727142333984375 116.39261627197265625 114.32921600341796875 112.48146820068359375 110.81656646728515625 109.41594696044921875 108.25144195556640625 107.47025299072265625 107.00330352783203125 106.8409271240234375 107.05423736572265625 107.24567413330078125 107.03070831298828125 106.8144073486328125 106.48126220703125 105.718414306640625 104.79955291748046875 104.2525634765625 103.20743560791015625 101.7423553466796875 101.53079986572265625 102.16458892822265625 103.48736572265625 105.2506256103515625 106.97423553466796875 108.56067657470703125 109.16571044921875 108.34864044189453125 106.605224609375 105.2542266845703125 104.4665069580078125 102.1048583984375 99.08206939697265625 97.084747314453125 94.31681060791015625 91.42458343505859375 88.1148681640625 84.9205169677734375 81.99483489990234375 79.33612060546875 77.05605316162109375 75.446380615234375 74.23125457763671875 73.3932952880859375 72.9860687255859375 72.93643951416015625 73.1390380859375 73.508880615234375 74.0202789306640625 74.67632293701171875 75.35958099365234375 76.04203033447265625 76.6917877197265625 77.2638397216796875 77.64662933349609375 77.78583526611328125 77.71308135986328125 77.38327789306640625 76.7596893310546875 75.68343353271484375 73.25592803955078125 69.8931121826171875 66.1158294677734375 61.570102691650390625 55.753902435302734375 49.452259063720703125 42.75030517578125 35.30684661865234375 28.099180221557617188 20.000219345092773438 11.572824478149414062 3.2662844657897949219 -99999 -99999 -99999 -99999 -99999 -99999 -99999 -99999 -99999 -99999 -99999 -99999 -99999 -99999 -99999 -99999 -99999 -99999 -99999 -99999 -99999
 -99999 -99999 -99999 -99999 -99999 -99999 -99999 -99999 -99999 -99999 -99999 -99999 -99999 -99999 -99999 -99999 -99999 -99999 -99999 -99999 -99999 -99999 -99999 -99999 -99999 -99999 -99999 -99999 -99999 -99999 -99999 -99999 -99999 -99999 -99999 -99999 -99999 -99999 -99999 -99999 -99999 -99999 -99999 -99999 -99999 -99999 -99999 1.8496785163879394531 7.3340525627136230469 14.299732208251953125 22.59284210205078125 31.906530380249023438 41.7528228759765625 52.31449127197265625 62.1323089599609375 71.17962646484375 78.11053466796875 82.95743560791015625 86.7494354248046875 89.360137939453125 91.23690032958984375 92.54061126708984375 93.53557586669921875 94.36052703857421875 95.02504730224609375 95.74896240234375 96.44306182861328125 97.2825927734375 98.11887359619140625 99.01757049560546875 99.91139984130859375 100.77745819091796875 101.68659210205078125 102.68651580810546875 103.5816192626953125 104.56940460205078125 105.57831573486328125 106.7479095458984375 107.76271820068359375 108.91373443603515625 110.27408599853515625 111.65329742431640625 113.01439666748046875 114.5113067626953125 116.24501800537109375 118.111480712890625 120.03174591064453125 122.0726470947265625 124.329254150390625 126.82613372802734375 129.4466552734375 132.2264251708984375 135.1524505615234375 138.26495361328125 141.402496337890625 144.5229644775390625 147.8370361328125 150.51312255859375 151.907989501953125 151.562744140625 148.6961822509765625 145.2957916259765625 142.5782012939453125 140.11932373046875 138.6930389404296875 137.596405029296875 136.745361328125 136.075897216796875 135.36895751953125 133.648040771484375 130.9824676513671875 128.8773956298828125 128.7116546630859375 129.959991455078125 132.3099365234375 135.2172088623046875 137.986602783203125 140.353790283203125 142.2232666015625 143.5089569091796875 144.1362457275390625 144.1895599365234375 143.7899627685546875 142.95660400390625 141.7229156494140625 140.1749114990234375 138.379486083984375 136.3766937255859375 134.179107666015625 131.8861846923828125 129.517303466796875 127.112518310546875 124.66670989990234375 122.2242431640625 119.83838653564453125 117.43744659423828125 115.11023712158203125 112.8894805908203125 110.774566650390625 108.825225830078125 107.01396942138671875 105.40240478515625 104.22138214111328125 103.47115325927734375 103.14632415771484375 103.10260772705078125 103.64572906494140625 104.31695556640625 104.85894012451171875 105.11498260498046875 104.72205352783203125 104.08396148681640625 103.46466064453125 103.09923553466796875 102.34760284423828125 101.9531097412109375 102.172088623046875 103.23407745361328125 104.65203094482421875 106.22658538818359375 107.92807769775390625 109.25701904296875 109.9548187255859375 109.81171417236328125 109.00867462158203125 109.1357879638671875 107.07344818115234375 103.19962310791015625 102.1179046630859375 99.52483367919921875 97.15482330322265625 93.50492095947265625 89.32720947265625 85.480316162109375 82.03897857666015625 79.1042938232421875 76.66147613525390625 74.7442474365234375 73.47026824951171875 72.802581787109375 72.53948211669921875 72.60819244384765625 72.93308258056640625 73.438995361328125 74.068206787109375 74.77770233154296875 75.51706695556640625 76.264495849609375 76.96681976318359375 77.46640777587890625 77.70159149169921875 77.698333740234375 77.35575103759765625 76.56342315673828125 75.3291778564453125 73.4904937744140625 70.93535614013671875 67.46509552001953125 62.998516082763671875 57.708683013916015625 51.785236358642578125 45.513580322265625 38.374362945556640625 30.860357284545898438 22.937896728515625 14.931920051574707031 6.7517533302307128906 -99999 -99999 -99999 -99999 -99999 -99999 -99999 -99999 -99999 -99999 -99999 -99999 -99999 -99999 -99999 -99999 -99999 -99999 -99999 -99999 -99999 -99999
 -99999 -99999 -99999 -99999 -99999 -99999 -99999 -99999 -99999 -99999 -99999 -99999 -99999 -99999 -99999 -99999 -99999 -99999 -99999 -99999 -99999 -99999 -99999 -99999 -99999 -99999 -99999 -99999 -99999 -99999 -99999 -99999 -99999 -99999 -99999 -99999 -99999 -99999 -99999 -99999 -99999 -99999 -99999 -99999 -99999 -99999 0.72503465414047241211 5.3765039443969726562 11.109035491943359375 17.67720794677734375 25.323835372924804688 34.07143402099609375 43.20888519287109375 54.488056182861328125 64.75836181640625 74.0677947998046875 80.4567413330078125 84.82801055908203125 88.00750732421875 90.2374725341796875 91.94940185546875 93.03731536865234375 93.88336181640625 94.5581512451171875 95.2503204345703125 96.01151275634765625 96.8165130615234375 97.71099853515625 98.660369873046875 99.6314849853515625 100.65486907958984375 101.7171478271484375 102.567901611328125 103.67071533203125 104.68534088134765625 105.7260894775390625 106.80478668212890625 107.91046142578125 109.219482421875 110.4583587646484375 111.70519256591796875 113.1360321044921875 114.81756591796875 116.6024627685546875 118.35994720458984375 120.2746734619140625 122.48966217041015625 124.95124053955078125 127.6005859375 130.4540252685546875 133.5841827392578125 137.08074951171875 140.8116302490234375 144.78515625 149.012847900390625 153.3974761962890625 157.7789154052734375 161.9723663330078125 165.5366363525390625 163.165374755859375 158.4906768798828125 153.10211181640625 148.3109283447265625 144.5760498046875 142.0622406005859375 140.4423980712890625 139.6458587646484375 138.5448150634765625 136.929962158203125 134.927703857421875 132.567535400390625 130.840667724609375 130.1689300537109375 130.4648284912109375 131.6007843017578125 133.305023193359375 135.2858428955078125 137.0722503662109375 138.33392333984375 139.2493743896484375 139.7059478759765625 139.750152587890625 139.316375732421875 138.477325439453125 137.2850341796875 135.8089599609375 134.06976318359375 132.149749755859375 130.0925750732421875 127.944061279296875 125.678253173828125 123.35120391845703125 121.01531982421875 118.65110015869140625 116.2823333740234375 113.95526123046875 111.65656280517578125 109.3995208740234375 107.15981292724609375 105.01050567626953125 103.14542388916015625 101.48445892333984375 100.1920166015625 99.3695068359375 99.12227630615234375 99.36749267578125 100.18967437744140625 101.66965484619140625 102.83382415771484375 103.49553680419921875 103.379669189453125 102.91057586669921875 102.464324951171875 102.1427459716796875 101.9924163818359375 102.216094970703125 102.5604705810546875 103.625579833984375 104.8215179443359375 106.8993377685546875 108.5532684326171875 109.94734954833984375 110.79605865478515625 111.2546234130859375 110.59732818603515625 109.25789642333984375 106.1669769287109375 104.394195556640625 104.11147308349609375 103.17951202392578125 99.203399658203125 94.65508270263671875 89.98253631591796875 85.62359619140625 81.7225189208984375 78.48339080810546875 75.75820159912109375 73.927154541015625 72.74047088623046875 72.11038970947265625 71.9700164794921875 72.2888031005859375 72.80640411376953125 73.42533111572265625 74.12644195556640625 74.858428955078125 75.64215087890625 76.38629150390625 77.0417938232421875 77.48346710205078125 77.61540985107421875 77.33267974853515625 76.5060272216796875 75.2458343505859375 73.54510498046875 71.302459716796875 68.02017974853515625 63.9239959716796875 59.22333526611328125 53.947101593017578125 47.92484283447265625 41.015743255615234375 33.96623992919921875 26.293970108032226562 18.412021636962890625 10.587881088256835938 2.5971117019653320312 -99999 -99999 -99999 -99999 -99999 -99999 -99999 -99999 -99999 -99999 -99999 -99999 -99999 -99999 -99999 -99999 -99999 -99999 -99999 -99999 -99999 -99999
 -99999 -99999 -99999 -99999 -99999 -99999 -99999 -99999 -99999 -99999 -99999 -99999 -99999 -99999 -99999 -99999 -99999 -99999 -99999 -99999 -99999 -99999 -99999 -99999 -99999 -99999 -99999 -99999 -99999 -99999 -99999 -99999 -99999 -99999 -99999 -99999 -99999 -99999 -99999 -99999 -99999 -99999 -99999 -99999 -99999 0.31745317578315734863 4.3665051460266113281 9.165027618408203125 14.648406028747558594 21.240268707275390625 28.198701858520507812 35.822479248046875 44.272167205810546875 53.57749176025390625 65.32665252685546875 76.7533721923828125 81.69283294677734375 85.390380859375 88.63018798828125 90.76958465576171875 92.12760162353515625 93.093048095703125 93.74129486083984375 94.31369781494140625 95.0818328857421875 95.8858795166015625 96.8447723388671875 97.75066375732421875 98.936065673828125 100.08574676513671875 101.20795440673828125 102.1201629638671875 103.38172149658203125 104.4755401611328125 105.5457000732421875 106.81865692138671875 107.964813232421875 109.024566650390625 110.123565673828125 111.4483489990234375 113.09310150146484375 114.60919189453125 116.2649993896484375 118.12191009521484375 120.0620574951171875 122.194549560546875 124.57227325439453125 127.1927337646484375 130.04541015625 133.2969207763671875 136.876556396484375 140.7896881103515625 145.0803375244140625 149.703765869140625 154.615814208984375 159.66314697265625 164.732025146484375 169.2204742431640625 171.2558135986328125 169.9037017822265625 164.5875701904296875 157.886810302734375 151.78070068359375 146.6555633544921875 143.4541168212890625 141.868896484375 140.8202667236328125 139.4178466796875 137.2535400390625 135.2945709228515625 133.4363250732421875 131.7727813720703125 130.5422515869140625 130.3865203857421875 130.9314117431640625 131.9180145263671875 132.926513671875 133.8983306884765625 134.8479461669921875 135.460205078125 135.667755126953125 135.5149993896484375 134.970367431640625 134.054107666015625 132.859222412109375 131.42767333984375 129.8090972900390625 127.999908447265625 126.02011871337890625 123.94280242919921875 121.79221343994140625 119.595611572265625 117.3446044921875 115.1201019287109375 112.86434173583984375 110.53955841064453125 108.24192047119140625 105.91368865966796875 103.6909942626953125 101.473480224609375 99.41918182373046875 97.586639404296875 96.098663330078125 94.98915863037109375 94.70003509521484375 95.10442352294921875 96.5389862060546875 98.82233428955078125 100.85660552978515625 102.141937255859375 102.26331329345703125 101.80147552490234375 101.318115234375 101.2343292236328125 101.3328094482421875 101.80110931396484375 102.76255035400390625 103.7673492431640625 105.52631378173828125 107.33550262451171875 108.9710540771484375 110.32871246337890625 111.26367950439453125 112.102020263671875 111.751739501953125 110.016357421875 108.2839813232421875 107.405487060546875 109.20421600341796875 106.4333648681640625 101.07511138916015625 95.14935302734375 89.93645477294921875 85.220245361328125 80.99616241455078125 77.4697113037109375 74.71416473388671875 72.74732208251953125 71.63962554931640625 71.312957763671875 71.57242584228515625 72.12201690673828125 72.812713623046875 73.54555511474609375 74.28292083740234375 75.0257415771484375 75.76114654541015625 76.4467620849609375 77.03617095947265625 77.4232025146484375 77.4404296875 76.77544403076171875 75.481689453125 73.796478271484375 71.548614501953125 68.637847900390625 64.94683837890625 60.700595855712890625 55.6002044677734375 49.69538116455078125 43.24394989013671875 36.598377227783203125 29.63149261474609375 22.081207275390625 14.02292633056640625 6.1247239112854003906 -99999 -99999 -99999 -99999 -99999 -99999 -99999 -99999 -99999 -99999 -99999 -99999 -99999 -99999 -99999 -99999 -99999 -99999 -99999 -99999 -99999 -99999 -99999
 -99999 -99999 -99999 -99999 -99999 -99999 -99999 -99999 -99999 -99999 -99999 -99999 -99999 -99999 -99999 -99999 -99999 -99999 -99999 -99999 -99999 -99999 -99999 -99999 -99999 -99999 -99999 -99999 -99999 -99999 -99999 -99999 -99999 -99999 -99999 -99999 -99999 -99999 -99999 -99999 -99999 -99999 -99999 -99999 0.38831043243408203125 3.7811441421508789062 7.81797027587890625 12.5378265380859375 17.970859527587890625 23.858316421508789062 30.490823745727539062 37.752605438232421875 44.80525970458984375 52.646274566650390625 62.98534393310546875 73.81784820556640625 80.47110748291015625 84.96380615234375 88.25318145751953125 90.3972930908203125 91.62209320068359375 92.35182952880859375 92.99431610107421875 93.565277099609375 94.3827667236328125 95.35956573486328125 96.28772735595703125 97.68991851806640625 99.0081024169921875 100.376953125 101.5572967529296875 102.80157470703125 104.06510162353515625 105.17372894287109375 106.37444305419921875 107.3896026611328125 108.4782562255859375 109.86785888671875 111.20157623291015625 112.5743255615234375 114.07879638671875 115.70323944091796875 117.452972412109375 119.31606292724609375 121.3635406494140625 123.64774322509765625 126.11405181884765625 128.8411407470703125 131.8952178955078125 135.32421875 139.039520263671875 143.14251708984375 147.7175750732421875 152.6993408203125 158.0162200927734375 163.4099884033203125 168.5168609619140625 172.9959564208984375 175.5507049560546875 173.0962371826171875 167.0448455810546875 159.6315765380859375 152.244415283203125 146.38262939453125 142.793182373046875 140.64453125 139.654815673828125 138.3853912353515625 136.807830810546875 134.9341278076171875 133.0552520751953125 131.5731658935546875 130.6187896728515625 130.10406494140625 129.931915283203125 130.231781005859375 130.7659149169921875 131.284088134765625 131.6683807373046875 131.8686370849609375 131.8140106201171875 131.387298583984375 130.712249755859375 129.8053131103515625 128.6492767333984375 127.1947479248046875 125.5789031982421875 123.8421783447265625 121.96157073974609375 119.98592376708984375 117.9790496826171875 115.91202545166015625 113.777557373046875 111.615509033203125 109.439361572265625 107.24813079833984375 105.00302886962890625 102.7423553466796875 100.3803253173828125 98.14438629150390625 95.82128143310546875 93.79300689697265625 91.97972869873046875 90.74636077880859375 90.027618408203125 90.295257568359375 91.812469482421875 94.93877410888671875 99.73465728759765625 101.9721832275390625 101.01764678955078125 100.1413116455078125 99.7901611328125 100.0157470703125 100.40605926513671875 101.13834381103515625 102.25384521484375 103.7592010498046875 105.33707427978515625 107.1317901611328125 109.08419036865234375 110.62485504150390625 111.8562774658203125 112.44768524169921875 112.34940338134765625 111.4321136474609375 110.63689422607421875 111.16980743408203125 110.76023101806640625 107.465118408203125 100.044342041015625 94.0794219970703125 89.0834197998046875 84.37416839599609375 80.039764404296875 76.00733184814453125 73.12860107421875 71.50994110107421875 70.65221405029296875 70.77410125732421875 71.3907470703125 72.23207855224609375 73.1258392333984375 73.980743408203125 74.6979522705078125 75.3145904541015625 75.86759185791015625 76.4560699462890625 77.03879547119140625 77.2093353271484375 76.98966217041015625 76.14276885986328125 74.3009033203125 72.11114501953125 69.22739410400390625 65.75859832763671875 61.66193389892578125 56.933925628662109375 51.5550384521484375 45.707523345947265625 39.27036285400390625 32.190441131591796875 24.849943161010742188 17.647029876708984375 9.938228607177734375 2.2946352958679199219 -99999 -99999 -99999 -99999 -99999 -99999 -99999 -99999 -99999 -99999 -99999 -99999 -99999 -99999 -99999 -99999 -99999 -99999 -99999 -99999 -99999 -99999 -99999
 -99999 -99999 -99999 -99999 -99999 -99999 -99999 -99999 -99999 -99999 -99999 -99999 -99999 -99999 -99999 -99999 -99999 -99999 -99999 -99999 -99999 -99999 -99999 -99999 -99999 -99999 -99999 -99999 -99999 -99999 -99999 -99999 -99999 -99999 -99999 -99999 -99999 -99999 -99999 -99999 -99999 -99999 -99999 0.72126972675323486328 3.6317033767700195312 7.0809788703918457031 11.210221290588378906 15.788217544555664062 20.964853286743164062 26.754621505737304688 32.8191680908203125 39.331508636474609375 46.273960113525390625 53.439239501953125 61.860607147216796875 70.8393096923828125 78.33626556396484375 83.3734588623046875 87.35027313232421875 89.34683990478515625 90.36795806884765625 91.00083160400390625 91.48157501220703125 92.3072052001953125 93.21367645263671875 94.35009002685546875 95.8434906005859375 97.33721923828125 98.90496063232421875 100.37717437744140625 101.81806182861328125 103.24481964111328125 104.56244659423828125 105.697265625 106.812042236328125 108.07263946533203125 109.26752471923828125 110.54227447509765625 111.909454345703125 113.42331695556640625 114.911865234375 116.58092498779296875 118.23758697509765625 120.23343658447265625 122.36658477783203125 124.54416656494140625 126.9698486328125 129.74072265625 132.91107177734375 136.3131866455078125 140.0919647216796875 144.310638427734375 148.9167633056640625 153.812469482421875 159.1332855224609375 164.3299560546875 169.3456268310546875 173.6541595458984375 176.0490875244140625 173.658966064453125 166.84442138671875 158.612396240234375 150.6553497314453125 144.263946533203125 140.30218505859375 138.4804534912109375 137.6338958740234375 136.7563018798828125 135.4715118408203125 133.8712615966796875 132.4182586669921875 131.110565185546875 130.028472900390625 129.2056732177734375 128.7116241455078125 128.549774169921875 128.559661865234375 128.6610565185546875 128.6494598388671875 128.4174652099609375 128.07879638671875 127.525177001953125 126.746826171875 125.6891632080078125 124.46584320068359375 123.04578399658203125 121.4556732177734375 119.78617095947265625 118.0182037353515625 116.125732421875 114.167327880859375 112.20070648193359375 110.2638397216796875 108.2771453857421875 106.2377471923828125 104.18517303466796875 102.06508636474609375 99.82750701904296875 97.36051177978515625 95.09676361083984375 92.67542266845703125 90.36472320556640625 88.19799041748046875 86.5436248779296875 85.3767852783203125 85.12149810791015625 85.62671661376953125 88.7122344970703125 94.6342926025390625 97.87894439697265625 98.0850982666015625 97.81505584716796875 97.70426177978515625 98.31768798828125 98.9100494384765625 100.02709197998046875 101.46816253662109375 103.15872955322265625 105.0507659912109375 107.08071136474609375 108.97589874267578125 110.70743560791015625 112.078704833984375 112.973724365234375 113.39128875732421875 112.856903076171875 112.2541656494140625 111.7068023681640625 109.9308624267578125 104.51691436767578125 98.06755828857421875 92.62566375732421875 88.259185791015625 83.439666748046875 78.7805633544921875 74.6190338134765625 71.42771148681640625 69.9933013916015625 69.81491851806640625 70.46585845947265625 71.56011199951171875 72.84497833251953125 73.96549224853515625 74.77718353271484375 75.35469818115234375 75.7569732666015625 76.147186279296875 76.55248260498046875 76.87646484375 76.8076934814453125 76.34877777099609375 74.9979400634765625 72.91739654541015625 70.17215728759765625 66.87419891357421875 62.85826873779296875 58.40833282470703125 53.15863037109375 47.524078369140625 41.43946075439453125 34.918239593505859375 27.972223281860351562 20.71340179443359375 13.387861251831054688 6.0056090354919433594 -99999 -99999 -99999 -99999 -99999 -99999 -99999 -99999 -99999 -99999 -99999 -99999 -99999 -99999 -99999 -99999 -99999 -99999 -99999 -99999 -99999 -99999 -99999 -99999
 -99999 -99999 -99999 -99999 -99999 -99999 -99999 -99999 -99999 -99999 -99999 -99999 -99999 -99999 -99999 -99999 -99999 -99999 -99999 -99999 -99999 -99999 -99999 -99999 -99999 -99999 -99999 -99999 -99999 -99999 -99999 -99999 -99999 -99999 -99999 -99999 -99999 -99999 -99999 -99999 -99999 -99999 1.3758084774017333984 3.9183278083801269531 6.8922643661499023438 10.374455451965332031 14.2569427490234375 18.698179244995117188 23.5531463623046875 28.92337799072265625 34.7603759765625 40.982036590576171875 47.612895965576171875 54.933116912841796875 62.552036285400390625 69.8447113037109375 75.89862823486328125 81.2889862060546875 85.33739471435546875 87.457427978515625 88.43634033203125 88.98529052734375 89.65460205078125 90.54084014892578125 91.71555328369140625 93.1534271240234375 95.02789306640625 96.90578460693359375 98.7269287109375 100.5512237548828125 102.1567535400390625 103.66283416748046875 104.883758544921875 106.05149078369140625 107.302490234375 108.5002288818359375 109.74512481689453125 111.08570098876953125 112.465789794921875 113.837432861328125 115.39966583251953125 117.0914459228515625 118.89353179931640625 120.7547760009765625 122.75911712646484375 125.03421783447265625 127.51750946044921875 130.19671630859375 133.1020660400390625 136.2912445068359375 140.051361083984375 144.1068267822265625 148.5807952880859375 153.1430816650390625 157.9526824951171875 162.8548431396484375 167.3275299072265625 170.8350982666015625 172.2740020751953125 169.5500030517578125 163.7281036376953125 156.0558929443359375 147.54364013671875 140.892791748046875 137.5454254150390625 136.3835601806640625 135.81304931640625 135.020233154296875 133.897552490234375 132.630645751953125 131.4535064697265625 130.2517547607421875 129.0303802490234375 128.043304443359375 127.36157989501953125 126.8615875244140625 126.4402618408203125 126.05389404296875 125.65196990966796875 125.2144775390625 124.5922088623046875 123.79555511474609375 122.85141754150390625 121.73468780517578125 120.41043853759765625 119.01947784423828125 117.4854736328125 115.7785797119140625 114.03121185302734375 112.2851715087890625 110.49510955810546875 108.71631622314453125 106.91249847412109375 105.15277862548828125 103.28249359130859375 101.32530975341796875 99.28646087646484375 97.21881866455078125 94.9676971435546875 92.5019683837890625 89.9189605712890625 87.2672882080078125 84.95245361328125 82.8255462646484375 81.322357177734375 80.4551239013671875 80.3891754150390625 81.70464324951171875 86.431488037109375 91.06516265869140625 92.96054840087890625 94.23500823974609375 95.20450592041015625 96.131683349609375 97.1974945068359375 98.6698760986328125 100.33167266845703125 102.217041015625 104.38116455078125 106.49660491943359375 108.642822265625 110.545684814453125 112.0911102294921875 113.168701171875 113.47615814208984375 113.55587005615234375 112.93756866455078125 111.57056427001953125 108.4815826416015625 103.6822967529296875 97.4382476806640625 92.10040283203125 87.81563568115234375 83.70534515380859375 78.01006317138671875 73.0057373046875 69.8589935302734375 68.6855926513671875 68.99819183349609375 70.43320465087890625 72.33182525634765625 74.137847900390625 75.48023223876953125 76.31636810302734375 76.66094207763671875 76.47708892822265625 76.35504150390625 76.6379547119140625 76.88799285888671875 76.6525115966796875 75.79369354248046875 74.17871856689453125 71.663055419921875 68.51169586181640625 64.5908966064453125 60.19956207275390625 55.225597381591796875 49.528224945068359375 43.53449249267578125 37.1009368896484375 30.481397628784179688 23.609958648681640625 16.45001983642578125 9.3511295318603515625 2.1843326091766357422 -99999 -99999 -99999 -99999 -99999 -99999 -99999 -99999 -99999 -99999 -99999 -99999 -99999 -99999 -99999 -99999 -99999 -99999 -99999 -99999 -99999 -99999 -99999 -99999
 -99999 -99999 -99999 -99999 -99999 -99999 -99999 -99999 -99999 -99999 -99999 -99999 -99999 -99999 -99999 -99999 -99999 -99999 -99999 -99999 -99999 -99999 -99999 -99999 -99999 -99999 -99999 -99999 -99999 -99999 -99999 -99999 -99999 -99999 -99999 -99999 -99999 -99999 -99999 -99999 -99999 2.3724155426025390625 4.5361423492431640625 7.1207265853881835938 10.063097953796386719 13.425388336181640625 17.205585479736328125 21.353826522827148438 25.902769088745117188 30.87176513671875 36.214019775390625 42.0430755615234375 48.13709259033203125 55.06383514404296875 61.49013519287109375 67.37442779541015625 72.88135528564453125 78.14112091064453125 82.39037322998046875 84.48769378662109375 85.661865234375 86.44280242919921875 87.35240936279296875 88.4534759521484375 89.90195465087890625 91.9536590576171875 94.2039337158203125 96.4917449951171875 98.70690155029296875 100.63657379150390625 102.4136505126953125 103.85272216796875 105.1885986328125 106.427490234375 107.56594085693359375 108.845306396484375 110.11975860595703125 111.2819061279296875 112.69164276123046875 114.2203826904296875 115.8303680419921875 117.45458984375 119.15113067626953125 121.01750946044921875 123.02585601806640625 125.1401214599609375 127.35561370849609375 129.82379150390625 132.6353302001953125 135.69793701171875 139.0840606689453125 142.7020721435546875 146.63250732421875 150.992706298828125 155.337921142578125 159.517913818359375 163.1644134521484375 165.9162139892578125 166.582611083984375 165.1576995849609375 159.53082275390625 152.206695556640625 144.911529541015625 139.2663726806640625 136.3958587646484375 135.243438720703125 134.3953704833984375 133.5911407470703125 132.7089691162109375 131.613372802734375 130.2975311279296875 128.977508544921875 127.81572723388671875 126.76027679443359375 125.813232421875 124.95531463623046875 124.25704193115234375 123.55912017822265625 122.81182861328125 122.0798187255859375 121.204071044921875 120.21332550048828125 119.105194091796875 117.93590545654296875 116.56446075439453125 115.06325531005859375 113.50213623046875 111.92714691162109375 110.274993896484375 108.62790679931640625 106.97312164306640625 105.3601837158203125 103.68692779541015625 102.0293121337890625 100.3667755126953125 98.7171478271484375 97.0179901123046875 95.23029327392578125 93.03325653076171875 90.61566925048828125 87.93962860107421875 84.99915313720703125 82.3443756103515625 79.7392425537109375 77.86753082275390625 76.97037506103515625 76.97257232666015625 77.983001708984375 81.43683624267578125 85.3476715087890625 88.3927764892578125 90.390655517578125 91.9282073974609375 93.56795501708984375 95.21363067626953125 96.97417449951171875 98.97503662109375 101.16150665283203125 103.446685791015625 105.840118408203125 108.095306396484375 110.20160675048828125 111.89469146728515625 113.164886474609375 113.89476776123046875 113.7977752685546875 112.87955474853515625 110.77451324462890625 107.69756317138671875 103.26023101806640625 97.71490478515625 93.015167236328125 89.7240753173828125 85.77869415283203125 76.996429443359375 71.23662567138671875 67.8563995361328125 67.219451904296875 68.96921539306640625 71.57511138916015625 74.115509033203125 76.33332061767578125 77.94570159912109375 78.73053741455078125 78.55864715576171875 77.91381072998046875 77.241241455078125 77.1360626220703125 77.3968963623046875 76.78366851806640625 75.58266448974609375 73.39159393310546875 70.64191436767578125 67.07367706298828125 62.741138458251953125 57.667804718017578125 52.0795135498046875 46.03942108154296875 39.82115936279296875 33.072589874267578125 26.337987899780273438 19.44773101806640625 12.617827415466308594 5.5722837448120117188 -99999 -99999 -99999 -99999 -99999 -99999 -99999 -99999 -99999 -99999 -99999 -99999 -99999 -99999 -99999 -99999 -99999 -99999 -99999 -99999 -99999 -99999 -99999 -99999 -99999
 -99999 -99999 -99999 -99999 -99999 -99999 -99999 -99999 -99999 -99999 -99999 -99999 -99999 -99999 -99999 -99999 -99999 -99999 -99999 -99999 -99999 -99999 -99999 -99999 -99999 -99999 -99999 -99999 -99999 -99999 -99999 -99999 -99999 -99999 -99999 -99999 -99999 -99999 -99999 -99999 3.5969977378845214844 5.520294189453125 7.7435674667358398438 10.216279029846191406 13.022603988647460938 16.185544967651367188 19.793609619140625 23.643711090087890625 27.884397506713867188 32.63149261474609375 37.378185272216796875 42.45672607421875 47.7714996337890625 53.158161163330078125 58.293796539306640625 64.12762451171875 69.4694671630859375 74.4293975830078125 78.2632904052734375 80.79222869873046875 82.47881317138671875 83.7210540771484375 84.7363739013671875 85.948089599609375 87.831329345703125 90.373199462890625 93.34647369384765625 96.136688232421875 98.68896484375 100.92916107177734375 102.71063232421875 104.0887298583984375 105.40215301513671875 106.575164794921875 107.867095947265625 108.81055450439453125 110.0460968017578125 111.321563720703125 112.77495574951171875 114.2575225830078125 115.7901611328125 117.45733642578125 119.2056121826171875 120.98267364501953125 122.8277740478515625 124.74373626708984375 126.90987396240234375 129.199005126953125 131.56597900390625 134.169769287109375 137.1320648193359375 140.344024658203125 143.92376708984375 147.525543212890625 151.131317138671875 154.61602783203125 157.6750030517578125 159.99395751953125 161.0990142822265625 160.17095947265625 156.170440673828125 150.18426513671875 144.09918212890625 139.738555908203125 136.8843231201171875 135.142120361328125 133.9681854248046875 132.902618408203125 131.66455078125 130.380401611328125 129.18218994140625 127.9116058349609375 126.62297821044921875 125.3539581298828125 124.1219940185546875 123.02838134765625 122.00632476806640625 121.0024566650390625 120.0228729248046875 119.01412200927734375 117.95794677734375 116.81203460693359375 115.52133941650390625 114.16761016845703125 112.77127838134765625 111.29900360107421875 109.77800750732421875 108.21429443359375 106.62328338623046875 105.097412109375 103.52741241455078125 102.0183868408203125 100.56661224365234375 99.21091461181640625 97.87952423095703125 96.63802337646484375 95.115386962890625 93.44957733154296875 91.66278839111328125 89.4461212158203125 86.69661712646484375 83.6485595703125 80.33390045166015625 77.36559295654296875 75.4536895751953125 74.3931121826171875 74.69925689697265625 75.8099212646484375 78.31528472900390625 81.4271087646484375 84.42810821533203125 86.8557891845703125 88.9755096435546875 90.91185760498046875 92.95775604248046875 95.02101898193359375 97.35007476806640625 99.80582427978515625 102.3404541015625 104.98687744140625 107.53980255126953125 109.8165740966796875 111.731414794921875 113.12992095947265625 113.917816162109375 113.88358306884765625 113.0015411376953125 111.33831787109375 108.1225433349609375 103.8686676025390625 99.08219146728515625 94.4916839599609375 90.6451416015625 84.83940887451171875 75.56063079833984375 68.48465728759765625 65.5969085693359375 66.9299468994140625 69.86199188232421875 73.55002593994140625 77.1859283447265625 79.9235382080078125 81.62084197998046875 82.3163909912109375 81.81365203857421875 80.33084869384765625 78.9694976806640625 78.62375640869140625 78.28223419189453125 77.3688812255859375 75.77342987060546875 73.37493133544921875 70.101409912109375 65.88701629638671875 60.890598297119140625 55.240825653076171875 49.179492950439453125 42.82637786865234375 36.047962188720703125 29.199007034301757812 22.378963470458984375 15.516427040100097656 8.7757701873779296875 1.994126439094543457 -99999 -99999 -99999 -99999 -99999 -99999 -99999 -99999 -99999 -99999 -99999 -99999 -99999 -99999 -99999 -99999 -99999 -99999 -99999 -99999 -99999 -99999 -99999 -99999 -99999
 -99999 -99999 -99999 -99999 -99999 -99999 -99999 -99999 -99999 -99999 -99999 -99999 -99999 -99999 -99999 -99999 -99999 -99999 -99999 -99999 -99999 -99999 -99999 -99999 -99999 -99999 -99999 -99999 -99999 -99999 -99999 -99999 -99999 -99999 -99999 -99999 -99999 -99999 -99999 -99999 6.7909107208251953125 8.6390838623046875 10.776002883911132812 13.179090499877929688 15.889403343200683594 18.883075714111328125 22.350246429443359375 25.908559799194335938 29.858137130737304688 33.94757843017578125 38.343776702880859375 42.460338592529296875 46.422077178955078125 50.5547637939453125 55.1084442138671875 60.87398529052734375 66.3585968017578125 70.96739959716796875 74.585540771484375 77.3939056396484375 79.49950408935546875 80.97821807861328125 82.045745849609375 83.38294219970703125 85.7926483154296875 89.23801422119140625 92.84316253662109375 96.182464599609375 98.9539642333984375 101.46338653564453125 103.05629730224609375 104.43177032470703125 105.6583709716796875 106.59229278564453125 107.5784759521484375 108.66765594482421875 109.94351959228515625 111.2917327880859375 112.70302581787109375 114.16588592529296875 115.7652587890625 117.45855712890625 119.184173583984375 120.90058135986328125 122.59051513671875 124.31491851806640625 126.072998046875 127.895477294921875 129.9406890869140625 132.158660888671875 134.6808624267578125 137.262847900390625 140.1653289794921875 143.2028961181640625 146.3089447021484375 149.0535736083984375 151.2260589599609375 153.1410064697265625 154.89581298828125 155.8483123779296875 155.4398040771484375 150.0904083251953125 145.05242919921875 140.92498779296875 137.850738525390625 135.6555938720703125 133.977020263671875 132.4090576171875 130.9728240966796875 129.5216827392578125 128.1099700927734375 126.61806488037109375 125.15430450439453125 123.6927032470703125 122.31133270263671875 121.01013946533203125 119.7608184814453125 118.55629730224609375 117.31171417236328125 116.05702972412109375 114.75308990478515625 113.47554779052734375 112.09490966796875 110.68323516845703125 109.2109222412109375 107.68402862548828125 106.156646728515625 104.63271331787109375 103.0888671875 101.64882659912109375 100.19499969482421875 98.8945159912109375 97.66506195068359375 96.595062255859375 95.5511474609375 94.5149383544921875 93.48035430908203125 92.42748260498046875 90.9281158447265625 89.05910491943359375 86.38082122802734375 83.10022735595703125 79.4558868408203125 75.98720550537109375 73.63324737548828125 73.072479248046875 73.26508331298828125 74.4722747802734375 76.74853515625 79.15512847900390625 81.42242431640625 83.7987060546875 86.16378021240234375 88.35207366943359375 90.66359710693359375 93.0876922607421875 95.58927154541015625 98.31746673583984375 101.16391754150390625 103.9874114990234375 106.8010711669921875 109.35501861572265625 111.60878753662109375 113.31981658935546875 114.321929931640625 114.4144134521484375 113.82035064697265625 112.04114532470703125 109.1971282958984375 105.30048370361328125 100.5210113525390625 95.42334747314453125 89.773956298828125 82.1062469482421875 73.47075653076171875 66.22528839111328125 64.5987091064453125 67.1016387939453125 72.77994537353515625 77.83837890625 81.78893280029296875 84.6595916748046875 86.34566497802734375 87.0402069091796875 86.397491455078125 84.41107177734375 82.38835906982421875 81.322845458984375 80.27713775634765625 78.87549591064453125 76.803802490234375 73.83161163330078125 70.017059326171875 65.23941802978515625 59.7986602783203125 53.66092681884765625 46.722736358642578125 39.607326507568359375 32.6579437255859375 25.7858428955078125 18.9225311279296875 11.918230056762695312 5.3227524757385253906 -99999 -99999 -99999 -99999 -99999 -99999 -99999 -99999 -99999 -99999 -99999 -99999 -99999 -99999 -99999 -99999 -99999 -99999 -99999 -99999 -99999 -99999 -99999 -99999 -99999 -99999
 -99999 -99999 -99999 -99999 -99999 -99999 -99999 -99999 -99999 -99999 -99999 -99999 -99999 -99999 -99999 -99999 -99999 -99999 -99999 -99999 -99999 -99999 -99999 -99999 -99999 -99999 -99999 -99999 -99999 -99999 -99999 -99999 -99999 -99999 -99999 -99999 -99999 -99999 -99999 8.2691497802734375 9.8638906478881835938 11.702733039855957031 13.7285003662109375 16.05660247802734375 18.707406997680664062 21.52875518798828125 24.600799560546875 27.89696502685546875 31.570417404174804688 35.2417755126953125 38.914653778076171875 42.81528472900390625 46.643436431884765625 49.96814727783203125 54.5511474609375 58.949512481689453125 63.98285675048828125 68.22772979736328125 71.75626373291015625 74.50875091552734375 76.59515380859375 78.2277984619140625 79.57395172119140625 80.98390960693359375 84.05280303955078125 88.4134674072265625 92.762908935546875 96.57057952880859375 99.7958526611328125 101.79766845703125 103.51651763916015625 104.6778106689453125 105.57175445556640625 106.34729766845703125 107.3627471923828125 108.42986297607421875 109.6133270263671875 111.0337982177734375 112.38775634765625 113.87123870849609375 115.60753631591796875 117.30437469482421875 118.830810546875 120.36785888671875 122.01917266845703125 123.64173126220703125 125.16374969482421875 126.60619354248046875 128.088226318359375 129.7267913818359375 131.454681396484375 133.561004638671875 136.00555419921875 138.461822509765625 140.8690032958984375 143.2124481201171875 144.96246337890625 146.1475982666015625 147.821044921875 151.7140045166015625 152.22222900390625 150.6285858154296875 145.938568115234375 142.127105712890625 138.998138427734375 136.4032135009765625 134.1457977294921875 132.16827392578125 130.4207305908203125 128.759185791015625 127.0714111328125 125.369720458984375 123.70093536376953125 122.08943939208984375 120.53277587890625 119.0188140869140625 117.51274871826171875 116.05379486083984375 114.638702392578125 113.18682098388671875 111.75264739990234375 110.3040618896484375 108.80736541748046875 107.30521392822265625 105.789520263671875 104.24669647216796875 102.702056884765625 101.19156646728515625 99.71002960205078125 98.3499755859375 97.0541839599609375 95.9736785888671875 94.9239349365234375 94.03623199462890625 93.3577117919921875 92.7677764892578125 92.2047576904296875 91.516998291015625 90.74341583251953125 89.25711822509765625 87.097991943359375 83.9799041748046875 79.790740966796875 75.90166473388671875 73.65831756591796875 72.84354400634765625 73.1726226806640625 73.9872589111328125 75.14205169677734375 76.89723968505859375 79.31114959716796875 81.54364776611328125 83.66841888427734375 86.02689361572265625 88.4282684326171875 91.02349853515625 93.7683563232421875 96.64119720458984375 99.8090667724609375 103.00457000732421875 106.0940093994140625 109.10358428955078125 111.5980682373046875 113.47286224365234375 114.83612823486328125 115.5133209228515625 115.1428985595703125 113.56009674072265625 110.98911285400390625 107.46396636962890625 103.01605224609375 97.4217071533203125 90.75017547607421875 82.60369873046875 74.23091888427734375 67.70952606201171875 65.41986846923828125 71.33612060546875 78.47768402099609375 84.3404693603515625 88.444091796875 90.76479339599609375 91.78427886962890625 92.25165557861328125 91.17261505126953125 89.05423736572265625 86.7110595703125 84.76502227783203125 82.94808197021484375 80.9212646484375 78.401397705078125 75.0059661865234375 70.73694610595703125 65.46923828125 59.1278533935546875 51.965358734130859375 44.780429840087890625 37.41889190673828125 29.69278717041015625 22.361558914184570312 15.331865310668945312 8.7937030792236328125 2.4368190765380859375 -99999 -99999 -99999 -99999 -99999 -99999 -99999 -99999 -99999 -99999 -99999 -99999 -99999 -99999 -99999 -99999 -99999 -99999 -99999 -99999 -99999 -99999 -99999 -99999 -99999 -99999
 -99999 -99999 -99999 -99999 -99999 -99999 -99999 -99999 -99999 -99999 -99999 -99999 -99999 -99999 -99999 -99999 -99999 -99999 -99999 -99999 -99999 -99999 -99999 -99999 -99999 -99999 -99999 -99999 -99999 -99999 -99999 -99999 -99999 -99999 -99999 -99999 -99999 -99999 10.008646965026855469 11.385569572448730469 12.895686149597167969 14.701581001281738281 16.736314773559570312 18.909109115600585938 21.285739898681640625 23.94426727294921875 26.934337615966796875 29.993501663208007812 33.18041229248046875 36.669773101806640625 40.0940093994140625 43.450016021728515625 46.90338134765625 50.81011199951171875 54.48630523681640625 58.946441650390625 62.73554229736328125 66.24908447265625 69.7825775146484375 72.38311004638671875 74.8844757080078125 76.5886077880859375 77.95583343505859375 79.69158172607421875 83.31472015380859375 88.74057769775390625 93.69024658203125 97.8925018310546875 100.9510650634765625 102.92020416259765625 104.06496429443359375 104.8787689208984375 105.17548370361328125 106.0322723388671875 106.83670806884765625 107.9317474365234375 108.9462890625 110.47533416748046875 112.14160919189453125 113.62872314453125 115.17169952392578125 116.76694488525390625 118.51898956298828125 120.190887451171875 121.59291839599609375 122.87729644775390625 124.0219573974609375 125.19255828857421875 126.278717041015625 127.229095458984375 128.2358551025390625 129.7123260498046875 131.3293304443359375 133.4470367431640625 135.7108001708984375 137.76629638671875 138.8620758056640625 139.6955108642578125 142.4237213134765625 147.7109832763671875 151.5727996826171875 149.38214111328125 146.2313690185546875 142.992462158203125 139.6380615234375 136.7294921875 134.3268890380859375 132.1063995361328125 129.9971923828125 127.928375244140625 125.9481048583984375 124.10942840576171875 122.28849029541015625 120.4795074462890625 118.6950225830078125 116.9437713623046875 115.2679443359375 113.6244049072265625 112.01209259033203125 110.42095947265625 108.83681488037109375 107.267852783203125 105.6707916259765625 104.09537506103515625 102.52719879150390625 100.95843505859375 99.4138336181640625 97.969482421875 96.56726837158203125 95.29791259765625 94.0548858642578125 93.08586883544921875 92.232666015625 91.648956298828125 91.26495361328125 91.05252838134765625 91.0125885009765625 90.9437713623046875 90.968505859375 90.55381011962890625 88.94521331787109375 85.91167449951171875 81.97672271728515625 77.84531402587890625 75.10086822509765625 73.83812713623046875 73.2971954345703125 73.61212158203125 74.71840667724609375 76.1389923095703125 77.5643463134765625 79.25550079345703125 81.37652587890625 83.85357666015625 86.2697906494140625 88.9619903564453125 91.9220428466796875 95.0355377197265625 98.48052978515625 101.93863677978515625 105.3953857421875 108.7875823974609375 111.81047821044921875 114.46570587158203125 116.18468475341796875 116.8721160888671875 117.1463165283203125 116.28025054931640625 114.3975372314453125 111.22808074951171875 107.05908966064453125 101.82843780517578125 95.81180572509765625 88.815185546875 81.5840301513671875 75.400177001953125 74.98204803466796875 80.217376708984375 89.13372802734375 93.52875518798828125 96.44438934326171875 97.31610107421875 97.03560638427734375 96.470947265625 95.1969451904296875 92.910614013671875 90.45908355712890625 88.17176055908203125 85.914215087890625 83.4613037109375 80.427581787109375 76.766876220703125 72.20574951171875 66.31589508056640625 59.344577789306640625 51.4026031494140625 43.383510589599609375 35.2962493896484375 27.323244094848632812 19.679319381713867188 12.605466842651367188 6.1577539443969726562 -99999 -99999 -99999 -99999 -99999 -99999 -99999 -99999 -99999 -99999 -99999 -99999 -99999 -99999 -99999 -99999 -99999 -99999 -99999 -99999 -99999 -99999 -99999 -99999 -99999 -99999 -99999
 -99999 -99999 -99999 -99999 -99999 -99999 -99999 -99999 -99999 -99999 -99999 -99999 -99999 -99999 -99999 -99999 -99999 -99999 -99999 -99999 -99999 -99999 -99999 -99999 -99999 -99999 -99999 -99999 -99999 -99999 -99999 -99999 -99999 -99999 -99999 -99999 -99999 -99999 13.051630020141601562 14.428528785705566406 15.981116294860839844 17.650728225708007812 19.5009613037109375 21.646099090576171875 23.993623733520507812 26.468509674072265625 29.083599090576171875 32.061061859130859375 34.94902801513671875 37.875614166259765625 40.950550079345703125 44.494220733642578125 47.711055755615234375 51.382312774658203125 55.278545379638671875 58.366619110107421875 61.931003570556640625 65.0030364990234375 68.12839508056640625 71.126617431640625 73.6654815673828125 75.813446044921875 78.03076934814453125 80.7891845703125 85.1303253173828125 90.22885894775390625 95.2337188720703125 99.64788818359375 102.438690185546875 103.7846527099609375 104.21434783935546875 104.1291656494140625 104.6555023193359375 105.119171142578125 105.80915069580078125 106.97743988037109375 108.33109283447265625 109.79843902587890625 111.482330322265625 113.1107025146484375 114.80347442626953125 116.507720947265625 118.20194244384765625 119.64492034912109375 121.065277099609375 122.34183502197265625 123.35015106201171875 123.9254608154296875 124.3421783447265625 124.7317657470703125 125.13848876953125 125.83763885498046875 126.7851104736328125 128.662689208984375 130.8243408203125 133.428466796875 135.633575439453125 137.10980224609375 137.886688232421875 146.078033447265625 149.222686767578125 148.281524658203125 145.974945068359375 142.7841796875 139.7268829345703125 136.9936370849609375 134.3136749267578125 131.7559814453125 129.369415283203125 127.14772796630859375 124.9738311767578125 122.86981201171875 120.76385498046875 118.7525634765625 116.78981781005859375 114.874786376953125 113.0164031982421875 111.2309417724609375 109.45581817626953125 107.71596527099609375 106.03929901123046875 104.36431121826171875 102.69673919677734375 101.02048492431640625 99.4751129150390625 97.89553070068359375 96.42140960693359375 94.94408416748046875 93.56879425048828125 92.38959503173828125 91.2775421142578125 90.386932373046875 89.7266998291015625 89.3158721923828125 89.18495941162109375 89.37833404541015625 89.81658172607421875 90.36591339111328125 91.1407012939453125 91.77557373046875 91.50072479248046875 88.9285736083984375 84.4644927978515625 80.4569549560546875 77.37747955322265625 75.318023681640625 74.4241943359375 74.13002777099609375 74.3430328369140625 75.08921051025390625 76.45660400390625 78.1176300048828125 79.7550201416015625 81.71726226806640625 84.24704742431640625 86.91245269775390625 89.9292449951171875 93.324462890625 96.92647552490234375 100.82350921630859375 104.77410125732421875 108.66628265380859375 112.268798828125 115.156524658203125 117.642730712890625 119.316375732421875 120.07747650146484375 119.69043731689453125 118.47621917724609375 116.31529998779296875 113.21990203857421875 108.8846893310546875 103.8979034423828125 98.67993927001953125 93.19445037841796875 90.027252197265625 90.223297119140625 96.2403717041015625 101.8040771484375 104.42388153076171875 104.6795501708984375 103.4320220947265625 101.97534942626953125 100.12889862060546875 98.23485565185546875 96.03423309326171875 93.65071868896484375 91.26441192626953125 88.79508209228515625 86.18752288818359375 83.1662750244140625 79.28993988037109375 74.30169677734375 68.0276947021484375 60.596172332763671875 51.917812347412109375 42.431308746337890625 33.343837738037109375 25.035413742065429688 17.698114395141601562 10.724526405334472656 4.1868686676025390625 -99999 -99999 -99999 -99999 -99999 -99999 -99999 -99999 -99999 -99999 -99999 -99999 -99999 -99999 -99999 -99999 -99999 -99999 -99999 -99999 -99999 -99999 -99999 -99999 -99999 -99999 -99999
 -99999 -99999 -99999 -99999 -99999 -99999 -99999 -99999 -99999 -99999 -99999 -99999 -99999 -99999 -99999 -99999 -99999 -99999 -99999 -99999 -99999 -99999 -99999 -99999 -99999 -99999 -99999 -99999 -99999 -99999 -99999 -99999 -99999 -99999 -99999 -99999 -99999 15.002802848815917969 16.183940887451171875 17.46326446533203125 18.884334564208984375 20.582981109619140625 22.4288482666015625 24.393693923950195312 26.553186416625976562 28.948621749877929688 31.37094879150390625 33.955860137939453125 36.622100830078125 39.497127532958984375 42.397144317626953125 45.334445953369140625 48.546504974365234375 51.58429718017578125 54.7772216796875 58.072021484375 60.956020355224609375 64.3488311767578125 67.460693359375 70.45030975341796875 73.2253570556640625 76.01743316650390625 78.98218536376953125 82.50107574462890625 86.9088897705078125 92.056640625 97.3390960693359375 101.801788330078125 104.11356353759765625 104.3578948974609375 103.9612274169921875 103.42870330810546875 103.4238433837890625 103.96308135986328125 104.74848175048828125 105.9471893310546875 107.40264129638671875 109.01888275146484375 110.73252105712890625 112.4522705078125 114.37287139892578125 116.19730377197265625 117.94443511962890625 119.5593719482421875 120.955474853515625 122.07855987548828125 122.7216644287109375 123.0372772216796875 122.9729766845703125 122.62357330322265625 122.10411834716796875 121.9481201171875 122.39176177978515625 123.80089569091796875 126.14751434326171875 129.6712188720703125 133.324462890625 136.943084716796875 141.2180328369140625 145.690643310546875 147.6905059814453125 146.8075408935546875 144.74639892578125 142.230194091796875 139.5414886474609375 136.7165374755859375 133.8942413330078125 131.187591552734375 128.6211700439453125 126.165985107421875 123.77574920654296875 121.4846649169921875 119.1879119873046875 117.0088958740234375 114.9015045166015625 112.83300018310546875 110.8039093017578125 108.86345672607421875 107.00502777099609375 105.13669586181640625 103.33119964599609375 101.59264373779296875 99.891876220703125 98.26502227783203125 96.62232208251953125 95.06653594970703125 93.61865997314453125 92.17608642578125 90.87799072265625 89.70374298095703125 88.6856231689453125 87.89994049072265625 87.39371490478515625 87.1278839111328125 87.2060394287109375 87.6166229248046875 88.4000701904296875 89.47559356689453125 90.76218414306640625 92.30675506591796875 93.4200897216796875 90.52048492431640625 86.3199920654296875 82.2829132080078125 79.0820465087890625 76.90575408935546875 75.296417236328125 74.4704132080078125 74.39243316650390625 74.6960906982421875 75.389801025390625 76.56424713134765625 78.18701171875 80.0232391357421875 82.14595794677734375 84.8711700439453125 87.97544097900390625 91.54314422607421875 95.470703125 99.76467132568359375 104.22533416748046875 108.6364898681640625 112.946746826171875 116.82630157470703125 119.85268402099609375 122.03311920166015625 123.34796905517578125 124.2547607421875 123.95893096923828125 122.638214111328125 120.55049896240234375 117.6368408203125 114.2311859130859375 110.45285797119140625 107.3067474365234375 105.35924530029296875 105.74210357666015625 109.2545318603515625 112.8344879150390625 112.76831817626953125 111.24748992919921875 108.72425079345703125 105.7061614990234375 102.97381591796875 100.6573333740234375 98.60477447509765625 96.4816741943359375 94.11640167236328125 91.60684967041015625 88.9930267333984375 86.03478240966796875 82.35778045654296875 77.61792755126953125 70.87644195556640625 62.432979583740234375 52.668682098388671875 42.286212921142578125 32.309444427490234375 23.648435592651367188 16.071878433227539062 9.2179212570190429688 2.8698642253875732422 -99999 -99999 -99999 -99999 -99999 -99999 -99999 -99999 -99999 -99999 -99999 -99999 -99999 -99999 -99999 -99999 -99999 -99999 -99999 -99999 -99999 -99999 -99999 -99999 -99999 -99999 -99999
 -99999 -99999 -99999 -99999 -99999 -99999 -99999 -99999 -99999 -99999 -99999 -99999 -99999 -99999 -99999 -99999 -99999 -99999 -99999 -99999 -99999 -99999 -99999 -99999 -99999 -99999 -99999 -99999 -99999 -99999 -99999 -99999 -99999 -99999 -99999 -99999 17.129541397094726562 18.086273193359375 19.232896804809570312 20.500154495239257812 21.926488876342773438 23.477569580078125 25.244802474975585938 27.156970977783203125 29.196826934814453125 31.368650436401367188 33.648681640625 36.088092803955078125 38.601165771484375 41.1166534423828125 43.652179718017578125 46.314243316650390625 48.977817535400390625 51.89907073974609375 54.837432861328125 57.824214935302734375 60.9752044677734375 64.16199493408203125 67.3809967041015625 70.30135345458984375 73.38086700439453125 76.57834625244140625 80.02196502685546875 83.95578765869140625 88.52278900146484375 93.5948486328125 98.83769989013671875 103.52890777587890625 105.14812469482421875 104.0584716796875 102.7948455810546875 101.9644775390625 101.436737060546875 101.9500274658203125 103.31053924560546875 104.8334808349609375 106.4494171142578125 108.10085296630859375 109.92555999755859375 111.87985992431640625 113.7762603759765625 115.68381500244140625 117.61705780029296875 119.46848297119140625 120.9983673095703125 122.07907867431640625 122.795013427734375 122.92006683349609375 122.3498382568359375 121.20174407958984375 119.81890869140625 118.5368194580078125 117.92816925048828125 118.89365386962890625 121.6113128662109375 125.7332000732421875 130.342987060546875 134.9765167236328125 139.8550567626953125 143.3139190673828125 145.051055908203125 144.84124755859375 143.4051361083984375 141.2394866943359375 138.7631988525390625 135.95550537109375 133.1304168701171875 130.4124603271484375 127.7346038818359375 125.06906890869140625 122.48003387451171875 119.9764556884765625 117.57384490966796875 115.22589111328125 112.94669342041015625 110.76186370849609375 108.6367034912109375 106.57720947265625 104.576873779296875 102.6577911376953125 100.81369781494140625 99.01692962646484375 97.2878875732421875 95.66455078125 94.029327392578125 92.4985198974609375 91.04964447021484375 89.69138336181640625 88.4635772705078125 87.3497161865234375 86.4154052734375 85.7070159912109375 85.20377349853515625 85.03469085693359375 85.2882843017578125 85.8990020751953125 86.8768310546875 88.1004180908203125 89.46662139892578125 90.8643798828125 91.524200439453125 89.9830474853515625 86.60492706298828125 83.38916778564453125 80.4333953857421875 77.9977874755859375 76.315093994140625 75.11025238037109375 74.44153594970703125 74.40985870361328125 74.74542236328125 75.44824981689453125 76.543212890625 78.15036773681640625 80.11322784423828125 82.779296875 85.8658294677734375 89.54865264892578125 93.808685302734375 98.538787841796875 103.54254150390625 108.72489166259765625 113.8840789794921875 118.38942718505859375 122.294464111328125 125.5399627685546875 127.6200714111328125 129.003662109375 129.5597686767578125 129.3377227783203125 128.6204681396484375 127.32173919677734375 125.583038330078125 123.12876129150390625 120.579437255859375 118.98738861083984375 118.792755126953125 119.82849884033203125 120.27243804931640625 118.06652069091796875 114.631439208984375 110.97505950927734375 106.716461181640625 104.05767822265625 102.4530487060546875 100.8194427490234375 99.04337310791015625 96.83003997802734375 94.34173583984375 91.81528472900390625 89.2726593017578125 85.98563385009765625 81.3880767822265625 74.74782562255859375 65.70131683349609375 54.24570465087890625 42.412017822265625 31.816989898681640625 23.107221603393554688 15.656476974487304688 8.9210557937622070312 2.6216981410980224609 -99999 -99999 -99999 -99999 -99999 -99999 -99999 -99999 -99999 -99999 -99999 -99999 -99999 -99999 -99999 -99999 -99999 -99999 -99999 -99999 -99999 -99999 -99999 -99999 -99999 -99999 -99999
 -99999 -99999 -99999 -99999 -99999 -99999 -99999 -99999 -99999 -99999 -99999 -99999 -99999 -99999 -99999 -99999 -99999 -99999 -99999 -99999 -99999 -99999 -99999 -99999 -99999 -99999 -99999 -99999 -99999 -99999 -99999 -99999 -99999 -99999 -99999 19.414562225341796875 20.23834228515625 21.208105087280273438 22.305627822875976562 23.495403289794921875 24.87810516357421875 26.392871856689453125 28.089399337768554688 29.865032196044921875 31.792707443237304688 33.848297119140625 36.011699676513671875 38.235355377197265625 40.509609222412109375 42.863666534423828125 45.1009674072265625 47.522151947021484375 49.875423431396484375 52.333599090576171875 54.957530975341796875 57.735843658447265625 61.053863525390625 64.32474517822265625 67.45417022705078125 70.70293426513671875 73.971343994140625 77.40985870361328125 81.07880401611328125 85.05821990966796875 89.49404144287109375 94.1243896484375 98.6658782958984375 102.41457366943359375 103.28368377685546875 101.9628448486328125 100.120452880859375 98.9285736083984375 99.0887603759765625 100.16996002197265625 101.7989349365234375 103.47782135009765625 105.28626251220703125 107.1869964599609375 109.064788818359375 111.0215606689453125 113.05622100830078125 115.34358978271484375 117.54500579833984375 119.59500885009765625 121.34151458740234375 122.65801239013671875 123.36862945556640625 123.37255096435546875 122.52979278564453125 120.99457550048828125 118.76479339599609375 115.99755859375 113.9477691650390625 114.10219573974609375 116.67319488525390625 121.5331268310546875 126.913970947265625 132.178009033203125 136.617156982421875 140.511505126953125 142.1180572509765625 142.1196441650390625 141.3214874267578125 139.733978271484375 137.4493255615234375 134.863128662109375 132.142608642578125 129.298248291015625 126.48947906494140625 123.74713134765625 121.031585693359375 118.4004974365234375 115.86927032470703125 113.39920806884765625 110.99605560302734375 108.68561553955078125 106.4637603759765625 104.33990478515625 102.27093505859375 100.31064605712890625 98.45552825927734375 96.62827301025390625 94.902801513671875 93.2533721923828125 91.67182159423828125 90.24166107177734375 88.86605072021484375 87.618865966796875 86.45104217529296875 85.37113189697265625 84.46552276611328125 83.78752899169921875 83.35585784912109375 83.254058837890625 83.566650390625 84.228668212890625 85.3444366455078125 86.722869873046875 87.9735107421875 89.0662841796875 89.56853485107421875 88.51399993896484375 86.4280853271484375 83.79540252685546875 81.2891387939453125 78.97607421875 77.09874725341796875 75.7313690185546875 74.74541473388671875 74.22747039794921875 74.0914764404296875 74.49124908447265625 75.1941986083984375 76.48142242431640625 78.2211151123046875 80.53992462158203125 83.6707611083984375 87.609771728515625 92.13141632080078125 97.196563720703125 103.02388763427734375 108.83396148681640625 114.60466766357421875 120.34671783447265625 124.94098663330078125 128.9893035888671875 131.996246337890625 134.1051788330078125 135.4872283935546875 136.570159912109375 136.960174560546875 136.7561798095703125 136.1131439208984375 135.28607177734375 133.69366455078125 131.04595947265625 128.40020751953125 125.902587890625 122.232818603515625 118.7824249267578125 114.52092742919921875 109.1290740966796875 105.2602081298828125 103.48439788818359375 102.94268035888671875 103.10208892822265625 102.14608001708984375 99.58156585693359375 96.8101806640625 94.5637359619140625 92.5734710693359375 90.06118011474609375 85.969757080078125 79.54640960693359375 70.14434814453125 57.66854095458984375 43.82198333740234375 32.019489288330078125 23.730821609497070312 16.519151687622070312 9.709278106689453125 3.2299699783325195312 -99999 -99999 -99999 -99999 -99999 -99999 -99999 -99999 -99999 -99999 -99999 -99999 -99999 -99999 -99999 -99999 -99999 -99999 -99999 -99999 -99999 -99999 -99999 -99999 -99999 -99999 -99999
 -99999 -99999 -99999 -99999 -99999 -99999 -99999 -99999 -99999 -99999 -99999 -99999 -99999 -99999 -99999 -99999 -99999 -99999 -99999 -99999 -99999 -99999 -99999 -99999 -99999 -99999 -99999 -99999 -99999 -99999 -99999 -99999 -99999 -99999 21.844638824462890625 22.54618072509765625 23.3105621337890625 24.283124923706054688 25.317485809326171875 26.493930816650390625 27.822780609130859375 29.250232696533203125 30.845567703247070312 32.56549835205078125 34.426578521728515625 36.3499603271484375 38.36139678955078125 40.417816162109375 42.59246063232421875 44.7271575927734375 46.85524749755859375 49.141651153564453125 51.0882415771484375 53.136138916015625 55.132171630859375 58.477619171142578125 61.905475616455078125 65.09619903564453125 68.23628997802734375 71.5562286376953125 74.7809295654296875 78.20487213134765625 81.828216552734375 85.6599273681640625 89.805511474609375 93.78089141845703125 97.33940887451171875 99.79239654541015625 99.98023223876953125 98.79113006591796875 96.8906402587890625 95.818817138671875 96.46097564697265625 98.1097259521484375 100.048431396484375 102.55931854248046875 104.49329376220703125 106.36540985107421875 108.22345733642578125 110.23279571533203125 112.4373016357421875 114.86441802978515625 117.37628173828125 119.76627349853515625 121.92049407958984375 123.681793212890625 124.65688323974609375 124.82318115234375 123.94753265380859375 121.997344970703125 119.0353851318359375 115.19774627685546875 111.4026641845703125 109.11905670166015625 112.55316162109375 117.9467926025390625 123.74098968505859375 129.015411376953125 133.5192718505859375 136.9790191650390625 139.17529296875 139.988861083984375 139.3716888427734375 137.89495849609375 135.9052276611328125 133.460052490234375 130.7580108642578125 127.90439605712890625 125.03432464599609375 122.21539306640625 119.4053955078125 116.67224884033203125 114.0299835205078125 111.4886322021484375 109.0258026123046875 106.6382598876953125 104.34592437744140625 102.18309783935546875 100.08412933349609375 98.10700225830078125 96.2003631591796875 94.3903350830078125 92.75902557373046875 91.18408966064453125 89.68816375732421875 88.3099517822265625 87.03765106201171875 85.8900299072265625 84.79259490966796875 83.85153961181640625 83.04959869384765625 82.43207550048828125 82.0222320556640625 81.90956878662109375 82.1861572265625 82.8057861328125 84.0331268310546875 85.4796295166015625 86.8421478271484375 87.84581756591796875 88.24857330322265625 87.6669769287109375 86.19793701171875 84.14636993408203125 81.8794403076171875 79.71744537353515625 77.82923126220703125 76.21535491943359375 75.03033447265625 74.2097625732421875 73.73407745361328125 73.61746978759765625 73.86385345458984375 74.69443511962890625 76.321319580078125 78.35720062255859375 81.24282073974609375 85.32051849365234375 90.04932403564453125 95.78887939453125 102.0615386962890625 109.1282958984375 116.0522918701171875 122.6075286865234375 128.491729736328125 132.959686279296875 136.225372314453125 139.219940185546875 141.3872528076171875 142.8502655029296875 144.20379638671875 145.8663330078125 146.4644775390625 146.0586395263671875 144.3198089599609375 140.54901123046875 135.3056793212890625 128.581207275390625 122.44084930419921875 116.0641937255859375 110.11432647705078125 104.31136322021484375 101.61235809326171875 101.9022064208984375 103.984893798828125 105.70482635498046875 105.7094268798828125 102.89532470703125 99.3871002197265625 96.7355499267578125 96.12020111083984375 94.50962066650390625 90.17378997802734375 83.78707122802734375 74.32312774658203125 61.45519256591796875 47.48746490478515625 35.55324554443359375 26.359661102294921875 18.650508880615234375 11.5290374755859375 4.8288135528564453125 -99999 -99999 -99999 -99999 -99999 -99999 -99999 -99999 -99999 -99999 -99999 -99999 -99999 -99999 -99999 -99999 -99999 -99999 -99999 -99999 -99999 -99999 -99999 -99999 -99999 -99999 -99999
 -99999 -99999 -99999 -99999 -99999 -99999 -99999 -99999 -99999 -99999 -99999 -99999 -99999 -99999 -99999 -99999 -99999 -99999 -99999 -99999 -99999 -99999 -99999 -99999 -99999 -99999 -99999 -99999 -99999 -99999 -99999 -99999 -99999 24.37804412841796875 24.961843490600585938 25.652385711669921875 26.419363021850585938 27.3315277099609375 28.318002700805664062 29.427755355834960938 30.67255401611328125 32.096950531005859375 33.63983154296875 35.253070831298828125 36.97832489013671875 38.833484649658203125 40.767864227294921875 42.731555938720703125 44.84307098388671875 47.0063629150390625 48.96205902099609375 50.996273040771484375 53.04975128173828125 54.83780670166015625 56.7851715087890625 60.0167236328125 63.0333709716796875 66.0398406982421875 69.340911865234375 72.4134521484375 75.623046875 78.95001983642578125 82.413909912109375 86.02504730224609375 89.57617950439453125 92.8729705810546875 95.4917755126953125 96.89632415771484375 96.83435821533203125 95.45113372802734375 93.6843719482421875 92.28366851806640625 93.54755401611328125 96.561187744140625 99.78672027587890625 101.93663787841796875 103.87104034423828125 105.59865570068359375 107.27109527587890625 109.32082366943359375 111.71460723876953125 114.40633392333984375 117.32399749755859375 120.265411376953125 123.00910186767578125 125.15912628173828125 126.49216461181640625 127.0731353759765625 126.4717559814453125 124.75661468505859375 121.59285736083984375 116.95708465576171875 111.72869110107421875 108.387847900390625 111.05745697021484375 116.48439788818359375 122.09947967529296875 127.16355133056640625 131.510467529296875 134.79229736328125 137.01336669921875 137.8106231689453125 137.4201507568359375 136.102325439453125 134.1640472412109375 131.763519287109375 129.058074951171875 126.2147674560546875 123.33522796630859375 120.47144317626953125 117.6293792724609375 114.8499908447265625 112.1477508544921875 109.52880859375 107.024566650390625 104.6178131103515625 102.31641387939453125 100.1026611328125 98.03212738037109375 96.06018829345703125 94.1852264404296875 92.4261322021484375 90.8231048583984375 89.37093353271484375 88.0170745849609375 86.78269195556640625 85.65122222900390625 84.6790618896484375 83.77643585205078125 82.9535064697265625 82.21451568603515625 81.62136077880859375 81.13788604736328125 81.04775238037109375 81.44445037841796875 81.934539794921875 83.2404327392578125 84.83147430419921875 86.27703094482421875 87.32137298583984375 87.62142181396484375 87.18564605712890625 86.04705047607421875 84.39327239990234375 82.51985931396484375 80.42176055908203125 78.560821533203125 76.86103057861328125 75.444091796875 74.26779937744140625 73.42093658447265625 72.917877197265625 72.7920379638671875 73.11992645263671875 74.07984161376953125 76.17296600341796875 78.9416961669921875 82.8212432861328125 87.98520660400390625 94.029449462890625 101.18248748779296875 109.0059356689453125 116.9658050537109375 124.88446807861328125 131.3337249755859375 136.8365325927734375 141.237030029296875 143.614227294921875 145.7220306396484375 148.4377899169921875 151.1164703369140625 152.4875946044921875 154.228240966796875 154.4924163818359375 152.9023284912109375 149.0181427001953125 139.0321807861328125 129.1480865478515625 119.2823486328125 110.64682769775390625 103.36586761474609375 99.01772308349609375 97.486480712890625 99.84636688232421875 104.657501220703125 109.7238922119140625 111.6525421142578125 107.99687957763671875 101.33386993408203125 100.01425933837890625 99.3999176025390625 97.70025634765625 93.33916473388671875 86.3919830322265625 76.8594818115234375 64.78864288330078125 52.178707122802734375 40.351352691650390625 30.340883255004882812 21.885824203491210938 14.219367027282714844 7.1176638603210449219 -99999 -99999 -99999 -99999 -99999 -99999 -99999 -99999 -99999 -99999 -99999 -99999 -99999 -99999 -99999 -99999 -99999 -99999 -99999 -99999 -99999 -99999 -99999 -99999 -99999 -99999 -99999
 -99999 -99999 -99999 -99999 -99999 -99999 -99999 -99999 -99999 -99999 -99999 -99999 -99999 -99999 -99999 -99999 -99999 -99999 -99999 -99999 -99999 -99999 -99999 -99999 -99999 -99999 -99999 -99999 -99999 -99999 -99999 -99999 27.060283660888671875 27.51921844482421875 28.077144622802734375 28.7225799560546875 29.459119796752929688 30.281513214111328125 31.24542999267578125 32.36536407470703125 33.600261688232421875 34.872295379638671875 36.31172943115234375 37.912723541259765625 39.55541229248046875 41.31604766845703125 43.299335479736328125 45.248661041259765625 47.1839599609375 49.127979278564453125 51.3382568359375 53.20401763916015625 55.140125274658203125 57.2592926025390625 59.571025848388671875 62.218837738037109375 65.0184173583984375 67.7177886962890625 70.76428985595703125 73.52313232421875 76.4957427978515625 79.74970245361328125 82.85588836669921875 86.0719451904296875 89.0144500732421875 91.6325531005859375 93.75438690185546875 94.60964202880859375 94.51822662353515625 93.50868988037109375 91.97124481201171875 91.18778228759765625 93.10034942626953125 96.296478271484375 99.962371826171875 102.1421661376953125 103.5906829833984375 104.7789154052734375 106.24042510986328125 108.04988861083984375 110.41989898681640625 113.477569580078125 117.03792572021484375 120.66150665283203125 124.00930023193359375 126.82683563232421875 128.998291015625 130.0816802978515625 130.0538330078125 128.9399871826171875 126.44425201416015625 122.426361083984375 116.69504547119140625 113.35162353515625 114.2242584228515625 117.9053802490234375 122.39923095703125 126.92417144775390625 130.8329620361328125 133.81402587890625 135.4617462158203125 135.974578857421875 135.552459716796875 134.1627044677734375 132.1594085693359375 129.7594146728515625 127.10504913330078125 124.30524444580078125 121.42192840576171875 118.5267181396484375 115.66880035400390625 112.90135955810546875 110.18187713623046875 107.5671234130859375 105.04962921142578125 102.6293792724609375 100.330841064453125 98.14623260498046875 96.10125732421875 94.15228271484375 92.37079620361328125 90.74468994140625 89.225677490234375 87.8882293701171875 86.697998046875 85.6023101806640625 84.65514373779296875 83.95986175537109375 83.32779693603515625 82.677581787109375 81.99505615234375 81.53420257568359375 81.28136444091796875 81.21028900146484375 81.618988037109375 82.36571502685546875 83.3867645263671875 85.02794647216796875 86.39093780517578125 87.307830810546875 87.67572784423828125 87.4184112548828125 86.43194580078125 84.91005706787109375 83.10631561279296875 81.168670654296875 79.23038482666015625 77.51750946044921875 75.9666290283203125 74.59424591064453125 73.42681121826171875 72.4376220703125 71.78466033935546875 71.70250701904296875 72.3186492919921875 73.74985504150390625 76.2396392822265625 80.060760498046875 85.39052581787109375 91.9536895751953125 99.992645263671875 108.967376708984375 118.45389556884765625 127.77860260009765625 135.6937103271484375 141.0028076171875 144.5150299072265625 147.838104248046875 150.481048583984375 152.49761962890625 154.61724853515625 157.555419921875 159.38836669921875 159.790557861328125 157.03619384765625 149.74017333984375 139.0250396728515625 125.75452423095703125 113.19211578369140625 103.618743896484375 96.96905517578125 93.786773681640625 94.0712738037109375 97.5121612548828125 104.60646820068359375 116.131256103515625 119.08489227294921875 114.8840789794921875 108.96314239501953125 105.3291168212890625 103.27275848388671875 100.34535980224609375 95.58374786376953125 88.213165283203125 78.56087493896484375 67.51383209228515625 55.82570648193359375 44.862575531005859375 34.700290679931640625 25.480190277099609375 17.334568023681640625 9.9339141845703125 -99999 -99999 -99999 -99999 -99999 -99999 -99999 -99999 -99999 -99999 -99999 -99999 -99999 -99999 -99999 -99999 -99999 -99999 -99999 -99999 -99999 -99999 -99999 -99999 -99999 -99999 -99999
 -99999 -99999 -99999 -99999 -99999 -99999 -99999 -99999 -99999 -99999 -99999 -99999 -99999 -99999 -99999 -99999 -99999 -99999 -99999 -99999 -99999 -99999 -99999 -99999 -99999 -99999 -99999 -99999 -99999 -99999 -99999 29.799093246459960938 30.183828353881835938 30.625244140625 31.13268280029296875 31.758871078491210938 32.465496063232421875 33.2754669189453125 34.177112579345703125 35.236042022705078125 36.377288818359375 37.64987945556640625 38.987773895263671875 40.53055572509765625 42.248302459716796875 43.94504547119140625 45.68970489501953125 47.507793426513671875 49.555309295654296875 51.57762908935546875 53.63266754150390625 55.911296844482421875 57.99298858642578125 60.07205963134765625 62.602550506591796875 64.7757415771484375 66.9584197998046875 69.6146697998046875 72.08655548095703125 74.660797119140625 77.50351715087890625 80.27266693115234375 83.183624267578125 85.96196746826171875 88.4613800048828125 90.68259429931640625 92.20819854736328125 93.0308990478515625 93.13327789306640625 92.6068572998046875 92.04891204833984375 92.48877716064453125 94.21854400634765625 97.2785797119140625 101.11669921875 102.84947967529296875 103.56555938720703125 103.684234619140625 104.556732177734375 106.17473602294921875 108.8287353515625 112.56839752197265625 116.61829376220703125 120.8920440673828125 125.11029815673828125 128.795928955078125 131.6791229248046875 133.376739501953125 134.1220550537109375 133.56451416015625 132.1028594970703125 129.4512939453125 124.05225372314453125 120.08060455322265625 119.67237091064453125 121.15941619873046875 124.14769744873046875 127.3961944580078125 130.5278167724609375 133.0221710205078125 134.397003173828125 134.3539581298828125 133.4662017822265625 131.95928955078125 129.9589691162109375 127.57678985595703125 124.91623687744140625 122.1141815185546875 119.27188873291015625 116.40785980224609375 113.6045379638671875 110.84322357177734375 108.13976287841796875 105.5660552978515625 103.10170745849609375 100.743560791015625 98.47046661376953125 96.32595062255859375 94.34716033935546875 92.51299285888671875 90.7954864501953125 89.2643585205078125 87.9293060302734375 86.80063629150390625 85.8132476806640625 84.9544677734375 84.35370635986328125 83.89583587646484375 83.55401611328125 83.2749786376953125 82.87725830078125 82.46686553955078125 82.13824462890625 82.16153717041015625 82.79683685302734375 83.7881927490234375 85.00012969970703125 86.29744720458984375 87.50732421875 88.385009765625 88.573272705078125 88.17375946044921875 87.20725250244140625 85.81130218505859375 83.97432708740234375 82.05785369873046875 80.15273284912109375 78.35951995849609375 76.69358062744140625 75.15911102294921875 73.67755889892578125 72.33930206298828125 71.13190460205078125 70.4085693359375 70.37908935546875 71.56912994384765625 73.9351806640625 77.594482421875 82.6638031005859375 89.90795135498046875 98.40068817138671875 108.430328369140625 119.54168701171875 130.4199371337890625 139.4411468505859375 146.122039794921875 149.4087677001953125 150.543914794921875 152.019683837890625 154.8566741943359375 157.537567138671875 159.71026611328125 160.8790130615234375 158.4022674560546875 151.826263427734375 142.3928070068359375 130.848388671875 119.97084808349609375 107.52910614013671875 97.348388671875 91.5684356689453125 90.67740631103515625 93.28675079345703125 98.62969207763671875 110.79742431640625 121.61458587646484375 126.1128387451171875 121.4941253662109375 114.9774169921875 110.58481597900390625 107.33966064453125 103.3246307373046875 97.4659271240234375 89.82527923583984375 80.5799102783203125 70.16956329345703125 59.17566680908203125 48.1466522216796875 38.316997528076171875 29.203310012817382812 20.705327987670898438 -99999 -99999 -99999 -99999 -99999 -99999 -99999 -99999 -99999 -99999 -99999 -99999 -99999 -99999 -99999 -99999 -99999 -99999 -99999 -99999 -99999 -99999 -99999 -99999 -99999 -99999 -99999 -99999
 -99999 -99999 -99999 -99999 -99999 -99999 -99999 -99999 -99999 -99999 -99999 -99999 -99999 -99999 -99999 -99999 -99999 -99999 -99999 -99999 -99999 -99999 -99999 -99999 -99999 -99999 -99999 -99999 -99999 -99999 32.622314453125 32.95108795166015625 33.3134307861328125 33.678497314453125 34.179264068603515625 34.807659149169921875 35.462646484375 36.206546783447265625 37.101451873779296875 38.0323028564453125 39.114013671875 40.352329254150390625 41.72179412841796875 43.101390838623046875 44.603168487548828125 46.2898101806640625 48.126750946044921875 49.9799652099609375 51.948528289794921875 54.14117431640625 56.194316864013671875 58.284503936767578125 60.6226959228515625 62.9312744140625 65.04305267333984375 67.138580322265625 69.25514984130859375 71.39835357666015625 73.4593353271484375 75.82517242431640625 78.318084716796875 80.90135955810546875 83.487640380859375 85.83358001708984375 88.10028839111328125 89.96337890625 91.3533935546875 92.1795654296875 92.5335540771484375 92.55126190185546875 92.91080474853515625 93.89122772216796875 96.3480682373046875 99.81743621826171875 102.456329345703125 103.566131591796875 102.94512176513671875 102.04544830322265625 101.95178985595703125 103.61580657958984375 106.791107177734375 111.02243804931640625 115.8922576904296875 121.08858489990234375 126.10977935791015625 130.6122894287109375 134.2649383544921875 136.6843109130859375 137.806488037109375 137.603759765625 136.4381256103515625 133.5505828857421875 129.67730712890625 125.8977813720703125 124.27924346923828125 124.441314697265625 126.10302734375 128.234375 130.4425048828125 132.164337158203125 133.0179443359375 132.5525665283203125 131.323760986328125 129.591339111328125 127.473846435546875 125.046661376953125 122.412384033203125 119.688812255859375 116.91408538818359375 114.15871429443359375 111.3931427001953125 108.70428466796875 106.07727813720703125 103.58567047119140625 101.18213653564453125 98.87432098388671875 96.67504119873046875 94.65761566162109375 92.78424835205078125 91.06735992431640625 89.49549102783203125 88.11098480224609375 86.91180419921875 85.95577239990234375 85.24869537353515625 84.7525634765625 84.46567535400390625 84.34796905517578125 84.43933868408203125 84.6685638427734375 84.8388824462890625 84.69457244873046875 84.1517181396484375 84.180877685546875 85.132781982421875 86.3744354248046875 87.56388092041015625 88.75095367431640625 89.65825653076171875 90.199676513671875 90.2886962890625 89.84340667724609375 88.68648529052734375 87.11409759521484375 85.179229736328125 83.12298583984375 81.11888885498046875 79.32263946533203125 77.70874786376953125 76.13525390625 74.47725677490234375 72.68842315673828125 70.97248077392578125 69.557708740234375 68.923065185546875 69.324462890625 71.151947021484375 75.01593017578125 80.11792755126953125 87.1978302001953125 96.29952239990234375 107.080810546875 120.2168121337890625 133.688385009765625 144.992279052734375 151.2000579833984375 153.277801513671875 152.1907501220703125 152.8092041015625 155.2244720458984375 156.747344970703125 157.1184539794921875 155.86962890625 149.6615447998046875 136.3996429443359375 126.92461395263671875 121.21292877197265625 115.0257110595703125 102.77477264404296875 95.1021728515625 91.27928924560546875 91.6350250244140625 95.859619140625 103.87155914306640625 113.4058990478515625 125.29605865478515625 126.929779052734375 122.647247314453125 116.89095306396484375 113.665679931640625 110.879638671875 106.386688232421875 100.12642669677734375 91.9040374755859375 82.26346588134765625 72.0207672119140625 61.672069549560546875 51.542621612548828125 41.504131317138671875 32.13332366943359375 23.659383773803710938 -99999 -99999 -99999 -99999 -99999 -99999 -99999 -99999 -99999 -99999 -99999 -99999 -99999 -99999 -99999 -99999 -99999 -99999 -99999 -99999 -99999 -99999 -99999 -99999 -99999 -99999 -99999 -99999
 -99999 -99999 -99999 -99999 -99999 -99999 -99999 -99999 -99999 -99999 -99999 -99999 -99999 -99999 -99999 -99999 -99999 -99999 -99999 -99999 -99999 -99999 -99999 -99999 -99999 -99999 -99999 -99999 -99999 35.5438995361328125 35.76531219482421875 36.055908203125 36.406341552734375 36.781490325927734375 37.235385894775390625 37.7718658447265625 38.402706146240234375 39.099361419677734375 39.888797760009765625 40.826114654541015625 41.843196868896484375 42.95638275146484375 44.197063446044921875 45.577693939208984375 47.0834197998046875 48.723415374755859375 50.444278717041015625 52.344913482666015625 54.215816497802734375 56.26468658447265625 58.49640655517578125 60.76364898681640625 63.1500091552734375 65.4613494873046875 67.65702056884765625 69.54538726806640625 71.3502655029296875 73.04044342041015625 74.92479705810546875 77.030975341796875 79.0839080810546875 81.36071014404296875 83.68125152587890625 85.8261260986328125 87.8040618896484375 89.48664093017578125 90.81409454345703125 91.70780181884765625 92.3674163818359375 93.01033782958984375 93.94835662841796875 95.28643798828125 97.31459808349609375 99.3733367919921875 101.83116912841796875 102.71212005615234375 101.06922149658203125 99.1811981201171875 98.7941741943359375 100.51488494873046875 104.0804595947265625 109.04250335693359375 114.90656280517578125 121.01415252685546875 126.97545623779296875 132.20574951171875 136.5437164306640625 139.6167755126953125 141.1080780029296875 140.8079071044921875 138.9014739990234375 136.0988311767578125 132.6127471923828125 129.59295654296875 127.61737060546875 126.8437652587890625 127.3178558349609375 128.64886474609375 130.3524322509765625 131.576873779296875 131.5068359375 130.3315582275390625 128.78216552734375 126.83895111083984375 124.59629058837890625 122.20623779296875 119.71038818359375 117.08980560302734375 114.38574981689453125 111.69219970703125 109.0946807861328125 106.53441619873046875 104.045501708984375 101.6603851318359375 99.3900909423828125 97.1796112060546875 95.1219940185546875 93.2333526611328125 91.46157073974609375 89.84417724609375 88.4263916015625 87.25437164306640625 86.33689117431640625 85.673980712890625 85.246795654296875 85.026336669921875 85.12039947509765625 85.53277587890625 86.18968963623046875 87.04149627685546875 87.84676361083984375 88.4144744873046875 88.16425323486328125 88.05921173095703125 89.03745269775390625 90.169189453125 91.1545257568359375 91.96871185302734375 92.6532440185546875 92.9688720703125 92.815155029296875 92.02386474609375 90.72875213623046875 88.858612060546875 86.65416717529296875 84.3152008056640625 82.18310546875 80.4401092529296875 79.041473388671875 77.60926055908203125 75.9532318115234375 73.77965545654296875 71.2525787353515625 68.89943695068359375 67.60797119140625 67.57317352294921875 69.1329803466796875 72.6074066162109375 77.703399658203125 84.7196197509765625 93.5273590087890625 105.107940673828125 119.931854248046875 136.429840087890625 150.888458251953125 158.6219329833984375 157.22491455078125 152.17010498046875 150.81182861328125 153.398223876953125 156.362152099609375 151.50848388671875 145.6612701416015625 132.84344482421875 123.337066650390625 117.23992919921875 114.59809112548828125 109.50505828857421875 102.31191253662109375 96.76950836181640625 94.2803497314453125 95.0319366455078125 98.9822845458984375 105.89092254638671875 114.72625732421875 120.3558502197265625 122.62166595458984375 119.118988037109375 116.284149169921875 116.36373138427734375 114.5989837646484375 109.61457061767578125 102.279052734375 93.25228118896484375 83.547119140625 73.54850006103515625 63.315639495849609375 53.326305389404296875 43.8917236328125 34.97467803955078125 26.342901229858398438 -99999 -99999 -99999 -99999 -99999 -99999 -99999 -99999 -99999 -99999 -99999 -99999 -99999 -99999 -99999 -99999 -99999 -99999 -99999 -99999 -99999 -99999 -99999 -99999 -99999 -99999 -99999 -99999
 -99999 -99999 -99999 -99999 -99999 -99999 -99999 -99999 -99999 -99999 -99999 -99999 -99999 -99999 -99999 -99999 -99999 -99999 -99999 -99999 -99999 -99999 -99999 -99999 -99999 -99999 -99999 -99999 38.51605987548828125 38.72301483154296875 38.92899322509765625 39.134540557861328125 39.48323822021484375 39.874996185302734375 40.269039154052734375 40.729221343994140625 41.27600860595703125 41.91962432861328125 42.689533233642578125 43.498119354248046875 44.439250946044921875 45.47672271728515625 46.63050079345703125 47.940906524658203125 49.414173126220703125 50.912265777587890625 52.504154205322265625 54.37628173828125 56.3448486328125 58.32586669921875 60.5413970947265625 62.917186737060546875 65.1741485595703125 67.45502471923828125 69.657470703125 71.4522552490234375 72.89886474609375 74.270660400390625 76.0211029052734375 77.80968475341796875 79.72559356689453125 81.772735595703125 83.83573150634765625 85.80783843994140625 87.6540679931640625 89.275421142578125 90.651031494140625 91.71128082275390625 92.6323394775390625 93.56540679931640625 94.5091552734375 95.86182403564453125 97.1304779052734375 98.89733123779296875 100.06900787353515625 99.73314666748046875 97.6686553955078125 95.13089752197265625 94.46202850341796875 96.57208251953125 101.24737548828125 107.26888275146484375 113.8485565185546875 120.6649322509765625 127.2607574462890625 133.1745452880859375 137.9992218017578125 141.46551513671875 143.1229248046875 142.5753173828125 140.440032958984375 137.625091552734375 134.5379486083984375 131.5593109130859375 129.2788543701171875 128.0023651123046875 127.65053558349609375 128.060760498046875 128.7645721435546875 129.569366455078125 128.9301605224609375 127.23099517822265625 125.4780426025390625 123.53380584716796875 121.40918731689453125 119.11617279052734375 116.70606231689453125 114.2408599853515625 111.73499298095703125 109.233184814453125 106.78668212890625 104.3890533447265625 102.04620361328125 99.76143646240234375 97.63573455810546875 95.6445159912109375 93.79091644287109375 92.02275848388671875 90.3658294677734375 88.96909332275390625 87.7133331298828125 86.74378204345703125 86.0510406494140625 85.62523651123046875 85.47579193115234375 85.81103515625 86.40308380126953125 87.18883514404296875 88.2918243408203125 89.83158111572265625 91.74999237060546875 93.6587066650390625 93.5630340576171875 93.6845855712890625 94.285888671875 94.93896484375 95.5836944580078125 96.06218719482421875 96.34273529052734375 96.27924346923828125 95.885711669921875 94.97696685791015625 93.4348297119140625 91.11791229248046875 88.2774810791015625 85.3939361572265625 83.10607147216796875 81.4186248779296875 80.4675750732421875 79.72158050537109375 78.37284088134765625 75.76892852783203125 72.5561676025390625 69.1112518310546875 66.77590179443359375 66.03395843505859375 67.4257354736328125 70.66001129150390625 76.488311767578125 82.93135833740234375 91.40476226806640625 102.63818359375 118.02846527099609375 138.169677734375 156.6814422607421875 166.9367828369140625 163.2362518310546875 153.20361328125 150.5033721923828125 152.4864349365234375 152.891082763671875 145.1645355224609375 135.6045074462890625 127.5343017578125 120.557037353515625 115.87306976318359375 111.43264007568359375 107.51444244384765625 103.1747589111328125 99.098114013671875 97.4033203125 98.48480224609375 102.21759033203125 107.3701324462890625 113.1341400146484375 118.05449676513671875 119.2331695556640625 117.82297515869140625 117.50241851806640625 121.026947021484375 119.387725830078125 112.80240631103515625 103.3749542236328125 93.56878662109375 83.74396514892578125 73.90008544921875 64.18184661865234375 54.765338897705078125 45.55472564697265625 36.75818634033203125 28.472385406494140625 -99999 -99999 -99999 -99999 -99999 -99999 -99999 -99999 -99999 -99999 -99999 -99999 -99999 -99999 -99999 -99999 -99999 -99999 -99999 -99999 -99999 -99999 -99999 -99999 -99999 -99999 -99999 -99999
 -99999 -99999 -99999 -99999 -99999 -99999 -99999 -99999 -99999 -99999 -99999 -99999 -99999 -99999 -99999 -99999 -99999 -99999 -99999 -99999 -99999 -99999 -99999 -99999 -99999 -99999 -99999 41.552082061767578125 41.6404571533203125 41.834941864013671875 42.075000762939453125 42.323421478271484375 42.5676422119140625 42.832340240478515625 43.192981719970703125 43.65631866455078125 44.166015625 44.724048614501953125 45.368907928466796875 46.097900390625 47.001514434814453125 47.9242401123046875 49.02906036376953125 50.154857635498046875 51.502346038818359375 53.01958465576171875 54.609172821044921875 56.19197845458984375 58.180633544921875 60.1097412109375 62.214366912841796875 64.4622650146484375 66.75730133056640625 69.0418853759765625 70.99279022216796875 72.6942291259765625 73.98494720458984375 75.40396881103515625 76.91831207275390625 78.38678741455078125 80.19551849365234375 82.07532501220703125 83.9845123291015625 85.85561370849609375 87.6074981689453125 89.2136077880859375 90.66471099853515625 91.875213623046875 92.95877838134765625 94.0794219970703125 95.11403656005859375 96.17221832275390625 97.201324462890625 98.02866363525390625 97.85207366943359375 96.82814788818359375 94.48604583740234375 91.3585052490234375 89.976715087890625 93.17838287353515625 98.7559967041015625 105.789215087890625 113.1407623291015625 120.324951171875 127.2120361328125 133.4009246826171875 138.489044189453125 142.220123291015625 143.2001190185546875 142.3816680908203125 140.4225311279296875 137.8097991943359375 134.9556884765625 132.082611083984375 129.6229705810546875 127.84485626220703125 126.807647705078125 126.1128692626953125 125.4836883544921875 125.09394073486328125 124.28798675537109375 122.860992431640625 121.4036865234375 119.78623199462890625 117.91845703125 115.79285430908203125 113.60628509521484375 111.39316558837890625 109.11467742919921875 106.81137847900390625 104.46887969970703125 102.2292022705078125 100.110443115234375 98.08409881591796875 96.10497283935546875 94.2677459716796875 92.56848907470703125 91.0016937255859375 89.61810302734375 88.4203643798828125 87.4222564697265625 86.7525634765625 86.30504608154296875 86.09348297119140625 86.39891815185546875 87.11280059814453125 88.08707427978515625 89.61928558349609375 91.31830596923828125 93.3507537841796875 95.68671417236328125 97.986175537109375 99.33820343017578125 99.80523681640625 100.1910247802734375 100.61463165283203125 100.77936553955078125 100.651641845703125 100.421356201171875 100.102935791015625 99.51514434814453125 98.45095062255859375 96.60198211669921875 93.66367340087890625 90.1429901123046875 86.54535675048828125 83.6029815673828125 82.2321929931640625 82.17996978759765625 82.32259368896484375 81.86492156982421875 79.21282196044921875 74.0826873779296875 69.43567657470703125 66.4382781982421875 65.38813018798828125 66.57311248779296875 69.918731689453125 76.3120880126953125 82.8271942138671875 90.1012115478515625 100.5095977783203125 115.65460205078125 137.3713226318359375 157.9607391357421875 167.378814697265625 165.369476318359375 156.5616302490234375 151.378143310546875 152.5382232666015625 150.624847412109375 144.208740234375 136.4987030029296875 128.218994140625 121.30782318115234375 116.0027923583984375 112.25971221923828125 108.41107177734375 104.5971221923828125 101.707275390625 100.75667572021484375 101.652679443359375 104.398773193359375 108.53955078125 112.76967620849609375 116.2916107177734375 117.88144683837890625 118.77913665771484375 121.5135345458984375 125.213287353515625 122.44031524658203125 113.29839324951171875 102.7063446044921875 92.1008453369140625 82.26126861572265625 73.03814697265625 64.03430938720703125 55.257312774658203125 46.557338714599609375 38.18890380859375 29.85851287841796875 -99999 -99999 -99999 -99999 -99999 -99999 -99999 -99999 -99999 -99999 -99999 -99999 -99999 -99999 -99999 -99999 -99999 -99999 -99999 -99999 -99999 -99999 -99999 -99999 -99999 -99999 -99999 -99999
 -99999 -99999 -99999 -99999 -99999 -99999 -99999 -99999 -99999 -99999 -99999 -99999 -99999 -99999 -99999 -99999 -99999 -99999 -99999 -99999 -99999 -99999 -99999 -99999 -99999 -99999 44.50209808349609375 44.6895904541015625 44.893184661865234375 45.054775238037109375 45.171390533447265625 45.3287811279296875 45.5928497314453125 45.8846282958984375 46.15572357177734375 46.52152252197265625 46.941127777099609375 47.4405670166015625 48.020725250244140625 48.67646026611328125 49.4033660888671875 50.268886566162109375 51.2809906005859375 52.38928985595703125 53.53087615966796875 54.81656646728515625 56.353542327880859375 57.90367889404296875 59.6452178955078125 61.584362030029296875 63.66188812255859375 65.755096435546875 67.87285614013671875 70.05680084228515625 72.12890625 73.485443115234375 74.78781890869140625 76.09454345703125 77.28564453125 78.80355072021484375 80.47035980224609375 82.21479034423828125 84.06140899658203125 85.8588714599609375 87.64501953125 89.30841827392578125 90.8460235595703125 92.24195098876953125 93.41088104248046875 94.64566802978515625 95.77318572998046875 96.42919158935546875 97.16188812255859375 97.37674713134765625 96.9362945556640625 95.34555816650390625 92.92150115966796875 90.35840606689453125 89.43077850341796875 91.737457275390625 98.0395355224609375 105.18370819091796875 112.63138580322265625 119.925689697265625 126.719940185546875 132.790252685546875 137.3835296630859375 140.3040924072265625 141.32806396484375 140.7733154296875 139.050506591796875 136.6295623779296875 133.8814239501953125 131.2849273681640625 128.911865234375 126.6889801025390625 124.6685791015625 122.99997711181640625 121.520355224609375 119.843353271484375 118.69280242919921875 118.07735443115234375 117.027923583984375 115.6310577392578125 114.04312896728515625 112.374969482421875 110.52736663818359375 108.46002960205078125 106.3758392333984375 104.27275848388671875 102.1656951904296875 100.15258026123046875 98.2478485107421875 96.40364837646484375 94.6842803955078125 93.10987091064453125 91.63343048095703125 90.38100433349609375 89.2726898193359375 88.289215087890625 87.51753997802734375 86.98569488525390625 86.93849945068359375 87.1306915283203125 87.79384613037109375 88.88143157958984375 90.39972686767578125 92.52707672119140625 94.97116851806640625 97.768585205078125 100.92459869384765625 103.46429443359375 105.189544677734375 106.266815185546875 106.71612548828125 106.6475067138671875 106.30808258056640625 105.6187896728515625 104.8785858154296875 104.0209808349609375 103.35837554931640625 102.3852386474609375 100.48914337158203125 97.32039642333984375 92.24146270751953125 86.77718353271484375 83.487762451171875 82.17501068115234375 82.9545745849609375 85.63764190673828125 87.29503631591796875 83.9333648681640625 77.49750518798828125 69.9979248046875 66.6030426025390625 65.85526275634765625 66.8510894775390625 70.41959381103515625 78.57677459716796875 85.644683837890625 91.7325286865234375 102.4139404296875 117.49100494384765625 136.8208465576171875 154.0291595458984375 163.2939300537109375 162.3858489990234375 156.1062774658203125 153.989654541015625 152.6051025390625 149.6977996826171875 143.69317626953125 136.63311767578125 129.8707122802734375 123.5496063232421875 118.20207977294921875 113.464202880859375 109.83696746826171875 106.76390838623046875 104.5544586181640625 103.7145538330078125 104.3316802978515625 106.4468994140625 109.48719024658203125 112.56792449951171875 115.2149505615234375 117.18465423583984375 119.24678802490234375 121.13484954833984375 122.06256103515625 118.78182220458984375 109.63098907470703125 98.47743988037109375 88.4619140625 79.56348419189453125 71.083953857421875 62.7469635009765625 54.83777618408203125 46.7606658935546875 38.93238067626953125 30.990369796752929688 -99999 -99999 -99999 -99999 -99999 -99999 -99999 -99999 -99999 -99999 -99999 -99999 -99999 -99999 -99999 -99999 -99999 -99999 -99999 -99999 -99999 -99999 -99999 -99999 -99999 -99999 -99999 -99999
 -99999 -99999 -99999 -99999 -99999 -99999 -99999 -99999 -99999 -99999 -99999 -99999 -99999 -99999 -99999 -99999 -99999 -99999 -99999 -99999 -99999 -99999 -99999 -99999 -99999 47.607532501220703125 47.780120849609375 47.90409088134765625 47.96718597412109375 48.147418975830078125 48.30846405029296875 48.41693115234375 48.6037139892578125 48.83278656005859375 49.08950042724609375 49.36058807373046875 49.658172607421875 50.09954071044921875 50.598377227783203125 51.16485595703125 51.81649017333984375 52.540218353271484375 53.381134033203125 54.302440643310546875 55.411991119384765625 56.53665924072265625 57.8980255126953125 59.3992919921875 60.96604156494140625 62.60498809814453125 64.41249847412109375 66.41132354736328125 68.4266510009765625 70.46807098388671875 72.49140167236328125 73.77027130126953125 74.9037628173828125 76.17650604248046875 77.3429107666015625 78.79975128173828125 80.42496490478515625 82.20240020751953125 84.02469635009765625 85.879974365234375 87.70835113525390625 89.5089874267578125 91.15796661376953125 92.639678955078125 94.0873870849609375 95.53472137451171875 96.3372344970703125 97.21869659423828125 97.72722625732421875 97.67047119140625 96.8069915771484375 95.7613067626953125 94.01671600341796875 92.5072174072265625 92.0760345458984375 94.53253936767578125 100.111572265625 106.08399200439453125 112.70722198486328125 119.48126983642578125 125.8060150146484375 131.03802490234375 134.8151702880859375 137.1087646484375 138.003082275390625 137.589111328125 136.2317352294921875 134.2739105224609375 131.9423828125 129.379150390625 126.83158111572265625 124.460601806640625 122.2284393310546875 119.85162353515625 117.47498321533203125 115.11908721923828125 113.76146697998046875 113.3415374755859375 112.69173431396484375 111.7353668212890625 110.4919281005859375 109.0541534423828125 107.38338470458984375 105.59915924072265625 103.75241851806640625 101.89600372314453125 100.09342193603515625 98.3185272216796875 96.6125946044921875 94.99991607666015625 93.52382659912109375 92.243560791015625 91.0978240966796875 90.08634185791015625 89.19014739990234375 88.48996734619140625 88.09047698974609375 87.94195556640625 88.09783172607421875 88.6284027099609375 89.6707763671875 91.38155364990234375 93.619232177734375 96.49700164794921875 99.81795501708984375 103.59503936767578125 107.109893798828125 110.28675079345703125 112.35068511962890625 113.24724578857421875 113.5238037109375 113.25006103515625 112.16287994384765625 110.85774993896484375 109.095184326171875 107.78045654296875 106.99069976806640625 106.616424560546875 105.56581878662109375 101.4343719482421875 94.6942901611328125 87.31146240234375 81.44020843505859375 81.10865020751953125 83.57712554931640625 88.3965911865234375 93.09729766845703125 93.00531005859375 80.1865234375 72.2929229736328125 68.63378143310546875 68.25402069091796875 70.33660125732421875 74.795135498046875 82.6571807861328125 90.05517578125 97.946258544921875 108.528106689453125 121.67227935791015625 137.6039276123046875 150.074462890625 156.4653167724609375 158.1601715087890625 156.26507568359375 153.4720458984375 152.6503143310546875 149.343902587890625 144.1383514404296875 138.0245513916015625 131.689910888671875 125.6219635009765625 120.3114471435546875 116.0784149169921875 112.201904296875 109.2061004638671875 107.0708770751953125 106.1590728759765625 106.48085784912109375 107.8566741943359375 109.73026275634765625 111.88616943359375 113.94942474365234375 115.519073486328125 116.54930877685546875 117.15618896484375 116.32321929931640625 111.39736175537109375 102.41211700439453125 91.96234893798828125 82.9200897216796875 75.39772796630859375 68.43006134033203125 61.173797607421875 53.75457763671875 46.44931793212890625 39.077899932861328125 31.492740631103515625 -99999 -99999 -99999 -99999 -99999 -99999 -99999 -99999 -99999 -99999 -99999 -99999 -99999 -99999 -99999 -99999 -99999 -99999 -99999 -99999 -99999 -99999 -99999 -99999 -99999 -99999 -99999 -99999
 -99999 -99999 -99999 -99999 -99999 -99999 -99999 -99999 -99999 -99999 -99999 -99999 -99999 -99999 -99999 -99999 -99999 -99999 -99999 -99999 -99999 -99999 -99999 -99999 50.617580413818359375 50.754550933837890625 50.921421051025390625 51.093898773193359375 51.109134674072265625 51.234958648681640625 51.417484283447265625 51.51061248779296875 51.600955963134765625 51.699726104736328125 51.946086883544921875 52.179332733154296875 52.4280242919921875 52.73072052001953125 53.122188568115234375 53.54453277587890625 54.080753326416015625 54.675495147705078125 55.339717864990234375 56.161876678466796875 57.116668701171875 58.15203857421875 59.2438507080078125 60.429462432861328125 61.904041290283203125 63.400966644287109375 64.93825531005859375 66.67484283447265625 68.53553009033203125 69.97319793701171875 71.67424774169921875 73.0478973388671875 74.50677490234375 75.4210357666015625 76.90921783447265625 78.490081787109375 80.12467193603515625 81.96898651123046875 83.8675537109375 85.8546600341796875 87.8617706298828125 89.75634002685546875 91.5629119873046875 93.23877716064453125 94.84706878662109375 96.13188934326171875 97.43526458740234375 98.2378692626953125 98.91657257080078125 98.75022125244140625 98.322296142578125 97.78424072265625 96.80368804931640625 96.35746002197265625 96.6797332763671875 99.068511962890625 103.182342529296875 108.1747589111328125 112.6815338134765625 118.90972900390625 124.17649078369140625 128.021881103515625 131.011505126953125 132.9095001220703125 133.8198394775390625 133.6342315673828125 132.6049652099609375 131.0254974365234375 129.0430908203125 126.74273681640625 124.27239227294921875 121.8011474609375 119.3851318359375 116.9315338134765625 114.1396331787109375 111.54203033447265625 110.28723907470703125 109.5703887939453125 108.94780731201171875 108.1686553955078125 107.093292236328125 105.83911895751953125 104.40594482421875 102.8499298095703125 101.22902679443359375 99.63532257080078125 98.053802490234375 96.5146942138671875 95.0737152099609375 93.81870269775390625 92.68157958984375 91.6875 90.84168243408203125 90.15306854248046875 89.67923736572265625 89.35860443115234375 89.25839996337890625 89.42461395263671875 89.96990966796875 91.01035308837890625 92.5264739990234375 94.655364990234375 97.62644195556640625 101.7269439697265625 106.44873809814453125 110.916961669921875 114.9212646484375 117.74474334716796875 119.68924713134765625 120.83238983154296875 120.75981903076171875 119.66805267333984375 118.413665771484375 116.10965728759765625 112.49210357666015625 110.3484039306640625 109.96216583251953125 110.79528045654296875 110.74310302734375 107.90430450439453125 99.02628326416015625 85.3319549560546875 79.5679779052734375 79.203643798828125 82.45270538330078125 88.675079345703125 99.74066925048828125 97.9583587646484375 88.1836090087890625 76.8011627197265625 74.275299072265625 74.893096923828125 77.46117401123046875 81.70331573486328125 88.56268310546875 96.33844757080078125 104.92905426025390625 115.2961273193359375 126.90215301513671875 138.802337646484375 148.463592529296875 154.7085723876953125 156.5368499755859375 155.120330810546875 154.140045166015625 152.418731689453125 149.283599853515625 144.49383544921875 138.9779052734375 133.275543212890625 127.7276153564453125 122.4802703857421875 118.03562164306640625 114.31931304931640625 111.34648895263671875 109.24383544921875 108.20880889892578125 108.0894775390625 108.707733154296875 109.813812255859375 111.03643798828125 112.08056640625 112.943023681640625 113.42760467529296875 112.29175567626953125 109.2278900146484375 103.54315185546875 95.347015380859375 85.5566253662109375 77.97138214111328125 71.70501708984375 65.27880859375 59.209506988525390625 52.791973114013671875 45.767345428466796875 38.578121185302734375 31.342752456665039062 -99999 -99999 -99999 -99999 -99999 -99999 -99999 -99999 -99999 -99999 -99999 -99999 -99999 -99999 -99999 -99999 -99999 -99999 -99999 -99999 -99999 -99999 -99999 -99999 -99999 -99999 -99999 -99999
 -99999 -99999 -99999 -99999 -99999 -99999 -99999 -99999 -99999 -99999 -99999 -99999 -99999 -99999 -99999 -99999 -99999 -99999 -99999 -99999 -99999 -99999 -99999 53.580059051513671875 53.81487274169921875 53.912303924560546875 54.042980194091796875 54.21129608154296875 54.294422149658203125 54.3455047607421875 54.387325286865234375 54.504268646240234375 54.58895111083984375 54.662815093994140625 54.81165313720703125 54.9093017578125 55.08759307861328125 55.254413604736328125 55.54213714599609375 55.899219512939453125 56.278522491455078125 56.739673614501953125 57.32263946533203125 57.938201904296875 58.63288116455078125 59.458957672119140625 60.469356536865234375 61.451145172119140625 62.5718536376953125 63.821620941162109375 65.1563262939453125 66.41895294189453125 67.77823638916015625 69.3069305419921875 70.8884735107421875 72.1837615966796875 73.4475860595703125 74.85672760009765625 76.32331085205078125 77.80727386474609375 79.6107177734375 81.60918426513671875 83.679168701171875 85.782958984375 87.96579742431640625 90.0640869140625 92.11791229248046875 94.0093536376953125 95.85149383544921875 97.1972198486328125 98.57611846923828125 99.95258331298828125 100.31195831298828125 100.59571075439453125 100.8070220947265625 100.613494873046875 100.50994110107421875 100.93492889404296875 102.08264923095703125 104.15229034423828125 107.06787109375 109.5225677490234375 113.199310302734375 117.292266845703125 121.17041015625 123.74753570556640625 126.25092315673828125 128.08270263671875 129.0632171630859375 129.105010986328125 128.471038818359375 127.18231201171875 125.43114471435546875 123.42978668212890625 121.26779937744140625 118.91515350341796875 116.34386444091796875 113.8138885498046875 111.57447052001953125 110.250885009765625 108.2102508544921875 106.61226654052734375 105.57479095458984375 104.795318603515625 103.94379425048828125 102.9574432373046875 101.75069427490234375 100.41750335693359375 98.97833251953125 97.6304779052734375 96.28565216064453125 94.9805908203125 93.8350372314453125 92.866424560546875 92.03855133056640625 91.41143798828125 90.94065093994140625 90.6705474853515625 90.59725189208984375 90.6890716552734375 90.98281097412109375 91.64591217041015625 92.8253936767578125 94.26880645751953125 96.28057098388671875 99.11531829833984375 103.146881103515625 108.4241485595703125 114.177154541015625 118.97089385986328125 122.903228759765625 126.25067901611328125 128.225555419921875 128.5182342529296875 127.8010101318359375 126.511505126953125 124.09941864013671875 120.57886505126953125 116.4716339111328125 112.00646209716796875 111.0870513916015625 113.971160888671875 116.88130950927734375 115.7310028076171875 104.7331390380859375 88.44452667236328125 73.3023834228515625 79.9218292236328125 83.49306488037109375 89.70049285888671875 96.6192169189453125 99.52581787109375 92.21852874755859375 85.22376251220703125 82.749664306640625 82.86414337158203125 85.690887451171875 90.08917999267578125 96.28997039794921875 103.9918212890625 112.38123321533203125 121.92258453369140625 132.4049835205078125 141.5824127197265625 149.0854339599609375 152.8605499267578125 154.5397186279296875 155.1344146728515625 154.026641845703125 152.058349609375 149.1070709228515625 144.676788330078125 139.736236572265625 134.528411865234375 129.3088226318359375 124.41803741455078125 120.057373046875 116.332611083984375 113.38169097900390625 111.04662322998046875 109.6705474853515625 109.1649627685546875 108.97142791748046875 109.25838470458984375 109.83124542236328125 110.10498046875 109.86501312255859375 108.79093170166015625 106.66458892822265625 103.05927276611328125 97.507904052734375 89.8361663818359375 81.81980133056640625 74.562347412109375 68.25661468505859375 63.231380462646484375 57.26819610595703125 51.042934417724609375 44.67763519287109375 37.887691497802734375 30.84583282470703125 -99999 -99999 -99999 -99999 -99999 -99999 -99999 -99999 -99999 -99999 -99999 -99999 -99999 -99999 -99999 -99999 -99999 -99999 -99999 -99999 -99999 -99999 -99999 -99999 -99999 -99999 -99999 -99999
 -99999 -99999 -99999 -99999 -99999 -99999 -99999 -99999 -99999 -99999 -99999 -99999 -99999 -99999 -99999 -99999 -99999 -99999 -99999 -99999 -99999 56.2068328857421875 56.511203765869140625 56.689228057861328125 56.9275054931640625 57.1383819580078125 57.209484100341796875 57.3040924072265625 57.42578125 57.47530364990234375 57.488979339599609375 57.553264617919921875 57.4918975830078125 57.53079986572265625 57.52475738525390625 57.622547149658203125 57.696514129638671875 57.808483123779296875 57.98120880126953125 58.16553497314453125 58.4342803955078125 58.75452423095703125 59.112453460693359375 59.587314605712890625 60.15218353271484375 60.706638336181640625 61.4350128173828125 62.198516845703125 63.040637969970703125 63.86408233642578125 64.9273681640625 66.09471893310546875 67.118499755859375 68.43140411376953125 69.744110107421875 70.84807586669921875 71.95766448974609375 73.5938262939453125 75.2617645263671875 76.9635162353515625 78.962158203125 81.12302398681640625 83.40097808837890625 85.7368316650390625 88.0889892578125 90.388763427734375 92.654815673828125 94.7763214111328125 96.63367462158203125 98.52050018310546875 100.1820068359375 101.14933013916015625 102.29522705078125 103.0478515625 103.5776519775390625 104.26123046875 104.8632659912109375 105.58872222900390625 106.8805389404296875 108.93122100830078125 111.3816680908203125 113.68717193603515625 113.92278289794921875 113.30060577392578125 115.673126220703125 118.52696990966796875 121.29538726806640625 123.244476318359375 124.28388214111328125 124.4028167724609375 123.8708953857421875 122.86487579345703125 121.58969879150390625 120.00780487060546875 118.0693511962890625 115.85338592529296875 113.34438323974609375 110.658111572265625 108.01020050048828125 105.58609771728515625 103.98581695556640625 102.98290252685546875 102.39681243896484375 101.76255035400390625 101.106475830078125 100.2672119140625 99.21808624267578125 98.08084869384765625 96.9379119873046875 95.8500823974609375 94.69937896728515625 93.68869781494140625 92.8461761474609375 92.18050384521484375 91.71782684326171875 91.423095703125 91.4513702392578125 91.66144561767578125 92.05248260498046875 92.61136627197265625 93.34865570068359375 94.61334228515625 96.31853485107421875 98.499755859375 101.65845489501953125 105.5803070068359375 110.50070953369140625 116.8580474853515625 122.85680389404296875 127.99381256103515625 131.872161865234375 134.32568359375 135.95947265625 136.157623291015625 134.444976806640625 131.9551849365234375 130.0823211669921875 127.57816314697265625 119.48737335205078125 110.99395751953125 109.0777435302734375 115.53781890869140625 119.799102783203125 118.83252716064453125 111.31801605224609375 93.31878662109375 84.27117919921875 82.97164154052734375 86.3308868408203125 91.244598388671875 95.80218505859375 97.09300994873046875 95.066192626953125 91.92040252685546875 90.68013763427734375 91.21734619140625 93.9676361083984375 98.5830078125 104.70848846435546875 111.90631866455078125 119.89414215087890625 128.30657958984375 136.6467742919921875 143.9017181396484375 149.51556396484375 153.5450897216796875 155.2579803466796875 154.5936737060546875 153.7088165283203125 151.819244384765625 148.762054443359375 144.70697021484375 140.103302001953125 135.214874267578125 130.3232879638671875 125.5967864990234375 121.48370361328125 117.78833770751953125 114.61639404296875 112.29163360595703125 110.55634307861328125 109.39507293701171875 108.7123565673828125 108.22193145751953125 107.8371734619140625 107.17621612548828125 106.23073577880859375 104.49979400634765625 101.75662994384765625 97.4388427734375 91.9185333251953125 85.44400787353515625 78.42008209228515625 71.72553253173828125 66.0637359619140625 60.531646728515625 55.381992340087890625 49.601421356201171875 43.20725250244140625 36.53971099853515625 29.674434661865234375 -99999 -99999 -99999 -99999 -99999 -99999 -99999 -99999 -99999 -99999 -99999 -99999 -99999 -99999 -99999 -99999 -99999 -99999 -99999 -99999 -99999 -99999 -99999 -99999 -99999 -99999 -99999 -99999
 -99999 -99999 -99999 -99999 -99999 -99999 -99999 -99999 -99999 -99999 -99999 -99999 -99999 -99999 -99999 -99999 -99999 -99999 -99999 -99999 58.92964935302734375 59.24649810791015625 59.625446319580078125 59.829288482666015625 60.011035919189453125 60.2406158447265625 60.41646575927734375 60.47852325439453125 60.52429962158203125 60.473453521728515625 60.489070892333984375 60.4196319580078125 60.403614044189453125 60.38970947265625 60.3757476806640625 60.36313629150390625 60.288722991943359375 60.314868927001953125 60.340087890625 60.41773223876953125 60.525177001953125 60.668010711669921875 60.888576507568359375 61.173397064208984375 61.47571563720703125 61.877895355224609375 62.232685089111328125 62.84767913818359375 63.45487213134765625 64.11623382568359375 64.76010894775390625 65.4490966796875 66.3026580810546875 67.00373077392578125 67.73889923095703125 68.999969482421875 70.5798492431640625 72.2615203857421875 73.92726898193359375 75.97495269775390625 78.2408447265625 80.65848541259765625 83.08002471923828125 85.6931610107421875 88.26412200927734375 90.80089569091796875 93.307647705078125 95.64667510986328125 97.909820556640625 99.92847442626953125 101.75615692138671875 103.1855926513671875 104.617279052734375 105.69553375244140625 106.89102935791015625 107.67350006103515625 108.5790863037109375 109.92514801025390625 111.49337005615234375 113.46477508544921875 115.54496002197265625 116.7956695556640625 116.28937530517578125 113.69945526123046875 113.20720672607421875 114.937896728515625 117.264984130859375 119.00507354736328125 119.724945068359375 119.7234649658203125 119.33612060546875 118.673248291015625 117.57270050048828125 116.33307647705078125 114.8483734130859375 112.9689483642578125 110.6237030029296875 107.888092041015625 104.68720245361328125 100.96385955810546875 99.44384002685546875 99.3506011962890625 99.4913482666015625 99.26107025146484375 98.71360015869140625 98.0015411376953125 97.15224456787109375 96.1953887939453125 95.1715850830078125 94.2203369140625 93.36405181884765625 92.61307525634765625 92.0364532470703125 91.655548095703125 91.61054229736328125 91.84981536865234375 92.342041015625 93.05318450927734375 93.92962646484375 95.09395599365234375 96.5016937255859375 98.36260223388671875 100.8604888916015625 104.32700347900390625 108.71263885498046875 113.4168853759765625 119.491302490234375 126.01047515869140625 132.01507568359375 136.6629791259765625 140.1137542724609375 142.5694427490234375 144.169342041015625 143.4053497314453125 140.1256103515625 136.4575347900390625 133.0947113037109375 130.2545928955078125 125.0804595947265625 113.599090576171875 110.38799285888671875 114.12378692626953125 118.049591064453125 117.159423828125 110.28107452392578125 99.87050628662109375 90.6856842041015625 88.7779693603515625 90.2171630859375 92.85500335693359375 96.03924560546875 97.47614288330078125 97.6536865234375 97.02342987060546875 97.02446746826171875 98.88475799560546875 102.18133544921875 106.9452056884765625 112.81203460693359375 119.4872283935546875 126.6769866943359375 133.34539794921875 140.066741943359375 146.585601806640625 151.0150909423828125 153.1253204345703125 154.135162353515625 154.369354248046875 153.2069244384765625 151.0768585205078125 148.1624755859375 144.3954620361328125 140.1374053955078125 135.5767059326171875 130.9506072998046875 126.51226043701171875 122.33271026611328125 118.62298583984375 115.44605255126953125 112.7662811279296875 110.757843017578125 109.1099395751953125 107.81691741943359375 106.82210540771484375 105.704315185546875 104.43122100830078125 102.6408233642578125 100.12237548828125 96.713226318359375 92.5061187744140625 87.18682861328125 81.09375762939453125 74.874725341796875 68.84058380126953125 63.43463897705078125 58.394195556640625 52.93235015869140625 47.3872528076171875 41.126800537109375 34.7040863037109375 27.968656539916992188 -99999 -99999 -99999 -99999 -99999 -99999 -99999 -99999 -99999 -99999 -99999 -99999 -99999 -99999 -99999 -99999 -99999 -99999 -99999 -99999 -99999 -99999 -99999 -99999 -99999 -99999 -99999 -99999
 -99999 -99999 -99999 -99999 -99999 -99999 -99999 -99999 -99999 -99999 -99999 -99999 -99999 -99999 -99999 -99999 -99999 -99999 -99999 61.49979400634765625 61.967304229736328125 62.29611968994140625 62.633281707763671875 63.012432098388671875 63.270526885986328125 63.376178741455078125 63.45920562744140625 63.529140472412109375 63.526416778564453125 63.477081298828125 63.4905548095703125 63.491458892822265625 63.381488800048828125 63.21454620361328125 63.0904083251953125 62.98805999755859375 62.880764007568359375 62.76202392578125 62.665287017822265625 62.593852996826171875 62.5611419677734375 62.54913330078125 62.622760772705078125 62.62375640869140625 62.796871185302734375 62.999149322509765625 63.22835540771484375 63.39571380615234375 63.74957275390625 64.13043212890625 64.38062286376953125 64.68396759033203125 65.22162628173828125 65.85675048828125 66.3438568115234375 67.4772186279296875 69.20734405517578125 70.86202239990234375 72.907684326171875 75.23209381103515625 77.5318603515625 80.141082763671875 82.782623291015625 85.5671234130859375 88.3831024169921875 91.21852874755859375 93.94293212890625 96.5180511474609375 98.98514556884765625 101.41515350341796875 103.2661285400390625 105.2132415771484375 106.95516204833984375 108.45581817626953125 109.51140594482421875 111.00052642822265625 112.34624481201171875 113.81763458251953125 115.30121612548828125 116.8033905029296875 118.2606048583984375 118.88895416259765625 117.37911224365234375 115.0224609375 113.41043853759765625 113.48061370849609375 115.12401580810546875 115.75759124755859375 115.65659332275390625 115.28214263916015625 114.82308197021484375 114.22327423095703125 113.67397308349609375 112.99329376220703125 111.9704437255859375 110.3916168212890625 108.33272552490234375 105.85808563232421875 102.9165496826171875 99.78754425048828125 97.75196075439453125 97.614349365234375 97.61534881591796875 97.38681793212890625 96.89226531982421875 96.23310089111328125 95.4105224609375 94.5343780517578125 93.73236846923828125 92.9958343505859375 92.2845611572265625 91.79048919677734375 91.55988311767578125 91.57041168212890625 91.88912200927734375 92.50720977783203125 93.5391693115234375 94.99806976318359375 96.73194122314453125 98.363494873046875 100.17971038818359375 102.69244384765625 106.64263153076171875 111.8491363525390625 117.502593994140625 122.98162841796875 128.6734161376953125 135.093231201171875 141.138427734375 145.190155029296875 147.5328521728515625 148.2359771728515625 149.710540771484375 149.39031982421875 144.9481048583984375 139.896728515625 135.883148193359375 133.8358612060546875 126.2185821533203125 118.89756011962890625 114.98830413818359375 115.41187286376953125 115.5738525390625 113.15782928466796875 108.7860107421875 101.90589141845703125 96.05908966064453125 93.14495086669921875 93.2588043212890625 95.0775909423828125 97.132049560546875 98.9180145263671875 100.059814453125 101.23274993896484375 103.05075836181640625 105.59119415283203125 109.53154754638671875 114.32039642333984375 120.01715850830078125 126.0948638916015625 132.2586517333984375 137.947235107421875 143.29290771484375 147.45098876953125 150.6336669921875 152.85565185546875 153.836029052734375 153.38201904296875 152.09197998046875 150.107086181640625 147.30157470703125 143.64630126953125 139.6474456787109375 135.3443145751953125 130.912200927734375 126.6717987060546875 122.69940185546875 119.014984130859375 115.6826171875 112.888671875 110.48860931396484375 108.47540283203125 106.6571197509765625 104.9221343994140625 103.12781524658203125 101.17354583740234375 98.77622222900390625 95.85284423828125 92.2111663818359375 87.7483978271484375 82.6473388671875 77.0897674560546875 71.21903228759765625 65.655059814453125 60.28600311279296875 55.031108856201171875 50.186473846435546875 44.47479248046875 37.9285125732421875 32.16412353515625 25.853254318237304688 -99999 -99999 -99999 -99999 -99999 -99999 -99999 -99999 -99999 -99999 -99999 -99999 -99999 -99999 -99999 -99999 -99999 -99999 -99999 -99999 -99999 -99999 -99999 -99999 -99999 -99999 -99999 -99999
 -99999 -99999 -99999 -99999 -99999 -99999 -99999 -99999 -99999 -99999 -99999 -99999 -99999 -99999 -99999 -99999 -99999 -99999 63.90689849853515625 64.39943695068359375 64.95550537109375 65.49431610107421875 65.813385009765625 66.0505218505859375 66.2676239013671875 66.4522247314453125 66.53037261962890625 66.57503509521484375 66.65045928955078125 66.652313232421875 66.4825439453125 66.345703125 66.207427978515625 66.02674102783203125 65.83127593994140625 65.597900390625 65.43160247802734375 65.1490936279296875 64.967254638671875 64.78539276123046875 64.62425994873046875 64.45249176025390625 64.32468414306640625 64.2061309814453125 64.0954132080078125 64.09807586669921875 64.11467742919921875 64.0483856201171875 64.05971527099609375 64.16367340087890625 64.32700347900390625 64.46273040771484375 64.46022796630859375 64.64559173583984375 65.08447265625 66.10638427734375 67.6943359375 69.72733306884765625 72.03162384033203125 74.335968017578125 76.9878997802734375 79.69646453857421875 82.55657196044921875 85.5288543701171875 88.61923980712890625 91.7040863037109375 94.55814361572265625 97.44814300537109375 100.24568939208984375 102.56237030029296875 105.05381011962890625 107.1799163818359375 108.905181884765625 110.64574432373046875 112.1807098388671875 113.83844757080078125 115.47437286376953125 117.01425933837890625 118.16800689697265625 119.0881195068359375 119.679931640625 119.19625091552734375 117.6250152587890625 115.45273590087890625 113.7999725341796875 113.138671875 113.1680908203125 112.52130889892578125 111.65753173828125 110.94532012939453125 110.34095001220703125 109.86281585693359375 109.73016357421875 109.68495941162109375 109.222808837890625 108.1541595458984375 106.49871826171875 104.192626953125 101.441925048828125 98.81911468505859375 97.0192413330078125 96.30049896240234375 96.0131683349609375 95.721649169921875 95.16180419921875 94.54817962646484375 93.7883758544921875 93.07318878173828125 92.43717193603515625 91.90460205078125 91.5344696044921875 91.35907745361328125 91.3973388671875 91.68930816650390625 92.31884765625 93.60227203369140625 95.36162567138671875 97.532440185546875 99.851470947265625 102.42357635498046875 105.01541900634765625 108.698822021484375 114.3616485595703125 121.738677978515625 128.155120849609375 131.143585205078125 136.683868408203125 142.843231201171875 148.797119140625 152.11676025390625 152.97637939453125 152.7398223876953125 153.366607666015625 151.56170654296875 147.6569671630859375 143.187042236328125 138.41485595703125 133.5617523193359375 128.667724609375 121.8696136474609375 117.24871826171875 115.39374542236328125 114.07648468017578125 111.46601104736328125 107.022491455078125 101.79791259765625 98.2822113037109375 96.1737518310546875 95.70172882080078125 96.51711273193359375 98.2681732177734375 100.3616790771484375 102.56258392333984375 104.90301513671875 107.85732269287109375 111.2710113525390625 115.38231658935546875 120.30517578125 125.75981903076171875 131.7381439208984375 137.4280242919921875 141.334716796875 145.1587066650390625 148.4664306640625 150.86328125 152.1393890380859375 152.538665771484375 152.0652618408203125 150.7926483154296875 148.7168731689453125 146.003204345703125 142.5162506103515625 138.7683563232421875 134.6601715087890625 130.5039215087890625 126.3863677978515625 122.3988494873046875 118.70944976806640625 115.36457061767578125 112.25594329833984375 109.6260986328125 107.24338531494140625 104.90301513671875 102.74619293212890625 100.5073394775390625 97.9768524169921875 95.16864776611328125 91.7484130859375 87.77565765380859375 83.33087158203125 78.31897735595703125 72.9037933349609375 67.44921112060546875 61.9512939453125 56.67581939697265625 51.63675689697265625 46.332653045654296875 40.60004425048828125 34.930633544921875 29.994653701782226562 23.151702880859375 -99999 -99999 -99999 -99999 -99999 -99999 -99999 -99999 -99999 -99999 -99999 -99999 -99999 -99999 -99999 -99999 -99999 -99999 -99999 -99999 -99999 -99999 -99999 -99999 -99999 -99999 -99999 -99999
 -99999 -99999 -99999 -99999 -99999 -99999 -99999 -99999 -99999 -99999 -99999 -99999 -99999 -99999 -99999 -99999 -99999 66.1203765869140625 66.8361053466796875 67.516845703125 67.97145843505859375 68.4036865234375 68.80004119873046875 69.1100006103515625 69.310272216796875 69.46380615234375 69.6808624267578125 69.7065887451171875 69.6070404052734375 69.5541839599609375 69.43065643310546875 69.24188232421875 68.9939727783203125 68.82137298583984375 68.5454559326171875 68.278839111328125 67.93087005615234375 67.643768310546875 67.30863189697265625 66.98078155517578125 66.6726837158203125 66.323516845703125 65.96320343017578125 65.7484283447265625 65.49977874755859375 65.2046966552734375 64.95888519287109375 64.8135528564453125 64.7015838623046875 64.37554168701171875 64.2093658447265625 64.07266998291015625 63.922245025634765625 63.774486541748046875 64.26300811767578125 65.01563262939453125 66.7697296142578125 69.09293365478515625 71.36235809326171875 73.76446533203125 76.47882080078125 79.31982421875 82.34168243408203125 85.5565643310546875 88.77655792236328125 92.02510833740234375 95.19516754150390625 98.29058074951171875 101.1822357177734375 103.9701995849609375 106.40166473388671875 108.72188568115234375 110.6850738525390625 112.60359954833984375 114.225372314453125 116.1492462158203125 117.76427459716796875 119.30853271484375 120.1504364013671875 120.2593231201171875 119.95540618896484375 118.96634674072265625 117.27849578857421875 115.29271697998046875 113.49530029296875 112.2441558837890625 111.04015350341796875 109.70184326171875 108.13877105712890625 106.841705322265625 105.7791900634765625 105.72670745849609375 106.0664520263671875 106.4520111083984375 106.69298553466796875 106.3877716064453125 105.19086456298828125 103.0482635498046875 100.49188232421875 97.88935089111328125 95.9317626953125 95.1190032958984375 94.69419097900390625 94.249664306640625 93.66292572021484375 92.9891815185546875 92.3848724365234375 91.88181304931640625 91.453704833984375 91.17545318603515625 91.1348876953125 91.2875213623046875 91.6201629638671875 92.19464111328125 93.07625579833984375 94.63934326171875 97.04581451416015625 100.38397216796875 104.258331298828125 107.62461090087890625 111.105621337890625 116.2137603759765625 124.6899566650390625 132.846649169921875 138.346160888671875 140.1493072509765625 143.18646240234375 148.4673614501953125 152.9011993408203125 155.687591552734375 156.1321868896484375 155.7095947265625 154.590728759765625 152.6272735595703125 148.4024810791015625 143.30389404296875 138.3840484619140625 133.574859619140625 127.96666717529296875 122.7080841064453125 118.06902313232421875 114.84757232666015625 111.8763885498046875 108.6481781005859375 105.433746337890625 102.10820770263671875 98.95517730712890625 96.94544219970703125 96.63401031494140625 97.34588623046875 99.1743927001953125 101.51313018798828125 104.4867706298828125 107.70240020751953125 111.41930389404296875 115.56940460205078125 120.2380523681640625 125.12316131591796875 130.272979736328125 134.737213134765625 139.567138671875 143.55950927734375 146.3673095703125 148.3959808349609375 150.1502685546875 150.899078369140625 151.068023681640625 150.5384063720703125 149.0690460205078125 146.941192626953125 144.2371673583984375 140.9702606201171875 137.344573974609375 133.4899139404296875 129.453369140625 125.49478912353515625 121.6612396240234375 117.9849090576171875 114.5062255859375 111.3243408203125 108.30583953857421875 105.579498291015625 102.93389892578125 100.24417877197265625 97.5944976806640625 94.59326171875 91.35207366943359375 87.6971588134765625 83.57452392578125 79.0597991943359375 74.15984344482421875 68.91396331787109375 63.4657745361328125 58.116455078125 52.913745880126953125 47.686817169189453125 42.454441070556640625 36.99913787841796875 31.719449996948242188 26.42679595947265625 18.8939208984375 -99999 -99999 -99999 -99999 -99999 -99999 -99999 -99999 -99999 -99999 -99999 -99999 -99999 -99999 -99999 -99999 -99999 -99999 -99999 -99999 -99999 -99999 -99999 -99999 -99999 -99999 -99999 -99999
 -99999 -99999 -99999 -99999 -99999 -99999 -99999 -99999 -99999 -99999 -99999 -99999 -99999 -99999 -99999 -99999 68.1718902587890625 69.0334930419921875 69.69515228271484375 70.33783721923828125 70.9023895263671875 71.3842926025390625 71.809906005859375 72.11344146728515625 72.400665283203125 72.5423583984375 72.6229095458984375 72.65847015380859375 72.5953521728515625 72.47930145263671875 72.32369232177734375 72.15723419189453125 71.92409515380859375 71.5389404296875 71.22595977783203125 70.8384246826171875 70.453125 70.0303802490234375 69.5556182861328125 69.115386962890625 68.65468597412109375 68.24065399169921875 67.74890899658203125 67.25765228271484375 66.82271575927734375 66.50121307373046875 65.96993255615234375 65.55303955078125 65.16902923583984375 64.8037567138671875 64.49713897705078125 64.26070404052734375 64.12441253662109375 64.09783935546875 64.0233154296875 65.19548797607421875 66.96891021728515625 68.830780029296875 71.013885498046875 73.44312286376953125 76.03643798828125 79.05712890625 82.16898345947265625 85.538818359375 88.93093109130859375 92.346343994140625 95.68859100341796875 99.04561614990234375 102.1960601806640625 105.053314208984375 107.877593994140625 109.99486541748046875 112.06504058837890625 114.08538055419921875 115.76520538330078125 117.280731201171875 118.81658172607421875 120.46356201171875 121.22313690185546875 120.57367706298828125 119.629241943359375 118.2579803466796875 116.53305816650390625 114.58130645751953125 112.6398773193359375 110.8653564453125 109.1106414794921875 107.24840545654296875 105.11773681640625 102.974029541015625 101.85639190673828125 101.52779388427734375 102.23084259033203125 103.6241455078125 104.70900726318359375 104.83057403564453125 104.0378265380859375 102.2886199951171875 99.6696624755859375 96.35900115966796875 94.444854736328125 93.69168853759765625 93.49941253662109375 92.88463592529296875 92.2230987548828125 91.63232421875 91.16175079345703125 90.85321807861328125 90.7960052490234375 90.85141754150390625 91.089569091796875 91.52339935302734375 92.2457427978515625 93.1902313232421875 94.32610321044921875 96.17617034912109375 99.042449951171875 103.4926910400390625 108.7414398193359375 113.5445709228515625 119.928680419921875 126.0799407958984375 133.3616485595703125 139.787628173828125 144.6351165771484375 146.733428955078125 148.72210693359375 152.01593017578125 155.096160888671875 156.7338714599609375 156.952728271484375 155.764923095703125 154.0301055908203125 151.05169677734375 147.22698974609375 142.7957000732421875 137.7901763916015625 132.2811431884765625 126.73565673828125 121.51197052001953125 116.83867645263671875 112.96038055419921875 109.56475830078125 106.391021728515625 103.02973175048828125 100.17700958251953125 97.842010498046875 96.473114013671875 96.42299652099609375 97.22745513916015625 99.24050140380859375 102.021575927734375 105.42130279541015625 109.36399078369140625 114.0596923828125 118.519927978515625 123.1540069580078125 128.08056640625 132.3366241455078125 136.892791748046875 140.631072998046875 143.5525360107421875 145.9562530517578125 147.680511474609375 148.6982269287109375 149.4779815673828125 149.1791229248046875 148.17681884765625 146.7509613037109375 144.6326904296875 142.134857177734375 138.9235687255859375 135.5139617919921875 131.8335418701171875 127.97493743896484375 124.12390899658203125 120.2730865478515625 116.58635711669921875 113.0788421630859375 109.7363739013671875 106.58922576904296875 103.52204132080078125 100.54817962646484375 97.603759765625 94.49144744873046875 91.15120697021484375 87.6378173828125 83.79903411865234375 79.480072021484375 74.90421295166015625 69.8811798095703125 64.73329925537109375 59.520015716552734375 54.2195281982421875 48.723110198974609375 43.434085845947265625 38.100635528564453125 32.72052001953125 27.185932159423828125 21.103769302368164062 14.093016624450683594 -99999 -99999 -99999 -99999 -99999 -99999 -99999 -99999 -99999 -99999 -99999 -99999 -99999 -99999 -99999 -99999 -99999 -99999 -99999 -99999 -99999 -99999 -99999 -99999 -99999 -99999 -99999 -99999
 -99999 -99999 -99999 -99999 -99999 -99999 -99999 -99999 -99999 -99999 -99999 -99999 -99999 -99999 -99999 69.9572601318359375 70.8898162841796875 71.737091064453125 72.54050445556640625 73.18170166015625 73.81885528564453125 74.32280731201171875 74.78623199462890625 75.094268798828125 75.349334716796875 75.5046539306640625 75.6188507080078125 75.60947418212890625 75.57143402099609375 75.43701934814453125 75.19080352783203125 74.97153472900390625 74.65447998046875 74.291900634765625 73.865966796875 73.42055511474609375 72.94771575927734375 72.362457275390625 71.80225372314453125 71.33881378173828125 70.76180267333984375 70.19390869140625 69.55109405517578125 68.91766357421875 68.31285858154296875 67.7602996826171875 67.19260406494140625 66.56377410888671875 65.92704010009765625 65.510589599609375 65.13729095458984375 64.79375457763671875 64.57912445068359375 64.8132781982421875 65.858306884765625 66.52266693115234375 67.707000732421875 69.07724761962890625 70.93487548828125 73.3685150146484375 75.9014739990234375 78.892578125 82.13718414306640625 85.529937744140625 89.0396881103515625 92.608367919921875 96.2624053955078125 99.6055755615234375 102.96538543701171875 106.1681976318359375 108.6005859375 110.93768310546875 113.20556640625 114.78952789306640625 116.1966705322265625 117.76863861083984375 118.8773193359375 119.99532318115234375 120.35688018798828125 119.81400299072265625 118.65656280517578125 117.10845947265625 115.27930450439453125 113.3215484619140625 111.35979461669921875 109.4455718994140625 107.501129150390625 105.41181182861328125 103.0789794921875 100.52162933349609375 97.9391326904296875 97.72766876220703125 98.95154571533203125 100.85904693603515625 102.5964508056640625 103.57544708251953125 103.092498779296875 101.37749481201171875 98.9872283935546875 96.29073333740234375 93.99861907958984375 93.1261444091796875 92.31208038330078125 91.46878814697265625 90.69927215576171875 90.20655059814453125 90.0743560791015625 90.16532135009765625 90.422760009765625 90.82633209228515625 91.40489959716796875 92.29535675048828125 93.54718780517578125 94.8690032958984375 96.20558929443359375 98.2353057861328125 102.1063079833984375 107.58110809326171875 113.6051025390625 119.0480194091796875 125.30796051025390625 131.8215789794921875 138.0009002685546875 143.163909912109375 147.3844146728515625 149.67254638671875 151.6702423095703125 153.6272430419921875 155.45184326171875 156.173126220703125 155.8781280517578125 154.5989837646484375 152.3183441162109375 149.0918731689453125 144.986602783203125 140.156768798828125 134.8898162841796875 129.5811614990234375 124.3626861572265625 119.20487213134765625 114.37493896484375 110.1256103515625 106.3649749755859375 103.0537567138671875 100.1610870361328125 97.7233428955078125 95.863189697265625 95.041351318359375 94.7883453369140625 95.875335693359375 98.20325469970703125 101.3420867919921875 105.333251953125 110.02831268310546875 114.94570159912109375 119.62804412841796875 124.6498870849609375 129.2622222900390625 133.712066650390625 137.145111083984375 140.0043792724609375 142.613922119140625 144.534149169921875 145.877960205078125 146.812774658203125 146.873016357421875 146.4481658935546875 145.747039794921875 144.2350616455078125 141.9825439453125 139.5585174560546875 136.532257080078125 133.1937408447265625 129.7047271728515625 125.96016693115234375 122.22934722900390625 118.50324249267578125 114.814117431640625 111.26214599609375 107.8432769775390625 104.444915771484375 101.19016265869140625 97.9292144775390625 94.60118865966796875 91.19060516357421875 87.68233489990234375 83.8580169677734375 79.7887725830078125 75.3213958740234375 70.7204437255859375 65.8906402587890625 60.660186767578125 55.2982940673828125 49.9479827880859375 44.637699127197265625 39.020931243896484375 33.60678863525390625 27.967761993408203125 22.254352569580078125 16.04915618896484375 9.6413030624389648438 -99999 -99999 -99999 -99999 -99999 -99999 -99999 -99999 -99999 -99999 -99999 -99999 -99999 -99999 -99999 -99999 -99999 -99999 -99999 -99999 -99999 -99999 -99999 -99999 -99999 -99999 -99999 -99999
 -99999 -99999 -99999 -99999 -99999 -99999 -99999 -99999 -99999 -99999 -99999 -99999 -99999 -99999 71.5286865234375 72.52117156982421875 73.55110931396484375 74.47402191162109375 75.330352783203125 76.02557373046875 76.646087646484375 77.188201904296875 77.625335693359375 78.00363922119140625 78.249725341796875 78.47055816650390625 78.5020904541015625 78.524322509765625 78.432861328125 78.32118988037109375 78.06865692138671875 77.7840423583984375 77.40404510498046875 76.970306396484375 76.44841766357421875 75.96726226806640625 75.44458770751953125 74.807708740234375 74.16138458251953125 73.5209503173828125 72.801361083984375 72.10181427001953125 71.3098602294921875 70.62485504150390625 69.91933441162109375 69.12944793701171875 68.38510894775390625 67.71209716796875 67.00432586669921875 66.24358367919921875 65.7671661376953125 65.4177398681640625 65.3590087890625 65.70890045166015625 66.67916107177734375 67.38417816162109375 67.7387542724609375 69.1847381591796875 70.907318115234375 73.1467742919921875 75.78896331787109375 78.72674560546875 81.9935760498046875 85.4593048095703125 89.11864471435546875 92.73618316650390625 96.326751708984375 100.039031982421875 103.47031402587890625 106.27719879150390625 109.35550689697265625 111.7777252197265625 113.79412841796875 115.3503265380859375 116.48604583740234375 117.27631378173828125 118.03356170654296875 118.63871002197265625 118.80454254150390625 118.08727264404296875 116.8601226806640625 115.311065673828125 113.54015350341796875 111.64383697509765625 109.73938751220703125 107.88288116455078125 106.0515289306640625 104.18004608154296875 102.18117523193359375 99.77911376953125 97.4296722412109375 95.9395599365234375 95.94551849365234375 98.404937744140625 100.69095611572265625 101.83354949951171875 101.67913818359375 100.37640380859375 98.39331817626953125 96.55078887939453125 94.69672393798828125 92.8315582275390625 90.9739227294921875 89.64342498779296875 89.00012969970703125 88.83977508544921875 89.10800933837890625 89.71623992919921875 90.45166778564453125 91.27854156494140625 92.268524169921875 93.55315399169921875 95.279541015625 97.45136260986328125 99.56096649169921875 102.5430450439453125 107.04850006103515625 112.78385162353515625 118.63152313232421875 123.8071136474609375 129.1573638916015625 134.955169677734375 140.33905029296875 144.657318115234375 147.9455413818359375 150.541015625 152.3047332763671875 153.7628936767578125 154.4398956298828125 154.53424072265625 153.6441497802734375 151.7692108154296875 148.954254150390625 145.576934814453125 141.3759613037109375 136.5090484619140625 131.4763336181640625 126.14182281494140625 120.61859893798828125 115.45278167724609375 110.69893646240234375 106.36916351318359375 102.579345703125 99.22345733642578125 96.418792724609375 94.23636627197265625 92.62735748291015625 92.02439117431640625 92.143768310546875 93.579254150390625 96.1068572998046875 99.497802734375 103.76073455810546875 109.00470733642578125 114.43970489501953125 119.89890289306640625 124.46681976318359375 128.5941619873046875 132.26434326171875 135.5775604248046875 138.1596527099609375 140.5391998291015625 142.2142791748046875 143.421539306640625 144.210357666015625 144.167999267578125 143.696929931640625 142.5578460693359375 140.87432861328125 138.90008544921875 136.5378570556640625 133.6286773681640625 130.485015869140625 127.09917449951171875 123.51323699951171875 119.86717987060546875 116.155853271484375 112.54705047607421875 108.956695556640625 105.41811370849609375 101.901092529296875 98.51015472412109375 94.99172210693359375 91.5396728515625 87.87944793701171875 84.07032012939453125 80.05963897705078125 75.91008758544921875 71.44654083251953125 66.63251495361328125 61.616786956787109375 56.51613616943359375 51.343349456787109375 45.8688812255859375 40.45203399658203125 34.9050750732421875 29.137569427490234375 23.328998565673828125 17.43335723876953125 11.38765716552734375 5.3546924591064453125 -99999 -99999 -99999 -99999 -99999 -99999 -99999 -99999 -99999 -99999 -99999 -99999 -99999 -99999 -99999 -99999 -99999 -99999 -99999 -99999 -99999 -99999 -99999 -99999 -99999 -99999 -99999 -99999
 -99999 -99999 -99999 -99999 -99999 -99999 -99999 -99999 -99999 -99999 -99999 -99999 -99999 72.70067596435546875 73.94403839111328125 75.13509368896484375 76.1352386474609375 77.12808990478515625 77.98386383056640625 78.736541748046875 79.42281341552734375 79.99662017822265625 80.504730224609375 80.876068115234375 81.15329742431640625 81.27964019775390625 81.44873046875 81.3921356201171875 81.3029937744140625 81.1171722412109375 80.834991455078125 80.48638916015625 80.1099700927734375 79.6145172119140625 79.078216552734375 78.49985504150390625 77.8600311279296875 77.19135284423828125 76.4082794189453125 75.70851898193359375 74.90642547607421875 74.16025543212890625 73.33530426025390625 72.52381134033203125 71.5277099609375 70.6501617431640625 69.75556182861328125 68.879852294921875 68.0989837646484375 67.37946319580078125 66.74210357666015625 66.36440277099609375 66.2516326904296875 66.1709136962890625 66.21361541748046875 67.05464935302734375 67.9838104248046875 69.0204315185546875 70.8778533935546875 73.00115966796875 75.664581298828125 78.57968902587890625 81.7891082763671875 85.3819580078125 88.94286346435546875 92.61348724365234375 96.431610107421875 100.10530853271484375 103.44290924072265625 106.9404754638671875 109.82082366943359375 112.355682373046875 114.07442474365234375 114.73972320556640625 115.66281890869140625 116.11815643310546875 116.80171966552734375 116.9162139892578125 116.57569122314453125 115.79131317138671875 114.60384368896484375 113.0807342529296875 111.34391021728515625 109.5591583251953125 107.7971038818359375 106.1259765625 104.60613250732421875 103.279144287109375 101.9741058349609375 100.573486328125 98.903289794921875 96.885467529296875 95.95552825927734375 97.08623504638671875 99.032562255859375 100.08673095703125 99.859344482421875 98.456634521484375 96.64716339111328125 95.50897979736328125 94.5557861328125 91.406768798828125 88.8658599853515625 87.505523681640625 87.169525146484375 87.48681640625 88.4603118896484375 89.67688751220703125 90.89548492431640625 92.141204833984375 93.53412628173828125 95.343475341796875 97.641876220703125 100.33709716796875 103.33959197998046875 106.90116119384765625 112.09503173828125 117.41954803466796875 122.37957000732421875 127.041717529296875 131.847869873046875 136.4981689453125 140.883026123046875 144.715606689453125 147.7164306640625 149.822052001953125 151.133270263671875 151.9712371826171875 152.14544677734375 151.691680908203125 150.36187744140625 148.04974365234375 145.0503387451171875 141.1703643798828125 136.7583770751953125 131.9533233642578125 126.6331939697265625 121.110595703125 115.9557952880859375 110.7864990234375 105.9311981201171875 101.5005645751953125 97.6830291748046875 94.456298828125 91.78211212158203125 89.9373626708984375 88.677703857421875 88.2221527099609375 88.51511383056640625 90.0151824951171875 92.478607177734375 95.8375396728515625 100.212158203125 106.80800628662109375 112.899658203125 118.15039825439453125 122.41448974609375 126.1329193115234375 129.7633514404296875 132.62640380859375 135.3791656494140625 137.56414794921875 138.949432373046875 140.19451904296875 140.5839385986328125 140.342071533203125 139.75836181640625 138.9929656982421875 137.529693603515625 135.4685821533203125 133.120941162109375 130.3968658447265625 127.2542877197265625 124.02469635009765625 120.57234954833984375 117.06919097900390625 113.4933624267578125 109.88935089111328125 106.2490081787109375 102.634063720703125 99.0310821533203125 95.47135162353515625 91.865142822265625 88.17302703857421875 84.42041778564453125 80.440338134765625 76.28404998779296875 71.958221435546875 67.3099517822265625 62.656005859375 57.673572540283203125 52.42642974853515625 47.03278350830078125 41.82624053955078125 36.123470306396484375 30.459995269775390625 24.836475372314453125 19.074916839599609375 13.10050201416015625 -99999 -99999 -99999 -99999 -99999 -99999 -99999 -99999 -99999 -99999 -99999 -99999 -99999 -99999 -99999 -99999 -99999 -99999 -99999 -99999 -99999 -99999 -99999 -99999 -99999 -99999 -99999 -99999 -99999 -99999
 -99999 -99999 -99999 -99999 -99999 -99999 -99999 -99999 -99999 -99999 -99999 -99999 73.61008453369140625 75.09497833251953125 76.384521484375 77.55269622802734375 78.6416168212890625 79.694122314453125 80.551300048828125 81.4050750732421875 82.13048553466796875 82.76236724853515625 83.238067626953125 83.6033935546875 83.977691650390625 84.09790802001953125 84.196014404296875 84.1710662841796875 84.07411956787109375 83.834136962890625 83.5876312255859375 83.16915130615234375 82.73227691650390625 82.20273590087890625 81.64579010009765625 80.9645233154296875 80.2753143310546875 79.5701446533203125 78.74485015869140625 77.891998291015625 77.02463531494140625 76.13298797607421875 75.1652069091796875 74.25695037841796875 73.2754669189453125 72.29476165771484375 71.31377410888671875 70.3371429443359375 69.44423675537109375 68.693328857421875 67.7805023193359375 67.0204010009765625 66.6051025390625 66.557891845703125 66.89239501953125 67.43047332763671875 68.20748138427734375 69.19399261474609375 70.87047576904296875 73.042877197265625 75.473907470703125 78.3332672119140625 81.62784576416015625 85.096221923828125 88.69640350341796875 92.482513427734375 96.26993560791015625 99.85235595703125 103.34748077392578125 106.875335693359375 109.89374542236328125 112.062774658203125 113.6603851318359375 114.13864898681640625 114.88855743408203125 115.032562255859375 115.0017242431640625 114.7166595458984375 114.14917755126953125 113.21431732177734375 111.92072296142578125 110.43378448486328125 108.8223724365234375 107.1504364013671875 105.538665771484375 104.114227294921875 102.956207275390625 102.27408599853515625 101.87847137451171875 101.58255767822265625 101.05377960205078125 99.97945404052734375 98.5856781005859375 97.7819061279296875 97.223114013671875 97.41025543212890625 96.76638031005859375 95.07474517822265625 93.73798370361328125 93.05846405029296875 92.48873138427734375 88.9541473388671875 86.698974609375 85.920989990234375 86.058074951171875 87.07222747802734375 88.47808837890625 90.11246490478515625 91.70441436767578125 93.3273468017578125 95.159393310546875 97.46244049072265625 100.027862548828125 103.16890716552734375 106.91689300537109375 111.2547454833984375 115.738922119140625 120.34976959228515625 124.72754669189453125 129.0348358154296875 133.040008544921875 137.053619384765625 140.784698486328125 143.8839569091796875 146.1957244873046875 147.901947021484375 148.8349151611328125 149.226287841796875 148.8567352294921875 147.65869140625 145.8981475830078125 143.38189697265625 140.047515869140625 135.9991302490234375 131.3829803466796875 126.2793121337890625 121.0424346923828125 115.7496337890625 110.31562042236328125 105.08090972900390625 100.28987884521484375 95.93009185791015625 92.14560699462890625 88.92437744140625 86.562469482421875 84.795074462890625 83.7220458984375 83.44254302978515625 83.99530029296875 85.36505126953125 87.797210693359375 91.15239715576171875 95.67041015625 101.715667724609375 109.196441650390625 114.43834686279296875 118.695220947265625 122.4170074462890625 125.91645050048828125 128.9687957763671875 131.54071044921875 133.4309234619140625 134.9630889892578125 135.8731231689453125 136.2283782958984375 136.4394378662109375 135.903167724609375 134.7837982177734375 133.2974853515625 131.3829345703125 129.14599609375 126.625640869140625 123.78218841552734375 120.63814544677734375 117.30887603759765625 113.87258148193359375 110.34729766845703125 106.76447296142578125 103.16942596435546875 99.51128387451171875 95.880401611328125 92.23915863037109375 88.47103118896484375 84.67670440673828125 80.77599334716796875 76.63603973388671875 72.41976165771484375 67.98227691650390625 63.402313232421875 58.511318206787109375 53.4942474365234375 48.383220672607421875 43.045440673828125 37.696369171142578125 32.112945556640625 -99999 -99999 -99999 -99999 -99999 -99999 -99999 -99999 -99999 -99999 -99999 -99999 -99999 -99999 -99999 -99999 -99999 -99999 -99999 -99999 -99999 -99999 -99999 -99999 -99999 -99999 -99999 -99999 -99999 -99999 -99999 -99999 -99999 -99999
 -99999 -99999 -99999 -99999 -99999 -99999 -99999 -99999 -99999 -99999 -99999 74.27465057373046875 75.87361907958984375 77.24294281005859375 78.67119598388671875 79.89299774169921875 81.1409912109375 82.14383697509765625 83.1636962890625 83.95325469970703125 84.74764251708984375 85.3724365234375 85.95612335205078125 86.36428070068359375 86.66094970703125 86.82924652099609375 86.94052886962890625 86.891143798828125 86.77356719970703125 86.51197052001953125 86.21419525146484375 85.8021697998046875 85.3563232421875 84.70265960693359375 84.12943267822265625 83.40847015380859375 82.6571197509765625 81.85613250732421875 80.9654541015625 80.0805816650390625 79.15643310546875 78.20032501220703125 77.22452545166015625 76.248809814453125 75.20952606201171875 74.14237213134765625 73.071075439453125 71.984588623046875 70.931732177734375 69.941650390625 69.0397491455078125 68.1696929931640625 67.6776885986328125 67.370819091796875 67.1634979248046875 67.1176300048828125 67.91213226318359375 69.37522125244140625 70.762725830078125 72.79001617431640625 75.32894134521484375 78.21642303466796875 81.42291259765625 84.7130279541015625 88.3332977294921875 91.97026824951171875 95.606597900390625 99.092742919921875 102.75160980224609375 106.1859588623046875 109.319915771484375 112.40746307373046875 113.765167236328125 113.60880279541015625 113.41611480712890625 113.2085723876953125 112.85053253173828125 112.25598907470703125 111.3728485107421875 110.27669525146484375 109.0187530517578125 107.56456756591796875 106.08795166015625 104.5387115478515625 103.07369232177734375 101.671722412109375 100.76444244384765625 100.562744140625 101.21985626220703125 102.41393280029296875 103.14374542236328125 102.53377532958984375 101.01964569091796875 99.388946533203125 97.08026123046875 95.1813201904296875 93.354095458984375 91.6836395263671875 90.31787109375 90.24736785888671875 90.9168243408203125 88.9403228759765625 86.30904388427734375 86.01020050048828125 86.8020477294921875 87.99221038818359375 89.39908599853515625 91.02024078369140625 92.71843719482421875 94.61773681640625 96.906097412109375 99.5147857666015625 102.51995086669921875 105.9995269775390625 109.77469635009765625 113.899932861328125 118.16307830810546875 122.34124755859375 126.36786651611328125 129.9914093017578125 133.5029144287109375 136.7336273193359375 139.691375732421875 142.210296630859375 144.055511474609375 145.1706390380859375 145.661529541015625 145.4354095458984375 144.625701904296875 143.130035400390625 140.868865966796875 137.816436767578125 134.2702789306640625 130.0557403564453125 125.339752197265625 120.3085479736328125 114.7889862060546875 109.24773406982421875 103.87009429931640625 98.73661041259765625 93.85669708251953125 89.54717254638671875 85.84854888916015625 82.85955810546875 80.46727752685546875 78.9813690185546875 78.3128662109375 78.1898193359375 78.69327545166015625 80.19478607177734375 82.46933746337890625 85.47922515869140625 89.65154266357421875 95.1676025390625 103.08626556396484375 108.60137176513671875 113.32935333251953125 117.389190673828125 120.9203948974609375 123.9625701904296875 126.5634613037109375 128.529632568359375 130.037017822265625 131.1824798583984375 131.7319793701171875 131.568511962890625 131.14971923828125 130.291595458984375 128.942596435546875 127.10787200927734375 125.04102325439453125 122.51201629638671875 119.7637176513671875 116.76979827880859375 113.580474853515625 110.26018524169921875 106.81589508056640625 103.3418121337890625 99.76213836669921875 96.1578826904296875 92.47568511962890625 88.72687530517578125 84.89983367919921875 81.0032806396484375 77.01583099365234375 72.82421112060546875 68.5345001220703125 64.00901031494140625 59.34137725830078125 54.56488037109375 49.547344207763671875 -99999 -99999 -99999 -99999 -99999 -99999 -99999 -99999 -99999 -99999 -99999 -99999 -99999 -99999 -99999 -99999 -99999 -99999 -99999 -99999 -99999 -99999 -99999 -99999 -99999 -99999 -99999 -99999 -99999 -99999 -99999 -99999 -99999 -99999 -99999 -99999 -99999 -99999
 -99999 -99999 -99999 -99999 -99999 -99999 -99999 -99999 -99999 -99999 74.5862579345703125 76.24139404296875 77.91704559326171875 79.41219329833984375 80.88320159912109375 82.19022369384765625 83.434783935546875 84.59395599365234375 85.57024383544921875 86.49965667724609375 87.29666900634765625 87.95446014404296875 88.5148468017578125 88.96436309814453125 89.27143096923828125 89.4603424072265625 89.53388214111328125 89.51891326904296875 89.363922119140625 89.10315704345703125 88.80792999267578125 88.300811767578125 87.7696380615234375 87.18198394775390625 86.51306915283203125 85.74504852294921875 84.93465423583984375 84.108795166015625 83.1543121337890625 82.29972076416015625 81.27686309814453125 80.25052642822265625 79.208465576171875 78.16793060302734375 77.1205291748046875 76.00225067138671875 74.89202880859375 73.78224945068359375 72.627105712890625 71.52678680419921875 70.49212646484375 69.55596923828125 68.5789794921875 67.7908935546875 67.3166961669921875 67.46071624755859375 68.354400634765625 69.302093505859375 70.8310546875 72.92922210693359375 75.33704376220703125 77.9829254150390625 81.05567169189453125 84.40901947021484375 87.83397674560546875 91.3846435546875 94.68602752685546875 98.38669586181640625 101.61295318603515625 105.24744415283203125 108.4454193115234375 111.56334686279296875 113.4629364013671875 112.64484405517578125 111.8104400634765625 111.0980682373046875 110.30754852294921875 109.395294189453125 108.36930084228515625 107.19805145263671875 105.8828277587890625 104.4833526611328125 103.062530517578125 101.75170135498046875 100.55953216552734375 99.15918731689453125 97.89789581298828125 97.85060882568359375 99.41350555419921875 102.1214599609375 103.995330810546875 103.9403076171875 102.34165191650390625 100.19399261474609375 97.82269287109375 94.547515869140625 91.7369537353515625 90.06081390380859375 89.02117156982421875 89.30597686767578125 90.636322021484375 88.6131744384765625 87.52118682861328125 87.62798309326171875 88.411529541015625 89.55401611328125 90.94744110107421875 92.47002410888671875 94.190185546875 96.219818115234375 98.630157470703125 101.404388427734375 104.64337158203125 108.2313690185546875 112.06050872802734375 116.06206512451171875 119.93186187744140625 123.555938720703125 127.009124755859375 130.2591094970703125 133.249053955078125 135.8506317138671875 138.1192169189453125 139.9299468994140625 141.16424560546875 141.80767822265625 141.784454345703125 141.1370086669921875 139.8821563720703125 137.7795562744140625 135.2595062255859375 131.9891815185546875 128.030792236328125 123.49364471435546875 118.690185546875 113.439453125 108.0178070068359375 102.46793365478515625 97.02268218994140625 91.72628021240234375 86.8489532470703125 82.59186553955078125 79.04439544677734375 76.1643218994140625 74.0862579345703125 72.76580810546875 72.31717681884765625 72.50212860107421875 73.224090576171875 74.44173431396484375 76.74338531494140625 79.73760223388671875 83.6657867431640625 89.17868804931640625 95.61447906494140625 102.02767181396484375 107.09381866455078125 111.44073486328125 115.193145751953125 118.4108428955078125 121.07393646240234375 123.12308502197265625 124.828369140625 125.81609344482421875 126.4326629638671875 126.5567169189453125 126.11052703857421875 125.21092987060546875 124.12903594970703125 122.3479766845703125 120.4061126708984375 118.06871795654296875 115.4787750244140625 112.64487457275390625 109.66757965087890625 106.4088287353515625 103.0830078125 99.62018585205078125 96.09687042236328125 92.47840118408203125 88.76902008056640625 85.03174591064453125 81.15601348876953125 77.20069122314453125 73.16353607177734375 68.9262542724609375 64.56024169921875 -99999 -99999 -99999 -99999 -99999 -99999 -99999 -99999 -99999 -99999 -99999 -99999 -99999 -99999 -99999 -99999 -99999 -99999 -99999 -99999 -99999 -99999 -99999 -99999 -99999 -99999 -99999 -99999 -99999 -99999 -99999 -99999 -99999 -99999 -99999 -99999 -99999 -99999 -99999 -99999 -99999 -99999
 -99999 -99999 -99999 -99999 -99999 -99999 -99999 -99999 -99999 74.4484100341796875 76.32581329345703125 78.1698760986328125 79.78435516357421875 81.4731292724609375 82.98250579833984375 84.40880584716796875 85.6421966552734375 86.87093353271484375 87.9051361083984375 88.88072967529296875 89.6988983154296875 90.4125213623046875 90.98992156982421875 91.48076629638671875 91.7995452880859375 92.03639984130859375 92.0922393798828125 92.04604339599609375 91.8741607666015625 91.60002899169921875 91.219329833984375 90.71541595458984375 90.1613616943359375 89.5196685791015625 88.80057525634765625 88.029541015625 87.22879791259765625 86.31084442138671875 85.31488037109375 84.36590576171875 83.31980133056640625 82.2183990478515625 81.252471923828125 80.1749725341796875 79.11305999755859375 78.076995849609375 76.93439483642578125 75.79732513427734375 74.624786376953125 73.37157440185546875 72.13507080078125 70.9531402587890625 69.9212493896484375 69.11106109619140625 68.7941741943359375 68.60147857666015625 68.82470703125 69.81339263916015625 71.15550994873046875 73.07489013671875 75.36505889892578125 77.9930267333984375 81.10449981689453125 84.004608154296875 87.1483306884765625 90.7080841064453125 94.17539215087890625 97.094512939453125 100.50356292724609375 103.3523406982421875 106.06623077392578125 108.69854736328125 110.551025390625 110.2952728271484375 109.41294097900390625 108.44443511962890625 107.46845245361328125 106.4061737060546875 105.22164154052734375 103.92867279052734375 102.57962799072265625 101.41611480712890625 100.27962493896484375 99.084747314453125 97.9277801513671875 96.707183837890625 94.8905181884765625 94.3251953125 96.72332000732421875 100.6203155517578125 103.73345184326171875 103.414764404296875 101.75437164306640625 99.60677337646484375 97.21546173095703125 94.14311981201171875 91.702880859375 90.35631561279296875 89.268951416015625 89.1920318603515625 87.7240142822265625 87.4788665771484375 88.349273681640625 89.3535308837890625 90.376190185546875 91.44817352294921875 92.71021270751953125 94.13962554931640625 95.7591400146484375 97.729339599609375 100.34833526611328125 103.30905914306640625 106.54891204833984375 110.04338836669921875 113.7992706298828125 117.482330322265625 120.94544219970703125 124.233642578125 127.28076934814453125 130.03948974609375 132.3748321533203125 134.3822174072265625 135.9715576171875 137.162872314453125 137.805419921875 137.9019927978515625 137.4041748046875 136.2397613525390625 134.5075836181640625 132.1097869873046875 129.140472412109375 125.527435302734375 121.44598388671875 116.87950897216796875 111.76126861572265625 106.3330230712890625 100.70896148681640625 95.07332611083984375 89.5873565673828125 84.28595733642578125 79.31114959716796875 75.09236907958984375 71.5764312744140625 68.83383941650390625 67.1054229736328125 66.0691070556640625 65.9617156982421875 66.53353118896484375 67.245330810546875 68.6690826416015625 71.15160369873046875 74.2479400634765625 78.2279510498046875 83.53685760498046875 89.48529052734375 95.21778106689453125 100.49398040771484375 105.0841827392578125 108.92842864990234375 112.23105621337890625 115.08589935302734375 116.9916839599609375 118.9863433837890625 120.12445831298828125 120.75182342529296875 120.91458892822265625 120.7923431396484375 119.9868011474609375 118.90877532958984375 117.46368408203125 115.51688385009765625 113.2902069091796875 110.85968780517578125 108.1927947998046875 105.2534332275390625 102.241851806640625 98.93895721435546875 95.58679962158203125 92.1234283447265625 88.5440673828125 84.8970184326171875 81.13544464111328125 77.2402191162109375 73.297027587890625 -99999 -99999 -99999 -99999 -99999 -99999 -99999 -99999 -99999 -99999 -99999 -99999 -99999 -99999 -99999 -99999 -99999 -99999 -99999 -99999 -99999 -99999 -99999 -99999 -99999 -99999 -99999 -99999 -99999 -99999 -99999 -99999 -99999 -99999 -99999 -99999 -99999 -99999 -99999 -99999 -99999 -99999 -99999 -99999 -99999
 -99999 -99999 -99999 -99999 -99999 -99999 -99999 -99999 73.9504547119140625 76.12769317626953125 78.0638275146484375 79.9175872802734375 81.70058441162109375 83.38916778564453125 84.97162628173828125 86.4341278076171875 87.76923370361328125 89.01458740234375 90.142333984375 91.1334381103515625 92.01610565185546875 92.7546234130859375 93.39629364013671875 93.87567901611328125 94.353668212890625 94.44049835205078125 94.532318115234375 94.503082275390625 94.2559967041015625 93.9565582275390625 93.4897613525390625 93.00070953369140625 92.39690399169921875 91.74236297607421875 90.99686431884765625 90.189208984375 89.31426239013671875 88.38341522216796875 87.401458740234375 86.37940216064453125 85.29553985595703125 84.34954071044921875 83.20125579833984375 82.156463623046875 81.11623382568359375 80.1188812255859375 79.03665924072265625 77.91741943359375 76.747894287109375 75.5029754638671875 74.14006805419921875 72.8528900146484375 71.81298828125 70.94074249267578125 69.84185028076171875 69.61315155029296875 69.79666900634765625 70.57745361328125 71.79126739501953125 73.44763946533203125 75.53949737548828125 78.1570587158203125 80.9006500244140625 83.83724212646484375 86.94504547119140625 90.23177337646484375 93.11019134521484375 96.0030670166015625 98.50061798095703125 100.95719146728515625 103.950653076171875 105.675445556640625 106.8443450927734375 106.9384765625 106.34710693359375 105.47126007080078125 104.42598724365234375 103.24896240234375 101.9519195556640625 100.765777587890625 99.58315277099609375 98.307403564453125 97.285369873046875 96.38854217529296875 96.02260589599609375 94.75217437744140625 92.7806243896484375 91.63092803955078125 94.13584136962890625 98.06622314453125 100.810546875 100.998565673828125 99.7018280029296875 97.6117401123046875 95.46514129638671875 93.41310882568359375 91.957733154296875 91.4653472900390625 91.51236724853515625 91.3315277099609375 87.46543121337890625 87.4425048828125 89.55176544189453125 91.178955078125 92.42981719970703125 93.4908905029296875 94.555877685546875 95.96150970458984375 97.46483612060546875 99.41841888427734375 101.87883758544921875 104.9052886962890625 108.18691253662109375 111.80251312255859375 115.364471435546875 118.67682647705078125 121.77387237548828125 124.590606689453125 127.046875 129.2396392822265625 131.026763916015625 132.4819488525390625 133.469207763671875 134.0203857421875 134.048126220703125 133.600433349609375 132.6090850830078125 131.018096923828125 128.85272216796875 126.08135223388671875 122.8340911865234375 118.96933746337890625 114.544189453125 109.6116485595703125 104.4053192138671875 98.9252471923828125 93.22025299072265625 87.4649505615234375 81.82544708251953125 76.3499755859375 71.44501495361328125 67.167999267578125 63.664348602294921875 61.226299285888671875 59.705951690673828125 59.193027496337890625 59.466716766357421875 60.30873870849609375 61.285655975341796875 62.59896087646484375 65.06256866455078125 68.67798614501953125 72.91229248046875 77.52448272705078125 83.36199951171875 88.63812255859375 93.62580108642578125 98.2886810302734375 102.3399658203125 105.7838287353515625 108.4864654541015625 110.82070159912109375 112.746826171875 114.035888671875 114.79125213623046875 115.042724609375 114.94202423095703125 114.39974212646484375 113.3573455810546875 111.98554229736328125 110.3165283203125 108.33043670654296875 106.0133514404296875 103.49285888671875 100.79744720458984375 97.7257843017578125 94.66201019287109375 91.35773468017578125 87.93231201171875 84.4265899658203125 -99999 -99999 -99999 -99999 -99999 -99999 -99999 -99999 -99999 -99999 -99999 -99999 -99999 -99999 -99999 -99999 -99999 -99999 -99999 -99999 -99999 -99999 -99999 -99999 -99999 -99999 -99999 -99999 -99999 -99999 -99999 -99999 -99999 -99999 -99999 -99999 -99999 -99999 -99999 -99999 -99999 -99999 -99999 -99999 -99999 -99999 -99999 -99999 -99999
 -99999 -99999 -99999 -99999 -99999 -99999 -99999 73.19155120849609375 75.4872894287109375 77.54341888427734375 79.56874847412109375 81.5424346923828125 83.45066070556640625 85.19680023193359375 86.87961578369140625 88.374908447265625 89.77260589599609375 91.06783294677734375 92.217071533203125 93.28385162353515625 94.17359161376953125 95.00835418701171875 95.62587738037109375 96.090972900390625 96.54852294921875 96.74356842041015625 96.8242950439453125 96.6663360595703125 96.51409912109375 96.13472747802734375 95.74993133544921875 95.17188262939453125 94.50738525390625 93.78931427001953125 93.05521392822265625 92.18891143798828125 91.29351043701171875 90.3614654541015625 89.37659454345703125 88.288330078125 87.20865631103515625 86.15056610107421875 85.0842742919921875 84.02236175537109375 83.04638671875 82.16353607177734375 81.30853271484375 80.2755126953125 79.15232086181640625 77.89554595947265625 76.567413330078125 75.13178253173828125 73.76369476318359375 72.60150909423828125 71.61798095703125 70.8080291748046875 71.24362945556640625 71.473114013671875 72.58029937744140625 74.321746826171875 76.3988494873046875 78.64992523193359375 81.02484130859375 83.7265777587890625 86.6644439697265625 89.6890716552734375 92.60283660888671875 95.33642578125 96.93584442138671875 98.70774078369140625 101.091217041015625 102.5154876708984375 103.40399932861328125 103.60062408447265625 103.249298095703125 102.41888427734375 101.39817047119140625 100.18805694580078125 98.979522705078125 97.73668670654296875 96.62542724609375 95.71498870849609375 94.99211883544921875 94.37555694580078125 93.983184814453125 93.3884735107421875 92.05804443359375 91.47934722900390625 93.222869873046875 95.8970794677734375 97.99474334716796875 98.30462646484375 97.346343994140625 95.8153228759765625 94.1712799072265625 93.08158111572265625 92.95156097412109375 94.5462188720703125 96.9151611328125 98.5064849853515625 94.1404266357421875 91.57566070556640625 92.86502838134765625 93.8359832763671875 94.819915771484375 95.8074493408203125 96.78816986083984375 97.86049652099609375 99.14624786376953125 100.8734283447265625 103.38570404052734375 106.47736358642578125 110.017120361328125 113.41584014892578125 116.61415863037109375 119.61861419677734375 122.3340301513671875 124.67343902587890625 126.5832061767578125 128.1906890869140625 129.375946044921875 130.1574249267578125 130.5243682861328125 130.4771881103515625 129.9754638671875 128.9777984619140625 127.49367523193359375 125.468963623046875 122.9117889404296875 119.8054656982421875 116.18831634521484375 112.0060577392578125 107.45958709716796875 102.44712066650390625 97.0706939697265625 91.354888916015625 85.53488922119140625 79.682098388671875 73.96482086181640625 68.5178680419921875 63.435016632080078125 58.9840240478515625 55.555004119873046875 53.047374725341796875 51.96230316162109375 51.894886016845703125 52.80594635009765625 54.437496185302734375 55.864170074462890625 57.007045745849609375 59.52359771728515625 63.129085540771484375 67.26007843017578125 71.99033355712890625 77.02512359619140625 82.03844451904296875 87.00231170654296875 91.42276763916015625 95.38683319091796875 98.7698822021484375 101.753662109375 104.36397552490234375 106.12400054931640625 107.3938751220703125 108.49706268310546875 108.97756195068359375 108.8216094970703125 108.51358795166015625 107.668670654296875 106.48920440673828125 104.95189666748046875 103.0901336669921875 100.94944000244140625 98.48105621337890625 95.85767364501953125 93.044921875 -99999 -99999 -99999 -99999 -99999 -99999 -99999 -99999 -99999 -99999 -99999 -99999 -99999 -99999 -99999 -99999 -99999 -99999 -99999 -99999 -99999 -99999 -99999 -99999 -99999 -99999 -99999 -99999 -99999 -99999 -99999 -99999 -99999 -99999 -99999 -99999 -99999 -99999 -99999 -99999 -99999 -99999 -99999 -99999 -99999 -99999 -99999 -99999 -99999 -99999 -99999 -99999 -99999
 -99999 -99999 -99999 -99999 -99999 -99999 72.02691650390625 74.3201904296875 76.58307647705078125 78.825592041015625 80.99176788330078125 83.09229278564453125 85.04320526123046875 86.8874053955078125 88.588104248046875 90.1617584228515625 91.65917205810546875 92.98775482177734375 94.258697509765625 95.26126861572265625 96.24047088623046875 97.06833648681640625 97.75527191162109375 98.35292816162109375 98.658538818359375 98.903961181640625 99.03684234619140625 98.85651397705078125 98.5828399658203125 98.2911376953125 97.56937408447265625 97.1083221435546875 96.40467071533203125 95.6724090576171875 94.91986083984375 94.10182952880859375 93.17527008056640625 92.1811065673828125 91.10750579833984375 90.03191375732421875 88.90395355224609375 87.8385467529296875 86.78565216064453125 85.85474395751953125 85.06267547607421875 84.21979522705078125 83.46720123291015625 82.68109130859375 81.659210205078125 80.5170135498046875 79.16368865966796875 77.654937744140625 76.09796905517578125 74.5201263427734375 73.5545806884765625 72.9821014404296875 72.059051513671875 72.87390899658203125 73.91561126708984375 75.67356109619140625 77.34647369384765625 79.2481689453125 81.4552001953125 83.75222015380859375 86.50334930419921875 89.70128631591796875 92.606964111328125 94.6775054931640625 95.80603790283203125 97.34894561767578125 98.95946502685546875 100.13306427001953125 100.47332763671875 100.5901947021484375 100.3415069580078125 99.71053314208984375 98.78533935546875 97.567413330078125 96.5552978515625 95.55612945556640625 94.7222137451171875 94.02850341796875 93.513641357421875 93.092681884765625 92.7616424560546875 92.2853240966796875 91.8620758056640625 91.85765838623046875 92.81200408935546875 94.381744384765625 95.5384368896484375 95.91699981689453125 95.482818603515625 94.55005645751953125 93.76276397705078125 94.3926849365234375 96.033050537109375 98.34319305419921875 100.5143280029296875 101.72167205810546875 100.06830596923828125 97.72753143310546875 97.6794281005859375 97.4115142822265625 97.54730987548828125 98.25417327880859375 98.932647705078125 99.85400390625 101.03047943115234375 102.53558349609375 104.63141632080078125 108.22165679931640625 111.77613067626953125 115.04221343994140625 118.04985809326171875 120.6532135009765625 122.74275970458984375 124.5103607177734375 125.8710174560546875 126.72736358642578125 127.34812164306640625 127.5498504638671875 127.40317535400390625 126.71166229248046875 125.63299560546875 124.1609344482421875 122.1713104248046875 119.7491302490234375 116.78792572021484375 113.37830352783203125 109.48876953125 105.0936431884765625 100.29522705078125 95.074066162109375 89.57779693603515625 83.8126068115234375 77.86238861083984375 71.89837646484375 66.05457305908203125 60.389034271240234375 55.29026031494140625 50.8532562255859375 47.189579010009765625 44.68518829345703125 43.740108489990234375 44.1836090087890625 45.91574859619140625 47.982913970947265625 49.9767913818359375 51.719509124755859375 54.05565643310546875 57.333683013916015625 61.432254791259765625 65.889373779296875 70.66478729248046875 75.40486907958984375 80.2287139892578125 84.4977264404296875 88.45465850830078125 92.04935455322265625 94.9195556640625 97.45249176025390625 99.52242279052734375 100.921051025390625 101.8759613037109375 102.5281982421875 102.729461669921875 102.37863922119140625 101.63018035888671875 100.67595672607421875 99.2729034423828125 97.5776824951171875 -99999 -99999 -99999 -99999 -99999 -99999 -99999 -99999 -99999 -99999 -99999 -99999 -99999 -99999 -99999 -99999 -99999 -99999 -99999 -99999 -99999 -99999 -99999 -99999 -99999 -99999 -99999 -99999 -99999 -99999 -99999 -99999 -99999 -99999 -99999 -99999 -99999 -99999 -99999 -99999 -99999 -99999 -99999 -99999 -99999 -99999 -99999 -99999 -99999 -99999 -99999 -99999 -99999 -99999 -99999 -99999 -99999
 -99999 -99999 -99999 -99999 -99999 70.339569091796875 72.756439208984375 75.32654571533203125 77.6367034912109375 79.98026275634765625 82.2669525146484375 84.4691162109375 86.5134429931640625 88.43468475341796875 90.2197113037109375 91.88312530517578125 93.37711334228515625 94.6805419921875 95.8999786376953125 97.0378570556640625 98.11057281494140625 99.001495361328125 99.762115478515625 100.277313232421875 100.66713714599609375 100.86722564697265625 100.9482269287109375 100.80034637451171875 100.55234527587890625 99.9713134765625 99.447998046875 98.7708587646484375 98.1757659912109375 97.23577880859375 96.5403900146484375 95.6838226318359375 94.8236846923828125 93.79476165771484375 92.6583099365234375 91.591705322265625 90.4543609619140625 89.3362579345703125 88.28433990478515625 87.47306060791015625 86.75708770751953125 86.175994873046875 85.60131072998046875 85.0623931884765625 84.42864990234375 83.46965789794921875 82.2534942626953125 80.7337188720703125 79.08620452880859375 77.12703704833984375 75.39516448974609375 74.7659149169921875 73.74091339111328125 74.450958251953125 75.9614715576171875 77.63031768798828125 79.025665283203125 80.7568359375 82.37564849853515625 84.177276611328125 86.8742523193359375 89.99999237060546875 93.07279205322265625 94.93637847900390625 95.769256591796875 96.76494598388671875 97.9415740966796875 98.3320159912109375 98.3424835205078125 98.3641815185546875 98.22145843505859375 97.593658447265625 96.75363922119140625 95.9596405029296875 95.11020660400390625 94.40708160400390625 93.72097015380859375 93.18654632568359375 92.77396392822265625 92.4791412353515625 92.19602203369140625 91.89467620849609375 91.6956024169921875 91.95873260498046875 92.63771820068359375 93.49383544921875 94.37438201904296875 94.79573822021484375 94.88663482666015625 95.0184783935546875 95.59603118896484375 96.9790802001953125 98.87340545654296875 100.99263763427734375 102.84804534912109375 103.1232147216796875 101.32630157470703125 101.59154510498046875 101.02271270751953125 100.4780120849609375 100.39874267578125 100.745025634765625 101.27260589599609375 102.0438232421875 103.19147491455078125 104.86724853515625 107.28951263427734375 110.44271087646484375 113.7999725341796875 116.8206939697265625 119.37873077392578125 121.46323394775390625 123.0620880126953125 124.25499725341796875 124.9319610595703125 125.1717376708984375 125.171905517578125 124.63330078125 123.8435516357421875 122.69635772705078125 121.1068572998046875 119.11087799072265625 116.6801605224609375 113.90729522705078125 110.59998321533203125 106.83984375 102.69629669189453125 98.0788726806640625 93.112762451171875 87.79256439208984375 82.20465087890625 76.30197906494140625 70.34112548828125 64.2559661865234375 58.348224639892578125 52.687862396240234375 47.383518218994140625 42.678890228271484375 38.869136810302734375 36.229640960693359375 35.12662506103515625 35.958797454833984375 38.0139312744140625 40.7288360595703125 43.13199615478515625 45.316295623779296875 48.178997039794921875 51.61011505126953125 55.515369415283203125 59.71734619140625 64.33893585205078125 68.97322845458984375 73.44425201416015625 77.58750152587890625 81.5499420166015625 84.97396087646484375 87.925933837890625 90.4497833251953125 92.5573883056640625 94.22869110107421875 95.2366790771484375 95.99982452392578125 96.26660919189453125 96.13422393798828125 -99999 -99999 -99999 -99999 -99999 -99999 -99999 -99999 -99999 -99999 -99999 -99999 -99999 -99999 -99999 -99999 -99999 -99999 -99999 -99999 -99999 -99999 -99999 -99999 -99999 -99999 -99999 -99999 -99999 -99999 -99999 -99999 -99999 -99999 -99999 -99999 -99999 -99999 -99999 -99999 -99999 -99999 -99999 -99999 -99999 -99999 -99999 -99999 -99999 -99999 -99999 -99999 -99999 -99999 -99999 -99999 -99999 -99999 -99999 -99999 -99999
 -99999 -99999 -99999 -99999 -99999 70.93189239501953125 73.51229095458984375 75.997039794921875 78.5110321044921875 80.99709320068359375 83.46517181396484375 85.70995330810546875 87.84856414794921875 89.8852996826171875 91.8011474609375 93.41580963134765625 94.87490081787109375 96.2938079833984375 97.5895538330078125 98.783203125 99.6928253173828125 100.79042816162109375 101.51424407958984375 102.02276611328125 102.6180877685546875 102.74210357666015625 102.7144317626953125 102.68647003173828125 102.14969635009765625 101.64235687255859375 101.100006103515625 100.18700408935546875 99.4454498291015625 98.728271484375 97.9443511962890625 97.13217926025390625 96.16422271728515625 95.30432891845703125 94.2187042236328125 93.0203704833984375 91.80974578857421875 90.5355224609375 89.4612579345703125 88.75345611572265625 88.21828460693359375 87.847320556640625 87.70764923095703125 87.4602203369140625 87.1073760986328125 86.483673095703125 85.422454833984375 84.0933685302734375 82.4515380859375 80.507904052734375 77.99222564697265625 75.96758270263671875 76.09326934814453125 76.977783203125 79.0989532470703125 80.4447021484375 81.79721832275390625 82.82709503173828125 83.44317626953125 84.800048828125 87.19400787353515625 90.56449127197265625 93.09909820556640625 94.44321441650390625 95.32480621337890625 96.49748992919921875 97.52782440185546875 97.67529296875 97.256622314453125 96.9983367919921875 96.6755523681640625 96.1258697509765625 95.59975433349609375 94.93773651123046875 94.24945831298828125 93.66778564453125 93.21154022216796875 92.8066864013671875 92.48455047607421875 92.16766357421875 91.9487457275390625 91.7952117919921875 91.7759552001953125 92.0228424072265625 92.611968994140625 93.43566131591796875 94.35861968994140625 94.82418060302734375 95.51560211181640625 96.440032958984375 97.6650238037109375 99.37392425537109375 101.47786712646484375 103.631103515625 104.9271087646484375 104.9408416748046875 104.105499267578125 103.4483795166015625 102.884490966796875 102.96277618408203125 103.13883209228515625 103.071502685546875 103.2265777587890625 103.95594024658203125 105.3441314697265625 107.45794677734375 109.991485595703125 113.06719207763671875 116.1149444580078125 118.7043609619140625 120.8139495849609375 122.35556793212890625 123.3087158203125 123.7263336181640625 123.76113128662109375 123.38299560546875 122.66860198974609375 121.49323272705078125 120.15984344482421875 118.41489410400390625 116.2925872802734375 113.89214324951171875 111.0862579345703125 107.84024810791015625 104.2608642578125 100.31276702880859375 95.9648590087890625 91.17559051513671875 86.06145477294921875 80.6019439697265625 74.92366790771484375 69.03893280029296875 62.975986480712890625 56.88417816162109375 50.9736785888671875 45.122161865234375 39.8720550537109375 35.099483489990234375 31.061801910400390625 27.924571990966796875 26.363262176513671875 27.08742523193359375 30.15154266357421875 32.895336151123046875 35.88751220703125 38.79401397705078125 41.9298858642578125 45.33454132080078125 49.18050384521484375 53.60807037353515625 58.1331024169921875 62.327083587646484375 66.72029876708984375 70.72176361083984375 74.56999969482421875 77.98052978515625 80.99425506591796875 83.60187530517578125 85.684661865234375 87.316253662109375 88.54872894287109375 -99999 -99999 -99999 -99999 -99999 -99999 -99999 -99999 -99999 -99999 -99999 -99999 -99999 -99999 -99999 -99999 -99999 -99999 -99999 -99999 -99999 -99999 -99999 -99999 -99999 -99999 -99999 -99999 -99999 -99999 -99999 -99999 -99999 -99999 -99999 -99999 -99999 -99999 -99999 -99999 -99999 -99999 -99999 -99999 -99999 -99999 -99999 -99999 -99999 -99999 -99999 -99999 -99999 -99999 -99999 -99999 -99999 -99999 -99999 -99999 -99999 -99999 -99999 -99999
 -99999 -99999 -99999 -99999 -99999 71.1977996826171875 73.9218292236328125 76.55663299560546875 79.2509613037109375 81.88259124755859375 84.4212646484375 86.76259613037109375 89.0864105224609375 91.2023773193359375 93.1000213623046875 94.7529296875 96.359832763671875 97.7222137451171875 99.03383636474609375 100.21344757080078125 101.302337646484375 102.31188201904296875 103.0189666748046875 103.6861114501953125 104.18045806884765625 104.33306884765625 104.323883056640625 104.09935760498046875 103.6206207275390625 102.95780181884765625 102.26318359375 101.37578582763671875 100.64990234375 99.802581787109375 99.1748809814453125 98.202911376953125 97.46129608154296875 96.5690765380859375 95.53748321533203125 94.05527496337890625 92.69950103759765625 91.3458251953125 90.30469512939453125 89.57144927978515625 89.2843170166015625 89.3686370849609375 89.636077880859375 89.7988433837890625 89.77204132080078125 89.47190093994140625 88.849639892578125 87.9331817626953125 86.935211181640625 85.20859527587890625 82.3978271484375 78.94036865234375 78.916229248046875 81.55963134765625 83.4990386962890625 84.89849853515625 85.33763885498046875 85.97188568115234375 85.8021392822265625 87.01422882080078125 89.65842437744140625 92.89885711669921875 93.74388885498046875 94.2033538818359375 95.26885223388671875 96.54219818115234375 97.26804351806640625 97.297576904296875 96.9162750244140625 96.3886260986328125 95.96199798583984375 95.3392791748046875 94.930267333984375 94.3011474609375 93.82292938232421875 93.34151458740234375 92.9555206298828125 92.64656829833984375 92.3725433349609375 92.15692901611328125 91.962890625 91.91419219970703125 92.00664520263671875 92.5078887939453125 93.01575469970703125 93.78185272216796875 94.68680572509765625 95.66753387451171875 96.81641387939453125 98.12612152099609375 99.79312896728515625 101.8533477783203125 104.0302734375 105.86017608642578125 107.0694580078125 107.7193145751953125 107.48159027099609375 106.79842376708984375 105.69583892822265625 105.16164398193359375 105.2533721923828125 104.82257080078125 104.56516265869140625 105.466705322265625 107.091644287109375 109.60214996337890625 112.723052978515625 115.846405029296875 118.5767669677734375 120.83242034912109375 122.40232086181640625 123.12165069580078125 123.38043212890625 123.1134490966796875 122.37895965576171875 121.2635650634765625 119.8759613037109375 118.21441650390625 116.1701202392578125 113.91600799560546875 111.40225982666015625 108.52600860595703125 105.35485076904296875 101.82674407958984375 97.96332550048828125 93.7126007080078125 89.13188934326171875 84.2695770263671875 79.0901031494140625 73.56807708740234375 67.84839630126953125 61.909576416015625 55.940097808837890625 49.90550994873046875 43.9752655029296875 38.28900146484375 32.97760772705078125 28.141740798950195312 24.09059906005859375 20.856494903564453125 19.094743728637695312 19.47296905517578125 22.418485641479492188 25.589979171752929688 28.839748382568359375 32.115962982177734375 35.616535186767578125 39.30086517333984375 43.263713836669921875 47.311351776123046875 51.45858001708984375 55.9019622802734375 60.2293853759765625 64.084442138671875 67.6866912841796875 71.0286865234375 73.9947662353515625 -99999 -99999 -99999 -99999 -99999 -99999 -99999 -99999 -99999 -99999 -99999 -99999 -99999 -99999 -99999 -99999 -99999 -99999 -99999 -99999 -99999 -99999 -99999 -99999 -99999 -99999 -99999 -99999 -99999 -99999 -99999 -99999 -99999 -99999 -99999 -99999 -99999 -99999 -99999 -99999 -99999 -99999 -99999 -99999 -99999 -99999 -99999 -99999 -99999 -99999 -99999 -99999 -99999 -99999 -99999 -99999 -99999 -99999 -99999 -99999 -99999 -99999 -99999 -99999 -99999 -99999 -99999 -99999
 -99999 -99999 -99999 -99999 68.6419677734375 71.41338348388671875 74.0742950439453125 76.91477203369140625 79.79843902587890625 82.61838531494140625 85.31621551513671875 87.8219757080078125 90.2191009521484375 92.3503570556640625 94.3530120849609375 96.00677490234375 97.44614410400390625 99.04520416259765625 100.2312469482421875 101.38433837890625 102.62245941162109375 103.52892303466796875 104.33805084228515625 105.2105712890625 105.53499603271484375 105.774139404296875 105.97322845458984375 105.42029571533203125 104.86577606201171875 104.3136138916015625 103.16663360595703125 102.2569580078125 101.6179046630859375 100.30762481689453125 99.85724639892578125 99.16352081298828125 98.5529937744140625 97.593109130859375 96.461669921875 94.9401397705078125 93.45442962646484375 91.862945556640625 90.69356536865234375 89.9432220458984375 89.8592071533203125 90.34820556640625 91.14546966552734375 91.888275146484375 92.2107086181640625 92.19438934326171875 91.9121856689453125 91.8041229248046875 91.8594207763671875 92.08191680908203125 91.9696197509765625 84.26287078857421875 84.03108978271484375 87.79758453369140625 88.93609619140625 89.57379913330078125 89.4425506591796875 89.484710693359375 89.9671173095703125 91.40258026123046875 94.1900634765625 96.21886444091796875 96.531219482421875 96.5110626220703125 96.938323974609375 97.34606170654296875 97.65576171875 97.45757293701171875 97.02115631103515625 96.303009033203125 95.730682373046875 95.187255859375 94.66059112548828125 94.12689208984375 93.67411041259765625 93.32061767578125 92.95751953125 92.682464599609375 92.43561553955078125 92.2658843994140625 92.1982269287109375 92.33575439453125 92.509246826171875 92.94903564453125 93.60987091064453125 94.504241943359375 95.59308624267578125 96.794189453125 98.29695892333984375 100.04074859619140625 102.065826416015625 104.290374755859375 106.3047637939453125 107.96439361572265625 109.11724853515625 109.68963623046875 109.93521881103515625 108.8863525390625 106.98992156982421875 106.05633544921875 105.9725494384765625 105.4465484619140625 105.65100860595703125 106.5023193359375 108.31162261962890625 111.624755859375 115.25229644775390625 118.56674957275390625 121.2023468017578125 122.93897247314453125 123.76052093505859375 123.87293243408203125 123.2624969482421875 122.10059356689453125 120.66933441162109375 118.88794708251953125 116.7582855224609375 114.47200775146484375 112.00928497314453125 109.31923675537109375 106.24851226806640625 102.97515869140625 99.48737335205078125 95.66156005859375 91.54622650146484375 87.15856170654296875 82.46457672119140625 77.47714996337890625 72.19915008544921875 66.7198638916015625 61.030975341796875 55.165927886962890625 49.229534149169921875 43.278491973876953125 37.464069366455078125 31.938413619995117188 26.763204574584960938 22.0998992919921875 18.1978607177734375 15.209845542907714844 13.588576316833496094 14.090111732482910156 16.212942123413085938 19.177936553955078125 22.450674057006835938 25.74092864990234375 29.402896881103515625 33.17238616943359375 37.014736175537109375 41.179286956787109375 45.2899169921875 49.36696624755859375 53.359416961669921875 -99999 -99999 -99999 -99999 -99999 -99999 -99999 -99999 -99999 -99999 -99999 -99999 -99999 -99999 -99999 -99999 -99999 -99999 -99999 -99999 -99999 -99999 -99999 -99999 -99999 -99999 -99999 -99999 -99999 -99999 -99999 -99999 -99999 -99999 -99999 -99999 -99999 -99999 -99999 -99999 -99999 -99999 -99999 -99999 -99999 -99999 -99999 -99999 -99999 -99999 -99999 -99999 -99999 -99999 -99999 -99999 -99999 -99999 -99999 -99999 -99999 -99999 -99999 -99999 -99999 -99999 -99999 -99999 -99999 -99999 -99999 -99999
 -99999 -99999 -99999 -99999 68.344024658203125 71.1415863037109375 74.10790252685546875 77.14466094970703125 80.16631317138671875 83.1165618896484375 86.0189666748046875 88.778717041015625 91.2019500732421875 93.37548828125 95.39640045166015625 97.041046142578125 98.6773681640625 99.93054962158203125 101.2805938720703125 102.51119232177734375 103.51690673828125 104.60900115966796875 105.6154327392578125 106.22574615478515625 106.69586944580078125 107.02669525146484375 106.92542266845703125 106.50402069091796875 105.84979248046875 104.93863677978515625 103.788970947265625 102.70015716552734375 101.63901519775390625 100.81383514404296875 100.3349609375 99.74520111083984375 99.2930755615234375 98.420928955078125 97.38765716552734375 95.781829833984375 93.94356536865234375 92.01800537109375 90.37722015380859375 89.61450958251953125 89.976837158203125 90.94612884521484375 92.37726593017578125 93.83309173583984375 94.6469268798828125 94.66355133056640625 94.4550018310546875 94.729217529296875 95.77234649658203125 98.35240936279296875 102.38741302490234375 89.7884979248046875 87.9797515869140625 92.07039642333984375 93.12640380859375 93.58179473876953125 93.71585845947265625 93.732666015625 94.2187652587890625 96.354583740234375 98.42469024658203125 99.5328826904296875 99.45119476318359375 99.0429229736328125 98.90357208251953125 98.9000244140625 98.63497161865234375 98.04836273193359375 97.34262847900390625 96.72515869140625 96.0252838134765625 95.35540771484375 94.7489013671875 94.2204437255859375 93.80672454833984375 93.42998504638671875 93.0722808837890625 92.88094329833984375 92.667724609375 92.5717620849609375 92.565643310546875 92.7198638916015625 93.0406951904296875 93.61480712890625 94.389495849609375 95.3542938232421875 96.62836456298828125 98.1230316162109375 99.89951324462890625 101.9963226318359375 104.19948577880859375 106.358673095703125 108.277069091796875 109.781158447265625 110.6200408935546875 110.46671295166015625 109.90395355224609375 108.09627532958984375 106.49664306640625 105.6208038330078125 105.20334625244140625 105.36437225341796875 106.098236083984375 105.97222137451171875 108.82709503173828125 113.50603485107421875 118.28392791748046875 121.68683624267578125 123.87831878662109375 125.009857177734375 125.1140289306640625 124.211273193359375 122.60997772216796875 120.68182373046875 118.49103546142578125 115.95314788818359375 113.34537506103515625 110.53333282470703125 107.5304412841796875 104.2719573974609375 100.91394805908203125 97.38205718994140625 93.547088623046875 89.49471282958984375 85.172454833984375 80.6014862060546875 75.79344940185546875 70.7633819580078125 65.48796844482421875 59.987277984619140625 54.376338958740234375 48.654911041259765625 42.91181182861328125 37.08690643310546875 31.45066070556640625 26.099033355712890625 21.09857940673828125 16.781591415405273438 13.147928237915039062 10.63764190673828125 9.219333648681640625 9.4349470138549804688 11.07343292236328125 13.618577957153320312 16.618398666381835938 19.995639801025390625 23.602443695068359375 27.228326797485351562 31.18561553955078125 -99999 -99999 -99999 -99999 -99999 -99999 -99999 -99999 -99999 -99999 -99999 -99999 -99999 -99999 -99999 -99999 -99999 -99999 -99999 -99999 -99999 -99999 -99999 -99999 -99999 -99999 -99999 -99999 -99999 -99999 -99999 -99999 -99999 -99999 -99999 -99999 -99999 -99999 -99999 -99999 -99999 -99999 -99999 -99999 -99999 -99999 -99999 -99999 -99999 -99999 -99999 -99999 -99999 -99999 -99999 -99999 -99999 -99999 -99999 -99999 -99999 -99999 -99999 -99999 -99999 -99999 -99999 -99999 -99999 -99999 -99999 -99999 -99999 -99999 -99999 -99999
 -99999 -99999 -99999 -99999 67.82663726806640625 70.78719329833984375 73.87990570068359375 77.083831787109375 80.31565093994140625 83.393707275390625 86.54925537109375 89.50621795654296875 92.13370513916015625 94.34221649169921875 96.284912109375 98.11014556884765625 99.4965057373046875 100.73448944091796875 101.80218505859375 102.927764892578125 104.21060943603515625 105.39461517333984375 106.18369293212890625 107.18776702880859375 107.73976898193359375 108.04461669921875 107.85227203369140625 107.43941497802734375 106.76834869384765625 105.4013214111328125 104.13927459716796875 102.7978973388671875 101.58526611328125 100.76581573486328125 100.2918701171875 99.853851318359375 99.75110626220703125 99.26129913330078125 98.38756561279296875 96.4860382080078125 94.23394775390625 91.64556884765625 89.6956329345703125 88.8036041259765625 89.19373321533203125 91.0491790771484375 93.4762115478515625 95.45314788818359375 96.9051971435546875 96.84606170654296875 96.25170135498046875 96.35256195068359375 97.08438873291015625 96.90482330322265625 94.3971710205078125 85.50437164306640625 86.02771759033203125 92.45255279541015625 96.118011474609375 97.45294189453125 98.02959442138671875 98.12188720703125 98.389129638671875 99.66431427001953125 101.43181610107421875 102.11981964111328125 101.93386077880859375 101.557464599609375 101.07163238525390625 100.45992279052734375 99.75257110595703125 99.07842254638671875 98.2134857177734375 97.41048431396484375 96.5282745361328125 95.7761993408203125 95.1497802734375 94.595703125 94.07167816162109375 93.71469879150390625 93.368560791015625 93.15592193603515625 92.9711151123046875 92.92086029052734375 92.96338653564453125 93.21157073974609375 93.6419219970703125 94.23271942138671875 95.12646484375 96.2388153076171875 97.68072509765625 99.4427642822265625 101.4588623046875 103.6314849853515625 105.91152191162109375 108.10747528076171875 110.07648468017578125 111.22975921630859375 111.45589447021484375 110.26679229736328125 108.17111968994140625 106.49146270751953125 105.28857421875 104.31116485595703125 104.50585174560546875 104.8637542724609375 105.59299468994140625 105.80727386474609375 108.99465179443359375 115.482269287109375 121.66376495361328125 124.84922027587890625 126.58048248291015625 126.86763763427734375 125.9646453857421875 124.1350250244140625 121.7183685302734375 118.8187713623046875 115.70822906494140625 112.54053497314453125 109.3680267333984375 106.06423187255859375 102.71077728271484375 99.17906951904296875 95.442535400390625 91.536895751953125 87.454345703125 83.22048187255859375 78.76244354248046875 74.06612396240234375 69.2125396728515625 64.15985870361328125 58.92610931396484375 53.521236419677734375 48.004878997802734375 42.40677642822265625 36.786876678466796875 31.289928436279296875 25.917245864868164062 20.806558609008789062 16.105855941772460938 12.124478340148925781 8.8036413192749023438 6.3960676193237304688 5.2263402938842773438 5.3256959915161132812 6.5908017158508300781 8.64682769775390625 11.458212852478027344 14.663138389587402344 -99999 -99999 -99999 -99999 -99999 -99999 -99999 -99999 -99999 -99999 -99999 -99999 -99999 -99999 -99999 -99999 -99999 -99999 -99999 -99999 -99999 -99999 -99999 -99999 -99999 -99999 -99999 -99999 -99999 -99999 -99999 -99999 -99999 -99999 -99999 -99999 -99999 -99999 -99999 -99999 -99999 -99999 -99999 -99999 -99999 -99999 -99999 -99999 -99999 -99999 -99999 -99999 -99999 -99999 -99999 -99999 -99999 -99999 -99999 -99999 -99999 -99999 -99999 -99999 -99999 -99999 -99999 -99999 -99999 -99999 -99999 -99999 -99999 -99999 -99999 -99999 -99999 -99999 -99999
 -99999 -99999 -99999 -99999 67.07215118408203125 70.11008453369140625 73.435211181640625 76.82302093505859375 80.1614837646484375 83.722076416015625 87.04473876953125 90.12316131591796875 92.90940093994140625 95.35776519775390625 97.20737457275390625 98.53060150146484375 100.0818939208984375 101.1537322998046875 102.11944580078125 103.5051727294921875 104.6243438720703125 105.739593505859375 106.9980316162109375 107.8313751220703125 108.4726715087890625 108.65059661865234375 108.5888214111328125 108.1015472412109375 107.07798004150390625 105.6787872314453125 103.906982421875 102.42655181884765625 100.818328857421875 100.15200042724609375 99.6172332763671875 99.8248138427734375 99.9553985595703125 99.84366607666015625 99.10736083984375 96.92975616455078125 94.32152557373046875 91.26245880126953125 88.161956787109375 86.95578765869140625 88.17726898193359375 90.4139404296875 93.54431915283203125 96.38550567626953125 98.1050872802734375 98.415374755859375 97.81157684326171875 97.93316650390625 97.9450531005859375 97.2318267822265625 94.3184814453125 91.33950042724609375 92.1458587646484375 96.441864013671875 100.29608154296875 102.40122222900390625 103.01322174072265625 102.9390106201171875 103.05910491943359375 103.9132080078125 104.58193206787109375 104.74941253662109375 104.52276611328125 103.8767852783203125 102.94258880615234375 102.11801910400390625 101.1644287109375 100.21913909912109375 99.17401885986328125 98.17810821533203125 97.20116424560546875 96.42937469482421875 95.705474853515625 95.04555511474609375 94.46254730224609375 94.0846710205078125 93.73807525634765625 93.49671173095703125 93.31827545166015625 93.29827117919921875 93.41460418701171875 93.6465301513671875 94.12271881103515625 94.8176727294921875 95.795684814453125 97.06987762451171875 98.64575958251953125 100.46749114990234375 102.6142120361328125 104.84609222412109375 107.29282379150390625 109.46373748779296875 111.3862457275390625 112.3658905029296875 112.29828643798828125 110.687042236328125 107.7009124755859375 105.277679443359375 103.78925323486328125 103.28841400146484375 103.83051300048828125 104.8589324951171875 105.918121337890625 107.2623443603515625 111.6611175537109375 119.75054931640625 125.39350128173828125 127.83223724365234375 128.8148040771484375 128.180145263671875 126.32231903076171875 123.28163909912109375 119.7481536865234375 116.0985565185546875 112.3923187255859375 108.71158599853515625 104.98700714111328125 101.25887298583984375 97.4752349853515625 93.68898773193359375 89.703338623046875 85.58329010009765625 81.32256317138671875 76.88390350341796875 72.35434722900390625 67.583404541015625 62.704601287841796875 57.646327972412109375 52.49172210693359375 47.197917938232421875 41.816944122314453125 36.43538665771484375 31.068578720092773438 25.775934219360351562 20.711084365844726562 15.911868095397949219 11.677768707275390625 7.7103786468505859375 4.84113311767578125 2.7374663352966308594 1.7447763681411743164 1.5780363082885742188 -99999 -99999 -99999 -99999 -99999 -99999 -99999 -99999 -99999 -99999 -99999 -99999 -99999 -99999 -99999 -99999 -99999 -99999 -99999 -99999 -99999 -99999 -99999 -99999 -99999 -99999 -99999 -99999 -99999 -99999 -99999 -99999 -99999 -99999 -99999 -99999 -99999 -99999 -99999 -99999 -99999 -99999 -99999 -99999 -99999 -99999 -99999 -99999 -99999 -99999 -99999 -99999 -99999 -99999 -99999 -99999 -99999 -99999 -99999 -99999 -99999 -99999 -99999 -99999 -99999 -99999 -99999 -99999 -99999 -99999 -99999 -99999 -99999 -99999 -99999 -99999 -99999 -99999 -99999 -99999 -99999 -99999 -99999
 -99999 -99999 -99999 63.108623504638671875 65.94254302978515625 69.1169281005859375 72.51172637939453125 76.19222259521484375 79.81085205078125 83.792022705078125 87.3747100830078125 90.74034881591796875 93.53903961181640625 96.09099578857421875 97.91567230224609375 99.505523681640625 100.43323516845703125 101.43521881103515625 102.33171844482421875 103.4439697265625 104.5546417236328125 105.8321685791015625 107.15233612060546875 108.09612274169921875 108.768768310546875 109.22472381591796875 109.05818939208984375 108.443084716796875 107.2792510986328125 105.74558258056640625 103.7200775146484375 101.32727813720703125 99.72792816162109375 98.62007904052734375 98.58637237548828125 99.0419769287109375 99.607177734375 100.08115386962890625 99.592132568359375 97.8799285888671875 94.37499237060546875 90.5926513671875 87.04518890380859375 85.1522369384765625 86.93087005615234375 89.816192626953125 92.9994659423828125 96.1192626953125 97.95023345947265625 99.001373291015625 99.4342803955078125 99.74533843994140625 99.93597412109375 99.619232177734375 99.50843048095703125 99.28862762451171875 100.713348388671875 104.0903778076171875 106.75962066650390625 108.5634918212890625 108.86803436279296875 108.901336669921875 108.37209320068359375 108.1847076416015625 108.0424957275390625 107.68564605712890625 106.94916534423828125 106.046295166015625 104.88164520263671875 103.65088653564453125 102.53143310546875 101.3338165283203125 100.1517791748046875 99.0834197998046875 98.077301025390625 97.1144561767578125 96.25296783447265625 95.57891845703125 94.9922637939453125 94.50079345703125 94.1130828857421875 93.84186553955078125 93.69257354736328125 93.62152862548828125 93.736785888671875 94.03006744384765625 94.53081512451171875 95.2710723876953125 96.3112335205078125 97.61161041259765625 99.19736480712890625 101.04107666015625 103.14196014404296875 105.50756072998046875 107.8875732421875 110.22943878173828125 112.28748321533203125 113.6738128662109375 114.00981903076171875 111.88239288330078125 108.08397674560546875 105.014404296875 104.119140625 103.0485992431640625 103.85479736328125 105.20273590087890625 107.48107147216796875 111.2870025634765625 116.82166290283203125 123.919403076171875 128.149139404296875 129.7430572509765625 130.0517730712890625 128.638885498046875 125.605010986328125 121.4220733642578125 116.94113922119140625 112.43465423583984375 108.10638427734375 104.01399993896484375 100.06911468505859375 96.107177734375 92.08646392822265625 88.00717926025390625 83.74369049072265625 79.4592132568359375 75.03414154052734375 70.46701812744140625 65.8369293212890625 61.057315826416015625 56.19104766845703125 51.223072052001953125 46.194217681884765625 41.052997589111328125 35.873600006103515625 30.689886093139648438 25.575265884399414062 20.616476058959960938 15.861572265625 11.409689903259277344 7.4261636734008789062 3.9408872127532958984 1.2284824848175048828 -99999 -99999 -99999 -99999 -99999 -99999 -99999 -99999 -99999 -99999 -99999 -99999 -99999 -99999 -99999 -99999 -99999 -99999 -99999 -99999 -99999 -99999 -99999 -99999 -99999 -99999 -99999 -99999 -99999 -99999 -99999 -99999 -99999 -99999 -99999 -99999 -99999 -99999 -99999 -99999 -99999 -99999 -99999 -99999 -99999 -99999 -99999 -99999 -99999 -99999 -99999 -99999 -99999 -99999 -99999 -99999 -99999 -99999 -99999 -99999 -99999 -99999 -99999 -99999 -99999 -99999 -99999 -99999 -99999 -99999 -99999 -99999 -99999 -99999 -99999 -99999 -99999 -99999 -99999 -99999 -99999 -99999 -99999 -99999 -99999 -99999
 -99999 -99999 -99999 61.68370819091796875 64.69403076171875 67.93639373779296875 71.526031494140625 75.4715728759765625 79.65447235107421875 83.5566253662109375 87.51023101806640625 91.17885589599609375 94.36136627197265625 96.9009246826171875 98.63820648193359375 99.81470489501953125 100.59444427490234375 101.06143951416015625 101.62525177001953125 102.91696929931640625 104.23363494873046875 105.67208099365234375 107.01751708984375 108.11605072021484375 108.90917205810546875 109.14070892333984375 109.00005340576171875 108.35228729248046875 107.26891326904296875 105.3918609619140625 102.9863128662109375 100.0810394287109375 97.30432891845703125 96.42603302001953125 96.7683868408203125 97.6273040771484375 98.51216888427734375 99.47454071044921875 100.2960968017578125 97.453216552734375 93.79705047607421875 90.00632476806640625 86.737457275390625 85.45111083984375 86.34096527099609375 89.096466064453125 92.09734344482421875 94.94219207763671875 97.34415435791015625 99.1869354248046875 100.432403564453125 101.5989990234375 102.68875885009765625 103.80564117431640625 105.21533966064453125 107.54544830322265625 110.2540130615234375 113.06827545166015625 114.81107330322265625 114.98674774169921875 114.96294403076171875 114.3361968994140625 113.46593475341796875 112.67649078369140625 111.6404876708984375 110.6198577880859375 109.41417694091796875 108.04329681396484375 106.66761016845703125 105.21079254150390625 103.82784271240234375 102.45519256591796875 101.1764678955078125 99.93831634521484375 98.802642822265625 97.7944183349609375 96.9155731201171875 96.14099884033203125 95.474273681640625 94.94602203369140625 94.51519775390625 94.16873931884765625 93.9703216552734375 93.91541290283203125 93.9699249267578125 94.2311859130859375 94.74468231201171875 95.447296142578125 96.42417144775390625 97.67633819580078125 99.22754669189453125 101.0709228515625 103.1020355224609375 105.41678619384765625 107.73348236083984375 110.21060943603515625 112.56906890869140625 114.299774169921875 115.136383056640625 114.13924407958984375 110.3457489013671875 104.40940093994140625 102.619659423828125 102.591888427734375 103.40221405029296875 105.264495849609375 108.19054412841796875 112.18132781982421875 117.86348724365234375 123.417999267578125 127.2876434326171875 129.6820526123046875 130.1409149169921875 127.8655853271484375 123.52083587646484375 118.0731201171875 112.50618743896484375 107.4447479248046875 102.95171356201171875 98.60068511962890625 94.50370025634765625 90.45379638671875 86.2926788330078125 82.0332794189453125 77.666168212890625 73.13860321044921875 68.61739349365234375 64.01555633544921875 59.325347900390625 54.57061767578125 49.752201080322265625 44.87577056884765625 39.954998016357421875 35.024616241455078125 30.091464996337890625 25.165731430053710938 20.344379425048828125 15.623770713806152344 11.220335006713867188 7.0528316497802734375 3.3863039016723632812 0.28518861532211303711 -99999 -99999 -99999 -99999 -99999 -99999 -99999 -99999 -99999 -99999 -99999 -99999 -99999 -99999 -99999 -99999 -99999 -99999 -99999 -99999 -99999 -99999 -99999 -99999 -99999 -99999 -99999 -99999 -99999 -99999 -99999 -99999 -99999 -99999 -99999 -99999 -99999 -99999 -99999 -99999 -99999 -99999 -99999 -99999 -99999 -99999 -99999 -99999 -99999 -99999 -99999 -99999 -99999 -99999 -99999 -99999 -99999 -99999 -99999 -99999 -99999 -99999 -99999 -99999 -99999 -99999 -99999 -99999 -99999 -99999 -99999 -99999 -99999 -99999 -99999 -99999 -99999 -99999 -99999 -99999 -99999 -99999 -99999 -99999 -99999 -99999 -99999
 -99999 -99999 -99999 60.093357086181640625 63.068317413330078125 66.45920562744140625 70.17484283447265625 74.25194549560546875 78.6064605712890625 83.15777587890625 87.57503509521484375 91.6555633544921875 95.014373779296875 97.73601531982421875 99.40872955322265625 100.46720123291015625 100.39331817626953125 100.3761749267578125 100.8997039794921875 101.873687744140625 103.40862274169921875 105.17925262451171875 106.68874359130859375 107.74568939208984375 108.458953857421875 108.872161865234375 108.7342681884765625 108.07753753662109375 106.85865020751953125 105.2032623291015625 102.593841552734375 98.4546051025390625 94.46087646484375 93.794647216796875 94.517364501953125 95.47509765625 96.314544677734375 97.1026763916015625 96.8442230224609375 95.26950836181640625 91.828582763671875 88.83319091796875 86.41336822509765625 85.50348663330078125 86.40708160400390625 88.342681884765625 90.99631500244140625 93.75168609619140625 96.4329986572265625 98.87546539306640625 101.17847442626953125 103.42485809326171875 105.450347900390625 107.60912322998046875 110.35649871826171875 114.06192779541015625 118.7414398193359375 122.20209503173828125 123.68965911865234375 122.52611541748046875 121.25305938720703125 119.94561767578125 118.46579742431640625 116.491455078125 114.9476318359375 113.146240234375 111.49910736083984375 109.8296051025390625 108.05802154541015625 106.465362548828125 104.9223480224609375 103.46834564208984375 102.01287841796875 100.68332672119140625 99.53340911865234375 98.41251373291015625 97.45954132080078125 96.63858795166015625 95.9299774169921875 95.30356597900390625 94.81916046142578125 94.44409942626953125 94.1572265625 93.99968719482421875 94.05426788330078125 94.22017669677734375 94.64917755126953125 95.29222869873046875 96.15953826904296875 97.3139495849609375 98.70253753662109375 100.32080841064453125 102.18540191650390625 104.3114166259765625 106.6020355224609375 108.89589691162109375 111.26854705810546875 113.6883544921875 115.5538330078125 115.44306182861328125 108.60468292236328125 102.1103057861328125 99.827728271484375 100.67333984375 102.1389312744140625 104.3217010498046875 107.22109222412109375 111.3467254638671875 116.09326934814453125 120.88025665283203125 124.8183746337890625 127.209869384765625 128.314239501953125 125.29290771484375 119.4109649658203125 112.36675262451171875 106.16698455810546875 100.99684906005859375 96.60907745361328125 92.6035308837890625 88.54741668701171875 84.4975738525390625 80.26740264892578125 75.852569580078125 71.411895751953125 66.80108642578125 62.088619232177734375 57.427265167236328125 52.73139190673828125 48.056491851806640625 43.30806732177734375 38.604152679443359375 33.844844818115234375 29.1170501708984375 24.415349960327148438 19.73017120361328125 15.259724617004394531 10.87096405029296875 6.7305607795715332031 2.9765648841857910156 -99999 -99999 -99999 -99999 -99999 -99999 -99999 -99999 -99999 -99999 -99999 -99999 -99999 -99999 -99999 -99999 -99999 -99999 -99999 -99999 -99999 -99999 -99999 -99999 -99999 -99999 -99999 -99999 -99999 -99999 -99999 -99999 -99999 -99999 -99999 -99999 -99999 -99999 -99999 -99999 -99999 -99999 -99999 -99999 -99999 -99999 -99999 -99999 -99999 -99999 -99999 -99999 -99999 -99999 -99999 -99999 -99999 -99999 -99999 -99999 -99999 -99999 -99999 -99999 -99999 -99999 -99999 -99999 -99999 -99999 -99999 -99999 -99999 -99999 -99999 -99999 -99999 -99999 -99999 -99999 -99999 -99999 -99999 -99999 -99999 -99999 -99999 -99999 -99999
 -99999 -99999 55.86583709716796875 58.214359283447265625 61.008747100830078125 64.40771484375 68.4601898193359375 72.943450927734375 77.69646453857421875 82.38799285888671875 87.2441253662109375 91.78131103515625 95.902374267578125 98.7422027587890625 100.36568450927734375 100.794281005859375 100.1883544921875 99.2866058349609375 99.0412445068359375 100.133453369140625 102.1965484619140625 104.40242767333984375 105.9264984130859375 106.85784149169921875 107.6000213623046875 108.06972503662109375 107.93444061279296875 107.058990478515625 105.676422119140625 104.19446563720703125 101.7011871337890625 96.68308258056640625 92.70281219482421875 91.356597900390625 91.958465576171875 92.64833831787109375 93.09117889404296875 93.38763427734375 92.88653564453125 91.17064666748046875 89.04276275634765625 86.81481170654296875 85.39641571044921875 84.86590576171875 85.48575592041015625 87.257568359375 89.68622589111328125 92.4497528076171875 95.40111541748046875 98.37346649169921875 101.3264923095703125 104.59783172607421875 107.8514251708984375 111.13971710205078125 114.8059539794921875 119.7138519287109375 126.1665496826171875 130.48150634765625 131.9536590576171875 130.0097198486328125 127.3121185302734375 124.88782501220703125 122.1970062255859375 119.717529296875 117.5107421875 115.32160186767578125 113.115570068359375 111.23337554931640625 109.2724609375 107.51971435546875 105.78157806396484375 104.15857696533203125 102.71893310546875 101.31974029541015625 100.0871124267578125 98.9241485595703125 97.9358367919921875 97.0512847900390625 96.27704620361328125 95.607025146484375 95.03583526611328125 94.53680419921875 94.224853515625 93.9905853271484375 93.92364501953125 94.02480316162109375 94.2601470947265625 94.73674774169921875 95.4440155029296875 96.45623779296875 97.68740081787109375 99.05936431884765625 100.69638824462890625 102.42291259765625 104.2345733642578125 106.19870758056640625 108.42093658447265625 110.68148040771484375 112.90006256103515625 111.98102569580078125 106.46910858154296875 99.89853668212890625 98.391326904296875 98.560089111328125 99.73522186279296875 101.84146881103515625 104.82566070556640625 108.4693603515625 112.4554595947265625 116.44121551513671875 119.74323272705078125 122.20868682861328125 122.83135986328125 119.49488067626953125 112.2537384033203125 104.34889984130859375 98.17113494873046875 93.47613525390625 89.56175994873046875 86.04644775390625 82.341552734375 78.30602264404296875 74.057159423828125 69.51639556884765625 64.87622833251953125 60.1753997802734375 55.462276458740234375 50.800586700439453125 46.119182586669921875 41.536510467529296875 36.938838958740234375 32.34259796142578125 27.798437118530273438 23.320154190063476562 18.882328033447265625 14.516401290893554688 10.271794319152832031 6.2033758163452148438 -99999 -99999 -99999 -99999 -99999 -99999 -99999 -99999 -99999 -99999 -99999 -99999 -99999 -99999 -99999 -99999 -99999 -99999 -99999 -99999 -99999 -99999 -99999 -99999 -99999 -99999 -99999 -99999 -99999 -99999 -99999 -99999 -99999 -99999 -99999 -99999 -99999 -99999 -99999 -99999 -99999 -99999 -99999 -99999 -99999 -99999 -99999 -99999 -99999 -99999 -99999 -99999 -99999 -99999 -99999 -99999 -99999 -99999 -99999 -99999 -99999 -99999 -99999 -99999 -99999 -99999 -99999 -99999 -99999 -99999 -99999 -99999 -99999 -99999 -99999 -99999 -99999 -99999 -99999 -99999 -99999 -99999 -99999 -99999 -99999 -99999 -99999 -99999 -99999 -99999 -99999
 -99999 -99999 53.76894378662109375 56.04433441162109375 58.901638031005859375 62.36191558837890625 66.4951171875 71.0773162841796875 76.1206817626953125 81.41942596435546875 86.79393768310546875 91.8382568359375 96.405731201171875 99.82509613037109375 101.58734130859375 101.46987152099609375 99.550262451171875 97.31453704833984375 96.594024658203125 97.81766510009765625 100.81749725341796875 103.642425537109375 104.92026519775390625 105.5464935302734375 106.15007781982421875 106.5705108642578125 106.4889068603515625 105.51161956787109375 103.8244476318359375 102.0674285888671875 99.59358978271484375 95.416351318359375 91.536346435546875 90.1065673828125 89.67090606689453125 89.4452972412109375 89.42273712158203125 89.08905792236328125 88.2986297607421875 87.09354400634765625 85.58099365234375 84.13970184326171875 83.11452484130859375 83.03617095947265625 83.8882904052734375 85.48287200927734375 87.80666351318359375 90.6064910888671875 93.6821136474609375 97.1399383544921875 101.0172882080078125 105.27184295654296875 109.68979644775390625 115.3244781494140625 120.00887298583984375 125.8858489990234375 133.628082275390625 138.0189971923828125 136.807037353515625 134.52056884765625 131.1434326171875 127.84674072265625 124.84210205078125 121.925506591796875 119.1188201904296875 116.594512939453125 114.326385498046875 112.1048126220703125 110.07042694091796875 108.10222625732421875 106.34152984619140625 104.65313720703125 103.1337432861328125 101.7223663330078125 100.4556732177734375 99.3173370361328125 98.26605987548828125 97.33879852294921875 96.49147796630859375 95.74837493896484375 95.13794708251953125 94.60190582275390625 94.15433502197265625 93.81987762451171875 93.55724334716796875 93.488861083984375 93.5865020751953125 93.895355224609375 94.3941497802734375 95.0821533203125 96.01149749755859375 97.0790863037109375 98.31912994384765625 99.61489105224609375 100.95697021484375 102.14121246337890625 103.5458831787109375 105.324371337890625 106.5572509765625 105.91579437255859375 102.46561431884765625 98.65532684326171875 96.155364990234375 95.71086883544921875 96.3481292724609375 98.03850555419921875 100.6399078369140625 103.71466827392578125 107.19272613525390625 110.29723358154296875 112.73761749267578125 113.947906494140625 113.369415283203125 109.34381103515625 101.84588623046875 93.94701385498046875 88.34006500244140625 85.183380126953125 82.52117919921875 79.5691680908203125 76.31266021728515625 72.29688262939453125 67.829864501953125 63.177520751953125 58.245037078857421875 53.48206329345703125 48.68752288818359375 44.022296905517578125 39.43099212646484375 34.930027008056640625 30.546360015869140625 26.164642333984375 21.87450408935546875 17.555273056030273438 13.395219802856445312 9.297710418701171875 5.38323974609375 -99999 -99999 -99999 -99999 -99999 -99999 -99999 -99999 -99999 -99999 -99999 -99999 -99999 -99999 -99999 -99999 -99999 -99999 -99999 -99999 -99999 -99999 -99999 -99999 -99999 -99999 -99999 -99999 -99999 -99999 -99999 -99999 -99999 -99999 -99999 -99999 -99999 -99999 -99999 -99999 -99999 -99999 -99999 -99999 -99999 -99999 -99999 -99999 -99999 -99999 -99999 -99999 -99999 -99999 -99999 -99999 -99999 -99999 -99999 -99999 -99999 -99999 -99999 -99999 -99999 -99999 -99999 -99999 -99999 -99999 -99999 -99999 -99999 -99999 -99999 -99999 -99999 -99999 -99999 -99999 -99999 -99999 -99999 -99999 -99999 -99999 -99999 -99999 -99999 -99999 -99999 -99999
 -99999 -99999 51.798480987548828125 53.758892059326171875 56.37453460693359375 59.83570098876953125 64.10356903076171875 68.99568939208984375 74.26019287109375 79.8936004638671875 85.75547027587890625 91.58160400390625 97.0285797119140625 101.04071807861328125 103.225494384765625 102.241485595703125 99.292510986328125 95.706939697265625 93.43636322021484375 94.16414642333984375 99.089996337890625 102.70500946044921875 103.47798919677734375 103.88750457763671875 104.268096923828125 104.4429473876953125 104.20166778564453125 103.1078643798828125 101.36208343505859375 99.282379150390625 96.4934539794921875 92.980377197265625 89.98897552490234375 87.9104766845703125 86.682586669921875 85.8059844970703125 85.20070648193359375 84.5309600830078125 83.63665771484375 82.59726715087890625 81.36498260498046875 80.4358673095703125 80.00157928466796875 80.26653289794921875 81.22252655029296875 83.0008087158203125 85.333160400390625 88.17337799072265625 91.4177093505859375 95.13939666748046875 99.39511871337890625 104.33525848388671875 110.63360595703125 117.54972076416015625 123.90900421142578125 127.97777557373046875 138.1802825927734375 140.85711669921875 138.414337158203125 135.3061981201171875 132.4865875244140625 129.008392333984375 125.59017181396484375 122.591064453125 119.88845062255859375 117.1058349609375 114.64571380615234375 112.3822174072265625 110.28748321533203125 108.32003021240234375 106.52777099609375 104.867095947265625 103.3144989013671875 101.93267059326171875 100.62926483154296875 99.46530914306640625 98.4026336669921875 97.46031951904296875 96.60308837890625 95.83676910400390625 95.12644195556640625 94.48749542236328125 93.8894805908203125 93.4312744140625 93.04559326171875 92.77954864501953125 92.6254730224609375 92.642364501953125 92.81409454345703125 93.196380615234375 93.8546142578125 94.64881134033203125 95.47855377197265625 96.15010833740234375 96.54610443115234375 96.83254241943359375 97.49599456787109375 98.51224517822265625 99.05034637451171875 98.60223388671875 96.8930206298828125 94.92800140380859375 92.3968048095703125 91.156402587890625 91.38062286376953125 92.7774658203125 94.9886932373046875 97.65680694580078125 100.3305816650390625 102.6569976806640625 104.3671417236328125 104.41986846923828125 102.53215789794921875 98.13530731201171875 90.90212249755859375 83.78072357177734375 79.47936248779296875 77.3258819580078125 75.64522552490234375 73.507171630859375 70.45522308349609375 66.46729278564453125 61.7010040283203125 56.671237945556640625 51.541446685791015625 46.65230560302734375 41.774738311767578125 37.16765594482421875 32.687793731689453125 28.333951950073242188 24.112932205200195312 19.940670013427734375 15.922291755676269531 11.959069252014160156 8.0989904403686523438 -99999 -99999 -99999 -99999 -99999 -99999 -99999 -99999 -99999 -99999 -99999 -99999 -99999 -99999 -99999 -99999 -99999 -99999 -99999 -99999 -99999 -99999 -99999 -99999 -99999 -99999 -99999 -99999 -99999 -99999 -99999 -99999 -99999 -99999 -99999 -99999 -99999 -99999 -99999 -99999 -99999 -99999 -99999 -99999 -99999 -99999 -99999 -99999 -99999 -99999 -99999 -99999 -99999 -99999 -99999 -99999 -99999 -99999 -99999 -99999 -99999 -99999 -99999 -99999 -99999 -99999 -99999 -99999 -99999 -99999 -99999 -99999 -99999 -99999 -99999 -99999 -99999 -99999 -99999 -99999 -99999 -99999 -99999 -99999 -99999 -99999 -99999 -99999 -99999 -99999 -99999 -99999 -99999 -99999
 -99999 -99999 49.779666900634765625 51.314319610595703125 53.772220611572265625 57.26071929931640625 61.554973602294921875 66.57437896728515625 72.09424591064453125 77.98969268798828125 84.1739959716796875 90.56163787841796875 96.66900634765625 102.051971435546875 105.3279876708984375 103.29141998291015625 98.61968994140625 94.3614349365234375 91.18560028076171875 92.2433929443359375 96.8901824951171875 100.2673492431640625 101.2859039306640625 101.7071380615234375 101.83577728271484375 101.80316925048828125 101.23119354248046875 100.019989013671875 98.22083282470703125 95.907135009765625 93.1136627197265625 90.1153717041015625 87.204498291015625 84.8569183349609375 83.1587371826171875 81.8556671142578125 80.7080230712890625 79.664764404296875 78.69652557373046875 77.55877685546875 76.65448760986328125 76.105255126953125 76.07627105712890625 76.5591278076171875 77.82806396484375 79.7512664794921875 82.19643402099609375 85.06961822509765625 88.3242950439453125 92.0233154296875 96.36266326904296875 101.80780029296875 108.4398651123046875 118.097808837890625 127.19203948974609375 126.311614990234375 129.151580810546875 135.0589752197265625 135.103607177734375 133.0292510986328125 130.3057861328125 127.77071380615234375 124.97769927978515625 121.99724578857421875 119.256134033203125 116.733306884765625 114.3205413818359375 112.0327911376953125 110.01397705078125 108.11777496337890625 106.3020172119140625 104.6826171875 103.1954193115234375 101.83612823486328125 100.5776824951171875 99.43387603759765625 98.39693450927734375 97.451416015625 96.56421661376953125 95.741058349609375 94.96246337890625 94.2375640869140625 93.54410552978515625 92.90245819091796875 92.30202484130859375 91.797821044921875 91.3144683837890625 91.0281829833984375 90.93334197998046875 91.0128631591796875 91.2589263916015625 91.58362579345703125 92.00185394287109375 92.2653961181640625 92.2031402587890625 91.55780792236328125 90.86933135986328125 91.1893768310546875 90.93389892578125 90.16024017333984375 89.02935028076171875 87.3851165771484375 85.4299468994140625 84.5070953369140625 84.8834381103515625 86.1173553466796875 88.02646636962890625 90.351409912109375 92.559417724609375 94.3780670166015625 95.11672210693359375 94.5519561767578125 92.335845947265625 88.248626708984375 82.33392333984375 76.414520263671875 72.47809600830078125 71.20244598388671875 70.24700164794921875 68.24779510498046875 65.119354248046875 60.739715576171875 55.424472808837890625 50.01650238037109375 44.67037200927734375 39.55582427978515625 34.784725189208984375 30.21257781982421875 25.924493789672851562 21.759019851684570312 17.763418197631835938 13.871953010559082031 10.01709747314453125 -99999 -99999 -99999 -99999 -99999 -99999 -99999 -99999 -99999 -99999 -99999 -99999 -99999 -99999 -99999 -99999 -99999 -99999 -99999 -99999 -99999 -99999 -99999 -99999 -99999 -99999 -99999 -99999 -99999 -99999 -99999 -99999 -99999 -99999 -99999 -99999 -99999 -99999 -99999 -99999 -99999 -99999 -99999 -99999 -99999 -99999 -99999 -99999 -99999 -99999 -99999 -99999 -99999 -99999 -99999 -99999 -99999 -99999 -99999 -99999 -99999 -99999 -99999 -99999 -99999 -99999 -99999 -99999 -99999 -99999 -99999 -99999 -99999 -99999 -99999 -99999 -99999 -99999 -99999 -99999 -99999 -99999 -99999 -99999 -99999 -99999 -99999 -99999 -99999 -99999 -99999 -99999 -99999 -99999 -99999 -99999
 -99999 46.72187042236328125 47.519519805908203125 48.763214111328125 50.967205047607421875 54.228847503662109375 58.923004150390625 64.17372894287109375 69.81220245361328125 75.74832916259765625 81.9765777587890625 88.5760498046875 95.2442626953125 100.94908905029296875 104.6523895263671875 102.533111572265625 98.37891387939453125 94.27268218994140625 91.8627471923828125 92.20110321044921875 94.74040985107421875 97.00171661376953125 98.30185699462890625 98.85433197021484375 98.9903564453125 98.6527252197265625 97.80280303955078125 96.3438720703125 94.4687957763671875 92.1735382080078125 89.36161041259765625 86.4553985595703125 83.64875030517578125 81.28217315673828125 79.07421112060546875 77.27011871337890625 75.72068023681640625 74.24732208251953125 73.107696533203125 72.09970855712890625 71.36603546142578125 71.0038909912109375 71.27457427978515625 72.03022003173828125 73.56353759765625 75.74370574951171875 78.39571380615234375 81.39955902099609375 84.48270416259765625 87.9686431884765625 91.99491119384765625 96.7474365234375 102.65563201904296875 110.633056640625 119.60678863525390625 118.75521087646484375 121.36238861083984375 125.190704345703125 127.86614990234375 127.9851531982421875 126.7178955078125 124.744293212890625 122.624267578125 120.1429595947265625 117.70855712890625 115.38352203369140625 113.238037109375 111.14611053466796875 109.166290283203125 107.37950897216796875 105.71721649169921875 104.17475128173828125 102.74533843994140625 101.46253204345703125 100.282745361328125 99.201324462890625 98.1992034912109375 97.25652313232421875 96.3722381591796875 95.5347747802734375 94.68017578125 93.84792327880859375 93.02313995361328125 92.22759246826171875 91.38857269287109375 90.59752655029296875 89.88770294189453125 89.24609375 88.6771240234375 88.272796630859375 88.13397216796875 88.17607879638671875 88.2595977783203125 88.1532745361328125 87.572784423828125 86.333953857421875 84.86046600341796875 83.80327606201171875 82.630950927734375 81.06548309326171875 79.06989288330078125 77.0694122314453125 76.336883544921875 76.27712249755859375 77.05904388427734375 78.41638946533203125 80.29198455810546875 82.35074615478515625 84.14649200439453125 85.37258148193359375 85.7678375244140625 84.99849700927734375 82.8227996826171875 79.2651824951171875 74.67423248291015625 70.5595245361328125 67.7105865478515625 66.4718017578125 65.4635772705078125 63.99219512939453125 60.57596588134765625 54.99651336669921875 49.077911376953125 43.024478912353515625 37.403148651123046875 32.25339508056640625 27.57949066162109375 23.22515106201171875 19.0854949951171875 15.167241096496582031 11.409247398376464844 7.8014435768127441406 -99999 -99999 -99999 -99999 -99999 -99999 -99999 -99999 -99999 -99999 -99999 -99999 -99999 -99999 -99999 -99999 -99999 -99999 -99999 -99999 -99999 -99999 -99999 -99999 -99999 -99999 -99999 -99999 -99999 -99999 -99999 -99999 -99999 -99999 -99999 -99999 -99999 -99999 -99999 -99999 -99999 -99999 -99999 -99999 -99999 -99999 -99999 -99999 -99999 -99999 -99999 -99999 -99999 -99999 -99999 -99999 -99999 -99999 -99999 -99999 -99999 -99999 -99999 -99999 -99999 -99999 -99999 -99999 -99999 -99999 -99999 -99999 -99999 -99999 -99999 -99999 -99999 -99999 -99999 -99999 -99999 -99999 -99999 -99999 -99999 -99999 -99999 -99999 -99999 -99999 -99999 -99999 -99999 -99999 -99999 -99999 -99999
 -99999 45.2047882080078125 45.793121337890625 46.548038482666015625 48.034397125244140625 51.379772186279296875 56.56154632568359375 61.9184112548828125 67.424896240234375 73.46631622314453125 79.6218414306640625 86.07186126708984375 92.623931884765625 98.089019775390625 100.58765411376953125 100.43194580078125 97.26274871826171875 94.12712860107421875 91.9840850830078125 91.87923431396484375 92.9224853515625 94.37250518798828125 95.38773345947265625 95.73336029052734375 95.62691497802734375 95.002960205078125 93.919525146484375 92.42945098876953125 90.340667724609375 87.85092926025390625 85.2110443115234375 82.2460784912109375 79.2471160888671875 76.81317138671875 74.3016357421875 72.12652587890625 70.32804107666015625 68.7913055419921875 67.2978515625 66.10107421875 65.5197601318359375 65.11170196533203125 65.48822021484375 66.90003204345703125 68.9001617431640625 71.28484344482421875 74.00710296630859375 77.06806182861328125 80.19681549072265625 83.18607330322265625 86.60205841064453125 90.05220794677734375 93.92437744140625 99.1963653564453125 105.98844146728515625 109.08209991455078125 112.72162628173828125 116.50925445556640625 119.71189117431640625 121.40917205810546875 121.2945098876953125 120.2783203125 118.94205474853515625 117.20931243896484375 115.33509063720703125 113.3721923828125 111.385284423828125 109.56911468505859375 107.8336334228515625 106.18099212646484375 104.6688232421875 103.29203033447265625 101.985260009765625 100.82598876953125 99.7577972412109375 98.73845672607421875 97.79801177978515625 96.90259552001953125 96.018280029296875 95.12244415283203125 94.26053619384765625 93.38416290283203125 92.41439056396484375 91.44618988037109375 90.42462158203125 89.35494232177734375 88.2301177978515625 87.15908050537109375 86.16266632080078125 85.3157196044921875 84.66965484619140625 84.2759246826171875 84.1054229736328125 83.6646270751953125 82.5290069580078125 80.75655364990234375 78.739105224609375 76.6680145263671875 74.3922271728515625 71.84381103515625 69.21607208251953125 67.230194091796875 66.65503692626953125 67.43724822998046875 68.637908935546875 70.336273193359375 72.11602020263671875 73.88729095458984375 75.49365234375 76.49277496337890625 76.80507659912109375 75.89783477783203125 73.95908355712890625 71.2187652587890625 67.9320831298828125 65.0617523193359375 62.91574859619140625 61.70263671875 61.126445770263671875 60.0477142333984375 55.8231353759765625 49.506481170654296875 42.031017303466796875 35.5073699951171875 29.843196868896484375 24.813999176025390625 20.393129348754882812 16.124416351318359375 12.310956954956054688 8.6781511306762695312 -99999 -99999 -99999 -99999 -99999 -99999 -99999 -99999 -99999 -99999 -99999 -99999 -99999 -99999 -99999 -99999 -99999 -99999 -99999 -99999 -99999 -99999 -99999 -99999 -99999 -99999 -99999 -99999 -99999 -99999 -99999 -99999 -99999 -99999 -99999 -99999 -99999 -99999 -99999 -99999 -99999 -99999 -99999 -99999 -99999 -99999 -99999 -99999 -99999 -99999 -99999 -99999 -99999 -99999 -99999 -99999 -99999 -99999 -99999 -99999 -99999 -99999 -99999 -99999 -99999 -99999 -99999 -99999 -99999 -99999 -99999 -99999 -99999 -99999 -99999 -99999 -99999 -99999 -99999 -99999 -99999 -99999 -99999 -99999 -99999 -99999 -99999 -99999 -99999 -99999 -99999 -99999 -99999 -99999 -99999 -99999 -99999 -99999 -99999
 -99999 44.3155975341796875 44.371570587158203125 44.580585479736328125 45.405117034912109375 48.553058624267578125 54.124790191650390625 59.968372344970703125 65.54076385498046875 71.39673614501953125 77.39391326904296875 83.583984375 89.05132293701171875 93.80896759033203125 95.87646484375 96.38533782958984375 94.97412109375 93.08478546142578125 91.59821319580078125 90.88001251220703125 91.1593170166015625 91.6431121826171875 92.04788970947265625 92.1285400390625 91.805267333984375 90.918548583984375 89.68508148193359375 87.92130279541015625 85.72957611083984375 83.24529266357421875 80.39931488037109375 77.5096893310546875 74.67864227294921875 71.8338775634765625 69.04505157470703125 66.656402587890625 64.4001922607421875 62.471332550048828125 60.924175262451171875 59.5673828125 58.765865325927734375 58.841999053955078125 59.642253875732421875 60.896457672119140625 62.907764434814453125 65.82210540771484375 69.23055267333984375 72.555694580078125 75.56060791015625 78.379425048828125 80.81866455078125 83.29976654052734375 86.81763458251953125 90.98348236083984375 97.36827850341796875 101.94405364990234375 105.86975860595703125 109.1564788818359375 112.585845947265625 114.47132110595703125 115.3892669677734375 115.517486572265625 114.70848846435546875 113.50457000732421875 112.05429840087890625 110.51682281494140625 108.94663238525390625 107.4126434326171875 105.94913482666015625 104.5637969970703125 103.250579833984375 102.0616455078125 100.94428253173828125 99.92308807373046875 98.961029052734375 98.0618896484375 97.196533203125 96.31655120849609375 95.52874755859375 94.69509124755859375 93.79345703125 92.84607696533203125 91.7531585693359375 90.64476776123046875 89.37058258056640625 88.0010833740234375 86.55234527587890625 85.01972198486328125 83.47533416748046875 82.0312347412109375 80.88646697998046875 80.1013641357421875 79.5247650146484375 78.55268096923828125 76.999114990234375 74.86548614501953125 72.33219146728515625 69.548248291015625 66.58722686767578125 63.512607574462890625 60.44042205810546875 58.35834503173828125 58.113277435302734375 58.8947906494140625 60.268951416015625 61.97350311279296875 63.72502899169921875 65.51782989501953125 66.899566650390625 67.75506591796875 68.00405120849609375 67.29399871826171875 65.88141632080078125 63.702106475830078125 61.22101593017578125 58.99611663818359375 57.334957122802734375 56.19219970703125 55.491405487060546875 54.5701751708984375 51.7756195068359375 41.95900726318359375 33.391414642333984375 27.217945098876953125 21.854511260986328125 17.214183807373046875 13.017559051513671875 9.2375879287719726562 -99999 -99999 -99999 -99999 -99999 -99999 -99999 -99999 -99999 -99999 -99999 -99999 -99999 -99999 -99999 -99999 -99999 -99999 -99999 -99999 -99999 -99999 -99999 -99999 -99999 -99999 -99999 -99999 -99999 -99999 -99999 -99999 -99999 -99999 -99999 -99999 -99999 -99999 -99999 -99999 -99999 -99999 -99999 -99999 -99999 -99999 -99999 -99999 -99999 -99999 -99999 -99999 -99999 -99999 -99999 -99999 -99999 -99999 -99999 -99999 -99999 -99999 -99999 -99999 -99999 -99999 -99999 -99999 -99999 -99999 -99999 -99999 -99999 -99999 -99999 -99999 -99999 -99999 -99999 -99999 -99999 -99999 -99999 -99999 -99999 -99999 -99999 -99999 -99999 -99999 -99999 -99999 -99999 -99999 -99999 -99999 -99999 -99999 -99999 -99999 -99999
 -99999 42.910900115966796875 43.276660919189453125 43.590702056884765625 44.768344879150390625 47.817138671875 52.761478424072265625 58.05495452880859375 63.449756622314453125 69.13132476806640625 74.965850830078125 80.49376678466796875 85.368621826171875 89.19698333740234375 91.677825927734375 92.67867279052734375 92.0062255859375 90.7987213134765625 89.65155029296875 89.04946136474609375 88.8074188232421875 88.79337310791015625 88.67510223388671875 88.3995513916015625 87.756683349609375 86.687255859375 85.1854248046875 83.21060943603515625 80.876708984375 78.230316162109375 75.35875701904296875 72.28124237060546875 69.097747802734375 66.2662353515625 63.33750152587890625 60.530742645263671875 58.172088623046875 56.078411102294921875 54.030719757080078125 52.810085296630859375 51.968341827392578125 51.60095977783203125 52.189990997314453125 53.837032318115234375 56.4810333251953125 59.796504974365234375 63.78647613525390625 67.78435516357421875 71.1601104736328125 73.67340850830078125 75.6467132568359375 77.5929107666015625 80.356964111328125 84.99954986572265625 89.80657958984375 94.2124786376953125 99.92340850830078125 102.90886688232421875 105.74600982666015625 108.30255889892578125 109.35999298095703125 109.93338775634765625 109.74097442626953125 109.0691680908203125 108.1702728271484375 107.1216278076171875 106.00301361083984375 104.78864288330078125 103.64247894287109375 102.53307342529296875 101.46192169189453125 100.50453948974609375 99.59021759033203125 98.74767303466796875 97.91486358642578125 97.1213531494140625 96.4148712158203125 95.682220458984375 94.922698974609375 94.12595367431640625 93.2153472900390625 92.256439208984375 91.100555419921875 89.7962799072265625 88.330108642578125 86.72553253173828125 84.970794677734375 83.08681488037109375 80.97687530517578125 78.7439422607421875 76.86022186279296875 75.55495452880859375 74.60099029541015625 73.39524078369140625 71.44264984130859375 68.92705535888671875 66.0360107421875 62.8560638427734375 59.534423828125 56.059970855712890625 52.894840240478515625 50.892528533935546875 50.354190826416015625 51.03045654296875 52.341136932373046875 53.980358123779296875 55.714324951171875 57.253063201904296875 58.569011688232421875 59.4203643798828125 59.61449432373046875 59.13639068603515625 58.043125152587890625 56.448276519775390625 54.459285736083984375 52.436824798583984375 50.743038177490234375 49.146366119384765625 47.7117919921875 45.124584197998046875 39.677448272705078125 31.651857376098632812 24.059812545776367188 18.580810546875 13.876893043518066406 9.6578016281127929688 5.8808870315551757812 -99999 -99999 -99999 -99999 -99999 -99999 -99999 -99999 -99999 -99999 -99999 -99999 -99999 -99999 -99999 -99999 -99999 -99999 -99999 -99999 -99999 -99999 -99999 -99999 -99999 -99999 -99999 -99999 -99999 -99999 -99999 -99999 -99999 -99999 -99999 -99999 -99999 -99999 -99999 -99999 -99999 -99999 -99999 -99999 -99999 -99999 -99999 -99999 -99999 -99999 -99999 -99999 -99999 -99999 -99999 -99999 -99999 -99999 -99999 -99999 -99999 -99999 -99999 -99999 -99999 -99999 -99999 -99999 -99999 -99999 -99999 -99999 -99999 -99999 -99999 -99999 -99999 -99999 -99999 -99999 -99999 -99999 -99999 -99999 -99999 -99999 -99999 -99999 -99999 -99999 -99999 -99999 -99999 -99999 -99999 -99999 -99999 -99999 -99999 -99999 -99999 -99999
 -99999 -99999 -99999 42.725330352783203125 44.4630279541015625 47.43961334228515625 51.54119873046875 56.45184326171875 61.730342864990234375 67.00051116943359375 72.140106201171875 77.04412841796875 81.63071441650390625 85.0843963623046875 87.42090606689453125 88.506072998046875 88.44844818115234375 87.7971343994140625 87.08014678955078125 86.4398193359375 85.91048431396484375 85.46764373779296875 85.02263641357421875 84.39742279052734375 83.40008544921875 82.00043487548828125 80.23535919189453125 78.1366119384765625 75.73456573486328125 73.02321624755859375 69.88260650634765625 66.738525390625 63.684696197509765625 60.4390869140625 57.298297882080078125 54.382282257080078125 51.61487579345703125 49.057952880859375 47.003444671630859375 45.1239776611328125 44.223346710205078125 44.026248931884765625 44.645687103271484375 46.0710906982421875 48.84076690673828125 52.82727813720703125 57.81932830810546875 62.90843963623046875 67.069610595703125 69.50202178955078125 71.102447509765625 72.97821807861328125 75.8722686767578125 79.09307861328125 83.450653076171875 88.32279205322265625 92.535369873046875 96.38144683837890625 99.39588165283203125 101.8540191650390625 103.3133392333984375 104.14044189453125 104.47531890869140625 104.373138427734375 103.97052001953125 103.35042572021484375 102.6177215576171875 101.78170013427734375 100.9502410888671875 100.165618896484375 99.40622711181640625 98.65032196044921875 97.9431915283203125 97.3049774169921875 96.6595916748046875 96.06526947021484375 95.48662567138671875 94.87070465087890625 94.18228912353515625 93.45929718017578125 92.60683441162109375 91.64463043212890625 90.44104766845703125 89.04290771484375 87.3926849365234375 85.58121490478515625 83.53920745849609375 81.261505126953125 78.7000274658203125 75.86083984375 72.928436279296875 71.26397705078125 70.02753448486328125 68.35396575927734375 66.15966033935546875 63.468479156494140625 60.360652923583984375 56.80670928955078125 53.14281463623046875 49.623416900634765625 46.55413055419921875 44.280399322509765625 43.490222930908203125 43.971527099609375 45.204681396484375 46.612468719482421875 48.142704010009765625 49.612041473388671875 50.74143218994140625 51.456348419189453125 51.675472259521484375 51.336578369140625 50.413135528564453125 49.07006072998046875 47.449718475341796875 45.690593719482421875 43.71474456787109375 41.53717041015625 38.7511749267578125 35.126125335693359375 29.393621444702148438 21.799047470092773438 15.307894706726074219 10.510586738586425781 6.3719348907470703125 -99999 -99999 -99999 -99999 -99999 -99999 -99999 -99999 -99999 -99999 -99999 -99999 -99999 -99999 -99999 -99999 -99999 -99999 -99999 -99999 -99999 -99999 -99999 -99999 -99999 -99999 -99999 -99999 -99999 -99999 -99999 -99999 -99999 -99999 -99999 -99999 -99999 -99999 -99999 -99999 -99999 -99999 -99999 -99999 -99999 -99999 -99999 -99999 -99999 -99999 -99999 -99999 -99999 -99999 -99999 -99999 -99999 -99999 -99999 -99999 -99999 -99999 -99999 -99999 -99999 -99999 -99999 -99999 -99999 -99999 -99999 -99999 -99999 -99999 -99999 -99999 -99999 -99999 -99999 -99999 -99999 -99999 -99999 -99999 -99999 -99999 -99999 -99999 -99999 -99999 -99999 -99999 -99999 -99999 -99999 -99999 -99999 -99999 -99999 -99999 -99999 -99999 -99999 -99999
 -99999 -99999 -99999 -99999 -99999 46.711578369140625 50.60109710693359375 55.004978179931640625 59.605648040771484375 64.342681884765625 69.33763885498046875 73.81475830078125 77.7279205322265625 81.01618194580078125 83.06542205810546875 84.24352264404296875 84.63071441650390625 84.389404296875 83.78345489501953125 83.16930389404296875 82.48822784423828125 81.86519622802734375 81.08686065673828125 80.1043701171875 78.77654266357421875 77.17894744873046875 75.29620361328125 73.002044677734375 70.35231781005859375 67.4857025146484375 64.27687835693359375 61.087085723876953125 57.75637054443359375 54.337100982666015625 50.987133026123046875 47.8076324462890625 44.848018646240234375 41.98827362060546875 39.671535491943359375 37.7088775634765625 36.354015350341796875 35.665660858154296875 35.9614410400390625 37.663970947265625 40.37066650390625 44.927463531494140625 50.796977996826171875 57.55426788330078125 63.192813873291015625 65.88187408447265625 67.01815032958984375 68.67449951171875 70.7872161865234375 74.23197174072265625 78.33084869384765625 82.46002197265625 86.5004425048828125 89.95086669921875 93.019012451171875 95.400238037109375 97.250518798828125 98.43886566162109375 99.16741180419921875 99.5767669677734375 99.5010528564453125 99.24217987060546875 98.90660858154296875 98.4919891357421875 98.0156097412109375 97.476898193359375 97.00272369384765625 96.54846954345703125 96.07843780517578125 95.66881561279296875 95.279998779296875 94.85498046875 94.36325836181640625 93.86949920654296875 93.36112213134765625 92.73114013671875 91.925445556640625 90.96795654296875 89.77341461181640625 88.33416748046875 86.61181640625 84.586029052734375 82.29692840576171875 79.7857513427734375 77.07390594482421875 73.9847869873046875 70.7236480712890625 68.104736328125 66.21292877197265625 64.2161102294921875 61.7021331787109375 58.601654052734375 55.136241912841796875 51.47586822509765625 47.81743621826171875 44.150173187255859375 40.87054443359375 38.538700103759765625 37.6416473388671875 37.9602508544921875 38.6958465576171875 39.915149688720703125 41.249420166015625 42.451457977294921875 43.44207000732421875 44.068363189697265625 44.196819305419921875 43.88246917724609375 43.078136444091796875 41.842296600341796875 40.231983184814453125 38.3750762939453125 36.111095428466796875 33.64829254150390625 30.5406036376953125 25.9921875 20.363840103149414062 14.238031387329101562 8.3630590438842773438 -99999 -99999 -99999 -99999 -99999 -99999 -99999 -99999 -99999 -99999 -99999 -99999 -99999 -99999 -99999 -99999 -99999 -99999 -99999 -99999 -99999 -99999 -99999 -99999 -99999 -99999 -99999 -99999 -99999 -99999 -99999 -99999 -99999 -99999 -99999 -99999 -99999 -99999 -99999 -99999 -99999 -99999 -99999 -99999 -99999 -99999 -99999 -99999 -99999 -99999 -99999 -99999 -99999 -99999 -99999 -99999 -99999 -99999 -99999 -99999 -99999 -99999 -99999 -99999 -99999 -99999 -99999 -99999 -99999 -99999 -99999 -99999 -99999 -99999 -99999 -99999 -99999 -99999 -99999 -99999 -99999 -99999 -99999 -99999 -99999 -99999 -99999 -99999 -99999 -99999 -99999 -99999 -99999 -99999 -99999 -99999 -99999 -99999 -99999 -99999 -99999 -99999 -99999 -99999 -99999 -99999
 -99999 -99999 -99999 -99999 -99999 -99999 49.270252227783203125 53.15557098388671875 57.499736785888671875 62.105571746826171875 66.404022216796875 70.48378753662109375 74.091644287109375 76.809326171875 78.654144287109375 79.99060821533203125 80.53920745849609375 80.56064605712890625 80.06085205078125 79.37894439697265625 78.7197265625 77.9029693603515625 76.8784942626953125 75.508056640625 74.06017303466796875 72.28980255126953125 70.166839599609375 67.67676544189453125 64.86365509033203125 61.911663055419921875 58.64583587646484375 55.20197296142578125 51.81111907958984375 48.199260711669921875 44.701305389404296875 41.29048919677734375 38.08789825439453125 34.9503936767578125 32.1415863037109375 29.880743026733398438 28.210756301879882812 27.309230804443359375 27.423610687255859375 28.654317855834960938 31.081121444702148438 35.22162628173828125 41.67836761474609375 50.09612274169921875 57.948215484619140625 60.611598968505859375 61.81990814208984375 63.566432952880859375 65.883880615234375 68.9437408447265625 72.86507415771484375 76.232879638671875 80.2644805908203125 83.66832733154296875 86.74852752685546875 89.2601776123046875 91.20880889892578125 92.673858642578125 93.7441253662109375 94.37387847900390625 94.807373046875 94.9995880126953125 94.9798736572265625 94.856658935546875 94.73114013671875 94.579620361328125 94.39382171630859375 94.24983978271484375 94.1222076416015625 93.896148681640625 93.64879608154296875 93.390594482421875 93.16178131103515625 92.80011749267578125 92.37755584716796875 91.84110260009765625 91.18039703369140625 90.32259368896484375 89.1861114501953125 87.72574615478515625 85.88748931884765625 83.7380828857421875 81.3506011962890625 78.70954132080078125 75.78855133056640625 72.61676788330078125 69.30865478515625 66.2779998779296875 63.63040924072265625 60.74756622314453125 57.68651580810546875 54.378299713134765625 50.824184417724609375 47.034198760986328125 43.1719207763671875 39.47806549072265625 36.32701873779296875 33.9439697265625 32.807788848876953125 32.703582763671875 33.1606597900390625 33.99533843994140625 34.934238433837890625 35.927516937255859375 36.640110015869140625 37.169097900390625 37.228851318359375 36.83756256103515625 36.002994537353515625 34.802967071533203125 33.199554443359375 31.158855438232421875 28.71942138671875 25.816450119018554688 22.208330154418945312 17.849557876586914062 12.793642997741699219 -99999 -99999 -99999 -99999 -99999 -99999 -99999 -99999 -99999 -99999 -99999 -99999 -99999 -99999 -99999 -99999 -99999 -99999 -99999 -99999 -99999 -99999 -99999 -99999 -99999 -99999 -99999 -99999 -99999 -99999 -99999 -99999 -99999 -99999 -99999 -99999 -99999 -99999 -99999 -99999 -99999 -99999 -99999 -99999 -99999 -99999 -99999 -99999 -99999 -99999 -99999 -99999 -99999 -99999 -99999 -99999 -99999 -99999 -99999 -99999 -99999 -99999 -99999 -99999 -99999 -99999 -99999 -99999 -99999 -99999 -99999 -99999 -99999 -99999 -99999 -99999 -99999 -99999 -99999 -99999 -99999 -99999 -99999 -99999 -99999 -99999 -99999 -99999 -99999 -99999 -99999 -99999 -99999 -99999 -99999 -99999 -99999 -99999 -99999 -99999 -99999 -99999 -99999 -99999 -99999 -99999 -99999 -99999
 -99999 -99999 -99999 -99999 -99999 -99999 -99999 -99999 55.82704925537109375 59.793148040771484375 63.422901153564453125 67.0547637939453125 69.945037841796875 72.3792572021484375 74.36217498779296875 75.6529998779296875 76.32012176513671875 76.21988677978515625 75.93741607666015625 75.359954833984375 74.53034210205078125 73.57210540771484375 72.20099639892578125 70.85958099365234375 69.11295318603515625 67.17536163330078125 64.826629638671875 62.1751861572265625 59.39239501953125 56.215572357177734375 52.86669921875 49.389026641845703125 45.716503143310546875 42.000568389892578125 38.396656036376953125 34.74102783203125 31.25528717041015625 28.043798446655273438 25.081693649291992188 22.460596084594726562 20.500186920166015625 19.15671539306640625 18.615375518798828125 19.094869613647460938 21.0123138427734375 24.653339385986328125 30.204721450805664062 38.72052764892578125 47.320896148681640625 51.94762420654296875 54.343143463134765625 56.98059844970703125 60.063579559326171875 62.916309356689453125 66.66078948974609375 70.569366455078125 74.042510986328125 77.51769256591796875 80.5883636474609375 83.1973114013671875 85.2505950927734375 86.94933319091796875 88.30759429931640625 89.279815673828125 89.95855712890625 90.45654296875 90.8345184326171875 91.1233673095703125 91.33010101318359375 91.54579925537109375 91.72579193115234375 91.80941009521484375 91.86474609375 91.91658782958984375 91.96056365966796875 91.8778533935546875 91.760009765625 91.564666748046875 91.3062744140625 90.91602325439453125 90.37966156005859375 89.67426300048828125 88.63669586181640625 87.16535186767578125 85.27693939208984375 83.02767181396484375 80.45037078857421875 77.77379608154296875 74.68766021728515625 71.390655517578125 67.954498291015625 64.5085601806640625 61.25801849365234375 58.028537750244140625 54.640148162841796875 50.991596221923828125 47.11731719970703125 43.202178955078125 39.441478729248046875 35.88799285888671875 32.763721466064453125 30.348924636840820312 28.905603408813476562 28.332630157470703125 28.431427001953125 28.856405258178710938 29.43317413330078125 30.032430648803710938 30.4353485107421875 30.711347579956054688 30.628871917724609375 30.242109298706054688 29.338216781616210938 27.979795455932617188 26.263702392578125 24.156890869140625 21.545589447021484375 -99999 -99999 -99999 -99999 -99999 -99999 -99999 -99999 -99999 -99999 -99999 -99999 -99999 -99999 -99999 -99999 -99999 -99999 -99999 -99999 -99999 -99999 -99999 -99999 -99999 -99999 -99999 -99999 -99999 -99999 -99999 -99999 -99999 -99999 -99999 -99999 -99999 -99999 -99999 -99999 -99999 -99999 -99999 -99999 -99999 -99999 -99999 -99999 -99999 -99999 -99999 -99999 -99999 -99999 -99999 -99999 -99999 -99999 -99999 -99999 -99999 -99999 -99999 -99999 -99999 -99999 -99999 -99999 -99999 -99999 -99999 -99999 -99999 -99999 -99999 -99999 -99999 -99999 -99999 -99999 -99999 -99999 -99999 -99999 -99999 -99999 -99999 -99999 -99999 -99999 -99999 -99999 -99999 -99999 -99999 -99999 -99999 -99999 -99999 -99999 -99999 -99999 -99999 -99999 -99999 -99999 -99999 -99999 -99999 -99999 -99999 -99999
 -99999 -99999 -99999 -99999 -99999 -99999 -99999 -99999 -99999 -99999 59.950305938720703125 63.266185760498046875 65.9297027587890625 68.3359832763671875 70.18460845947265625 71.338470458984375 71.88068389892578125 71.80182647705078125 71.67653656005859375 71.06402587890625 70.12207794189453125 69.01342010498046875 67.64391326904296875 66.027618408203125 64.1874847412109375 61.930759429931640625 59.5093536376953125 56.813755035400390625 53.78670501708984375 50.61339569091796875 47.17609405517578125 43.477611541748046875 39.877536773681640625 36.07538604736328125 32.19495391845703125 28.538362503051757812 24.83099365234375 21.28356170654296875 18.167537689208984375 15.336712837219238281 12.952738761901855469 11.409237861633300781 10.504207611083984375 10.464978218078613281 11.501566886901855469 13.4595794677734375 17.187747955322265625 26.063215255737304688 34.85192108154296875 41.21369171142578125 45.767002105712890625 49.67351531982421875 53.365253448486328125 56.906215667724609375 60.5488433837890625 64.384124755859375 67.94136810302734375 71.41555023193359375 74.41715240478515625 77.1134490966796875 79.33930206298828125 81.22788238525390625 82.78028106689453125 84.07718658447265625 85.08705902099609375 85.9322052001953125 86.6071319580078125 87.263092041015625 87.8283538818359375 88.31481170654296875 88.7824249267578125 89.2208251953125 89.57921600341796875 89.88607025146484375 90.11029052734375 90.2298736572265625 90.2662506103515625 90.21115875244140625 90.07411956787109375 89.8724365234375 89.48688507080078125 88.92797088623046875 88.04634857177734375 86.73632049560546875 84.72176361083984375 82.25151824951171875 79.606842041015625 76.8132476806640625 73.667327880859375 70.20195770263671875 66.6424102783203125 63.070064544677734375 59.43609619140625 55.719089508056640625 51.94539642333984375 48.085430145263671875 44.20008087158203125 40.2897796630859375 36.443279266357421875 32.857212066650390625 29.764965057373046875 27.407667160034179688 25.794086456298828125 24.797332763671875 24.348260879516601562 24.292201995849609375 24.4914093017578125 24.795331954956054688 24.935628890991210938 24.863817214965820312 24.58428955078125 23.93121337890625 -99999 -99999 -99999 -99999 -99999 -99999 -99999 -99999 -99999 -99999 -99999 -99999 -99999 -99999 -99999 -99999 -99999 -99999 -99999 -99999 -99999 -99999 -99999 -99999 -99999 -99999 -99999 -99999 -99999 -99999 -99999 -99999 -99999 -99999 -99999 -99999 -99999 -99999 -99999 -99999 -99999 -99999 -99999 -99999 -99999 -99999 -99999 -99999 -99999 -99999 -99999 -99999 -99999 -99999 -99999 -99999 -99999 -99999 -99999 -99999 -99999 -99999 -99999 -99999 -99999 -99999 -99999 -99999 -99999 -99999 -99999 -99999 -99999 -99999 -99999 -99999 -99999 -99999 -99999 -99999 -99999 -99999 -99999 -99999 -99999 -99999 -99999 -99999 -99999 -99999 -99999 -99999 -99999 -99999 -99999 -99999 -99999 -99999 -99999 -99999 -99999 -99999 -99999 -99999 -99999 -99999 -99999 -99999 -99999 -99999 -99999 -99999 -99999 -99999 -99999 -99999 -99999
 -99999 -99999 -99999 -99999 -99999 -99999 -99999 -99999 -99999 -99999 -99999 59.607006072998046875 62.069972991943359375 64.35059356689453125 65.869903564453125 66.6030120849609375 67.133209228515625 67.41888427734375 67.03743743896484375 66.39586639404296875 65.512725830078125 64.2177276611328125 62.80333709716796875 61.10282135009765625 59.04938507080078125 56.811618804931640625 54.19976043701171875 51.39644622802734375 48.378902435302734375 44.97719573974609375 41.44083404541015625 37.896068572998046875 33.967861175537109375 30.11621856689453125 26.341236114501953125 22.39043426513671875 18.690677642822265625 15.096041679382324219 11.787281990051269531 8.8191547393798828125 6.3853459358215332031 4.4156026840209960938 3.4643969535827636719 3.1826751232147216797 3.785480499267578125 5.3811922073364257812 9.5958738327026367188 16.280214309692382812 24.271669387817382812 31.516674041748046875 37.130817413330078125 41.68241119384765625 46.016048431396484375 50.26148223876953125 54.23929595947265625 58.204998016357421875 61.856189727783203125 65.23427581787109375 68.45056915283203125 71.12505340576171875 73.53034210205078125 75.64410400390625 77.40135955810546875 78.89080810546875 80.13152313232421875 81.293731689453125 82.31396484375 83.25815582275390625 84.1557769775390625 85.04341888427734375 85.833770751953125 86.55944061279296875 87.2183837890625 87.75730133056640625 88.18828582763671875 88.50202178955078125 88.700653076171875 88.76171875 88.71875 88.6035003662109375 88.3972930908203125 88.100799560546875 87.4901123046875 86.4338836669921875 84.4832763671875 81.7507171630859375 78.81711578369140625 75.86193084716796875 72.6299285888671875 69.10652923583984375 65.3837432861328125 61.565036773681640625 57.706817626953125 53.8150787353515625 49.850063323974609375 45.844509124755859375 41.77106475830078125 37.760997772216796875 33.991058349609375 30.51775360107421875 27.409708023071289062 24.877782821655273438 23.02846527099609375 21.737270355224609375 20.909807205200195312 20.505580902099609375 20.225009918212890625 20.039899826049804688 -99999 -99999 -99999 -99999 -99999 -99999 -99999 -99999 -99999 -99999 -99999 -99999 -99999 -99999 -99999 -99999 -99999 -99999 -99999 -99999 -99999 -99999 -99999 -99999 -99999 -99999 -99999 -99999 -99999 -99999 -99999 -99999 -99999 -99999 -99999 -99999 -99999 -99999 -99999 -99999 -99999 -99999 -99999 -99999 -99999 -99999 -99999 -99999 -99999 -99999 -99999 -99999 -99999 -99999 -99999 -99999 -99999 -99999 -99999 -99999 -99999 -99999 -99999 -99999 -99999 -99999 -99999 -99999 -99999 -99999 -99999 -99999 -99999 -99999 -99999 -99999 -99999 -99999 -99999 -99999 -99999 -99999 -99999 -99999 -99999 -99999 -99999 -99999 -99999 -99999 -99999 -99999 -99999 -99999 -99999 -99999 -99999 -99999 -99999 -99999 -99999 -99999 -99999 -99999 -99999 -99999 -99999 -99999 -99999 -99999 -99999 -99999 -99999 -99999 -99999 -99999 -99999 -99999 -99999 -99999 -99999
 -99999 -99999 -99999 -99999 -99999 -99999 -99999 -99999 -99999 -99999 -99999 -99999 -99999 -99999 61.4066009521484375 62.20374298095703125 62.871181488037109375 62.80071258544921875 62.54865264892578125 61.818126678466796875 60.831546783447265625 59.533969879150390625 57.942356109619140625 56.123241424560546875 53.969120025634765625 51.637462615966796875 48.96717071533203125 46.11664581298828125 42.913875579833984375 39.611103057861328125 36.118511199951171875 32.457363128662109375 28.622959136962890625 24.68988037109375 20.704219818115234375 16.959997177124023438 13.033014297485351562 9.4365682601928710938 5.9974455833435058594 3.0270037651062011719 0.54624468088150024414 -99999 -99999 -99999 -99999 0.25994533300399780273 4.0131964683532714844 9.6979551315307617188 16.595273971557617188 23.069097518920898438 29.094409942626953125 34.548862457275390625 39.498504638671875 43.907329559326171875 48.1410369873046875 52.09496307373046875 55.878772735595703125 59.402141571044921875 62.578441619873046875 65.426483154296875 67.87427520751953125 70.0992431640625 72.01651763916015625 73.7162628173828125 75.21889495849609375 76.6150054931640625 77.9611968994140625 79.210784912109375 80.456146240234375 81.61367034912109375 82.7629852294921875 83.8287506103515625 84.79448699951171875 85.63303375244140625 86.27967071533203125 86.7632293701171875 87.0578460693359375 87.19240570068359375 87.212890625 87.18141937255859375 87.11254119873046875 86.95526123046875 86.7017974853515625 86.0179901123046875 84.32472991943359375 81.4534454345703125 78.33818817138671875 75.07177734375 71.6617889404296875 68.0454559326171875 64.22695159912109375 60.285552978515625 56.20247650146484375 52.1388397216796875 48.009593963623046875 43.896312713623046875 39.86319732666015625 35.83310699462890625 31.963897705078125 28.486345291137695312 25.401721954345703125 22.763153076171875 20.604297637939453125 -99999 -99999 -99999 -99999 -99999 -99999 -99999 -99999 -99999 -99999 -99999 -99999 -99999 -99999 -99999 -99999 -99999 -99999 -99999 -99999 -99999 -99999 -99999 -99999 -99999 -99999 -99999 -99999 -99999 -99999 -99999 -99999 -99999 -99999 -99999 -99999 -99999 -99999 -99999 -99999 -99999 -99999 -99999 -99999 -99999 -99999 -99999 -99999 -99999 -99999 -99999 -99999 -99999 -99999 -99999 -99999 -99999 -99999 -99999 -99999 -99999 -99999 -99999 -99999 -99999 -99999 -99999 -99999 -99999 -99999 -99999 -99999 -99999 -99999 -99999 -99999 -99999 -99999 -99999 -99999 -99999 -99999 -99999 -99999 -99999 -99999 -99999 -99999 -99999 -99999 -99999 -99999 -99999 -99999 -99999 -99999 -99999 -99999 -99999 -99999 -99999 -99999 -99999 -99999 -99999 -99999 -99999 -99999 -99999 -99999 -99999 -99999 -99999 -99999 -99999 -99999 -99999 -99999 -99999 -99999 -99999 -99999 -99999 -99999 -99999 -99999
 -99999 -99999 -99999 -99999 -99999 -99999 -99999 -99999 -99999 -99999 -99999 -99999 -99999 -99999 -99999 -99999 -99999 -99999 -99999 -99999 -99999 -99999 -99999 -99999 -99999 -99999 -99999 -99999 37.8111572265625 34.385711669921875 30.78475189208984375 27.195034027099609375 23.281734466552734375 19.457948684692382812 15.580396652221679688 11.632080078125 -99999 -99999 -99999 -99999 -99999 -99999 -99999 -99999 -99999 -99999 -99999 4.6338109970092773438 10.549345970153808594 16.568979263305664062 22.4184417724609375 27.93283843994140625 33.09067535400390625 37.684612274169921875 42.144824981689453125 46.35834503173828125 50.221637725830078125 53.720184326171875 56.96379852294921875 59.843822479248046875 62.449306488037109375 64.77791595458984375 66.78705596923828125 68.63861846923828125 70.3669891357421875 71.98442840576171875 73.56989288330078125 75.1246795654296875 76.6940460205078125 78.20482635498046875 79.76267242431640625 81.1210784912109375 82.39746856689453125 83.53380584716796875 84.41498565673828125 85.05539703369140625 85.487548828125 85.6409454345703125 85.72197723388671875 85.55159759521484375 85.4680328369140625 85.4245758056640625 85.38922119140625 85.3060760498046875 83.94588470458984375 80.98648834228515625 77.64361572265625 74.2446136474609375 70.7255859375 66.99385833740234375 63.09046173095703125 59.0678253173828125 54.967182159423828125 50.799976348876953125 46.597743988037109375 42.31020355224609375 38.1418609619140625 34.124385833740234375 30.362628936767578125 26.827548980712890625 -99999 -99999 -99999 -99999 -99999 -99999 -99999 -99999 -99999 -99999 -99999 -99999 -99999 -99999 -99999 -99999 -99999 -99999 -99999 -99999 -99999 -99999 -99999 -99999 -99999 -99999 -99999 -99999 -99999 -99999 -99999 -99999 -99999 -99999 -99999 -99999 -99999 -99999 -99999 -99999 -99999 -99999 -99999 -99999 -99999 -99999 -99999 -99999 -99999 -99999 -99999 -99999 -99999 -99999 -99999 -99999 -99999 -99999 -99999 -99999 -99999 -99999 -99999 -99999 -99999 -99999 -99999 -99999 -99999 -99999 -99999 -99999 -99999 -99999 -99999 -99999 -99999 -99999 -99999 -99999 -99999 -99999 -99999 -99999 -99999 -99999 -99999 -99999 -99999 -99999 -99999 -99999 -99999 -99999 -99999 -99999 -99999 -99999 -99999 -99999 -99999 -99999 -99999 -99999 -99999 -99999 -99999 -99999 -99999 -99999 -99999 -99999 -99999 -99999 -99999 -99999 -99999 -99999 -99999 -99999 -99999 -99999 -99999 -99999 -99999 -99999 -99999 -99999 -99999
 -99999 -99999 -99999 -99999 -99999 -99999 -99999 -99999 -99999 -99999 -99999 -99999 -99999 -99999 -99999 -99999 -99999 -99999 -99999 -99999 -99999 -99999 -99999 -99999 -99999 -99999 -99999 -99999 -99999 -99999 -99999 -99999 -99999 -99999 -99999 -99999 -99999 -99999 -99999 -99999 -99999 -99999 -99999 -99999 -99999 -99999 -99999 0.59273803234100341797 5.7859129905700683594 11.407406806945800781 17.031291961669921875 22.285524368286132812 27.319086074829101562 32.25440216064453125 36.80706787109375 40.928562164306640625 44.804767608642578125 48.448299407958984375 51.654216766357421875 54.5999603271484375 57.222751617431640625 59.55020904541015625 61.71958160400390625 63.67853546142578125 65.5430450439453125 67.3679656982421875 69.20189666748046875 70.99687957763671875 72.90438079833984375 74.73663330078125 76.61403656005859375 78.44873046875 80.15215301513671875 81.5416412353515625 82.68703460693359375 83.440460205078125 84.08066558837890625 84.15035247802734375 84.0129241943359375 83.76212310791015625 83.534393310546875 83.48047637939453125 83.4133453369140625 83.11788177490234375 81.9280853271484375 79.6439056396484375 76.509429931640625 73.1826934814453125 69.6497344970703125 65.9426116943359375 62.00737762451171875 57.978961944580078125 53.746456146240234375 49.4843292236328125 45.201000213623046875 40.993137359619140625 36.880374908447265625 32.791362762451171875 -99999 -99999 -99999 -99999 -99999 -99999 -99999 -99999 -99999 -99999 -99999 -99999 -99999 -99999 -99999 -99999 -99999 -99999 -99999 -99999 -99999 -99999 -99999 -99999 -99999 -99999 -99999 -99999 -99999 -99999 -99999 -99999 -99999 -99999 -99999 -99999 -99999 -99999 -99999 -99999 -99999 -99999 -99999 -99999 -99999 -99999 -99999 -99999 -99999 -99999 -99999 -99999 -99999 -99999 -99999 -99999 -99999 -99999 -99999 -99999 -99999 -99999 -99999 -99999 -99999 -99999 -99999 -99999 -99999 -99999 -99999 -99999 -99999 -99999 -99999 -99999 -99999 -99999 -99999 -99999 -99999 -99999 -99999 -99999 -99999 -99999 -99999 -99999 -99999 -99999 -99999 -99999 -99999 -99999 -99999 -99999 -99999 -99999 -99999 -99999 -99999 -99999 -99999 -99999 -99999 -99999 -99999 -99999 -99999 -99999 -99999 -99999 -99999 -99999 -99999 -99999 -99999 -99999 -99999 -99999 -99999 -99999 -99999 -99999 -99999 -99999 -99999 -99999 -99999 -99999 -99999
 -99999 -99999 -99999 -99999 -99999 -99999 -99999 -99999 -99999 -99999 -99999 -99999 -99999 -99999 -99999 -99999 -99999 -99999 -99999 -99999 -99999 -99999 -99999 -99999 -99999 -99999 -99999 -99999 -99999 -99999 -99999 -99999 -99999 -99999 -99999 -99999 -99999 -99999 -99999 -99999 -99999 -99999 -99999 -99999 -99999 -99999 -99999 -99999 2.0543313026428222656 7.176361083984375 12.30857086181640625 17.57949066162109375 22.638988494873046875 27.322511672973632812 31.799722671508789062 36.094146728515625 39.91199493408203125 43.453861236572265625 46.69057464599609375 49.605785369873046875 52.24475860595703125 54.65838623046875 56.817035675048828125 58.8600616455078125 60.8407745361328125 62.7725982666015625 64.78256988525390625 66.881683349609375 69.0353851318359375 71.3640899658203125 73.724517822265625 75.87642669677734375 77.8824310302734375 79.603363037109375 81.19400787353515625 82.165374755859375 82.74321746826171875 82.81594085693359375 82.47066497802734375 82.0399017333984375 81.55310821533203125 81.4241485595703125 81.30306243896484375 80.9471893310546875 79.80335235595703125 77.716461181640625 75.0867156982421875 71.94486236572265625 68.4696044921875 64.7436370849609375 60.8242645263671875 56.7313079833984375 52.53345489501953125 48.322113037109375 44.106990814208984375 39.832546234130859375 35.626922607421875 -99999 -99999 -99999 -99999 -99999 -99999 -99999 -99999 -99999 -99999 -99999 -99999 -99999 -99999 -99999 -99999 -99999 -99999 -99999 -99999 -99999 -99999 -99999 -99999 -99999 -99999 -99999 -99999 -99999 -99999 -99999 -99999 -99999 -99999 -99999 -99999 -99999 -99999 -99999 -99999 -99999 -99999 -99999 -99999 -99999 -99999 -99999 -99999 -99999 -99999 -99999 -99999 -99999 -99999 -99999 -99999 -99999 -99999 -99999 -99999 -99999 -99999 -99999 -99999 -99999 -99999 -99999 -99999 -99999 -99999 -99999 -99999 -99999 -99999 -99999 -99999 -99999 -99999 -99999 -99999 -99999 -99999 -99999 -99999 -99999 -99999 -99999 -99999 -99999 -99999 -99999 -99999 -99999 -99999 -99999 -99999 -99999 -99999 -99999 -99999 -99999 -99999 -99999 -99999 -99999 -99999 -99999 -99999 -99999 -99999 -99999 -99999 -99999 -99999 -99999 -99999 -99999 -99999 -99999 -99999 -99999 -99999 -99999 -99999 -99999 -99999 -99999 -99999 -99999 -99999 -99999 -99999
 -99999 -99999 -99999 -99999 -99999 -99999 -99999 -99999 -99999 -99999 -99999 -99999 -99999 -99999 -99999 -99999 -99999 -99999 -99999 -99999 -99999 -99999 -99999 -99999 -99999 -99999 -99999 -99999 -99999 -99999 -99999 -99999 -99999 -99999 -99999 -99999 -99999 -99999 -99999 -99999 -99999 -99999 -99999 -99999 -99999 -99999 -99999 -99999 -99999 3.7488267421722412109 8.6903371810913085938 13.636829376220703125 18.523176193237304688 23.127168655395507812 27.52037811279296875 31.54854583740234375 35.41927337646484375 38.880207061767578125 42.0970916748046875 45.0183563232421875 47.636722564697265625 50.024684906005859375 52.162113189697265625 54.1790313720703125 56.20719146728515625 58.218624114990234375 60.39865875244140625 62.7527923583984375 65.33355712890625 67.9337615966796875 70.6478118896484375 73.29296875 75.82570648193359375 78.0522918701171875 79.85732269287109375 81.08930206298828125 81.76470184326171875 81.96739959716796875 81.43477630615234375 80.45371246337890625 79.73989105224609375 79.62242889404296875 79.57907867431640625 79.051971435546875 77.9073486328125 76.02368927001953125 73.50389862060546875 70.5099334716796875 67.14752197265625 63.505260467529296875 59.632137298583984375 55.603435516357421875 51.48088836669921875 47.23363494873046875 42.958110809326171875 38.7564697265625 -99999 -99999 -99999 -99999 -99999 -99999 -99999 -99999 -99999 -99999 -99999 -99999 -99999 -99999 -99999 -99999 -99999 -99999 -99999 -99999 -99999 -99999 -99999 -99999 -99999 -99999 -99999 -99999 -99999 -99999 -99999 -99999 -99999 -99999 -99999 -99999 -99999 -99999 -99999 -99999 -99999 -99999 -99999 -99999 -99999 -99999 -99999 -99999 -99999 -99999 -99999 -99999 -99999 -99999 -99999 -99999 -99999 -99999 -99999 -99999 -99999 -99999 -99999 -99999 -99999 -99999 -99999 -99999 -99999 -99999 -99999 -99999 -99999 -99999 -99999 -99999 -99999 -99999 -99999 -99999 -99999 -99999 -99999 -99999 -99999 -99999 -99999 -99999 -99999 -99999 -99999 -99999 -99999 -99999 -99999 -99999 -99999 -99999 -99999 -99999 -99999 -99999 -99999 -99999 -99999 -99999 -99999 -99999 -99999 -99999 -99999 -99999 -99999 -99999 -99999 -99999 -99999 -99999 -99999 -99999 -99999 -99999 -99999 -99999 -99999 -99999 -99999 -99999 -99999 -99999 -99999 -99999 -99999
 -99999 -99999 -99999 -99999 -99999 -99999 -99999 -99999 -99999 -99999 -99999 -99999 -99999 -99999 -99999 -99999 -99999 -99999 -99999 -99999 -99999 -99999 -99999 -99999 -99999 -99999 -99999 -99999 -99999 -99999 -99999 -99999 -99999 -99999 -99999 -99999 -99999 -99999 -99999 -99999 -99999 -99999 -99999 -99999 -99999 -99999 -99999 -99999 -99999 1.1195262670516967773 5.8088955879211425781 10.378389358520507812 14.951767921447753906 19.389348983764648438 23.638822555541992188 27.647855758666992188 31.384105682373046875 34.872440338134765625 38.04349517822265625 40.852996826171875 43.389801025390625 45.653934478759765625 47.73284912109375 49.719966888427734375 51.6701507568359375 53.74893951416015625 56.0962371826171875 58.554607391357421875 61.3776092529296875 64.5044708251953125 67.78305816650390625 70.97663116455078125 74.04595184326171875 76.65670013427734375 78.6786041259765625 80.30633544921875 81.31063079833984375 81.62215423583984375 80.97692108154296875 79.85692596435546875 78.87136077880859375 78.5422821044921875 78.26219940185546875 77.53118896484375 76.26793670654296875 74.4151763916015625 71.994049072265625 69.104339599609375 65.82288360595703125 62.2873992919921875 58.479213714599609375 54.48567962646484375 50.367717742919921875 46.19084930419921875 42.01375579833984375 -99999 -99999 -99999 -99999 -99999 -99999 -99999 -99999 -99999 -99999 -99999 -99999 -99999 -99999 -99999 -99999 -99999 -99999 -99999 -99999 -99999 -99999 -99999 -99999 -99999 -99999 -99999 -99999 -99999 -99999 -99999 -99999 -99999 -99999 -99999 -99999 -99999 -99999 -99999 -99999 -99999 -99999 -99999 -99999 -99999 -99999 -99999 -99999 -99999 -99999 -99999 -99999 -99999 -99999 -99999 -99999 -99999 -99999 -99999 -99999 -99999 -99999 -99999 -99999 -99999 -99999 -99999 -99999 -99999 -99999 -99999 -99999 -99999 -99999 -99999 -99999 -99999 -99999 -99999 -99999 -99999 -99999 -99999 -99999 -99999 -99999 -99999 -99999 -99999 -99999 -99999 -99999 -99999 -99999 -99999 -99999 -99999 -99999 -99999 -99999 -99999 -99999 -99999 -99999 -99999 -99999 -99999 -99999 -99999 -99999 -99999 -99999 -99999 -99999 -99999 -99999 -99999 -99999 -99999 -99999 -99999 -99999 -99999 -99999 -99999 -99999 -99999 -99999 -99999 -99999 -99999 -99999 -99999 -99999
 -99999 -99999 -99999 -99999 -99999 -99999 -99999 -99999 -99999 -99999 -99999 -99999 -99999 -99999 -99999 -99999 -99999 -99999 -99999 -99999 -99999 -99999 -99999 -99999 -99999 -99999 -99999 -99999 -99999 -99999 -99999 -99999 -99999 -99999 -99999 -99999 -99999 -99999 -99999 -99999 -99999 -99999 -99999 -99999 -99999 -99999 -99999 -99999 -99999 -99999 3.2787909507751464844 7.6678719520568847656 12.039656639099121094 16.311471939086914062 20.383268356323242188 24.303709030151367188 27.93837738037109375 31.27317047119140625 34.317035675048828125 37.07285308837890625 39.526092529296875 41.68032073974609375 43.643154144287109375 45.519062042236328125 47.36591339111328125 49.411403656005859375 51.5801239013671875 54.31333160400390625 57.548404693603515625 61.172504425048828125 64.99720001220703125 68.85174560546875 72.25684356689453125 75.38755035400390625 77.967132568359375 79.87355804443359375 81.051544189453125 81.63004302978515625 81.33191680908203125 80.08910369873046875 78.93289947509765625 78.14196014404296875 77.44512939453125 76.43575286865234375 74.9385223388671875 72.96529388427734375 70.5449066162109375 67.75484466552734375 64.57454681396484375 61.05782318115234375 57.293598175048828125 53.3831634521484375 49.3549957275390625 -99999 -99999 -99999 -99999 -99999 -99999 -99999 -99999 -99999 -99999 -99999 -99999 -99999 -99999 -99999 -99999 -99999 -99999 -99999 -99999 -99999 -99999 -99999 -99999 -99999 -99999 -99999 -99999 -99999 -99999 -99999 -99999 -99999 -99999 -99999 -99999 -99999 -99999 -99999 -99999 -99999 -99999 -99999 -99999 -99999 -99999 -99999 -99999 -99999 -99999 -99999 -99999 -99999 -99999 -99999 -99999 -99999 -99999 -99999 -99999 -99999 -99999 -99999 -99999 -99999 -99999 -99999 -99999 -99999 -99999 -99999 -99999 -99999 -99999 -99999 -99999 -99999 -99999 -99999 -99999 -99999 -99999 -99999 -99999 -99999 -99999 -99999 -99999 -99999 -99999 -99999 -99999 -99999 -99999 -99999 -99999 -99999 -99999 -99999 -99999 -99999 -99999 -99999 -99999 -99999 -99999 -99999 -99999 -99999 -99999 -99999 -99999 -99999 -99999 -99999 -99999 -99999 -99999 -99999 -99999 -99999 -99999 -99999 -99999 -99999 -99999 -99999 -99999 -99999 -99999 -99999 -99999 -99999 -99999 -99999 -99999
 -99999 -99999 -99999 -99999 -99999 -99999 -99999 -99999 -99999 -99999 -99999 -99999 -99999 -99999 -99999 -99999 -99999 -99999 -99999 -99999 -99999 -99999 -99999 -99999 -99999 -99999 -99999 -99999 -99999 -99999 -99999 -99999 -99999 -99999 -99999 -99999 -99999 -99999 -99999 -99999 -99999 -99999 -99999 -99999 -99999 -99999 -99999 -99999 -99999 -99999 1.4342771768569946289 5.5667967796325683594 9.6733922958374023438 13.713128089904785156 17.703823089599609375 21.446519851684570312 24.974336624145507812 28.223623275756835938 31.1802520751953125 33.82627105712890625 36.1116943359375 38.155376434326171875 39.980991363525390625 41.625713348388671875 43.26721954345703125 45.0362701416015625 47.229923248291015625 50.08013916015625 53.64253997802734375 57.80785369873046875 62.27626800537109375 66.74658966064453125 70.92769622802734375 74.43608856201171875 77.37465667724609375 79.56366729736328125 81.0513763427734375 81.81360626220703125 81.4996795654296875 80.46431732177734375 79.241851806640625 78.03839874267578125 76.89176177978515625 75.58994293212890625 73.87807464599609375 71.792724609375 69.328033447265625 66.49257659912109375 63.32563018798828125 59.848812103271484375 56.1757965087890625 52.33316802978515625 -99999 -99999 -99999 -99999 -99999 -99999 -99999 -99999 -99999 -99999 -99999 -99999 -99999 -99999 -99999 -99999 -99999 -99999 -99999 -99999 -99999 -99999 -99999 -99999 -99999 -99999 -99999 -99999 -99999 -99999 -99999 -99999 -99999 -99999 -99999 -99999 -99999 -99999 -99999 -99999 -99999 -99999 -99999 -99999 -99999 -99999 -99999 -99999 -99999 -99999 -99999 -99999 -99999 -99999 -99999 -99999 -99999 -99999 -99999 -99999 -99999 -99999 -99999 -99999 -99999 -99999 -99999 -99999 -99999 -99999 -99999 -99999 -99999 -99999 -99999 -99999 -99999 -99999 -99999 -99999 -99999 -99999 -99999 -99999 -99999 -99999 -99999 -99999 -99999 -99999 -99999 -99999 -99999 -99999 -99999 -99999 -99999 -99999 -99999 -99999 -99999 -99999 -99999 -99999 -99999 -99999 -99999 -99999 -99999 -99999 -99999 -99999 -99999 -99999 -99999 -99999 -99999 -99999 -99999 -99999 -99999 -99999 -99999 -99999 -99999 -99999 -99999 -99999 -99999 -99999 -99999 -99999 -99999 -99999 -99999 -99999 -99999
 -99999 -99999 -99999 -99999 -99999 -99999 -99999 -99999 -99999 -99999 -99999 -99999 -99999 -99999 -99999 -99999 -99999 -99999 -99999 -99999 -99999 -99999 -99999 -99999 -99999 -99999 -99999 -99999 -99999 -99999 -99999 -99999 -99999 -99999 -99999 -99999 -99999 -99999 -99999 -99999 -99999 -99999 -99999 -99999 -99999 -99999 -99999 -99999 -99999 -99999 0.016240257769823074341 3.9030039310455322266 7.7880225181579589844 11.710492134094238281 15.553255081176757812 19.183851242065429688 22.564504623413085938 25.701692581176757812 28.563121795654296875 31.08300018310546875 33.252315521240234375 35.20294952392578125 36.8148956298828125 38.226078033447265625 39.537464141845703125 40.93212127685546875 42.87297821044921875 45.65053558349609375 49.548160552978515625 54.435634613037109375 59.83449554443359375 65.0381317138671875 69.80519866943359375 74.0121917724609375 77.23040008544921875 79.38465118408203125 80.8504486083984375 81.470001220703125 81.41278839111328125 80.44611358642578125 79.25608062744140625 77.93377685546875 76.48932647705078125 74.85405731201171875 72.97844696044921875 70.8085174560546875 68.26242828369140625 65.35637664794921875 62.1763763427734375 58.753452301025390625 55.118129730224609375 -99999 -99999 -99999 -99999 -99999 -99999 -99999 -99999 -99999 -99999 -99999 -99999 -99999 -99999 -99999 -99999 -99999 -99999 -99999 -99999 -99999 -99999 -99999 -99999 -99999 -99999 -99999 -99999 -99999 -99999 -99999 -99999 -99999 -99999 -99999 -99999 -99999 -99999 -99999 -99999 -99999 -99999 -99999 -99999 -99999 -99999 -99999 -99999 -99999 -99999 -99999 -99999 -99999 -99999 -99999 -99999 -99999 -99999 -99999 -99999 -99999 -99999 -99999 -99999 -99999 -99999 -99999 -99999 -99999 -99999 -99999 -99999 -99999 -99999 -99999 -99999 -99999 -99999 -99999 -99999 -99999 -99999 -99999 -99999 -99999 -99999 -99999 -99999 -99999 -99999 -99999 -99999 -99999 -99999 -99999 -99999 -99999 -99999 -99999 -99999 -99999 -99999 -99999 -99999 -99999 -99999 -99999 -99999 -99999 -99999 -99999 -99999 -99999 -99999 -99999 -99999 -99999 -99999 -99999 -99999 -99999 -99999 -99999 -99999 -99999 -99999 -99999 -99999 -99999 -99999 -99999 -99999 -99999 -99999 -99999 -99999 -99999 -99999
 -99999 -99999 -99999 -99999 -99999 -99999 -99999 -99999 -99999 -99999 -99999 -99999 -99999 -99999 -99999 -99999 -99999 -99999 -99999 -99999 -99999 -99999 -99999 -99999 -99999 -99999 -99999 -99999 -99999 -99999 -99999 -99999 -99999 -99999 -99999 -99999 -99999 -99999 -99999 -99999 -99999 -99999 -99999 -99999 -99999 -99999 -99999 -99999 -99999 -99999 -99999 2.6802866458892822266 6.4426507949829101562 10.241509437561035156 13.863128662109375 17.36113739013671875 20.640682220458984375 23.712427139282226562 26.510572433471679688 28.983263015747070312 31.154031753540039062 32.933979034423828125 34.329387664794921875 35.534427642822265625 36.305850982666015625 37.12715911865234375 38.39925384521484375 41.050533294677734375 45.4989166259765625 51.345996856689453125 57.817401885986328125 63.9962615966796875 69.33742523193359375 73.81174468994140625 77.26251983642578125 79.61414337158203125 80.8592376708984375 81.30219268798828125 81.1141815185546875 80.285858154296875 79.082122802734375 77.6654510498046875 76.06841278076171875 74.27832794189453125 72.21320343017578125 69.84778594970703125 67.21340179443359375 64.3131103515625 61.1470489501953125 57.703907012939453125 -99999 -99999 -99999 -99999 -99999 -99999 -99999 -99999 -99999 -99999 -99999 -99999 -99999 -99999 -99999 -99999 -99999 -99999 -99999 -99999 -99999 -99999 -99999 -99999 -99999 -99999 -99999 -99999 -99999 -99999 -99999 -99999 -99999 -99999 -99999 -99999 -99999 -99999 -99999 -99999 -99999 -99999 -99999 -99999 -99999 -99999 -99999 -99999 -99999 -99999 -99999 -99999 -99999 -99999 -99999 -99999 -99999 -99999 -99999 -99999 -99999 -99999 -99999 -99999 -99999 -99999 -99999 -99999 -99999 -99999 -99999 -99999 -99999 -99999 -99999 -99999 -99999 -99999 -99999 -99999 -99999 -99999 -99999 -99999 -99999 -99999 -99999 -99999 -99999 -99999 -99999 -99999 -99999 -99999 -99999 -99999 -99999 -99999 -99999 -99999 -99999 -99999 -99999 -99999 -99999 -99999 -99999 -99999 -99999 -99999 -99999 -99999 -99999 -99999 -99999 -99999 -99999 -99999 -99999 -99999 -99999 -99999 -99999 -99999 -99999 -99999 -99999 -99999 -99999 -99999 -99999 -99999 -99999 -99999 -99999 -99999 -99999 -99999 -99999
 -99999 -99999 -99999 -99999 -99999 -99999 -99999 -99999 -99999 -99999 -99999 -99999 -99999 -99999 -99999 -99999 -99999 -99999 -99999 -99999 -99999 -99999 -99999 -99999 -99999 -99999 -99999 -99999 -99999 -99999 -99999 -99999 -99999 -99999 -99999 -99999 -99999 -99999 -99999 -99999 -99999 -99999 -99999 -99999 -99999 -99999 -99999 -99999 -99999 -99999 -99999 1.8708974123001098633 5.4406671524047851562 9.0619668960571289062 12.586699485778808594 15.989024162292480469 19.249479293823242188 22.318101882934570312 25.076259613037109375 27.579622268676757812 29.681766510009765625 31.43958282470703125 32.781932830810546875 33.60367584228515625 33.90259552001953125 34.052288055419921875 34.5873260498046875 36.535190582275390625 41.482028961181640625 48.743526458740234375 56.48761749267578125 63.500423431396484375 69.48130035400390625 74.25208282470703125 77.7647705078125 79.823486328125 80.847503662109375 81.13730621337890625 80.78907012939453125 79.9926605224609375 78.8118896484375 77.33081817626953125 75.59400177001953125 73.6182403564453125 71.42119598388671875 68.9920654296875 66.29227447509765625 63.3056640625 -99999 -99999 -99999 -99999 -99999 -99999 -99999 -99999 -99999 -99999 -99999 -99999 -99999 -99999 -99999 -99999 -99999 -99999 -99999 -99999 -99999 -99999 -99999 -99999 -99999 -99999 -99999 -99999 -99999 -99999 -99999 -99999 -99999 -99999 -99999 -99999 -99999 -99999 -99999 -99999 -99999 -99999 -99999 -99999 -99999 -99999 -99999 -99999 -99999 -99999 -99999 -99999 -99999 -99999 -99999 -99999 -99999 -99999 -99999 -99999 -99999 -99999 -99999 -99999 -99999 -99999 -99999 -99999 -99999 -99999 -99999 -99999 -99999 -99999 -99999 -99999 -99999 -99999 -99999 -99999 -99999 -99999 -99999 -99999 -99999 -99999 -99999 -99999 -99999 -99999 -99999 -99999 -99999 -99999 -99999 -99999 -99999 -99999 -99999 -99999 -99999 -99999 -99999 -99999 -99999 -99999 -99999 -99999 -99999 -99999 -99999 -99999 -99999 -99999 -99999 -99999 -99999 -99999 -99999 -99999 -99999 -99999 -99999 -99999 -99999 -99999 -99999 -99999 -99999 -99999 -99999 -99999 -99999 -99999 -99999 -99999 -99999 -99999 -99999 -99999 -99999
 -99999 -99999 -99999 -99999 -99999 -99999 -99999 -99999 -99999 -99999 -99999 -99999 -99999 -99999 -99999 -99999 -99999 -99999 -99999 -99999 -99999 -99999 -99999 -99999 -99999 -99999 -99999 -99999 -99999 -99999 -99999 -99999 -99999 -99999 -99999 -99999 -99999 -99999 -99999 -99999 -99999 -99999 -99999 -99999 -99999 -99999 -99999 -99999 -99999 -99999 -99999 1.3119704723358154297 4.7824425697326660156 8.2787084579467773438 11.733242988586425781 15.088820457458496094 18.33896636962890625 21.397228240966796875 24.201547622680664062 26.758413314819335938 28.8720703125 30.764207839965820312 32.085140228271484375 32.7628326416015625 32.964527130126953125 32.589397430419921875 32.008411407470703125 32.6524200439453125 38.0680389404296875 47.7624969482421875 56.89418792724609375 64.61356353759765625 70.51955413818359375 74.86667633056640625 78.0367889404296875 79.938995361328125 80.7800140380859375 80.9498748779296875 80.561431884765625 79.7038116455078125 78.42474365234375 76.85042572021484375 75.02813720703125 72.96866607666015625 70.683349609375 68.1188812255859375 65.37197113037109375 -99999 -99999 -99999 -99999 -99999 -99999 -99999 -99999 -99999 -99999 -99999 -99999 -99999 -99999 -99999 -99999 -99999 -99999 -99999 -99999 -99999 -99999 -99999 -99999 -99999 -99999 -99999 -99999 -99999 -99999 -99999 -99999 -99999 -99999 -99999 -99999 -99999 -99999 -99999 -99999 -99999 -99999 -99999 -99999 -99999 -99999 -99999 -99999 -99999 -99999 -99999 -99999 -99999 -99999 -99999 -99999 -99999 -99999 -99999 -99999 -99999 -99999 -99999 -99999 -99999 -99999 -99999 -99999 -99999 -99999 -99999 -99999 -99999 -99999 -99999 -99999 -99999 -99999 -99999 -99999 -99999 -99999 -99999 -99999 -99999 -99999 -99999 -99999 -99999 -99999 -99999 -99999 -99999 -99999 -99999 -99999 -99999 -99999 -99999 -99999 -99999 -99999 -99999 -99999 -99999 -99999 -99999 -99999 -99999 -99999 -99999 -99999 -99999 -99999 -99999 -99999 -99999 -99999 -99999 -99999 -99999 -99999 -99999 -99999 -99999 -99999 -99999 -99999 -99999 -99999 -99999 -99999 -99999 -99999 -99999 -99999 -99999 -99999 -99999 -99999 -99999 -99999
 -99999 -99999 -99999 -99999 -99999 -99999 -99999 -99999 -99999 -99999 -99999 -99999 -99999 -99999 -99999 -99999 -99999 -99999 -99999 -99999 -99999 -99999 -99999 -99999 -99999 -99999 -99999 -99999 -99999 -99999 -99999 -99999 -99999 -99999 -99999 -99999 -99999 -99999 -99999 -99999 -99999 -99999 -99999 -99999 -99999 -99999 -99999 -99999 -99999 -99999 -99999 1.0182626247406005859 4.4157581329345703125 7.8370103836059570312 11.232303619384765625 14.597258567810058594 17.862386703491210938 20.932704925537109375 23.816595077514648438 26.439916610717773438 28.833993911743164062 30.856973648071289062 32.33780670166015625 33.359188079833984375 33.7501983642578125 33.58533477783203125 33.0304412841796875 32.824863433837890625 39.957599639892578125 49.839839935302734375 59.296405792236328125 66.9154815673828125 72.3662872314453125 76.01990509033203125 78.50002288818359375 80.0308685302734375 80.73828125 80.80181121826171875 80.26219940185546875 79.2903900146484375 77.959381103515625 76.31435394287109375 74.41649627685546875 72.25310516357421875 69.872100830078125 67.28412628173828125 -99999 -99999 -99999 -99999 -99999 -99999 -99999 -99999 -99999 -99999 -99999 -99999 -99999 -99999 -99999 -99999 -99999 -99999 -99999 -99999 -99999 -99999 -99999 -99999 -99999 -99999 -99999 -99999 -99999 -99999 -99999 -99999 -99999 -99999 -99999 -99999 -99999 -99999 -99999 -99999 -99999 -99999 -99999 -99999 -99999 -99999 -99999 -99999 -99999 -99999 -99999 -99999 -99999 -99999 -99999 -99999 -99999 -99999 -99999 -99999 -99999 -99999 -99999 -99999 -99999 -99999 -99999 -99999 -99999 -99999 -99999 -99999 -99999 -99999 -99999 -99999 -99999 -99999 -99999 -99999 -99999 -99999 -99999 -99999 -99999 -99999 -99999 -99999 -99999 -99999 -99999 -99999 -99999 -99999 -99999 -99999 -99999 -99999 -99999 -99999 -99999 -99999 -99999 -99999 -99999 -99999 -99999 -99999 -99999 -99999 -99999 -99999 -99999 -99999 -99999 -99999 -99999 -99999 -99999 -99999 -99999 -99999 -99999 -99999 -99999 -99999 -99999 -99999 -99999 -99999 -99999 -99999 -99999 -99999 -99999 -99999 -99999 -99999 -99999 -99999 -99999 -99999 -99999
 -99999 -99999 -99999 -99999 -99999 -99999 -99999 -99999 -99999 -99999 -99999 -99999 -99999 -99999 -99999 -99999 -99999 -99999 -99999 -99999 -99999 -99999 -99999 -99999 -99999 -99999 -99999 -99999 -99999 -99999 -99999 -99999 -99999 -99999 -99999 -99999 -99999 -99999 -99999 -99999 -99999 -99999 -99999 -99999 -99999 -99999 -99999 -99999 -99999 -99999 -99999 0.97490453720092773438 4.2840905189514160156 7.6614980697631835938 11.056839942932128906 14.437464714050292969 17.731599807739257812 20.8763885498046875 23.956523895263671875 26.787166595458984375 29.462560653686523438 31.656198501586914062 33.56640625 35.117412567138671875 36.313709259033203125 37.185821533203125 37.96868133544921875 40.2063751220703125 46.510753631591796875 55.073131561279296875 63.713062286376953125 70.308319091796875 74.70188140869140625 77.33709716796875 79.14649200439453125 80.30532073974609375 80.65987396240234375 80.51535797119140625 79.8632049560546875 78.81890106201171875 77.4190673828125 75.68993377685546875 73.69504547119140625 71.5057220458984375 69.0287933349609375 -99999 -99999 -99999 -99999 -99999 -99999 -99999 -99999 -99999 -99999 -99999 -99999 -99999 -99999 -99999 -99999 -99999 -99999 -99999 -99999 -99999 -99999 -99999 -99999 -99999 -99999 -99999 -99999 -99999 -99999 -99999 -99999 -99999 -99999 -99999 -99999 -99999 -99999 -99999 -99999 -99999 -99999 -99999 -99999 -99999 -99999 -99999 -99999 -99999 -99999 -99999 -99999 -99999 -99999 -99999 -99999 -99999 -99999 -99999 -99999 -99999 -99999 -99999 -99999 -99999 -99999 -99999 -99999 -99999 -99999 -99999 -99999 -99999 -99999 -99999 -99999 -99999 -99999 -99999 -99999 -99999 -99999 -99999 -99999 -99999 -99999 -99999 -99999 -99999 -99999 -99999 -99999 -99999 -99999 -99999 -99999 -99999 -99999 -99999 -99999 -99999 -99999 -99999 -99999 -99999 -99999 -99999 -99999 -99999 -99999 -99999 -99999 -99999 -99999 -99999 -99999 -99999 -99999 -99999 -99999 -99999 -99999 -99999 -99999 -99999 -99999 -99999 -99999 -99999 -99999 -99999 -99999 -99999 -99999 -99999 -99999 -99999 -99999 -99999 -99999 -99999 -99999 -99999 -99999
 -99999 -99999 -99999 -99999 -99999 -99999 -99999 -99999 -99999 -99999 -99999 -99999 -99999 -99999 -99999 -99999 -99999 -99999 -99999 -99999 -99999 -99999 -99999 -99999 -99999 -99999 -99999 -99999 -99999 -99999 -99999 -99999 -99999 -99999 -99999 -99999 -99999 -99999 -99999 -99999 -99999 -99999 -99999 -99999 -99999 -99999 -99999 -99999 -99999 -99999 -99999 1.1236352920532226562 4.4077882766723632812 7.7541112899780273438 11.146808624267578125 14.571590423583984375 17.917337417602539062 21.228420257568359375 24.442945480346679688 27.556470870971679688 30.353046417236328125 33.008823394775390625 35.58599090576171875 37.853679656982421875 39.985569000244140625 42.10176849365234375 44.5565948486328125 48.6818084716796875 54.6045074462890625 61.94428253173828125 68.7694244384765625 73.51302337646484375 76.58528900146484375 78.5366058349609375 79.6811065673828125 80.342987060546875 80.50732421875 80.18560028076171875 79.412872314453125 78.2464447021484375 76.73779296875 74.97168731689453125 72.95952606201171875 -99999 -99999 -99999 -99999 -99999 -99999 -99999 -99999 -99999 -99999 -99999 -99999 -99999 -99999 -99999 -99999 -99999 -99999 -99999 -99999 -99999 -99999 -99999 -99999 -99999 -99999 -99999 -99999 -99999 -99999 -99999 -99999 -99999 -99999 -99999 -99999 -99999 -99999 -99999 -99999 -99999 -99999 -99999 -99999 -99999 -99999 -99999 -99999 -99999 -99999 -99999 -99999 -99999 -99999 -99999 -99999 -99999 -99999 -99999 -99999 -99999 -99999 -99999 -99999 -99999 -99999 -99999 -99999 -99999 -99999 -99999 -99999 -99999 -99999 -99999 -99999 -99999 -99999 -99999 -99999 -99999 -99999 -99999 -99999 -99999 -99999 -99999 -99999 -99999 -99999 -99999 -99999 -99999 -99999 -99999 -99999 -99999 -99999 -99999 -99999 -99999 -99999 -99999 -99999 -99999 -99999 -99999 -99999 -99999 -99999 -99999 -99999 -99999 -99999 -99999 -99999 -99999 -99999 -99999 -99999 -99999 -99999 -99999 -99999 -99999 -99999 -99999 -99999 -99999 -99999 -99999 -99999 -99999 -99999 -99999 -99999 -99999 -99999 -99999 -99999 -99999 -99999 -99999 -99999 -99999 -99999
 -99999 -99999 -99999 -99999 -99999 -99999 -99999 -99999 -99999 -99999 -99999 -99999 -99999 -99999 -99999 -99999 -99999 -99999 -99999 -99999 -99999 -99999 -99999 -99999 -99999 -99999 -99999 -99999 -99999 -99999 -99999 -99999 -99999 -99999 -99999 -99999 -99999 -99999 -99999 -99999 -99999 -99999 -99999 -99999 -99999 -99999 -99999 -99999 -99999 -99999 -99999 1.4314922094345092773 4.6880488395690917969 8.136150360107421875 11.425148963928222656 14.888348579406738281 18.356494903564453125 21.803266525268554688 25.176042556762695312 28.511632919311523438 31.705204010009765625 34.866893768310546875 37.938983917236328125 40.8790130615234375 43.967258453369140625 47.25982666015625 50.982341766357421875 55.926792144775390625 61.94165802001953125 67.83220672607421875 72.49554443359375 75.73336029052734375 77.764129638671875 79.1074981689453125 79.95708465576171875 80.35816192626953125 80.26721954345703125 79.6862030029296875 78.8007049560546875 77.55355072021484375 76.025115966796875 74.257598876953125 -99999 -99999 -99999 -99999 -99999 -99999 -99999 -99999 -99999 -99999 -99999 -99999 -99999 -99999 -99999 -99999 -99999 -99999 -99999 -99999 -99999 -99999 -99999 -99999 -99999 -99999 -99999 -99999 -99999 -99999 -99999 -99999 -99999 -99999 -99999 -99999 -99999 -99999 -99999 -99999 -99999 -99999 -99999 -99999 -99999 -99999 -99999 -99999 -99999 -99999 -99999 -99999 -99999 -99999 -99999 -99999 -99999 -99999 -99999 -99999 -99999 -99999 -99999 -99999 -99999 -99999 -99999 -99999 -99999 -99999 -99999 -99999 -99999 -99999 -99999 -99999 -99999 -99999 -99999 -99999 -99999 -99999 -99999 -99999 -99999 -99999 -99999 -99999 -99999 -99999 -99999 -99999 -99999 -99999 -99999 -99999 -99999 -99999 -99999 -99999 -99999 -99999 -99999 -99999 -99999 -99999 -99999 -99999 -99999 -99999 -99999 -99999 -99999 -99999 -99999 -99999 -99999 -99999 -99999 -99999 -99999 -99999 -99999 -99999 -99999 -99999 -99999 -99999 -99999 -99999 -99999 -99999 -99999 -99999 -99999 -99999 -99999 -99999 -99999 -99999 -99999 -99999 -99999 -99999 -99999 -99999 -99999
 -99999 -99999 -99999 -99999 -99999 -99999 -99999 -99999 -99999 -99999 -99999 -99999 -99999 -99999 -99999 -99999 -99999 -99999 -99999 -99999 -99999 -99999 -99999 -99999 -99999 -99999 -99999 -99999 -99999 -99999 -99999 -99999 -99999 -99999 -99999 -99999 -99999 -99999 -99999 -99999 -99999 -99999 -99999 -99999 -99999 -99999 -99999 -99999 -99999 -99999 -99999 1.8944213390350341797 5.1339559555053710938 8.4664354324340820312 11.904180526733398438 15.457654953002929688 18.99396514892578125 22.552701950073242188 26.129688262939453125 29.6847991943359375 33.241680145263671875 36.759952545166015625 40.30602264404296875 43.916667938232421875 47.6372528076171875 51.628704071044921875 56.165798187255859375 61.45368194580078125 66.87134552001953125 71.4241485595703125 74.52419281005859375 76.709320068359375 78.3232879638671875 79.3969573974609375 79.946258544921875 80.022125244140625 79.725189208984375 79.09276580810546875 78.1197052001953125 76.76611328125 75.2068939208984375 -99999 -99999 -99999 -99999 -99999 -99999 -99999 -99999 -99999 -99999 -99999 -99999 -99999 -99999 -99999 -99999 -99999 -99999 -99999 -99999 -99999 -99999 -99999 -99999 -99999 -99999 -99999 -99999 -99999 -99999 -99999 -99999 -99999 -99999 -99999 -99999 -99999 -99999 -99999 -99999 -99999 -99999 -99999 -99999 -99999 -99999 -99999 -99999 -99999 -99999 -99999 -99999 -99999 -99999 -99999 -99999 -99999 -99999 -99999 -99999 -99999 -99999 -99999 -99999 -99999 -99999 -99999 -99999 -99999 -99999 -99999 -99999 -99999 -99999 -99999 -99999 -99999 -99999 -99999 -99999 -99999 -99999 -99999 -99999 -99999 -99999 -99999 -99999 -99999 -99999 -99999 -99999 -99999 -99999 -99999 -99999 -99999 -99999 -99999 -99999 -99999 -99999 -99999 -99999 -99999 -99999 -99999 -99999 -99999 -99999 -99999 -99999 -99999 -99999 -99999 -99999 -99999 -99999 -99999 -99999 -99999 -99999 -99999 -99999 -99999 -99999 -99999 -99999 -99999 -99999 -99999 -99999 -99999 -99999 -99999 -99999 -99999 -99999 -99999 -99999 -99999 -99999 -99999 -99999 -99999 -99999 -99999 -99999
 -99999 -99999 -99999 -99999 -99999 -99999 -99999 -99999 -99999 -99999 -99999 -99999 -99999 -99999 -99999 -99999 -99999 -99999 -99999 -99999 -99999 -99999 -99999 -99999 -99999 -99999 -99999 -99999 -99999 -99999 -99999 -99999 -99999 -99999 -99999 -99999 -99999 -99999 -99999 -99999 -99999 -99999 -99999 -99999 -99999 -99999 -99999 -99999 -99999 -99999 -99999 2.4364523887634277344 5.6538987159729003906 8.9907474517822265625 12.53835296630859375 16.105722427368164062 19.7313232421875 23.439533233642578125 27.150524139404296875 30.954023361206054688 34.7503204345703125 38.61006927490234375 42.509662628173828125 46.46466064453125 50.5364532470703125 54.87392425537109375 59.63655853271484375 64.52398681640625 69.070892333984375 72.6270599365234375 75.086181640625 77.06006622314453125 78.3333740234375 79.1152191162109375 79.4786529541015625 79.46971893310546875 79.0968475341796875 78.30123138427734375 77.187103271484375 75.8439788818359375 -99999 -99999 -99999 -99999 -99999 -99999 -99999 -99999 -99999 -99999 -99999 -99999 -99999 -99999 -99999 -99999 -99999 -99999 -99999 -99999 -99999 -99999 -99999 -99999 -99999 -99999 -99999 -99999 -99999 -99999 -99999 -99999 -99999 -99999 -99999 -99999 -99999 -99999 -99999 -99999 -99999 -99999 -99999 -99999 -99999 -99999 -99999 -99999 -99999 -99999 -99999 -99999 -99999 -99999 -99999 -99999 -99999 -99999 -99999 -99999 -99999 -99999 -99999 -99999 -99999 -99999 -99999 -99999 -99999 -99999 -99999 -99999 -99999 -99999 -99999 -99999 -99999 -99999 -99999 -99999 -99999 -99999 -99999 -99999 -99999 -99999 -99999 -99999 -99999 -99999 -99999 -99999 -99999 -99999 -99999 -99999 -99999 -99999 -99999 -99999 -99999 -99999 -99999 -99999 -99999 -99999 -99999 -99999 -99999 -99999 -99999 -99999 -99999 -99999 -99999 -99999 -99999 -99999 -99999 -99999 -99999 -99999 -99999 -99999 -99999 -99999 -99999 -99999 -99999 -99999 -99999 -99999 -99999 -99999 -99999 -99999 -99999 -99999 -99999 -99999 -99999 -99999 -99999 -99999 -99999 -99999 -99999 -99999 -99999
 -99999 -99999 -99999 -99999 -99999 -99999 -99999 -99999 -99999 -99999 -99999 -99999 -99999 -99999 -99999 -99999 -99999 -99999 -99999 -99999 -99999 -99999 -99999 -99999 -99999 -99999 -99999 -99999 -99999 -99999 -99999 -99999 -99999 -99999 -99999 -99999 -99999 -99999 -99999 -99999 -99999 -99999 -99999 -99999 -99999 -99999 -99999 -99999 -99999 -99999 -99999 -99999 6.2631506919860839844 9.6920299530029296875 13.225177764892578125 16.826227188110351562 20.543451309204101562 24.308279037475585938 28.190992355346679688 32.17635345458984375 36.203792572021484375 40.22119903564453125 44.283794403076171875 48.499362945556640625 52.767772674560546875 57.212184906005859375 61.757732391357421875 66.02512359619140625 69.6898651123046875 72.74369049072265625 75.00606536865234375 76.667205810546875 77.83621978759765625 78.54351043701171875 78.81319427490234375 78.64200592041015625 78.1336669921875 77.3072967529296875 -99999 -99999 -99999 -99999 -99999 -99999 -99999 -99999 -99999 -99999 -99999 -99999 -99999 -99999 -99999 -99999 -99999 -99999 -99999 -99999 -99999 -99999 -99999 -99999 -99999 -99999 -99999 -99999 -99999 -99999 -99999 -99999 -99999 -99999 -99999 -99999 -99999 -99999 -99999 -99999 -99999 -99999 -99999 -99999 -99999 -99999 -99999 -99999 -99999 -99999 -99999 -99999 -99999 -99999 -99999 -99999 -99999 -99999 -99999 -99999 -99999 -99999 -99999 -99999 -99999 -99999 -99999 -99999 -99999 -99999 -99999 -99999 -99999 -99999 -99999 -99999 -99999 -99999 -99999 -99999 -99999 -99999 -99999 -99999 -99999 -99999 -99999 -99999 -99999 -99999 -99999 -99999 -99999 -99999 -99999 -99999 -99999 -99999 -99999 -99999 -99999 -99999 -99999 -99999 -99999 -99999 -99999 -99999 -99999 -99999 -99999 -99999 -99999 -99999 -99999 -99999 -99999 -99999 -99999 -99999 -99999 -99999 -99999 -99999 -99999 -99999 -99999 -99999 -99999 -99999 -99999 -99999 -99999 -99999 -99999 -99999 -99999 -99999 -99999 -99999 -99999 -99999 -99999 -99999 -99999 -99999 -99999 -99999 -99999 -99999 -99999
 -99999 -99999 -99999 -99999 -99999 -99999 -99999 -99999 -99999 -99999 -99999 -99999 -99999 -99999 -99999 -99999 -99999 -99999 -99999 -99999 -99999 -99999 -99999 -99999 -99999 -99999 -99999 -99999 -99999 -99999 -99999 -99999 -99999 -99999 -99999 -99999 -99999 -99999 -99999 -99999 -99999 -99999 -99999 -99999 -99999 -99999 -99999 -99999 -99999 -99999 -99999 -99999 6.9740557670593261719 10.411252021789550781 13.93172454833984375 17.574148178100585938 21.358591079711914062 25.247951507568359375 29.249616622924804688 33.299312591552734375 37.3928070068359375 41.57940673828125 45.803119659423828125 50.0159759521484375 54.2772979736328125 58.64582061767578125 62.758495330810546875 66.47815704345703125 69.72740936279296875 72.40590667724609375 74.3561553955078125 76.020721435546875 77.066650390625 77.621917724609375 77.79027557373046875 77.6136322021484375 77.06739044189453125 -99999 -99999 -99999 -99999 -99999 -99999 -99999 -99999 -99999 -99999 -99999 -99999 -99999 -99999 -99999 -99999 -99999 -99999 -99999 -99999 -99999 -99999 -99999 -99999 -99999 -99999 -99999 -99999 -99999 -99999 -99999 -99999 -99999 -99999 -99999 -99999 -99999 -99999 -99999 -99999 -99999 -99999 -99999 -99999 -99999 -99999 -99999 -99999 -99999 -99999 -99999 -99999 -99999 -99999 -99999 -99999 -99999 -99999 -99999 -99999 -99999 -99999 -99999 -99999 -99999 -99999 -99999 -99999 -99999 -99999 -99999 -99999 -99999 -99999 -99999 -99999 -99999 -99999 -99999 -99999 -99999 -99999 -99999 -99999 -99999 -99999 -99999 -99999 -99999 -99999 -99999 -99999 -99999 -99999 -99999 -99999 -99999 -99999 -99999 -99999 -99999 -99999 -99999 -99999 -99999 -99999 -99999 -99999 -99999 -99999 -99999 -99999 -99999 -99999 -99999 -99999 -99999 -99999 -99999 -99999 -99999 -99999 -99999 -99999 -99999 -99999 -99999 -99999 -99999 -99999 -99999 -99999 -99999 -99999 -99999 -99999 -99999 -99999 -99999 -99999 -99999 -99999 -99999 -99999 -99999 -99999 -99999 -99999 -99999 -99999 -99999 -99999
 -99999 -99999 -99999 -99999 -99999 -99999 -99999 -99999 -99999 -99999 -99999 -99999 -99999 -99999 -99999 -99999 -99999 -99999 -99999 -99999 -99999 -99999 -99999 -99999 -99999 -99999 -99999 -99999 -99999 -99999 -99999 -99999 -99999 -99999 -99999 -99999 -99999 -99999 -99999 -99999 -99999 -99999 -99999 -99999 -99999 -99999 -99999 -99999 -99999 -99999 -99999 -99999 -99999 11.142064094543457031 14.684617996215820312 18.358478546142578125 22.1943206787109375 26.115396499633789062 30.160144805908203125 34.334522247314453125 38.536464691162109375 42.703685760498046875 46.87754058837890625 51.083465576171875 55.214122772216796875 59.297237396240234375 63.043426513671875 66.470306396484375 69.3590850830078125 71.67783355712890625 73.67173004150390625 75.0650177001953125 75.99677276611328125 76.50788116455078125 76.63478851318359375 76.38661956787109375 -99999 -99999 -99999 -99999 -99999 -99999 -99999 -99999 -99999 -99999 -99999 -99999 -99999 -99999 -99999 -99999 -99999 -99999 -99999 -99999 -99999 -99999 -99999 -99999 -99999 -99999 -99999 -99999 -99999 -99999 -99999 -99999 -99999 -99999 -99999 -99999 -99999 -99999 -99999 -99999 -99999 -99999 -99999 -99999 -99999 -99999 -99999 -99999 -99999 -99999 -99999 -99999 -99999 -99999 -99999 -99999 -99999 -99999 -99999 -99999 -99999 -99999 -99999 -99999 -99999 -99999 -99999 -99999 -99999 -99999 -99999 -99999 -99999 -99999 -99999 -99999 -99999 -99999 -99999 -99999 -99999 -99999 -99999 -99999 -99999 -99999 -99999 -99999 -99999 -99999 -99999 -99999 -99999 -99999 -99999 -99999 -99999 -99999 -99999 -99999 -99999 -99999 -99999 -99999 -99999 -99999 -99999 -99999 -99999 -99999 -99999 -99999 -99999 -99999 -99999 -99999 -99999 -99999 -99999 -99999 -99999 -99999 -99999 -99999 -99999 -99999 -99999 -99999 -99999 -99999 -99999 -99999 -99999 -99999 -99999 -99999 -99999 -99999 -99999 -99999 -99999 -99999 -99999 -99999 -99999 -99999 -99999 -99999 -99999 -99999 -99999 -99999 -99999
 -99999 -99999 -99999 -99999 -99999 -99999 -99999 -99999 -99999 -99999 -99999 -99999 -99999 -99999 -99999 -99999 -99999 -99999 -99999 -99999 -99999 -99999 -99999 -99999 -99999 -99999 -99999 -99999 -99999 -99999 -99999 -99999 -99999 -99999 -99999 -99999 -99999 -99999 -99999 -99999 -99999 -99999 -99999 -99999 -99999 -99999 -99999 -99999 -99999 -99999 -99999 -99999 -99999 11.898477554321289062 15.449650764465332031 19.15048980712890625 22.988664627075195312 26.987560272216796875 31.1004486083984375 35.239757537841796875 39.388641357421875 43.660907745361328125 47.72076416015625 51.8004913330078125 55.7670745849609375 59.5707855224609375 63.040988922119140625 66.12236785888671875 68.70012664794921875 70.90189361572265625 72.6729888916015625 73.94376373291015625 74.80224609375 75.2178802490234375 75.29547882080078125 -99999 -99999 -99999 -99999 -99999 -99999 -99999 -99999 -99999 -99999 -99999 -99999 -99999 -99999 -99999 -99999 -99999 -99999 -99999 -99999 -99999 -99999 -99999 -99999 -99999 -99999 -99999 -99999 -99999 -99999 -99999 -99999 -99999 -99999 -99999 -99999 -99999 -99999 -99999 -99999 -99999 -99999 -99999 -99999 -99999 -99999 -99999 -99999 -99999 -99999 -99999 -99999 -99999 -99999 -99999 -99999 -99999 -99999 -99999 -99999 -99999 -99999 -99999 -99999 -99999 -99999 -99999 -99999 -99999 -99999 -99999 -99999 -99999 -99999 -99999 -99999 -99999 -99999 -99999 -99999 -99999 -99999 -99999 -99999 -99999 -99999 -99999 -99999 -99999 -99999 -99999 -99999 -99999 -99999 -99999 -99999 -99999 -99999 -99999 -99999 -99999 -99999 -99999 -99999 -99999 -99999 -99999 -99999 -99999 -99999 -99999 -99999 -99999 -99999 -99999 -99999 -99999 -99999 -99999 -99999 -99999 -99999 -99999 -99999 -99999 -99999 -99999 -99999 -99999 -99999 -99999 -99999 -99999 -99999 -99999 -99999 -99999 -99999 -99999 -99999 -99999 -99999 -99999 -99999 -99999 -99999 -99999 -99999 -99999 -99999 -99999 -99999 -99999 -99999
 -99999 -99999 -99999 -99999 -99999 -99999 -99999 -99999 -99999 -99999 -99999 -99999 -99999 -99999 -99999 -99999 -99999 -99999 -99999 -99999 -99999 -99999 -99999 -99999 -99999 -99999 -99999 -99999 -99999 -99999 -99999 -99999 -99999 -99999 -99999 -99999 -99999 -99999 -99999 -99999 -99999 -99999 -99999 -99999 -99999 -99999 -99999 -99999 -99999 -99999 -99999 -99999 -99999 -99999 16.207805633544921875 19.934101104736328125 23.83359527587890625 27.787036895751953125 31.875524520874023438 36.03127288818359375 40.163784027099609375 44.31697845458984375 48.364837646484375 52.3291015625 56.056705474853515625 59.580902099609375 62.78362274169921875 65.6055450439453125 67.98780059814453125 69.98535919189453125 71.5786895751953125 72.72457122802734375 73.45893096923828125 -99999 -99999 -99999 -99999 -99999 -99999 -99999 -99999 -99999 -99999 -99999 -99999 -99999 -99999 -99999 -99999 -99999 -99999 -99999 -99999 -99999 -99999 -99999 -99999 -99999 -99999 -99999 -99999 -99999 -99999 -99999 -99999 -99999 -99999 -99999 -99999 -99999 -99999 -99999 -99999 -99999 -99999 -99999 -99999 -99999 -99999 -99999 -99999 -99999 -99999 -99999 -99999 -99999 -99999 -99999 -99999 -99999 -99999 -99999 -99999 -99999 -99999 -99999 -99999 -99999 -99999 -99999 -99999 -99999 -99999 -99999 -99999 -99999 -99999 -99999 -99999 -99999 -99999 -99999 -99999 -99999 -99999 -99999 -99999 -99999 -99999 -99999 -99999 -99999 -99999 -99999 -99999 -99999 -99999 -99999 -99999 -99999 -99999 -99999 -99999 -99999 -99999 -99999 -99999 -99999 -99999 -99999 -99999 -99999 -99999 -99999 -99999 -99999 -99999 -99999 -99999 -99999 -99999 -99999 -99999 -99999 -99999 -99999 -99999 -99999 -99999 -99999 -99999 -99999 -99999 -99999 -99999 -99999 -99999 -99999 -99999 -99999 -99999 -99999 -99999 -99999 -99999 -99999 -99999 -99999 -99999 -99999 -99999 -99999 -99999 -99999 -99999 -99999 -99999 -99999 -99999
 -99999 -99999 -99999 -99999 -99999 -99999 -99999 -99999 -99999 -99999 -99999 -99999 -99999 -99999 -99999 -99999 -99999 -99999 -99999 -99999 -99999 -99999 -99999 -99999 -99999 -99999 -99999 -99999 -99999 -99999 -99999 -99999 -99999 -99999 -99999 -99999 -99999 -99999 -99999 -99999 -99999 -99999 -99999 -99999 -99999 -99999 -99999 -99999 -99999 -99999 -99999 -99999 -99999 -99999 17.017896652221679688 20.731130599975585938 24.56917572021484375 28.578311920166015625 32.668689727783203125 36.76131439208984375 40.844425201416015625 44.932193756103515625 48.834125518798828125 52.583393096923828125 56.149921417236328125 59.41607666015625 62.367046356201171875 64.92900848388671875 67.0607452392578125 68.9396820068359375 70.31414794921875 71.32762908935546875 -99999 -99999 -99999 -99999 -99999 -99999 -99999 -99999 -99999 -99999 -99999 -99999 -99999 -99999 -99999 -99999 -99999 -99999 -99999 -99999 -99999 -99999 -99999 -99999 -99999 -99999 -99999 -99999 -99999 -99999 -99999 -99999 -99999 -99999 -99999 -99999 -99999 -99999 -99999 -99999 -99999 -99999 -99999 -99999 -99999 -99999 -99999 -99999 -99999 -99999 -99999 -99999 -99999 -99999 -99999 -99999 -99999 -99999 -99999 -99999 -99999 -99999 -99999 -99999 -99999 -99999 -99999 -99999 -99999 -99999 -99999 -99999 -99999 -99999 -99999 -99999 -99999 -99999 -99999 -99999 -99999 -99999 -99999 -99999 -99999 -99999 -99999 -99999 -99999 -99999 -99999 -99999 -99999 -99999 -99999 -99999 -99999 -99999 -99999 -99999 -99999 -99999 -99999 -99999 -99999 -99999 -99999 -99999 -99999 -99999 -99999 -99999 -99999 -99999 -99999 -99999 -99999 -99999 -99999 -99999 -99999 -99999 -99999 -99999 -99999 -99999 -99999 -99999 -99999 -99999 -99999 -99999 -99999 -99999 -99999 -99999 -99999 -99999 -99999 -99999 -99999 -99999 -99999 -99999 -99999 -99999 -99999 -99999 -99999 -99999 -99999 -99999 -99999 -99999 -99999 -99999 -99999
 -99999 -99999 -99999 -99999 -99999 -99999 -99999 -99999 -99999 -99999 -99999 -99999 -99999 -99999 -99999 -99999 -99999 -99999 -99999 -99999 -99999 -99999 -99999 -99999 -99999 -99999 -99999 -99999 -99999 -99999 -99999 -99999 -99999 -99999 -99999 -99999 -99999 -99999 -99999 -99999 -99999 -99999 -99999 -99999 -99999 -99999 -99999 -99999 -99999 -99999 -99999 -99999 -99999 -99999 -99999 21.507770538330078125 25.391866683959960938 29.35671234130859375 33.34311676025390625 37.401691436767578125 41.501495361328125 45.405025482177734375 49.164813995361328125 52.744598388671875 56.065013885498046875 59.065593719482421875 61.774814605712890625 64.147613525390625 66.10039520263671875 67.70545196533203125 68.986663818359375 -99999 -99999 -99999 -99999 -99999 -99999 -99999 -99999 -99999 -99999 -99999 -99999 -99999 -99999 -99999 -99999 -99999 -99999 -99999 -99999 -99999 -99999 -99999 -99999 -99999 -99999 -99999 -99999 -99999 -99999 -99999 -99999 -99999 -99999 -99999 -99999 -99999 -99999 -99999 -99999 -99999 -99999 -99999 -99999 -99999 -99999 -99999 -99999 -99999 -99999 -99999 -99999 -99999 -99999 -99999 -99999 -99999 -99999 -99999 -99999 -99999 -99999 -99999 -99999 -99999 -99999 -99999 -99999 -99999 -99999 -99999 -99999 -99999 -99999 -99999 -99999 -99999 -99999 -99999 -99999 -99999 -99999 -99999 -99999 -99999 -99999 -99999 -99999 -99999 -99999 -99999 -99999 -99999 -99999 -99999 -99999 -99999 -99999 -99999 -99999 -99999 -99999 -99999 -99999 -99999 -99999 -99999 -99999 -99999 -99999 -99999 -99999 -99999 -99999 -99999 -99999 -99999 -99999 -99999 -99999 -99999 -99999 -99999 -99999 -99999 -99999 -99999 -99999 -99999 -99999 -99999 -99999 -99999 -99999 -99999 -99999 -99999 -99999 -99999 -99999 -99999 -99999 -99999 -99999 -99999 -99999 -99999 -99999 -99999 -99999 -99999 -99999 -99999 -99999 -99999 -99999 -99999 -99999
 -99999 -99999 -99999 -99999 -99999 -99999 -99999 -99999 -99999 -99999 -99999 -99999 -99999 -99999 -99999 -99999 -99999 -99999 -99999 -99999 -99999 -99999 -99999 -99999 -99999 -99999 -99999 -99999 -99999 -99999 -99999 -99999 -99999 -99999 -99999 -99999 -99999 -99999 -99999 -99999 -99999 -99999 -99999 -99999 -99999 -99999 -99999 -99999 -99999 -99999 -99999 -99999 -99999 -99999 -99999 -99999 26.08774566650390625 30.000949859619140625 34.027652740478515625 38.03258514404296875 41.933307647705078125 45.753143310546875 49.352031707763671875 52.69759368896484375 55.77744293212890625 58.5550994873046875 61.04107666015625 63.071155548095703125 64.97669219970703125 -99999 -99999 -99999 -99999 -99999 -99999 -99999 -99999 -99999 -99999 -99999 -99999 -99999 -99999 -99999 -99999 -99999 -99999 -99999 -99999 -99999 -99999 -99999 -99999 -99999 -99999 -99999 -99999 -99999 -99999 -99999 -99999 -99999 -99999 -99999 -99999 -99999 -99999 -99999 -99999 -99999 -99999 -99999 -99999 -99999 -99999 -99999 -99999 -99999 -99999 -99999 -99999 -99999 -99999 -99999 -99999 -99999 -99999 -99999 -99999 -99999 -99999 -99999 -99999 -99999 -99999 -99999 -99999 -99999 -99999 -99999 -99999 -99999 -99999 -99999 -99999 -99999 -99999 -99999 -99999 -99999 -99999 -99999 -99999 -99999 -99999 -99999 -99999 -99999 -99999 -99999 -99999 -99999 -99999 -99999 -99999 -99999 -99999 -99999 -99999 -99999 -99999 -99999 -99999 -99999 -99999 -99999 -99999 -99999 -99999 -99999 -99999 -99999 -99999 -99999 -99999 -99999 -99999 -99999 -99999 -99999 -99999 -99999 -99999 -99999 -99999 -99999 -99999 -99999 -99999 -99999 -99999 -99999 -99999 -99999 -99999 -99999 -99999 -99999 -99999 -99999 -99999 -99999 -99999 -99999 -99999 -99999 -99999 -99999 -99999 -99999 -99999 -99999 -99999 -99999 -99999 -99999 -99999 -99999 -99999
 -99999 -99999 -99999 -99999 -99999 -99999 -99999 -99999 -99999 -99999 -99999 -99999 -99999 -99999 -99999 -99999 -99999 -99999 -99999 -99999 -99999 -99999 -99999 -99999 -99999 -99999 -99999 -99999 -99999 -99999 -99999 -99999 -99999 -99999 -99999 -99999 -99999 -99999 -99999 -99999 -99999 -99999 -99999 -99999 -99999 -99999 -99999 -99999 -99999 -99999 -99999 -99999 -99999 -99999 -99999 -99999 26.786653518676757812 30.687526702880859375 34.593235015869140625 38.4527130126953125 42.279720306396484375 45.9071807861328125 49.327884674072265625 52.46314239501953125 55.3396759033203125 57.89472198486328125 60.06641387939453125 62.10643768310546875 -99999 -99999 -99999 -99999 -99999 -99999 -99999 -99999 -99999 -99999 -99999 -99999 -99999 -99999 -99999 -99999 -99999 -99999 -99999 -99999 -99999 -99999 -99999 -99999 -99999 -99999 -99999 -99999 -99999 -99999 -99999 -99999 -99999 -99999 -99999 -99999 -99999 -99999 -99999 -99999 -99999 -99999 -99999 -99999 -99999 -99999 -99999 -99999 -99999 -99999 -99999 -99999 -99999 -99999 -99999 -99999 -99999 -99999 -99999 -99999 -99999 -99999 -99999 -99999 -99999 -99999 -99999 -99999 -99999 -99999 -99999 -99999 -99999 -99999 -99999 -99999 -99999 -99999 -99999 -99999 -99999 -99999 -99999 -99999 -99999 -99999 -99999 -99999 -99999 -99999 -99999 -99999 -99999 -99999 -99999 -99999 -99999 -99999 -99999 -99999 -99999 -99999 -99999 -99999 -99999 -99999 -99999 -99999 -99999 -99999 -99999 -99999 -99999 -99999 -99999 -99999 -99999 -99999 -99999 -99999 -99999 -99999 -99999 -99999 -99999 -99999 -99999 -99999 -99999 -99999 -99999 -99999 -99999 -99999 -99999 -99999 -99999 -99999 -99999 -99999 -99999 -99999 -99999 -99999 -99999 -99999 -99999 -99999 -99999 -99999 -99999 -99999 -99999 -99999 -99999 -99999 -99999 -99999 -99999 -99999 -99999
 -99999 -99999 -99999 -99999 -99999 -99999 -99999 -99999 -99999 -99999 -99999 -99999 -99999 -99999 -99999 -99999 -99999 -99999 -99999 -99999 -99999 -99999 -99999 -99999 -99999 -99999 -99999 -99999 -99999 -99999 -99999 -99999 -99999 -99999 -99999 -99999 -99999 -99999 -99999 -99999 -99999 -99999 -99999 -99999 -99999 -99999 -99999 -99999 -99999 -99999 -99999 -99999 -99999 -99999 -99999 -99999 -99999 31.163486480712890625 34.9593658447265625 38.7900390625 42.4050750732421875 45.860164642333984375 49.094394683837890625 52.02381134033203125 54.67255401611328125 57.024494171142578125 59.05266571044921875 -99999 -99999 -99999 -99999 -99999 -99999 -99999 -99999 -99999 -99999 -99999 -99999 -99999 -99999 -99999 -99999 -99999 -99999 -99999 -99999 -99999 -99999 -99999 -99999 -99999 -99999 -99999 -99999 -99999 -99999 -99999 -99999 -99999 -99999 -99999 -99999 -99999 -99999 -99999 -99999 -99999 -99999 -99999 -99999 -99999 -99999 -99999 -99999 -99999 -99999 -99999 -99999 -99999 -99999 -99999 -99999 -99999 -99999 -99999 -99999 -99999 -99999 -99999 -99999 -99999 -99999 -99999 -99999 -99999 -99999 -99999 -99999 -99999 -99999 -99999 -99999 -99999 -99999 -99999 -99999 -99999 -99999 -99999 -99999 -99999 -99999 -99999 -99999 -99999 -99999 -99999 -99999 -99999 -99999 -99999 -99999 -99999 -99999 -99999 -99999 -99999 -99999 -99999 -99999 -99999 -99999 -99999 -99999 -99999 -99999 -99999 -99999 -99999 -99999 -99999 -99999 -99999 -99999 -99999 -99999 -99999 -99999 -99999 -99999 -99999 -99999 -99999 -99999 -99999 -99999 -99999 -99999 -99999 -99999 -99999 -99999 -99999 -99999 -99999 -99999 -99999 -99999 -99999 -99999 -99999 -99999 -99999 -99999 -99999 -99999 -99999 -99999 -99999 -99999 -99999 -99999 -99999 -99999 -99999 -99999 -99999 -99999
