ncols        123
nrows        111
xllcorner    210961.305011979479
yllcorner    8947338.265427578241
cellsize     50.000000000000
NODATA_value  -99999
 -99999.0 -99999 -99999 -99999 -99999 -99999 -99999 -99999 -99999 -99999 -99999 -99999 -99999 -99999 -99999 -99999 -99999 -99999 -99999 -99999 -99999 -99999 -99999 -99999 -99999 -99999 -99999 -99999 -99999 -99999 -99999 -99999 -99999 -99999 -99999 -99999 -99999 -99999 -99999 -99999 -99999 -99999 -99999 -99999 -99999 -99999 -99999 -99999 -99999 -99999 -99999 -99999 -99999 -99999 -99999 -99999 -99999 -99999 -99999 -99999 -99999 -99999 -99999 -99999 -99999 -99999 -99999 -99999 -99999 -99999 -99999 -99999 -99999 -99999 -99999 -99999 -99999 -99999 -99999 -99999 -99999 -99999 -99999 -99999 -99999 -99999 -99999 -99999 -99999 -99999 -99999 -99999 -99999 -99999 -99999 -99999 -99999 -99999 -99999 -99999 -99999 -99999 -99999 -99999 -99999 -99999 -99999 -99999 -99999 -99999 -99999 -99999 -99999 -99999 -99999 -99999 -99999 -99999 -99999 -99999 -99999 -99999 -99999
 -99999 -99999 -99999 -99999 -99999 -99999 -99999 -99999 -99999 -99999 -99999 -99999 -99999 -99999 -99999 -99999 -99999 -99999 -99999 -99999 -99999 -99999 -99999 -99999 -99999 -99999 -99999 -99999 -99999 -99999 -99999 -99999 -99999 -99999 -99999 -99999 -99999 -99999 -99999 -99999 -99999 -99999 -1428.2301025390625 -1439.7757568359375 -1451.121826171875 -1462.156494140625 -1472.4520263671875 -99999 -99999 -99999 -99999 -99999 -99999 -99999 -99999 -99999 -99999 -99999 -99999 -99999 -99999 -99999 -99999 -99999 -99999 -99999 -99999 -99999 -99999 -99999 -99999 -99999 -99999 -99999 -99999 -99999 -99999 -99999 -99999 -99999 -99999 -99999 -99999 -99999 -99999 -99999 -99999 -99999 -99999 -99999 -99999 -99999 -99999 -99999 -99999 -99999 -99999 -99999 -99999 -99999 -99999 -99999 -99999 -99999 -99999 -99999 -99999 -99999 -99999 -99999 -99999 -99999 -99999 -99999 -99999 -99999 -99999 -99999 -99999 -99999 -99999 -99999 -99999
 -99999 -99999 -99999 -99999 -99999 -99999 -99999 -99999 -99999 -99999 -99999 -99999 -99999 -99999 -99999 -99999 -99999 -99999 -99999 -99999 -99999 -99999 -99999 -99999 -99999 -99999 -99999 -99999 -99999 -99999 -99999 -99999 -99999 -99999 -99999 -99999 -99999 -99999 -99999 -1389.1844482421875 -1398.76220703125 -1409.765869140625 -1421.5931396484375 -1434.0006103515625 -1446.5718994140625 -1458.0081787109375 -1468.6529541015625 -1478.3896484375 -99999 -99999 -99999 -99999 -99999 -99999 -99999 -99999 -99999 -99999 -99999 -99999 -99999 -99999 -99999 -99999 -99999 -99999 -99999 -99999 -99999 -99999 -99999 -99999 -99999 -99999 -99999 -99999 -99999 -99999 -99999 -99999 -99999 -99999 -99999 -99999 -99999 -99999 -99999 -99999 -99999 -99999 -99999 -99999 -99999 -99999 -99999 -99999 -99999 -99999 -99999 -99999 -99999 -99999 -99999 -99999 -99999 -99999 -99999 -99999 -99999 -99999 -99999 -99999 -99999 -99999 -99999 -99999 -99999 -99999 -99999 -99999 -99999 -99999 -99999
 -99999 -99999 -99999 -99999 -99999 -99999 -99999 -99999 -99999 -99999 -99999 -99999 -99999 -99999 -99999 -99999 -99999 -99999 -99999 -99999 -99999 -99999 -99999 -99999 -99999 -99999 -99999 -99999 -99999 -99999 -99999 -99999 -99999 -99999 -99999 -99999 -1357.9090576171875 -1364.719482421875 -1372.4029541015625 -1381.0030517578125 -1390.7403564453125 -1401.6339111328125 -1414.2432861328125 -1427.8697509765625 -1441.3792724609375 -1453.3861083984375 -1464.4757080078125 -1474.5643310546875 -1483.850341796875 -1492.3018798828125 -99999 -99999 -99999 -99999 -99999 -99999 -99999 -99999 -99999 -99999 -99999 -99999 -99999 -99999 -99999 -99999 -99999 -99999 -99999 -99999 -1538.7933349609375 -1536.40234375 -1533.521728515625 -1530.236572265625 -1526.5537109375 -1522.4759521484375 -1517.96484375 -1513.2257080078125 -99999 -99999 -99999 -99999 -99999 -99999 -99999 -99999 -99999 -99999 -99999 -99999 -99999 -99999 -99999 -99999 -99999 -99999 -99999 -99999 -99999 -99999 -99999 -99999 -99999 -99999 -99999 -99999 -99999 -99999 -99999 -99999 -99999 -99999 -99999 -99999 -99999 -99999 -99999 -99999 -99999 -99999 -99999 -99999 -99999
 -99999 -99999 -99999 -99999 -99999 -99999 -99999 -99999 -99999 -99999 -99999 -99999 -99999 -99999 -99999 -99999 -99999 -99999 -99999 -99999 -99999 -99999 -99999 -99999 -99999 -99999 -99999 -99999 -99999 -99999 -99999 -99999 -99999 -1336.661865234375 -1339.8643798828125 -1344.2247314453125 -1349.7506103515625 -1356.345703125 -1364.0311279296875 -1372.58349609375 -1382.171142578125 -1392.9852294921875 -1405.6722412109375 -1420.3436279296875 -1435.316650390625 -1448.3892822265625 -1459.4505615234375 -1469.9820556640625 -1479.8179931640625 -1488.709716796875 -1497.083984375 -1504.86669921875 -99999 -99999 -99999 -99999 -99999 -99999 -99999 -99999 -99999 -99999 -99999 -99999 -99999 -99999 -99999 -1541.5836181640625 -1540.46435546875 -1538.8856201171875 -1536.857421875 -1534.354248046875 -1531.381103515625 -1527.9110107421875 -1523.9490966796875 -1519.5615234375 -1514.892822265625 -1509.8817138671875 -1504.5345458984375 -1498.9476318359375 -99999 -99999 -99999 -99999 -99999 -99999 -99999 -99999 -99999 -99999 -99999 -99999 -99999 -99999 -99999 -99999 -99999 -99999 -99999 -99999 -99999 -99999 -99999 -99999 -99999 -99999 -99999 -99999 -99999 -99999 -99999 -99999 -99999 -99999 -99999 -99999 -99999 -99999 -99999 -99999 -99999 -99999 -99999
 -99999 -99999 -99999 -99999 -99999 -99999 -99999 -99999 -99999 -99999 -99999 -99999 -99999 -99999 -99999 -99999 -99999 -99999 -99999 -99999 -99999 -99999 -99999 -99999 -99999 -99999 -99999 -99999 -99999 -99999 -1325.783203125 -1326.145263671875 -1326.8486328125 -1328.3895263671875 -1331.2952880859375 -1335.568359375 -1341.114990234375 -1347.9844970703125 -1355.92919921875 -1364.37841796875 -1373.63427734375 -1383.614013671875 -1396.3255615234375 -1411.6751708984375 -1427.9033203125 -1441.9521484375 -1453.820556640625 -1464.67236328125 -1474.979248046875 -1484.587646484375 -1493.4566650390625 -1501.6510009765625 -1509.2442626953125 -1516.0626220703125 -1521.9952392578125 -99999 -99999 -99999 -99999 -99999 -99999 -99999 -1540.4053955078125 -1540.598876953125 -1540.695556640625 -1540.6544189453125 -1540.31640625 -1539.6629638671875 -1538.6317138671875 -1537.0401611328125 -1535.0113525390625 -1532.403564453125 -1529.222900390625 -1525.51171875 -1521.3316650390625 -1516.730712890625 -1511.7135009765625 -1506.2979736328125 -1500.6572265625 -1494.8123779296875 -1488.7581787109375 -1482.623046875 -1476.434814453125 -99999 -99999 -99999 -99999 -99999 -99999 -99999 -99999 -99999 -99999 -99999 -99999 -99999 -99999 -99999 -99999 -99999 -99999 -99999 -99999 -99999 -99999 -99999 -99999 -99999 -99999 -99999 -99999 -99999 -99999 -99999 -99999 -99999 -99999 -99999 -99999 -99999 -99999 -99999 -99999
 -99999 -99999 -99999 -99999 -99999 -99999 -99999 -99999 -99999 -99999 -99999 -99999 -99999 -99999 -99999 -99999 -99999 -99999 -99999 -99999 -99999 -99999 -99999 -99999 -99999 -99999 -99999 -99999 -99999 -1320.303955078125 -1319.5888671875 -1318.863037109375 -1318.89013671875 -1319.912109375 -1322.2410888671875 -1326.3023681640625 -1332.3934326171875 -1339.69189453125 -1348.106689453125 -1357.15625 -1365.978271484375 -1375.1531982421875 -1385.31689453125 -1401.946533203125 -1418.5247802734375 -1433.6951904296875 -1447.226806640625 -1458.9320068359375 -1470.021728515625 -1480.1494140625 -1489.626953125 -1498.3975830078125 -1506.29296875 -1513.553466796875 -1519.9815673828125 -1525.4749755859375 -1529.822265625 -1533.1756591796875 -1535.447509765625 -1536.7581787109375 -1537.2064208984375 -1537.628662109375 -1537.8399658203125 -1538.156982421875 -1538.3731689453125 -1538.457275390625 -1538.3414306640625 -1537.87109375 -1536.806884765625 -1535.364501953125 -1533.196533203125 -1530.4306640625 -1527.10888671875 -1523.24951171875 -1518.7362060546875 -1513.7640380859375 -1508.37548828125 -1502.705322265625 -1496.724853515625 -1490.48876953125 -1484.1304931640625 -1477.63427734375 -1471.0872802734375 -1464.5595703125 -1458.0709228515625 -99999 -99999 -99999 -99999 -99999 -99999 -99999 -99999 -99999 -99999 -99999 -99999 -99999 -99999 -99999 -99999 -99999 -99999 -99999 -99999 -99999 -99999 -99999 -99999 -99999 -99999 -99999 -99999 -99999 -99999 -99999 -99999 -99999 -99999 -99999 -99999 -99999 -99999
 -99999 -99999 -99999 -99999 -99999 -99999 -99999 -99999 -99999 -99999 -99999 -99999 -99999 -99999 -99999 -99999 -99999 -99999 -99999 -99999 -99999 -99999 -99999 -99999 -99999 -99999 -99999 -99999 -1315.4696044921875 -1314.5318603515625 -1312.9857177734375 -1311.2857666015625 -1310.4095458984375 -1310.6239013671875 -1312.5467529296875 -1316.8143310546875 -1322.9842529296875 -1330.924072265625 -1340.7000732421875 -1350.8953857421875 -1360.92578125 -1368.7374267578125 -1378.6533203125 -1393.125 -1409.7872314453125 -1425.5718994140625 -1440.001708984375 -1452.8341064453125 -1464.72216796875 -1475.6226806640625 -1485.8184814453125 -1495.0672607421875 -1503.4951171875 -1510.955078125 -1517.6597900390625 -1523.3812255859375 -1528.128173828125 -1531.692626953125 -1533.7431640625 -1534.7210693359375 -1534.95947265625 -1534.9949951171875 -1535.1527099609375 -1535.3729248046875 -1535.7626953125 -1536.1019287109375 -1536.3082275390625 -1535.986572265625 -1535.1448974609375 -1533.6571044921875 -1531.5048828125 -1528.7027587890625 -1525.0723876953125 -1520.82421875 -1516.0452880859375 -1510.70703125 -1505.0423583984375 -1498.881591796875 -1492.4964599609375 -1485.9283447265625 -1479.1964111328125 -1472.402099609375 -1465.5570068359375 -1458.7354736328125 -1451.9296875 -1445.2276611328125 -1438.689208984375 -1432.259765625 -99999 -99999 -99999 -99999 -99999 -99999 -99999 -99999 -99999 -99999 -99999 -99999 -99999 -99999 -99999 -99999 -99999 -99999 -99999 -99999 -99999 -99999 -99999 -99999 -99999 -99999 -99999 -99999 -99999 -99999 -99999 -99999 -99999 -99999 -99999
 -99999 -99999 -99999 -99999 -99999 -99999 -99999 -99999 -99999 -99999 -99999 -99999 -99999 -99999 -99999 -99999 -99999 -99999 -99999 -99999 -99999 -99999 -99999 -99999 -99999 -99999 -99999 -1310.7039794921875 -1310.646484375 -1308.7584228515625 -1306.148193359375 -1303.45947265625 -1301.3287353515625 -1300.76416015625 -1302.5445556640625 -1306.65087890625 -1312.9696044921875 -1322.3131103515625 -1333.2086181640625 -1344.8856201171875 -1356.5001220703125 -1366.736328125 -1375.3975830078125 -1388.57763671875 -1403.8642578125 -1419.1624755859375 -1433.744140625 -1447.5498046875 -1459.9005126953125 -1471.2830810546875 -1481.8370361328125 -1491.694580078125 -1500.3509521484375 -1508.2919921875 -1515.3486328125 -1521.245849609375 -1525.9725341796875 -1529.532470703125 -1531.7791748046875 -1532.56201171875 -1532.25927734375 -1532.1514892578125 -1532.357666015625 -1532.87451171875 -1533.597412109375 -1534.255126953125 -1534.5906982421875 -1534.463134765625 -1533.754638671875 -1532.329345703125 -1529.95166015625 -1526.8394775390625 -1523.024658203125 -1518.5506591796875 -1513.399658203125 -1507.599853515625 -1501.434814453125 -1494.92333984375 -1488.140869140625 -1481.151123046875 -1474.0615234375 -1466.870849609375 -1459.714111328125 -1452.5843505859375 -1445.542236328125 -1438.655517578125 -1431.8929443359375 -1425.26513671875 -1418.8065185546875 -99999 -99999 -99999 -99999 -99999 -99999 -99999 -99999 -99999 -99999 -99999 -99999 -99999 -99999 -99999 -99999 -99999 -99999 -99999 -99999 -99999 -99999 -99999 -99999 -99999 -99999 -99999 -99999 -99999 -99999 -99999 -99999 -99999 -99999
 -99999 -99999 -99999 -99999 -99999 -99999 -99999 -99999 -99999 -99999 -99999 -99999 -99999 -99999 -99999 -99999 -99999 -99999 -99999 -99999 -99999 -99999 -99999 -99999 -99999 -1299.7235107421875 -1303.5770263671875 -1305.3011474609375 -1304.736572265625 -1302.2030029296875 -1298.5225830078125 -1294.675048828125 -1291.756103515625 -1290.4735107421875 -1291.334228515625 -1295.1112060546875 -1302.5648193359375 -1312.2879638671875 -1324.98095703125 -1338.2427978515625 -1350.83349609375 -1361.9434814453125 -1372.925048828125 -1385.2171630859375 -1399.3740234375 -1414.212158203125 -1428.7789306640625 -1442.7598876953125 -1455.5311279296875 -1467.498046875 -1478.44873046875 -1488.4617919921875 -1497.5657958984375 -1505.5523681640625 -1512.604736328125 -1518.5576171875 -1523.54931640625 -1527.216064453125 -1529.1749267578125 -1529.4190673828125 -1528.9710693359375 -1528.822509765625 -1529.256103515625 -1530.22412109375 -1531.3602294921875 -1532.4283447265625 -1533.1961669921875 -1533.2767333984375 -1532.5540771484375 -1531.003662109375 -1528.603271484375 -1525.3546142578125 -1521.1748046875 -1516.171142578125 -1510.5294189453125 -1504.3602294921875 -1497.7716064453125 -1490.75439453125 -1483.4725341796875 -1476.1180419921875 -1468.5911865234375 -1461.0338134765625 -1453.541748046875 -1446.10009765625 -1438.8486328125 -1431.69677734375 -1424.725341796875 -1417.9443359375 -1411.3558349609375 -1404.9420166015625 -1398.8125 -99999 -99999 -99999 -99999 -99999 -99999 -99999 -99999 -99999 -99999 -99999 -99999 -99999 -99999 -99999 -99999 -99999 -99999 -99999 -99999 -99999 -99999 -99999 -99999 -99999 -99999 -99999 -99999 -99999 -99999 -99999 -99999
 -99999 -99999 -99999 -99999 -99999 -99999 -99999 -99999 -99999 -99999 -99999 -99999 -99999 -99999 -99999 -99999 -99999 -99999 -99999 -99999 -99999 -99999 -99999 -99999 -1286.846923828125 -1292.62109375 -1296.853515625 -1299.0631103515625 -1298.1121826171875 -1294.526611328125 -1290.001708984375 -1285.2957763671875 -1281.3773193359375 -1279.3846435546875 -1280.144775390625 -1284.1348876953125 -1291.5335693359375 -1302.272705078125 -1315.7193603515625 -1330.3558349609375 -1343.73974609375 -1356.2969970703125 -1368.7691650390625 -1381.747314453125 -1395.963623046875 -1410.4637451171875 -1424.88818359375 -1438.7437744140625 -1451.9228515625 -1464.006103515625 -1475.17919921875 -1485.504638671875 -1494.7083740234375 -1502.7813720703125 -1509.9271240234375 -1515.916748046875 -1520.49462890625 -1523.7938232421875 -1525.628173828125 -1525.8355712890625 -1525.2933349609375 -1525.6485595703125 -1526.520263671875 -1527.8935546875 -1529.490478515625 -1530.9814453125 -1532.005126953125 -1532.313232421875 -1531.7626953125 -1530.171142578125 -1527.488037109375 -1523.7657470703125 -1519.1339111328125 -1513.788818359375 -1507.7252197265625 -1500.9525146484375 -1493.8741455078125 -1486.32177734375 -1478.5433349609375 -1470.6695556640625 -1462.6959228515625 -1454.86083984375 -1447.00732421875 -1439.3072509765625 -1431.8140869140625 -1424.466796875 -1417.2894287109375 -1410.3101806640625 -1403.5452880859375 -1397.0914306640625 -1390.8167724609375 -1384.81689453125 -99999 -99999 -99999 -99999 -99999 -99999 -99999 -99999 -99999 -99999 -99999 -99999 -99999 -99999 -99999 -99999 -99999 -99999 -99999 -99999 -99999 -99999 -99999 -99999 -99999 -99999 -99999 -99999 -99999 -99999 -99999
 -99999 -99999 -99999 -99999 -99999 -99999 -99999 -99999 -99999 -99999 -99999 -99999 -99999 -99999 -99999 -99999 -99999 -99999 -99999 -99999 -99999 -99999 -1263.92724609375 -1271.400146484375 -1278.3427734375 -1284.2144775390625 -1288.6407470703125 -1290.3365478515625 -1289.211181640625 -1285.5325927734375 -1280.6400146484375 -1275.4874267578125 -1270.972900390625 -1268.351806640625 -1268.697021484375 -1272.3677978515625 -1280.455322265625 -1292.2891845703125 -1306.4698486328125 -1321.58935546875 -1336.5435791015625 -1350.9661865234375 -1364.7655029296875 -1378.6351318359375 -1393.007568359375 -1407.4918212890625 -1421.928466796875 -1435.870361328125 -1449.01123046875 -1461.2457275390625 -1472.5208740234375 -1482.7713623046875 -1492.16357421875 -1500.1956787109375 -1507.08154296875 -1512.9658203125 -1517.5531005859375 -1520.6712646484375 -1522.2738037109375 -1522.6563720703125 -1522.7291259765625 -1523.1474609375 -1524.2086181640625 -1526.01123046875 -1528.196533203125 -1530.1337890625 -1531.4453125 -1531.88427734375 -1531.22265625 -1529.3775634765625 -1526.4119873046875 -1522.356201171875 -1517.3072509765625 -1511.3087158203125 -1504.5081787109375 -1497.219970703125 -1489.479736328125 -1481.3966064453125 -1473.177734375 -1464.855224609375 -1456.5526123046875 -1448.131591796875 -1440.17529296875 -1432.1905517578125 -1424.4072265625 -1416.8223876953125 -1409.4984130859375 -1402.3245849609375 -1395.5667724609375 -1388.9805908203125 -1382.6527099609375 -1376.5577392578125 -1370.7044677734375 -1365.1390380859375 -99999 -99999 -99999 -99999 -99999 -99999 -99999 -99999 -99999 -99999 -99999 -99999 -99999 -99999 -99999 -99999 -99999 -99999 -99999 -99999 -99999 -99999 -99999 -99999 -99999 -99999 -99999 -99999 -99999
 -99999 -99999 -99999 -99999 -99999 -99999 -99999 -99999 -99999 -99999 -99999 -99999 -99999 -99999 -99999 -99999 -99999 -99999 -99999 -99999 -1239.28369140625 -1246.8365478515625 -1254.4176025390625 -1261.8199462890625 -1268.661376953125 -1274.54833984375 -1278.62158203125 -1280.5374755859375 -1279.388671875 -1275.7420654296875 -1270.6368408203125 -1265.5257568359375 -1261.3970947265625 -1259.0244140625 -1258.862060546875 -1262.5125732421875 -1270.8436279296875 -1283.45654296875 -1298.3231201171875 -1314.5865478515625 -1330.3126220703125 -1345.712646484375 -1361.0467529296875 -1375.7413330078125 -1390.666015625 -1405.4229736328125 -1419.8597412109375 -1433.6827392578125 -1446.8868408203125 -1459.0726318359375 -1470.343505859375 -1480.56640625 -1489.8038330078125 -1497.7540283203125 -1504.6180419921875 -1510.2950439453125 -1514.69921875 -1517.7935791015625 -1519.756591796875 -1520.568359375 -1521.0130615234375 -1521.6610107421875 -1522.8870849609375 -1525.16943359375 -1527.66748046875 -1529.84912109375 -1531.305908203125 -1531.773681640625 -1530.995849609375 -1528.9002685546875 -1525.6207275390625 -1520.897216796875 -1515.149658203125 -1508.43505859375 -1501.2091064453125 -1493.225830078125 -1484.8184814453125 -1476.28125 -1467.488037109375 -1458.5755615234375 -1449.8514404296875 -1441.2904052734375 -1432.8182373046875 -1424.6573486328125 -1416.67529296875 -1408.932373046875 -1401.4244384765625 -1394.241943359375 -1387.2938232421875 -1380.594970703125 -1374.186279296875 -1368.0423583984375 -1362.1585693359375 -1356.4019775390625 -1351.2412109375 -99999 -99999 -99999 -99999 -99999 -99999 -99999 -99999 -99999 -99999 -99999 -99999 -99999 -99999 -99999 -99999 -99999 -99999 -99999 -99999 -99999 -99999 -99999 -99999 -99999 -99999 -99999 -99999
 -99999 -99999 -99999 -99999 -99999 -99999 -99999 -99999 -99999 -99999 -99999 -99999 -99999 -99999 -99999 -99999 -99999 -99999 -99999 -1222.449951171875 -1229.4759521484375 -1236.6685791015625 -1244.035400390625 -1251.200927734375 -1257.8848876953125 -1263.6275634765625 -1267.8211669921875 -1270.213623046875 -1269.1986083984375 -1265.125 -1260.4326171875 -1256.0394287109375 -1252.66259765625 -1250.81884765625 -1251.1492919921875 -1254.8095703125 -1264.1026611328125 -1277.427978515625 -1292.7113037109375 -1309.221923828125 -1326.015380859375 -1342.45947265625 -1358.366943359375 -1374.0294189453125 -1389.2503662109375 -1404.2154541015625 -1418.6112060546875 -1432.386474609375 -1445.5172119140625 -1457.588134765625 -1468.7010498046875 -1478.8101806640625 -1487.8819580078125 -1495.79248046875 -1502.4598388671875 -1508.016357421875 -1512.2777099609375 -1515.54736328125 -1517.7073974609375 -1519.1300048828125 -1520.242919921875 -1521.30224609375 -1522.835205078125 -1525.2960205078125 -1527.908447265625 -1530.1400146484375 -1531.590576171875 -1531.9974365234375 -1531.11181640625 -1528.486328125 -1524.4686279296875 -1519.203125 -1512.8818359375 -1505.5780029296875 -1497.3499755859375 -1488.8372802734375 -1479.731689453125 -1470.4371337890625 -1461.08984375 -1451.8590087890625 -1442.7305908203125 -1433.833984375 -1425.1654052734375 -1416.69677734375 -1408.5106201171875 -1400.6300048828125 -1393.06005859375 -1385.7506103515625 -1378.7498779296875 -1371.98486328125 -1365.5150146484375 -1359.175537109375 -1353.4146728515625 -1347.801025390625 -1342.449951171875 -1337.4019775390625 -1332.630859375 -99999 -99999 -99999 -99999 -99999 -99999 -99999 -99999 -99999 -99999 -99999 -99999 -99999 -99999 -99999 -99999 -99999 -99999 -99999 -99999 -99999 -99999 -99999 -99999 -99999 -99999
 -99999 -99999 -99999 -99999 -99999 -99999 -99999 -99999 -99999 -99999 -99999 -99999 -99999 -99999 -99999 -99999 -99999 -99999 -1206.6630859375 -1212.8770751953125 -1219.3369140625 -1226.155517578125 -1233.114013671875 -1239.93212890625 -1246.2249755859375 -1251.5582275390625 -1255.6385498046875 -1257.75830078125 -1256.901611328125 -1253.9232177734375 -1250.1700439453125 -1246.9427490234375 -1244.813232421875 -1244.8856201171875 -1247.1800537109375 -1252.210205078125 -1261.3924560546875 -1274.544189453125 -1290.090087890625 -1306.67822265625 -1323.7222900390625 -1340.5819091796875 -1357.241455078125 -1373.206298828125 -1388.7965087890625 -1403.8768310546875 -1418.3250732421875 -1432.017333984375 -1444.934814453125 -1456.890869140625 -1467.757568359375 -1477.5606689453125 -1486.42529296875 -1494.2130126953125 -1500.638916015625 -1506.1217041015625 -1510.5496826171875 -1513.9320068359375 -1516.4091796875 -1518.2572021484375 -1519.8275146484375 -1521.4306640625 -1523.5052490234375 -1525.9591064453125 -1528.45361328125 -1530.6158447265625 -1532.1866455078125 -1532.5120849609375 -1530.94189453125 -1527.8433837890625 -1523.3084716796875 -1517.26123046875 -1510.0955810546875 -1501.9130859375 -1493.1085205078125 -1483.7042236328125 -1474.017822265625 -1464.1544189453125 -1454.2874755859375 -1444.56396484375 -1435.1046142578125 -1425.8636474609375 -1416.9163818359375 -1408.33203125 -1400.0030517578125 -1392.0423583984375 -1384.3851318359375 -1377.03173828125 -1369.9105224609375 -1363.0941162109375 -1356.5950927734375 -1350.40673828125 -1344.5054931640625 -1338.8763427734375 -1333.5469970703125 -1328.4390869140625 -1323.6734619140625 -1319.1861572265625 -99999 -99999 -99999 -99999 -99999 -99999 -99999 -99999 -99999 -99999 -99999 -99999 -99999 -99999 -99999 -99999 -99999 -99999 -99999 -99999 -99999 -99999 -99999 -99999 -99999
 -99999 -99999 -99999 -99999 -99999 -99999 -99999 -99999 -99999 -99999 -99999 -99999 -99999 -99999 -99999 -99999 -99999 -1192.15087890625 -1197.3519287109375 -1203.0618896484375 -1209.17724609375 -1215.5145263671875 -1221.99755859375 -1228.386962890625 -1234.4222412109375 -1239.69189453125 -1243.1358642578125 -1243.885498046875 -1243.65185546875 -1242.689208984375 -1240.511474609375 -1239.1336669921875 -1239.1807861328125 -1241.103515625 -1244.982421875 -1251.73876953125 -1262.1241455078125 -1274.88232421875 -1290.1163330078125 -1306.7012939453125 -1323.923828125 -1340.8775634765625 -1357.589111328125 -1373.8714599609375 -1389.575927734375 -1404.752685546875 -1418.9422607421875 -1432.4151611328125 -1445.199462890625 -1456.7587890625 -1467.3665771484375 -1476.96875 -1485.6407470703125 -1493.16650390625 -1499.5035400390625 -1504.8038330078125 -1509.1142578125 -1512.6112060546875 -1515.4222412109375 -1517.7177734375 -1519.75634765625 -1521.8023681640625 -1524.0499267578125 -1526.5008544921875 -1528.95361328125 -1531.037109375 -1532.5511474609375 -1532.6361083984375 -1530.8135986328125 -1526.99267578125 -1521.4930419921875 -1514.715576171875 -1506.7098388671875 -1497.928955078125 -1488.239013671875 -1478.0911865234375 -1467.67041015625 -1457.0498046875 -1446.6480712890625 -1436.60302734375 -1426.845458984375 -1417.4091796875 -1408.2364501953125 -1399.4483642578125 -1391.1949462890625 -1383.1094970703125 -1375.36767578125 -1367.9830322265625 -1360.808349609375 -1354.001953125 -1347.5679931640625 -1341.3551025390625 -1335.40869140625 -1329.750732421875 -1324.4310302734375 -1319.38671875 -1314.579833984375 -1310.09765625 -1306.010498046875 -1302.133544921875 -99999 -99999 -99999 -99999 -99999 -99999 -99999 -99999 -99999 -99999 -99999 -99999 -99999 -99999 -99999 -99999 -99999 -99999 -99999 -99999 -99999 -99999 -99999
 -99999 -99999 -99999 -99999 -99999 -99999 -99999 -99999 -99999 -99999 -99999 -99999 -99999 -99999 -99999 -99999 -1179.2279052734375 -1183.5753173828125 -1188.4281005859375 -1193.60986328125 -1199.112060546875 -1204.97265625 -1211.0302734375 -1217.0211181640625 -1222.9302978515625 -1228.167236328125 -1232.092529296875 -1234.530517578125 -1234.8822021484375 -1233.615966796875 -1232.6436767578125 -1232.8116455078125 -1234.71240234375 -1239.0029296875 -1245.371337890625 -1254.032470703125 -1264.6363525390625 -1278.0308837890625 -1293.00927734375 -1309.3265380859375 -1326.192138671875 -1343.056884765625 -1359.9390869140625 -1376.0067138671875 -1391.6142578125 -1406.50537109375 -1420.633056640625 -1433.993408203125 -1446.25244140625 -1457.5462646484375 -1467.7916259765625 -1476.977783203125 -1485.229736328125 -1492.510986328125 -1498.5274658203125 -1503.7674560546875 -1508.181884765625 -1511.78662109375 -1514.7015380859375 -1517.189697265625 -1519.5325927734375 -1521.795166015625 -1524.1474609375 -1526.57666015625 -1528.9136962890625 -1531.0379638671875 -1532.7042236328125 -1532.443603515625 -1529.432861328125 -1524.8721923828125 -1518.9385986328125 -1511.417724609375 -1502.622802734375 -1492.929931640625 -1482.53759765625 -1471.5687255859375 -1460.39501953125 -1449.2420654296875 -1438.4803466796875 -1428.061279296875 -1418.0130615234375 -1408.2822265625 -1399.073974609375 -1390.3477783203125 -1381.9404296875 -1373.8953857421875 -1366.12255859375 -1358.6646728515625 -1351.608154296875 -1344.8299560546875 -1338.2728271484375 -1332.0408935546875 -1326.17626953125 -1320.5379638671875 -1315.1636962890625 -1310.1375732421875 -1305.4639892578125 -1301.0023193359375 -1296.826416015625 -1293.0157470703125 -1289.505615234375 -99999 -99999 -99999 -99999 -99999 -99999 -99999 -99999 -99999 -99999 -99999 -99999 -99999 -99999 -99999 -99999 -99999 -99999 -99999 -99999 -99999 -99999
 -99999 -99999 -99999 -99999 -99999 -99999 -99999 -99999 -99999 -99999 -99999 -99999 -99999 -99999 -99999 -99999 -1171.67236328125 -1175.5264892578125 -1179.8902587890625 -1184.5345458984375 -1189.6453857421875 -1195.006591796875 -1200.552978515625 -1206.3028564453125 -1212.0640869140625 -1217.56591796875 -1222.6947021484375 -1226.5235595703125 -1227.431396484375 -1226.5345458984375 -1226.44775390625 -1228.8780517578125 -1233.480224609375 -1239.919677734375 -1247.729736328125 -1257.42822265625 -1269.0206298828125 -1282.7508544921875 -1297.81591796875 -1313.8087158203125 -1330.490234375 -1347.3182373046875 -1363.958251953125 -1379.7818603515625 -1395.2276611328125 -1409.8690185546875 -1423.467041015625 -1436.2181396484375 -1448.30078125 -1458.966064453125 -1468.8280029296875 -1477.7198486328125 -1485.6474609375 -1492.4906005859375 -1498.3070068359375 -1503.290283203125 -1507.437744140625 -1510.9559326171875 -1513.999267578125 -1516.6201171875 -1518.973388671875 -1521.2540283203125 -1523.51416015625 -1525.739990234375 -1527.89111328125 -1529.6754150390625 -1530.4990234375 -1529.4754638671875 -1526.453369140625 -1522.004638671875 -1515.2174072265625 -1506.8204345703125 -1497.6097412109375 -1487.1800537109375 -1475.7640380859375 -1464.0198974609375 -1452.1339111328125 -1440.5771484375 -1429.3453369140625 -1418.54296875 -1408.343994140625 -1398.6785888671875 -1389.574951171875 -1380.7864990234375 -1372.4189453125 -1364.275390625 -1356.554443359375 -1349.232177734375 -1342.1075439453125 -1335.3251953125 -1328.87060546875 -1322.6812744140625 -1316.7469482421875 -1311.1568603515625 -1305.8748779296875 -1300.8377685546875 -1296.1326904296875 -1291.7279052734375 -1287.638427734375 -1283.8287353515625 -1280.3087158203125 -1277.1551513671875 -99999 -99999 -99999 -99999 -99999 -99999 -99999 -99999 -99999 -99999 -99999 -99999 -99999 -99999 -99999 -99999 -99999 -99999 -99999 -99999 -99999
 -99999 -99999 -99999 -99999 -99999 -99999 -99999 -99999 -99999 -99999 -99999 -99999 -99999 -99999 -99999 -1161.6683349609375 -1164.72802734375 -1168.1676025390625 -1172.11279296875 -1176.3233642578125 -1181.043701171875 -1185.846923828125 -1191.1024169921875 -1196.4847412109375 -1202.0865478515625 -1207.951171875 -1213.6329345703125 -1218.234619140625 -1220.2431640625 -1221.1727294921875 -1223.1324462890625 -1228.365478515625 -1235.0006103515625 -1242.964111328125 -1252.47314453125 -1263.334228515625 -1275.793212890625 -1289.6531982421875 -1304.63623046875 -1320.57275390625 -1336.80517578125 -1353.106201171875 -1369.2064208984375 -1384.8804931640625 -1400.0394287109375 -1414.075927734375 -1427.365966796875 -1439.7803955078125 -1451.013916015625 -1461.365234375 -1470.7762451171875 -1478.9815673828125 -1486.3297119140625 -1492.8206787109375 -1498.227294921875 -1502.9320068359375 -1506.9599609375 -1510.3651123046875 -1513.1748046875 -1515.677978515625 -1517.920166015625 -1519.9990234375 -1522.060791015625 -1523.9012451171875 -1525.4444580078125 -1526.4752197265625 -1526.7017822265625 -1525.28076171875 -1522.052001953125 -1517.1005859375 -1509.8726806640625 -1501.0955810546875 -1491.1546630859375 -1480.0531005859375 -1468.08935546875 -1455.3885498046875 -1442.89306640625 -1430.8931884765625 -1419.37548828125 -1408.45849609375 -1398.2392578125 -1388.7215576171875 -1379.569580078125 -1370.8291015625 -1362.5126953125 -1354.518310546875 -1346.89697265625 -1339.575927734375 -1332.5062255859375 -1325.7449951171875 -1319.2222900390625 -1313.0714111328125 -1307.2449951171875 -1301.6788330078125 -1296.418701171875 -1291.4420166015625 -1286.7686767578125 -1282.3697509765625 -1278.2760009765625 -1274.5247802734375 -1270.9884033203125 -1267.9322509765625 -99999 -99999 -99999 -99999 -99999 -99999 -99999 -99999 -99999 -99999 -99999 -99999 -99999 -99999 -99999 -99999 -99999 -99999 -99999 -99999 -99999
 -99999 -99999 -99999 -99999 -99999 -99999 -99999 -99999 -99999 -99999 -99999 -99999 -99999 -99999 -1153.532958984375 -1155.803466796875 -1158.5172119140625 -1161.6953125 -1165.257568359375 -1169.1865234375 -1173.506103515625 -1177.9779052734375 -1182.9190673828125 -1188.06884765625 -1193.6728515625 -1199.5177001953125 -1205.910400390625 -1213.116943359375 -1216.480712890625 -1218.9051513671875 -1223.8785400390625 -1231.152099609375 -1239.6220703125 -1248.8232421875 -1259.225830078125 -1271.024169921875 -1283.9632568359375 -1297.8345947265625 -1312.9671630859375 -1328.5848388671875 -1344.561279296875 -1360.5355224609375 -1376.257080078125 -1391.544189453125 -1405.8936767578125 -1419.5704345703125 -1432.276123046875 -1443.9927978515625 -1454.822998046875 -1464.2982177734375 -1473.037841796875 -1480.794677734375 -1487.6678466796875 -1493.565673828125 -1498.5689697265625 -1502.953125 -1506.5260009765625 -1509.5596923828125 -1512.154296875 -1514.406005859375 -1516.4212646484375 -1518.11669921875 -1519.609375 -1520.85595703125 -1521.851806640625 -1522.2528076171875 -1521.3463134765625 -1519.3092041015625 -1515.899658203125 -1510.5147705078125 -1502.564208984375 -1493.7349853515625 -1483.7998046875 -1472.1561279296875 -1458.9793701171875 -1445.5059814453125 -1432.5064697265625 -1420.0888671875 -1408.3875732421875 -1397.5972900390625 -1387.6669921875 -1378.196533203125 -1369.2305908203125 -1360.49169921875 -1352.4852294921875 -1344.661865234375 -1337.0760498046875 -1329.7669677734375 -1322.7366943359375 -1315.99609375 -1309.5784912109375 -1303.49560546875 -1297.672607421875 -1292.148193359375 -1286.906494140625 -1281.951904296875 -1277.295166015625 -1272.9462890625 -1268.7584228515625 -1265.14990234375 -1261.7813720703125 -1258.7119140625 -1255.954833984375 -99999 -99999 -99999 -99999 -99999 -99999 -99999 -99999 -99999 -99999 -99999 -99999 -99999 -99999 -99999 -99999 -99999 -99999 -99999 -99999
 -99999 -99999 -99999 -99999 -99999 -99999 -99999 -99999 -99999 -99999 -99999 -99999 -99999 -99999 -1148.9151611328125 -1150.865478515625 -1153.269287109375 -1156.1610107421875 -1159.4918212890625 -1163.27294921875 -1167.3870849609375 -1171.8360595703125 -1176.5321044921875 -1181.679443359375 -1187.3052978515625 -1193.3272705078125 -1200.046875 -1208.060546875 -1217.8582763671875 -1223.136474609375 -1230.18017578125 -1238.06298828125 -1246.8658447265625 -1256.865234375 -1267.97509765625 -1280.3189697265625 -1293.368896484375 -1307.60888671875 -1322.702880859375 -1338.078125 -1353.73974609375 -1369.4302978515625 -1384.521728515625 -1399.10546875 -1413.1036376953125 -1425.9720458984375 -1437.9635009765625 -1449.191650390625 -1459.0177001953125 -1468.04345703125 -1476.0738525390625 -1483.2044677734375 -1489.307861328125 -1494.7039794921875 -1499.10595703125 -1502.8685302734375 -1506.0579833984375 -1508.7545166015625 -1510.9931640625 -1512.7412109375 -1514.1978759765625 -1515.4207763671875 -1516.44140625 -1517.095947265625 -1517.108642578125 -1516.4854736328125 -1515.004150390625 -1512.3675537109375 -1508.0623779296875 -1501.8614501953125 -1494.355712890625 -1485.4737548828125 -1475.673583984375 -1462.9305419921875 -1448.328369140625 -1434.1485595703125 -1420.8316650390625 -1408.33251953125 -1396.918212890625 -1386.3958740234375 -1376.5772705078125 -1367.4703369140625 -1358.736083984375 -1350.4566650390625 -1342.460205078125 -1334.6766357421875 -1327.140380859375 -1319.8636474609375 -1312.716064453125 -1306.260009765625 -1299.887451171875 -1293.8262939453125 -1288.0299072265625 -1282.55224609375 -1277.3387451171875 -1272.4190673828125 -1267.661865234375 -1263.4715576171875 -1259.4813232421875 -1255.777587890625 -1252.4071044921875 -1249.3707275390625 -1246.6812744140625 -1244.3717041015625 -99999 -99999 -99999 -99999 -99999 -99999 -99999 -99999 -99999 -99999 -99999 -99999 -99999 -99999 -99999 -99999 -99999 -99999 -99999
 -99999 -99999 -99999 -99999 -99999 -99999 -99999 -99999 -99999 -99999 -99999 -99999 -99999 -1143.8958740234375 -1145.0712890625 -1146.8355712890625 -1149.07763671875 -1151.823974609375 -1155.015380859375 -1158.69091796875 -1162.874755859375 -1167.4376220703125 -1172.396240234375 -1177.9501953125 -1183.8314208984375 -1190.5538330078125 -1199.197509765625 -1210.23974609375 -1223.3057861328125 -1231.5732421875 -1239.0504150390625 -1247.1353759765625 -1256.4700927734375 -1266.7010498046875 -1278.3143310546875 -1290.812744140625 -1304.1949462890625 -1318.6212158203125 -1333.4725341796875 -1348.6749267578125 -1364.1524658203125 -1379.2020263671875 -1393.8699951171875 -1408.0533447265625 -1421.141357421875 -1433.3984375 -1444.8162841796875 -1454.947998046875 -1464.2608642578125 -1472.4554443359375 -1479.48974609375 -1485.81298828125 -1491.3638916015625 -1495.9052734375 -1499.7603759765625 -1503.0472412109375 -1505.7037353515625 -1507.720947265625 -1509.337646484375 -1510.644775390625 -1511.6439208984375 -1512.2322998046875 -1512.36962890625 -1512.148193359375 -1511.4736328125 -1510.095458984375 -1507.650634765625 -1503.9705810546875 -1499.1810302734375 -1492.7801513671875 -1485.0438232421875 -1476.1585693359375 -1465.989501953125 -1452.0968017578125 -1435.99658203125 -1421.2864990234375 -1408.010498046875 -1396.0240478515625 -1384.943603515625 -1374.8072509765625 -1365.3759765625 -1356.6180419921875 -1348.3189697265625 -1340.260498046875 -1332.37109375 -1324.6767578125 -1317.162109375 -1309.976318359375 -1303.0550537109375 -1296.4285888671875 -1290.11669921875 -1284.1082763671875 -1278.356201171875 -1272.8966064453125 -1267.6383056640625 -1262.8779296875 -1258.3004150390625 -1254.021728515625 -1250.02099609375 -1246.3309326171875 -1242.989990234375 -1240.001708984375 -1237.3812255859375 -1235.1185302734375 -1233.2088623046875 -99999 -99999 -99999 -99999 -99999 -99999 -99999 -99999 -99999 -99999 -99999 -99999 -99999 -99999 -99999 -99999 -99999 -99999
 -99999 -99999 -99999 -99999 -99999 -99999 -99999 -99999 -99999 -99999 -99999 -99999 -1140.7760009765625 -1141.3023681640625 -1142.2972412109375 -1143.8016357421875 -1145.9058837890625 -1148.641845703125 -1151.910888671875 -1155.6817626953125 -1160.0379638671875 -1165.0533447265625 -1170.632568359375 -1176.6954345703125 -1183.7926025390625 -1192.5384521484375 -1203.0767822265625 -1217.5919189453125 -1231.2779541015625 -1240.9686279296875 -1249.10205078125 -1257.7554931640625 -1267.1688232421875 -1277.8580322265625 -1289.691650390625 -1302.4285888671875 -1316.051513671875 -1330.4869384765625 -1345.2825927734375 -1360.39599609375 -1375.475341796875 -1390.179443359375 -1404.409912109375 -1417.8338623046875 -1430.337158203125 -1441.8570556640625 -1452.3214111328125 -1461.636962890625 -1469.828125 -1477.0401611328125 -1483.5430908203125 -1489.1112060546875 -1493.7025146484375 -1497.493408203125 -1500.658203125 -1503.0772705078125 -1505.0499267578125 -1506.5594482421875 -1507.65087890625 -1508.236572265625 -1508.3831787109375 -1508.262451171875 -1507.760498046875 -1506.8226318359375 -1505.1014404296875 -1502.6209716796875 -1499.381103515625 -1495.0924072265625 -1489.6063232421875 -1482.337890625 -1474.2059326171875 -1464.739501953125 -1453.09814453125 -1437.5531005859375 -1421.2132568359375 -1407.562255859375 -1395.127197265625 -1383.505615234375 -1372.870361328125 -1363.013671875 -1354.0648193359375 -1346.0313720703125 -1338.0068359375 -1330.18896484375 -1322.434814453125 -1314.6837158203125 -1307.2640380859375 -1300.11181640625 -1293.1898193359375 -1286.6031494140625 -1280.3094482421875 -1274.31640625 -1268.583984375 -1263.3001708984375 -1258.196533203125 -1253.3857421875 -1248.806640625 -1244.517333984375 -1240.5303955078125 -1236.8804931640625 -1233.5777587890625 -1230.6021728515625 -1227.95947265625 -1225.635009765625 -1223.874267578125 -1222.54541015625 -99999 -99999 -99999 -99999 -99999 -99999 -99999 -99999 -99999 -99999 -99999 -99999 -99999 -99999 -99999 -99999 -99999
 -99999 -99999 -99999 -99999 -99999 -99999 -99999 -99999 -99999 -99999 -99999 -1139.6148681640625 -1139.37158203125 -1139.5704345703125 -1140.3948974609375 -1141.8795166015625 -1143.9725341796875 -1146.6806640625 -1150.0777587890625 -1154.30322265625 -1159.0791015625 -1164.6226806640625 -1170.8729248046875 -1178.1729736328125 -1186.82861328125 -1197.3031005859375 -1210.4803466796875 -1225.399658203125 -1239.428955078125 -1250.0810546875 -1259.18310546875 -1268.4559326171875 -1278.56689453125 -1289.5450439453125 -1301.59814453125 -1314.541748046875 -1328.5537109375 -1343.0048828125 -1357.861083984375 -1372.968017578125 -1387.798828125 -1402.2015380859375 -1415.9091796875 -1428.550048828125 -1440.2060546875 -1451.0098876953125 -1460.2998046875 -1468.7762451171875 -1475.984130859375 -1482.6025390625 -1487.8028564453125 -1492.4652099609375 -1496.12890625 -1499.045654296875 -1501.406494140625 -1503.216064453125 -1504.5191650390625 -1505.1905517578125 -1505.46533203125 -1505.37060546875 -1504.900634765625 -1504.0516357421875 -1502.5421142578125 -1500.609130859375 -1498.13427734375 -1494.9102783203125 -1490.81201171875 -1485.39794921875 -1479.06396484375 -1471.374267578125 -1462.031494140625 -1451.46923828125 -1438.3577880859375 -1422.9923095703125 -1407.9434814453125 -1394.7708740234375 -1382.720703125 -1371.2410888671875 -1360.63671875 -1351.5345458984375 -1343.3536376953125 -1335.72216796875 -1328.17724609375 -1320.415283203125 -1312.6263427734375 -1304.9349365234375 -1297.443603515625 -1290.189697265625 -1283.2618408203125 -1276.7523193359375 -1270.4783935546875 -1264.625244140625 -1259.0828857421875 -1253.7762451171875 -1248.686767578125 -1243.8609619140625 -1239.3099365234375 -1235.0640869140625 -1231.083984375 -1227.3719482421875 -1223.9774169921875 -1221.0665283203125 -1218.5758056640625 -1216.4052734375 -1214.7161865234375 -1213.435546875 -1212.544677734375 -99999 -99999 -99999 -99999 -99999 -99999 -99999 -99999 -99999 -99999 -99999 -99999 -99999 -99999 -99999 -99999
 -99999 -99999 -99999 -99999 -99999 -99999 -99999 -99999 -99999 -99999 -99999 -1139.3330078125 -1138.90625 -1138.9720458984375 -1139.610595703125 -1140.8956298828125 -1143.027099609375 -1146.0380859375 -1149.772216796875 -1154.2548828125 -1159.594482421875 -1165.97412109375 -1173.5135498046875 -1181.8975830078125 -1192.387451171875 -1204.3077392578125 -1218.234619140625 -1233.1866455078125 -1247.0760498046875 -1258.8123779296875 -1268.9000244140625 -1279.120849609375 -1289.592529296875 -1301.238525390625 -1313.6024169921875 -1327.185546875 -1341.4111328125 -1356.1094970703125 -1371.1495361328125 -1386.180908203125 -1400.9110107421875 -1414.83349609375 -1427.98291015625 -1440.15625 -1451.119384765625 -1460.6136474609375 -1469.2783203125 -1476.695068359375 -1482.7745361328125 -1488.0252685546875 -1492.40869140625 -1495.9688720703125 -1498.64990234375 -1500.7943115234375 -1502.3570556640625 -1503.226806640625 -1503.6290283203125 -1503.6016845703125 -1503.1668701171875 -1502.340087890625 -1500.953369140625 -1499.1807861328125 -1497.00146484375 -1494.247314453125 -1490.9031982421875 -1486.5589599609375 -1481.5897216796875 -1475.3458251953125 -1468.171875 -1459.5478515625 -1449.8206787109375 -1438.15625 -1424.82861328125 -1410.37353515625 -1396.309326171875 -1383.2589111328125 -1370.876708984375 -1359.128173828125 -1349.091552734375 -1340.5845947265625 -1333.2298583984375 -1326.221435546875 -1318.9169921875 -1311.1669921875 -1303.1881103515625 -1295.240234375 -1287.522216796875 -1280.2977294921875 -1273.354248046875 -1266.86669921875 -1260.814208984375 -1255.0501708984375 -1249.5078125 -1244.2618408203125 -1239.245849609375 -1234.468994140625 -1229.890869140625 -1225.5645751953125 -1221.589111328125 -1217.9625244140625 -1214.5958251953125 -1211.6632080078125 -1209.1624755859375 -1207.056396484375 -1205.3599853515625 -1204.0972900390625 -1203.3896484375 -1203.1217041015625 -99999 -99999 -99999 -99999 -99999 -99999 -99999 -99999 -99999 -99999 -99999 -99999 -99999 -99999 -99999
 -99999 -99999 -99999 -99999 -99999 -99999 -99999 -99999 -99999 -99999 -1141.3629150390625 -1140.2689208984375 -1139.53662109375 -1139.27783203125 -1139.82421875 -1141.194091796875 -1143.4422607421875 -1146.590576171875 -1150.6153564453125 -1155.7427978515625 -1161.7471923828125 -1168.984375 -1177.3443603515625 -1187.1392822265625 -1198.6146240234375 -1211.754638671875 -1226.295654296875 -1241.357421875 -1255.5782470703125 -1267.30029296875 -1278.340087890625 -1289.1375732421875 -1300.612548828125 -1312.650634765625 -1325.8353271484375 -1339.8648681640625 -1354.4493408203125 -1369.53955078125 -1384.8804931640625 -1400.06201171875 -1414.572265625 -1428.35498046875 -1441.2337646484375 -1452.5357666015625 -1462.5821533203125 -1471.4390869140625 -1478.5655517578125 -1484.6929931640625 -1489.8656005859375 -1493.99560546875 -1497.1009521484375 -1499.587158203125 -1501.4573974609375 -1502.5118408203125 -1503.033447265625 -1503.081298828125 -1502.686279296875 -1501.90087890625 -1500.55517578125 -1498.822998046875 -1496.7078857421875 -1494.1812744140625 -1491.1776123046875 -1487.41064453125 -1483.2288818359375 -1478.158935546875 -1472.211669921875 -1465.295166015625 -1457.4664306640625 -1448.3798828125 -1437.6424560546875 -1425.938720703125 -1412.71826171875 -1398.977294921875 -1385.2657470703125 -1372.2607421875 -1359.7376708984375 -1348.0792236328125 -1338.196533203125 -1330.4400634765625 -1324.196533203125 -1318.129150390625 -1310.625 -1302.306640625 -1293.833251953125 -1285.587646484375 -1277.7039794921875 -1270.28466796875 -1263.4998779296875 -1257.1646728515625 -1251.1260986328125 -1245.4468994140625 -1240.0875244140625 -1234.907958984375 -1229.8614501953125 -1225.0831298828125 -1220.54736328125 -1216.228759765625 -1212.1597900390625 -1208.4708251953125 -1205.153564453125 -1202.1763916015625 -1199.608642578125 -1197.52978515625 -1195.9903564453125 -1194.9017333984375 -1194.2679443359375 -1194.082763671875 -1194.381591796875 -99999 -99999 -99999 -99999 -99999 -99999 -99999 -99999 -99999 -99999 -99999 -99999 -99999 -99999
 -99999 -99999 -99999 -99999 -99999 -99999 -99999 -99999 -99999 -1145.1160888671875 -1143.5413818359375 -1142.262939453125 -1141.3544921875 -1140.94091796875 -1141.2039794921875 -1142.353759765625 -1144.705078125 -1148.375 -1153.1737060546875 -1158.6697998046875 -1165.0640869140625 -1172.9697265625 -1182.29150390625 -1193.1737060546875 -1205.6466064453125 -1219.5087890625 -1234.3275146484375 -1249.3671875 -1263.2938232421875 -1275.74609375 -1287.2198486328125 -1298.8291015625 -1310.8037109375 -1323.77099609375 -1337.652587890625 -1352.21875 -1367.4781494140625 -1383.23046875 -1398.93798828125 -1414.362548828125 -1429.11474609375 -1442.7308349609375 -1454.8934326171875 -1465.5120849609375 -1474.66357421875 -1482.0947265625 -1488.3282470703125 -1493.3023681640625 -1496.99462890625 -1499.8712158203125 -1502.118408203125 -1503.3055419921875 -1503.9232177734375 -1504.019287109375 -1503.665283203125 -1502.907958984375 -1501.5286865234375 -1499.7701416015625 -1497.637939453125 -1495.1917724609375 -1492.30712890625 -1488.8602294921875 -1485.0345458984375 -1480.520751953125 -1475.31103515625 -1469.5443115234375 -1462.8995361328125 -1455.4407958984375 -1446.9140625 -1437.197509765625 -1426.29541015625 -1414.3409423828125 -1401.620361328125 -1388.279052734375 -1375.068115234375 -1362.0947265625 -1349.7108154296875 -1338.216796875 -1328.3394775390625 -1321.08251953125 -1317.4290771484375 -1311.569580078125 -1303.156982421875 -1293.6348876953125 -1284.3895263671875 -1275.5706787109375 -1267.600830078125 -1260.37060546875 -1253.586181640625 -1247.3563232421875 -1241.6041259765625 -1236.123046875 -1230.7376708984375 -1225.6685791015625 -1220.7064208984375 -1215.9169921875 -1211.299072265625 -1206.919189453125 -1202.8023681640625 -1199.0059814453125 -1195.5721435546875 -1192.6044921875 -1190.1092529296875 -1188.08447265625 -1186.4661865234375 -1185.4610595703125 -1184.9298095703125 -1184.9910888671875 -1185.5203857421875 -1186.563232421875 -99999 -99999 -99999 -99999 -99999 -99999 -99999 -99999 -99999 -99999 -99999 -99999 -99999
 -99999 -99999 -99999 -99999 -99999 -99999 -99999 -99999 -99999 -1148.566162109375 -1146.968505859375 -1145.5460205078125 -1144.3470458984375 -1143.63623046875 -1143.659423828125 -1144.786376953125 -1147.3056640625 -1151.3861083984375 -1156.59619140625 -1162.8953857421875 -1170.13916015625 -1178.4532470703125 -1188.591552734375 -1200.2996826171875 -1213.2379150390625 -1227.311279296875 -1242.1751708984375 -1257.0684814453125 -1271.1358642578125 -1283.6866455078125 -1295.58251953125 -1307.6944580078125 -1320.50439453125 -1334.25634765625 -1349.044677734375 -1364.3016357421875 -1380.406494140625 -1396.742919921875 -1413.24560546875 -1429.080810546875 -1444.006591796875 -1457.6279296875 -1469.31103515625 -1479.0904541015625 -1487.27783203125 -1493.61279296875 -1498.20263671875 -1501.86279296875 -1504.4854736328125 -1505.8701171875 -1506.575439453125 -1506.6824951171875 -1506.41455078125 -1505.553466796875 -1504.0753173828125 -1502.2196044921875 -1500.0113525390625 -1497.5823974609375 -1494.64599609375 -1491.3369140625 -1487.6019287109375 -1483.322509765625 -1478.5576171875 -1473.35791015625 -1467.578369140625 -1461.102294921875 -1453.730712890625 -1445.6326904296875 -1436.539794921875 -1426.44970703125 -1415.5322265625 -1403.8134765625 -1391.2568359375 -1378.48193359375 -1365.6041259765625 -1353.1146240234375 -1341.1798095703125 -1330.193603515625 -1320.9251708984375 -1316.4222412109375 -1314.0401611328125 -1306.025634765625 -1295.0277099609375 -1284.258056640625 -1274.4412841796875 -1265.480224609375 -1257.4910888671875 -1250.2872314453125 -1243.7493896484375 -1237.849609375 -1232.2381591796875 -1226.942138671875 -1221.7635498046875 -1216.758544921875 -1211.780029296875 -1206.9017333984375 -1202.1773681640625 -1197.65234375 -1193.443359375 -1189.5755615234375 -1186.0892333984375 -1182.9056396484375 -1180.4041748046875 -1178.4112548828125 -1176.9637451171875 -1176.0675048828125 -1175.7117919921875 -1175.9564208984375 -1176.662841796875 -1177.8734130859375 -1179.4393310546875 -99999 -99999 -99999 -99999 -99999 -99999 -99999 -99999 -99999 -99999 -99999 -99999
 -99999 -99999 -99999 -99999 -99999 -99999 -99999 -99999 -1154.92041015625 -1153.234619140625 -1151.6258544921875 -1150.1483154296875 -1148.8544921875 -1147.822021484375 -1147.3165283203125 -1148.116455078125 -1150.7120361328125 -1155.3258056640625 -1161.3707275390625 -1168.4210205078125 -1176.0975341796875 -1185.149169921875 -1195.8271484375 -1207.863037109375 -1221.08642578125 -1235.2200927734375 -1249.8675537109375 -1264.3978271484375 -1278.1063232421875 -1290.861083984375 -1303.349609375 -1316.055419921875 -1329.8389892578125 -1344.5513916015625 -1359.854736328125 -1376.2418212890625 -1393.18896484375 -1410.4586181640625 -1427.7252197265625 -1444.111083984375 -1459.377197265625 -1472.9764404296875 -1484.486328125 -1493.389404296875 -1500.1109619140625 -1505.1280517578125 -1508.5274658203125 -1510.356689453125 -1511.1953125 -1511.4559326171875 -1511.1702880859375 -1510.1173095703125 -1508.449951171875 -1506.40234375 -1504.1268310546875 -1501.52880859375 -1498.42041015625 -1495.029052734375 -1491.2596435546875 -1487.108154296875 -1482.47265625 -1477.5269775390625 -1472.2344970703125 -1466.3150634765625 -1459.646484375 -1452.5643310546875 -1444.723876953125 -1435.9591064453125 -1426.6181640625 -1416.376220703125 -1405.4442138671875 -1393.771728515625 -1381.5560302734375 -1369.2518310546875 -1356.96875 -1345.0809326171875 -1334.081298828125 -1324.6531982421875 -1317.019775390625 -1313.57861328125 -1311.005126953125 -1298.88623046875 -1285.176025390625 -1273.5174560546875 -1263.946044921875 -1255.139404296875 -1247.1719970703125 -1240.2005615234375 -1233.9649658203125 -1228.377197265625 -1223.0157470703125 -1218.105712890625 -1213.1312255859375 -1208.096923828125 -1203.0322265625 -1198.0440673828125 -1193.2122802734375 -1188.559326171875 -1184.15185546875 -1180.0010986328125 -1176.49609375 -1173.4163818359375 -1170.8414306640625 -1168.849365234375 -1167.408935546875 -1166.6483154296875 -1166.459716796875 -1166.8450927734375 -1167.7857666015625 -1169.2569580078125 -1171.30224609375 -1173.7738037109375 -99999 -99999 -99999 -99999 -99999 -99999 -99999 -99999 -99999 -99999 -99999
 -99999 -99999 -99999 -99999 -99999 -99999 -99999 -1162.2777099609375 -1160.5491943359375 -1158.986083984375 -1157.5927734375 -1156.28076171875 -1154.94091796875 -1153.65966796875 -1152.8004150390625 -1152.6842041015625 -1155.14599609375 -1160.298095703125 -1166.955810546875 -1174.4283447265625 -1182.889892578125 -1192.751708984375 -1203.725341796875 -1216.1070556640625 -1229.308837890625 -1243.1983642578125 -1257.3023681640625 -1271.398681640625 -1284.8275146484375 -1297.8089599609375 -1310.5606689453125 -1324.146240234375 -1338.629638671875 -1353.8951416015625 -1370.2958984375 -1387.517333984375 -1405.3526611328125 -1423.7283935546875 -1441.8546142578125 -1459.371826171875 -1475.283203125 -1488.996826171875 -1499.7650146484375 -1508.0731201171875 -1513.377685546875 -1516.389892578125 -1517.933349609375 -1518.4718017578125 -1518.1591796875 -1516.8270263671875 -1514.87548828125 -1512.694580078125 -1510.1634521484375 -1507.283935546875 -1503.8836669921875 -1500.15185546875 -1496.3326416015625 -1492.077880859375 -1487.444091796875 -1482.6199951171875 -1477.446533203125 -1471.767578125 -1465.57666015625 -1458.94970703125 -1451.914794921875 -1444.2144775390625 -1435.7515869140625 -1426.79541015625 -1417.1129150390625 -1406.7633056640625 -1395.7608642578125 -1384.271240234375 -1372.5552978515625 -1360.6533203125 -1348.95458984375 -1337.8350830078125 -1327.65673828125 -1318.5333251953125 -1311.8946533203125 -1306.586669921875 -1299.8663330078125 -1286.047607421875 -1272.3104248046875 -1262.5218505859375 -1253.340087890625 -1244.5994873046875 -1236.8369140625 -1230.068603515625 -1224.1895751953125 -1219.375244140625 -1214.61181640625 -1209.843017578125 -1204.8548583984375 -1199.7547607421875 -1194.62744140625 -1189.45849609375 -1184.3358154296875 -1179.3853759765625 -1174.8507080078125 -1170.6331787109375 -1166.94140625 -1163.743896484375 -1161.096435546875 -1159.1048583984375 -1157.7706298828125 -1157.118896484375 -1157.043212890625 -1157.6351318359375 -1158.88427734375 -1160.6962890625 -1162.9869384765625 -1165.7191162109375 -1168.9437255859375 -99999 -99999 -99999 -99999 -99999 -99999 -99999 -99999 -99999 -99999
 -99999 -99999 -99999 -99999 -99999 -99999 -99999 -1168.609619140625 -1167.1566162109375 -1166.0263671875 -1165.0426025390625 -1163.980712890625 -1162.8739013671875 -1161.5611572265625 -1159.9466552734375 -1158.7005615234375 -1160.827392578125 -1166.3360595703125 -1173.80517578125 -1181.8258056640625 -1190.95263671875 -1201.2215576171875 -1212.6048583984375 -1224.8040771484375 -1237.7769775390625 -1251.3033447265625 -1265.0087890625 -1278.417236328125 -1291.579833984375 -1304.4595947265625 -1317.5484619140625 -1331.719482421875 -1346.792724609375 -1362.6947021484375 -1379.9315185546875 -1397.9610595703125 -1416.94970703125 -1436.4169921875 -1455.5504150390625 -1474.556640625 -1491.489990234375 -1505.77734375 -1516.0771484375 -1522.49609375 -1525.9251708984375 -1527.411376953125 -1527.374755859375 -1525.8863525390625 -1523.7127685546875 -1521.2369384765625 -1518.380615234375 -1515.0484619140625 -1511.2545166015625 -1507.2225341796875 -1503.0535888671875 -1498.6376953125 -1493.9405517578125 -1488.8553466796875 -1483.6375732421875 -1478.001220703125 -1471.9696044921875 -1465.6507568359375 -1458.9466552734375 -1451.830078125 -1444.1431884765625 -1435.8935546875 -1427.1492919921875 -1417.78173828125 -1407.8895263671875 -1397.5015869140625 -1386.531494140625 -1375.25927734375 -1363.7896728515625 -1352.329833984375 -1341.1300048828125 -1330.461181640625 -1320.5518798828125 -1311.84521484375 -1304.1868896484375 -1296.131591796875 -1286.3828125 -1273.5906982421875 -1261.4864501953125 -1252.4322509765625 -1243.1341552734375 -1234.106201171875 -1226.390869140625 -1220.33935546875 -1215.400634765625 -1211.12255859375 -1206.6517333984375 -1201.9962158203125 -1197.0928955078125 -1191.8665771484375 -1186.3924560546875 -1180.985107421875 -1175.590087890625 -1170.453857421875 -1165.66357421875 -1161.224853515625 -1157.266845703125 -1153.9388427734375 -1151.3150634765625 -1149.3516845703125 -1148.04248046875 -1147.480224609375 -1147.6549072265625 -1148.52783203125 -1150.0074462890625 -1152.03125 -1154.706787109375 -1157.901123046875 -1161.466796875 -99999 -99999 -99999 -99999 -99999 -99999 -99999 -99999 -99999 -99999
 -99999 -99999 -99999 -99999 -99999 -99999 -1177.3363037109375 -1175.8828125 -1174.7596435546875 -1173.9683837890625 -1173.4552001953125 -1173.2808837890625 -1172.8446044921875 -1171.8779296875 -1170.5440673828125 -1168.942626953125 -1169.621337890625 -1175.2344970703125 -1182.5877685546875 -1191.0147705078125 -1200.4390869140625 -1210.8421630859375 -1221.973388671875 -1234.09033203125 -1246.7174072265625 -1259.7227783203125 -1272.8790283203125 -1285.6231689453125 -1298.315185546875 -1311.11279296875 -1324.58056640625 -1339.1063232421875 -1354.4761962890625 -1371.20849609375 -1388.9598388671875 -1407.7432861328125 -1427.7218017578125 -1448.0035400390625 -1469.27880859375 -1489.2774658203125 -1508.4488525390625 -1522.4337158203125 -1532.489013671875 -1537.027099609375 -1538.1875 -1537.4600830078125 -1535.20166015625 -1532.165283203125 -1528.7822265625 -1524.9957275390625 -1520.6644287109375 -1516.3251953125 -1511.70458984375 -1506.8763427734375 -1501.814453125 -1496.4326171875 -1491.0203857421875 -1485.263427734375 -1479.26953125 -1473.0172119140625 -1466.425048828125 -1459.5704345703125 -1452.1966552734375 -1444.5361328125 -1436.3551025390625 -1427.680419921875 -1418.558837890625 -1409.04833984375 -1399.0118408203125 -1388.447265625 -1377.6085205078125 -1366.53369140625 -1355.2969970703125 -1344.141357421875 -1333.23583984375 -1322.849609375 -1312.91796875 -1303.761474609375 -1294.856201171875 -1285.5406494140625 -1275.0723876953125 -1263.3133544921875 -1252.7587890625 -1243.0162353515625 -1232.984619140625 -1223.8270263671875 -1216.444580078125 -1211.2822265625 -1207.178955078125 -1203.4339599609375 -1199.5177001953125 -1194.993408203125 -1189.8155517578125 -1184.3148193359375 -1178.564453125 -1172.7666015625 -1167.0650634765625 -1161.5281982421875 -1156.311279296875 -1151.6552734375 -1147.5911865234375 -1144.14794921875 -1141.35498046875 -1139.344970703125 -1138.249267578125 -1137.8778076171875 -1138.21630859375 -1139.247802734375 -1141.0850830078125 -1143.5701904296875 -1146.58447265625 -1150.0753173828125 -1153.986572265625 -1158.39208984375 -99999 -99999 -99999 -99999 -99999 -99999 -99999 -99999 -99999
 -99999 -99999 -99999 -99999 -99999 -1186.6697998046875 -1185.0157470703125 -1183.916259765625 -1183.167724609375 -1182.8724365234375 -1183.020263671875 -1183.6370849609375 -1184.263427734375 -1184.18701171875 -1183.376953125 -1182.2783203125 -1183.1373291015625 -1187.562744140625 -1194.0599365234375 -1202.0467529296875 -1211.0633544921875 -1221.183349609375 -1232.1890869140625 -1243.7371826171875 -1255.973876953125 -1268.46533203125 -1280.8980712890625 -1293.1484375 -1305.4332275390625 -1318.0618896484375 -1331.7786865234375 -1346.33251953125 -1361.90966796875 -1378.9617919921875 -1396.8629150390625 -1416.260498046875 -1436.8956298828125 -1458.4927978515625 -1480.838623046875 -1503.3905029296875 -1523.6270751953125 -1540.2064208984375 -1548.15673828125 -1550.8677978515625 -1549.4468994140625 -1545.9071044921875 -1541.684326171875 -1537.0789794921875 -1532.27587890625 -1527.308349609375 -1522.171142578125 -1516.879150390625 -1511.3892822265625 -1505.6480712890625 -1499.820556640625 -1493.8367919921875 -1487.7037353515625 -1481.2919921875 -1474.70556640625 -1467.821044921875 -1460.60791015625 -1453.185546875 -1445.347900390625 -1437.128662109375 -1428.54833984375 -1419.5557861328125 -1410.2591552734375 -1400.45947265625 -1390.24853515625 -1379.74365234375 -1368.9422607421875 -1358.0098876953125 -1346.966796875 -1336.03125 -1325.3837890625 -1314.948974609375 -1304.9644775390625 -1295.272705078125 -1285.603515625 -1275.7265625 -1265.1827392578125 -1254.240966796875 -1243.56787109375 -1233.296875 -1223.3018798828125 -1214.3665771484375 -1207.38232421875 -1202.5562744140625 -1199.9765625 -1197.2357177734375 -1193.35498046875 -1188.5843505859375 -1183.1273193359375 -1177.0665283203125 -1170.91552734375 -1164.65087890625 -1158.4459228515625 -1152.54541015625 -1147.05322265625 -1142.070556640625 -1137.6180419921875 -1133.994873046875 -1131.3192138671875 -1129.311767578125 -1128.3270263671875 -1128.1331787109375 -1128.70947265625 -1130.0185546875 -1132.0950927734375 -1134.8468017578125 -1138.3397216796875 -1142.423828125 -1146.841064453125 -1151.5880126953125 -1156.59619140625 -99999 -99999 -99999 -99999 -99999 -99999 -99999 -99999
 -99999 -99999 -99999 -99999 -99999 -1194.943115234375 -1193.5006103515625 -1192.4449462890625 -1191.8885498046875 -1192.1004638671875 -1193.055419921875 -1194.4962158203125 -1196.2294921875 -1198.0087890625 -1197.1903076171875 -1196.966796875 -1198.1494140625 -1201.4083251953125 -1206.903076171875 -1214.4693603515625 -1222.9986572265625 -1232.519775390625 -1242.927001953125 -1253.9908447265625 -1265.5550537109375 -1277.5169677734375 -1289.4559326171875 -1301.38623046875 -1313.231689453125 -1325.6649169921875 -1338.8546142578125 -1353.1973876953125 -1368.735595703125 -1385.453857421875 -1403.4625244140625 -1423.194091796875 -1443.76708984375 -1466.5670166015625 -1489.3740234375 -1514.3836669921875 -1537.55126953125 -1557.25341796875 -1564.055908203125 -1561.8551025390625 -1557.3118896484375 -1551.85009765625 -1545.995849609375 -1540.1473388671875 -1534.0484619140625 -1528.3511962890625 -1522.4072265625 -1516.3021240234375 -1510.063720703125 -1503.69482421875 -1497.23095703125 -1490.655029296875 -1483.83056640625 -1476.9293212890625 -1469.715576171875 -1462.2388916015625 -1454.60693359375 -1446.636962890625 -1438.3297119140625 -1429.771484375 -1420.8294677734375 -1411.5472412109375 -1401.980224609375 -1391.999755859375 -1381.6883544921875 -1371.14013671875 -1360.4385986328125 -1349.562744140625 -1338.68115234375 -1327.8779296875 -1317.2177734375 -1306.842529296875 -1296.6702880859375 -1286.6981201171875 -1276.76318359375 -1266.55810546875 -1255.9937744140625 -1245.3865966796875 -1234.89453125 -1224.7177734375 -1214.9622802734375 -1205.64794921875 -1198.1759033203125 -1195.993408203125 -1194.673828125 -1192.4632568359375 -1188.4697265625 -1182.922607421875 -1176.7071533203125 -1170.1080322265625 -1163.3255615234375 -1156.539306640625 -1149.840087890625 -1143.4344482421875 -1137.442626953125 -1132.1673583984375 -1127.603271484375 -1123.9091796875 -1121.1490478515625 -1119.2633056640625 -1118.260986328125 -1118.1353759765625 -1119.06640625 -1120.858154296875 -1123.379150390625 -1126.574462890625 -1130.384521484375 -1134.6929931640625 -1139.721923828125 -1144.9495849609375 -1150.474609375 -1156.1414794921875 -99999 -99999 -99999 -99999 -99999 -99999 -99999
 -99999 -99999 -99999 -99999 -99999 -1204.0018310546875 -1202.6448974609375 -1201.80517578125 -1201.598388671875 -1202.1998291015625 -1203.661865234375 -1205.8326416015625 -1208.2742919921875 -1209.8116455078125 -1210.6483154296875 -1211.125244140625 -1212.6024169921875 -1216.184326171875 -1221.1591796875 -1227.74267578125 -1235.6669921875 -1244.3306884765625 -1253.8883056640625 -1264.325927734375 -1275.320068359375 -1286.684326171875 -1298.31591796875 -1310.0228271484375 -1321.6295166015625 -1333.69384765625 -1346.37548828125 -1359.82275390625 -1374.8082275390625 -1391.11962890625 -1408.8472900390625 -1428.4014892578125 -1449.092041015625 -1471.707763671875 -1495.199462890625 -1519.895263671875 -1545.7215576171875 -1566.0030517578125 -1570.4432373046875 -1566.633056640625 -1560.557861328125 -1554.1104736328125 -1547.449462890625 -1540.761962890625 -1534.2755126953125 -1527.8248291015625 -1521.236572265625 -1514.593505859375 -1507.8223876953125 -1500.9063720703125 -1493.9248046875 -1486.7852783203125 -1479.478515625 -1471.997314453125 -1464.27880859375 -1456.4512939453125 -1448.329345703125 -1439.8834228515625 -1431.272705078125 -1422.3409423828125 -1413.043212890625 -1403.5682373046875 -1393.734375 -1383.613037109375 -1373.260498046875 -1362.7325439453125 -1352.0084228515625 -1341.217041015625 -1330.4036865234375 -1319.68603515625 -1309.083251953125 -1298.67822265625 -1288.4107666015625 -1278.2777099609375 -1268.1661376953125 -1257.91162109375 -1247.5970458984375 -1237.2537841796875 -1227.156982421875 -1217.4423828125 -1207.9949951171875 -1199.6546630859375 -1194.339111328125 -1192.195556640625 -1192.3765869140625 -1189.917236328125 -1184.1370849609375 -1177.16162109375 -1170.1981201171875 -1163.0413818359375 -1155.7159423828125 -1148.3077392578125 -1141.1373291015625 -1134.1800537109375 -1127.8348388671875 -1122.2254638671875 -1117.4552001953125 -1113.599609375 -1110.6676025390625 -1108.78759765625 -1108.038818359375 -1108.320556640625 -1109.5225830078125 -1111.53466796875 -1114.43115234375 -1118.160400390625 -1122.5428466796875 -1127.4774169921875 -1132.7459716796875 -1138.533203125 -1144.59912109375 -1150.6790771484375 -1156.8328857421875 -99999 -99999 -99999 -99999 -99999 -99999
 -99999 -99999 -99999 -99999 -1215.2354736328125 -1213.881591796875 -1212.80029296875 -1212.0965576171875 -1212.008056640625 -1212.9110107421875 -1215.3048095703125 -1218.3350830078125 -1220.9219970703125 -1222.8175048828125 -1223.94970703125 -1225.2373046875 -1227.406982421875 -1230.8955078125 -1235.7177734375 -1241.445556640625 -1248.4007568359375 -1256.39697265625 -1265.2833251953125 -1274.7076416015625 -1284.945068359375 -1295.6781005859375 -1306.9407958984375 -1318.41748046875 -1330.13671875 -1341.4376220703125 -1353.0533447265625 -1365.754150390625 -1379.68115234375 -1395.474853515625 -1412.4461669921875 -1431.4100341796875 -1451.633056640625 -1473.447021484375 -1496.03076171875 -1519.533447265625 -1541.8983154296875 -1560.0999755859375 -1566.08203125 -1563.35205078125 -1558.5489501953125 -1552.4827880859375 -1545.97705078125 -1539.20849609375 -1532.472900390625 -1525.7318115234375 -1518.8780517578125 -1511.805908203125 -1504.5562744140625 -1497.2540283203125 -1489.7996826171875 -1482.2479248046875 -1474.5411376953125 -1466.6632080078125 -1458.590576171875 -1450.31689453125 -1441.81201171875 -1432.98486328125 -1424.02587890625 -1414.7880859375 -1405.3211669921875 -1395.5565185546875 -1385.5572509765625 -1375.3238525390625 -1364.90625 -1354.3369140625 -1343.629150390625 -1332.8931884765625 -1322.1646728515625 -1311.4903564453125 -1300.9395751953125 -1290.493896484375 -1280.208984375 -1270.0518798828125 -1259.9195556640625 -1249.7529296875 -1239.71533203125 -1229.8260498046875 -1220.21728515625 -1211.2288818359375 -1203.122314453125 -1196.701416015625 -1191.923583984375 -1190.8546142578125 -1190.8583984375 -1186.56103515625 -1177.9276123046875 -1170.55810546875 -1163.3453369140625 -1155.82080078125 -1148.0174560546875 -1140.0426025390625 -1132.15087890625 -1124.760009765625 -1117.9942626953125 -1111.906494140625 -1106.8463134765625 -1102.8822021484375 -1100.114990234375 -1098.441650390625 -1097.83056640625 -1098.308837890625 -1099.771240234375 -1102.3717041015625 -1105.778564453125 -1109.8873291015625 -1114.7008056640625 -1120.1236572265625 -1126.140380859375 -1132.4210205078125 -1138.861083984375 -1145.5396728515625 -1152.1427001953125 -1158.6219482421875 -99999 -99999 -99999 -99999 -99999
 -99999 -99999 -99999 -99999 -1225.78759765625 -1224.64990234375 -1223.7904052734375 -1223.52587890625 -1223.8753662109375 -1225.654296875 -1229.7381591796875 -1233.133544921875 -1235.10498046875 -1236.677490234375 -1237.9351806640625 -1239.7947998046875 -1242.4091796875 -1245.7418212890625 -1250.147705078125 -1255.4169921875 -1261.4996337890625 -1268.302734375 -1276.179443359375 -1284.6719970703125 -1293.8450927734375 -1304.069580078125 -1314.6905517578125 -1326.0469970703125 -1337.83203125 -1348.7750244140625 -1358.8143310546875 -1370.269287109375 -1383.440673828125 -1398.118896484375 -1414.8599853515625 -1432.876220703125 -1452.18115234375 -1472.7930908203125 -1493.7001953125 -1514.6923828125 -1533.2247314453125 -1547.9906005859375 -1554.4049072265625 -1555.5208740234375 -1552.6234130859375 -1547.510009765625 -1541.748046875 -1535.575439453125 -1528.9813232421875 -1522.19580078125 -1515.1348876953125 -1507.792724609375 -1500.40966796875 -1492.7913818359375 -1485.0550537109375 -1477.2332763671875 -1469.1722412109375 -1460.854736328125 -1452.4429931640625 -1443.8118896484375 -1434.9259033203125 -1425.927734375 -1416.6890869140625 -1407.19873046875 -1397.4627685546875 -1387.5302734375 -1377.37744140625 -1367.0469970703125 -1356.5869140625 -1345.972412109375 -1335.305419921875 -1324.601806640625 -1313.9171142578125 -1303.3021240234375 -1292.7630615234375 -1282.3748779296875 -1272.1201171875 -1261.970703125 -1251.93701171875 -1242.05517578125 -1232.345703125 -1222.9100341796875 -1214.0216064453125 -1205.71435546875 -1198.5887451171875 -1192.910400390625 -1189.42529296875 -1187.435791015625 -1186.6419677734375 -1178.6329345703125 -1169.918212890625 -1162.892822265625 -1156.2086181640625 -1148.35791015625 -1139.9527587890625 -1131.35888671875 -1122.8623046875 -1114.845947265625 -1107.697021484375 -1101.3690185546875 -1096.159912109375 -1091.89013671875 -1089.2060546875 -1087.701904296875 -1087.3446044921875 -1088.0556640625 -1090.089599609375 -1093.204345703125 -1097.01416015625 -1101.6861572265625 -1107.137451171875 -1113.199462890625 -1119.6922607421875 -1126.484619140625 -1133.4393310546875 -1140.690185546875 -1147.641845703125 -1154.5030517578125 -1161.125 -99999 -99999 -99999 -99999
 -99999 -99999 -99999 -99999 -1236.448486328125 -1235.8582763671875 -1235.65966796875 -1235.90673828125 -1237.473388671875 -1242.41650390625 -1247.944580078125 -1250.994384765625 -1250.9395751953125 -1250.759765625 -1252.0628662109375 -1254.33837890625 -1257.2388916015625 -1260.7222900390625 -1264.71826171875 -1269.1689453125 -1274.3212890625 -1280.0694580078125 -1286.6754150390625 -1294.2816162109375 -1302.572998046875 -1311.62353515625 -1321.3280029296875 -1331.8980712890625 -1342.5885009765625 -1352.693359375 -1362.1029052734375 -1372.8292236328125 -1385.382080078125 -1399.4359130859375 -1415.2718505859375 -1432.544921875 -1450.67138671875 -1469.79443359375 -1488.66162109375 -1506.827880859375 -1523.1248779296875 -1535.2939453125 -1542.6241455078125 -1544.5958251953125 -1543.6461181640625 -1540.4246826171875 -1535.636474609375 -1530.1346435546875 -1524.0020751953125 -1517.306884765625 -1510.2327880859375 -1502.91455078125 -1495.37548828125 -1487.6053466796875 -1479.6795654296875 -1471.5322265625 -1463.161376953125 -1454.680419921875 -1445.9532470703125 -1437.0206298828125 -1427.97509765625 -1418.6529541015625 -1409.13916015625 -1399.4432373046875 -1389.484619140625 -1379.423095703125 -1369.1739501953125 -1358.7833251953125 -1348.2471923828125 -1337.637451171875 -1326.9805908203125 -1316.308349609375 -1305.6766357421875 -1295.09814453125 -1284.6439208984375 -1274.30615234375 -1264.10986328125 -1254.0836181640625 -1244.209228515625 -1234.52978515625 -1225.1580810546875 -1216.223388671875 -1207.703369140625 -1200.0838623046875 -1193.6165771484375 -1188.2139892578125 -1184.4423828125 -1181.41796875 -1176.96826171875 -1168.7119140625 -1161.3662109375 -1156.16845703125 -1148.9622802734375 -1140.6607666015625 -1131.471923828125 -1122.27099609375 -1113.342529296875 -1104.7891845703125 -1097.0986328125 -1090.3282470703125 -1085.0517578125 -1081.079833984375 -1078.4552001953125 -1077.1644287109375 -1077.0882568359375 -1078.432861328125 -1080.870849609375 -1084.25634765625 -1088.281494140625 -1093.74755859375 -1099.7030029296875 -1106.21337890625 -1113.39501953125 -1120.9312744140625 -1128.5762939453125 -1136.0775146484375 -1143.636962890625 -1150.7303466796875 -1157.56494140625 -1164.1141357421875 -99999 -99999 -99999
 -99999 -99999 -99999 -99999 -1247.730224609375 -1247.5399169921875 -1248.0714111328125 -1249.85595703125 -1253.6314697265625 -1260.38232421875 -1268.36572265625 -1267.70703125 -1264.517822265625 -1264.2774658203125 -1265.6431884765625 -1268.7879638671875 -1272.2154541015625 -1275.720703125 -1279.1402587890625 -1282.6944580078125 -1286.939697265625 -1291.6982421875 -1297.1107177734375 -1303.1077880859375 -1310.2042236328125 -1317.9100341796875 -1326.203125 -1335.4910888671875 -1344.8280029296875 -1353.9150390625 -1363.314453125 -1373.967041015625 -1385.98779296875 -1399.4071044921875 -1414.78515625 -1430.9691162109375 -1447.9046630859375 -1465.503662109375 -1482.424072265625 -1498.6907958984375 -1512.6029052734375 -1523.407958984375 -1530.255859375 -1533.7298583984375 -1534.009033203125 -1531.9842529296875 -1528.2481689453125 -1523.2489013671875 -1517.587646484375 -1511.2579345703125 -1504.365966796875 -1497.1048583984375 -1489.52197265625 -1481.700927734375 -1473.6341552734375 -1465.3126220703125 -1456.7994384765625 -1448.0704345703125 -1439.1224365234375 -1429.9725341796875 -1420.6431884765625 -1411.1395263671875 -1401.4356689453125 -1391.5201416015625 -1381.4970703125 -1371.3050537109375 -1360.9488525390625 -1350.4759521484375 -1339.91650390625 -1329.30322265625 -1318.656005859375 -1308.021484375 -1297.4327392578125 -1286.9259033203125 -1276.526123046875 -1266.26708984375 -1256.1826171875 -1246.2427978515625 -1236.5540771484375 -1227.1361083984375 -1218.070068359375 -1209.5245361328125 -1201.46484375 -1194.2550048828125 -1187.833251953125 -1182.4515380859375 -1177.9415283203125 -1173.3343505859375 -1167.74609375 -1161.2335205078125 -1154.819580078125 -1149.241455078125 -1141.7381591796875 -1132.2440185546875 -1122.5670166015625 -1112.822998046875 -1103.0933837890625 -1094.0443115234375 -1086.07861328125 -1079.2952880859375 -1073.9129638671875 -1069.934814453125 -1067.3658447265625 -1066.4776611328125 -1066.984619140625 -1068.7457275390625 -1071.55126953125 -1075.376708984375 -1080.3282470703125 -1086.0408935546875 -1092.388916015625 -1099.7220458984375 -1107.404541015625 -1115.4666748046875 -1123.691650390625 -1131.938232421875 -1139.6632080078125 -1147.2457275390625 -1154.28076171875 -1160.935791015625 -1167.3216552734375 -99999 -99999
 -99999 -99999 -99999 -99999 -1259.16162109375 -1259.55322265625 -1260.783935546875 -1263.41064453125 -1268.14208984375 -1274.9942626953125 -1279.703125 -1277.933349609375 -1274.872802734375 -1275.298095703125 -1278.72119140625 -1283.50341796875 -1287.617431640625 -1290.8050537109375 -1293.5948486328125 -1296.2978515625 -1299.253173828125 -1302.4581298828125 -1306.8131103515625 -1311.5562744140625 -1317.1199951171875 -1323.5638427734375 -1330.6513671875 -1338.2105712890625 -1345.9554443359375 -1354.3428955078125 -1363.3858642578125 -1373.751220703125 -1385.5042724609375 -1398.5010986328125 -1412.9683837890625 -1428.46533203125 -1444.3414306640625 -1460.2364501953125 -1475.898193359375 -1490.194580078125 -1502.22900390625 -1512.365234375 -1519.1416015625 -1522.849853515625 -1523.6915283203125 -1522.509033203125 -1519.7174072265625 -1515.60595703125 -1510.316162109375 -1504.2208251953125 -1497.5924072265625 -1490.53076171875 -1483.0045166015625 -1475.2027587890625 -1467.06005859375 -1458.5977783203125 -1449.916748046875 -1441.053955078125 -1431.9256591796875 -1422.6319580078125 -1413.1419677734375 -1403.4478759765625 -1393.5684814453125 -1383.576904296875 -1373.3980712890625 -1363.0855712890625 -1352.6734619140625 -1342.1416015625 -1331.5640869140625 -1320.9456787109375 -1310.321533203125 -1299.7266845703125 -1289.1802978515625 -1278.726806640625 -1268.430419921875 -1258.24560546875 -1248.2340087890625 -1238.5 -1228.985595703125 -1219.77099609375 -1211.02490234375 -1202.6363525390625 -1194.83642578125 -1187.67041015625 -1181.29638671875 -1175.594970703125 -1170.2550048828125 -1164.872314453125 -1159.21337890625 -1153.0306396484375 -1147.0223388671875 -1140.657470703125 -1132.05126953125 -1122.5582275390625 -1112.910888671875 -1102.6571044921875 -1092.52587890625 -1083.2596435546875 -1075.0689697265625 -1068.00927734375 -1062.3402099609375 -1058.5660400390625 -1056.585693359375 -1056.0623779296875 -1056.933837890625 -1059.17529296875 -1062.662109375 -1067.0908203125 -1072.4002685546875 -1078.496337890625 -1085.444580078125 -1093.1658935546875 -1101.4912109375 -1110.3651123046875 -1119.286376953125 -1127.96875 -1136.34912109375 -1144.0164794921875 -1151.1298828125 -1157.8740234375 -1164.3087158203125 -1170.5208740234375 -99999
 -99999 -99999 -99999 -1270.3170166015625 -1270.546630859375 -1271.282958984375 -1272.8563232421875 -1275.7430419921875 -1280.00390625 -1284.6297607421875 -1286.714599609375 -1285.4014892578125 -1283.467041015625 -1285.786376953125 -1292.7733154296875 -1298.909912109375 -1303.3568115234375 -1306.225830078125 -1307.93994140625 -1309.39208984375 -1311.1002197265625 -1313.13671875 -1316.0225830078125 -1319.5927734375 -1323.80615234375 -1328.68115234375 -1334.2528076171875 -1340.4056396484375 -1347.24853515625 -1354.6370849609375 -1363.001708984375 -1372.97705078125 -1384.230224609375 -1397.002197265625 -1410.795654296875 -1425.36474609375 -1440.2874755859375 -1455.1676025390625 -1469.152587890625 -1481.7916259765625 -1493.046875 -1501.76220703125 -1508.018310546875 -1512.0015869140625 -1513.6531982421875 -1513.067138671875 -1510.6815185546875 -1506.9715576171875 -1502.2235107421875 -1496.6324462890625 -1490.232421875 -1483.3453369140625 -1475.977783203125 -1468.1494140625 -1459.9130859375 -1451.4512939453125 -1442.69677734375 -1433.697265625 -1424.494384765625 -1415.052490234375 -1405.3946533203125 -1395.57666015625 -1385.579833984375 -1375.446533203125 -1365.1796875 -1354.8023681640625 -1344.3155517578125 -1333.772705078125 -1323.1832275390625 -1312.560546875 -1301.9705810546875 -1291.39208984375 -1280.9237060546875 -1270.517822265625 -1260.2869873046875 -1250.2227783203125 -1240.3680419921875 -1230.7008056640625 -1221.375732421875 -1212.3841552734375 -1203.688232421875 -1195.4844970703125 -1187.8695068359375 -1180.66748046875 -1174.1759033203125 -1168.1024169921875 -1162.2684326171875 -1156.4434814453125 -1150.43310546875 -1144.0645751953125 -1137.5316162109375 -1130.252197265625 -1121.6568603515625 -1112.7982177734375 -1102.994384765625 -1091.9686279296875 -1081.700927734375 -1072.079345703125 -1063.5115966796875 -1056.531494140625 -1051.003662109375 -1047.2611083984375 -1045.5748291015625 -1045.6422119140625 -1047.2386474609375 -1050.304931640625 -1054.3048095703125 -1059.0931396484375 -1064.793212890625 -1071.4052734375 -1078.893310546875 -1086.9541015625 -1095.9815673828125 -1105.3819580078125 -1114.9818115234375 -1124.451171875 -1133.158447265625 -1141.104248046875 -1148.2061767578125 -1154.813720703125 -1161.23095703125 -1167.5146484375 -1173.6351318359375
 -99999 -99999 -99999 -1281.044189453125 -1281.5272216796875 -1282.5052490234375 -1284.271240234375 -1287.24072265625 -1290.74365234375 -1293.977294921875 -1296.329833984375 -1296.174560546875 -1296.9052734375 -1301.9737548828125 -1309.290283203125 -1316.0714111328125 -1319.62353515625 -1321.332763671875 -1321.5858154296875 -1321.7293701171875 -1322.1715087890625 -1323.1341552734375 -1324.723876953125 -1327.090576171875 -1330.151123046875 -1333.7210693359375 -1337.87841796875 -1342.5418701171875 -1348.182861328125 -1354.7486572265625 -1362.3599853515625 -1372.0450439453125 -1382.992431640625 -1395.155029296875 -1408.453125 -1422.3426513671875 -1436.12451171875 -1449.847900390625 -1462.587158203125 -1474.2445068359375 -1484.4656982421875 -1492.385986328125 -1498.3704833984375 -1501.93017578125 -1503.4429931640625 -1503.2275390625 -1501.4676513671875 -1498.356201171875 -1493.8717041015625 -1488.5289306640625 -1482.4576416015625 -1475.6484375 -1468.388916015625 -1460.630615234375 -1452.490966796875 -1443.936279296875 -1435.1595458984375 -1426.110107421875 -1416.7381591796875 -1407.17626953125 -1397.4483642578125 -1387.5093994140625 -1377.4376220703125 -1367.2220458984375 -1356.871337890625 -1346.43701171875 -1335.927978515625 -1325.3585205078125 -1314.7442626953125 -1304.1593017578125 -1293.5804443359375 -1283.0780029296875 -1272.629638671875 -1262.3204345703125 -1252.168701171875 -1242.18408203125 -1232.3883056640625 -1222.862548828125 -1213.666015625 -1204.769287109375 -1196.29931640625 -1188.240478515625 -1180.5623779296875 -1173.4071044921875 -1166.6529541015625 -1160.1865234375 -1153.9324951171875 -1147.684814453125 -1141.345947265625 -1134.623779296875 -1127.43408203125 -1119.5909423828125 -1111.0960693359375 -1101.9462890625 -1091.6844482421875 -1080.53369140625 -1070.2943115234375 -1061.019287109375 -1052.3870849609375 -1044.999755859375 -1039.7935791015625 -1036.4188232421875 -1035.107177734375 -1035.791259765625 -1038.41845703125 -1042.0880126953125 -1046.5084228515625 -1051.9459228515625 -1058.012451171875 -1064.72021484375 -1072.3243408203125 -1080.95703125 -1090.2347412109375 -1100.50390625 -1110.8720703125 -1120.83154296875 -1130.241943359375 -1138.375244140625 -1145.3070068359375 -1151.7919921875 -1158.0927734375 -1164.434326171875 -1170.583251953125
 -99999 -99999 -99999 -1291.654541015625 -1292.2777099609375 -1293.5772705078125 -1295.62890625 -1298.24658203125 -1301.42919921875 -1304.504638671875 -1306.9110107421875 -1309.1953125 -1312.4124755859375 -1318.1063232421875 -1326.2164306640625 -1333.6180419921875 -1336.1888427734375 -1335.3355712890625 -1334.212646484375 -1333.1654052734375 -1332.3599853515625 -1332.436767578125 -1333.2147216796875 -1334.675537109375 -1336.647705078125 -1338.9635009765625 -1341.9072265625 -1345.2657470703125 -1349.5089111328125 -1354.9031982421875 -1362.0302734375 -1371.2130126953125 -1381.72021484375 -1393.9012451171875 -1406.5352783203125 -1419.7420654296875 -1432.6983642578125 -1445.105224609375 -1456.94384765625 -1467.351318359375 -1476.242431640625 -1483.585205078125 -1489.0760498046875 -1492.5601806640625 -1494.16552734375 -1494.0633544921875 -1492.4053955078125 -1489.439697265625 -1485.2567138671875 -1480.1488037109375 -1474.26953125 -1467.725830078125 -1460.5306396484375 -1452.7655029296875 -1444.6636962890625 -1436.156982421875 -1427.2979736328125 -1418.1478271484375 -1408.764404296875 -1399.1312255859375 -1389.30859375 -1379.327392578125 -1369.1732177734375 -1358.86669921875 -1348.48681640625 -1338.0028076171875 -1327.4609375 -1316.8756103515625 -1306.2889404296875 -1295.714111328125 -1285.18017578125 -1274.7008056640625 -1264.3197021484375 -1254.0804443359375 -1243.9736328125 -1234.102783203125 -1224.389892578125 -1214.9876708984375 -1205.8909912109375 -1197.1138916015625 -1188.6614990234375 -1180.59619140625 -1173.002685546875 -1165.69140625 -1158.7918701171875 -1152.1004638671875 -1145.4862060546875 -1138.867919921875 -1132.0823974609375 -1124.8912353515625 -1117.38916015625 -1109.22802734375 -1100.30419921875 -1090.7952880859375 -1080.35791015625 -1069.771240234375 -1059.9140625 -1050.5469970703125 -1041.7425537109375 -1034.0755615234375 -1028.2440185546875 -1025.3702392578125 -1025.2586669921875 -1026.9935302734375 -1030.38525390625 -1034.8387451171875 -1040.051025390625 -1045.7109375 -1051.8460693359375 -1058.7413330078125 -1066.3697509765625 -1075.1141357421875 -1084.865234375 -1095.6929931640625 -1106.799560546875 -1117.513671875 -1127.249755859375 -1135.80029296875 -1142.522705078125 -1148.7801513671875 -1155.0565185546875 -1161.352294921875 -99999
 -99999 -99999 -99999 -1302.157958984375 -1303.03955078125 -1304.4326171875 -1306.48876953125 -1309.0985107421875 -1312.1156005859375 -1315.3756103515625 -1318.5506591796875 -1322.1383056640625 -1326.6302490234375 -1332.7547607421875 -1340.5145263671875 -1346.4090576171875 -1348.2357177734375 -1346.66796875 -1344.87255859375 -1343.1632080078125 -1341.7532958984375 -1341.076416015625 -1341.32275390625 -1342.3560791015625 -1343.84716796875 -1345.392578125 -1346.944580078125 -1348.663330078125 -1351.574462890625 -1355.83056640625 -1362.501953125 -1371.3553466796875 -1381.781005859375 -1393.218017578125 -1405.2890625 -1417.6278076171875 -1429.5966796875 -1441.2196044921875 -1451.747802734375 -1461.2373046875 -1469.4195556640625 -1475.8922119140625 -1480.5830078125 -1483.6954345703125 -1485.229248046875 -1485.0927734375 -1483.448486328125 -1480.5733642578125 -1476.6578369140625 -1471.7886962890625 -1465.973388671875 -1459.424072265625 -1452.31494140625 -1444.6951904296875 -1436.57177734375 -1428.0780029296875 -1419.222412109375 -1410.0579833984375 -1400.5963134765625 -1390.9259033203125 -1381.05419921875 -1370.96875 -1360.74951171875 -1350.4266357421875 -1339.9896240234375 -1329.4892578125 -1318.936279296875 -1308.353759765625 -1297.79150390625 -1287.23583984375 -1276.7451171875 -1266.2916259765625 -1255.9896240234375 -1245.805419921875 -1235.8150634765625 -1225.9564208984375 -1216.3726806640625 -1207.049072265625 -1197.9970703125 -1189.2786865234375 -1180.901123046875 -1172.915771484375 -1165.2606201171875 -1157.9288330078125 -1150.831298828125 -1143.892333984375 -1137.0771484375 -1130.1129150390625 -1122.98583984375 -1115.531982421875 -1107.59765625 -1099.12646484375 -1090.0982666015625 -1080.3348388671875 -1070.2281494140625 -1059.9705810546875 -1050.2481689453125 -1040.7666015625 -1031.4659423828125 -1023.3333740234375 -1017.95074462890625 -1015.6688232421875 -1016.2415771484375 -1019.08465576171875 -1023.64337158203125 -1029.1556396484375 -1034.9488525390625 -1040.85791015625 -1046.7679443359375 -1053.55419921875 -1060.7926025390625 -1069.243408203125 -1079.4014892578125 -1090.7745361328125 -1102.52880859375 -1113.6282958984375 -1123.87744140625 -1132.873779296875 -1139.5657958984375 -1145.8887939453125 -1152.1282958984375 -1158.33349609375 -99999
 -99999 -99999 -99999 -1312.41259765625 -1313.4591064453125 -1314.925048828125 -1317.333251953125 -1320.1546630859375 -1323.291015625 -1326.6424560546875 -1330.23583984375 -1334.2359619140625 -1339.13623046875 -1344.78857421875 -1350.425537109375 -1355.236083984375 -1356.377685546875 -1355.5084228515625 -1354.0067138671875 -1351.998291015625 -1350.0928955078125 -1349.121826171875 -1349.4921875 -1350.6846923828125 -1351.994873046875 -1353.0186767578125 -1353.8272705078125 -1354.4581298828125 -1355.6619873046875 -1358.77734375 -1364.8653564453125 -1373.111572265625 -1382.9129638671875 -1393.981201171875 -1405.0919189453125 -1416.604248046875 -1427.744873046875 -1438.124267578125 -1447.6851806640625 -1456.102783203125 -1463.093505859375 -1468.7818603515625 -1473.025634765625 -1475.7369384765625 -1476.7633056640625 -1476.4326171875 -1474.877197265625 -1472.0174560546875 -1468.1212158203125 -1463.211669921875 -1457.513671875 -1451.115966796875 -1444.06982421875 -1436.439208984375 -1428.372314453125 -1419.838623046875 -1410.94873046875 -1401.752685546875 -1392.2908935546875 -1382.5521240234375 -1372.6142578125 -1362.5047607421875 -1352.247314453125 -1341.8853759765625 -1331.4267578125 -1320.9169921875 -1310.3426513671875 -1299.801513671875 -1289.2401123046875 -1278.747802734375 -1268.2711181640625 -1257.9102783203125 -1247.65576171875 -1237.5413818359375 -1227.564208984375 -1217.7921142578125 -1208.28466796875 -1199.019287109375 -1190.076171875 -1181.3992919921875 -1173.086181640625 -1165.1324462890625 -1157.4388427734375 -1150.053466796875 -1142.8797607421875 -1135.826416015625 -1128.771240234375 -1121.6412353515625 -1114.231689453125 -1106.5291748046875 -1098.4039306640625 -1089.8670654296875 -1080.6546630859375 -1070.9384765625 -1060.9395751953125 -1050.9180908203125 -1041.0941162109375 -1031.498046875 -1021.99188232421875 -1013.7213134765625 -1008.291015625 -1006.77545166015625 -1008.84771728515625 -1013.43328857421875 -1019.22869873046875 -1025.3310546875 -1031.5167236328125 -1037.55419921875 -1043.404296875 -1049.480712890625 -1056.3992919921875 -1063.8270263671875 -1073.6845703125 -1085.7327880859375 -1098.2398681640625 -1109.32275390625 -1119.6541748046875 -1128.606689453125 -1136.0780029296875 -1142.608154296875 -1148.9791259765625 -99999 -99999
 -99999 -99999 -99999 -1322.9012451171875 -1324.3077392578125 -1326.103759765625 -1328.4140625 -1331.1492919921875 -1334.281982421875 -1337.6884765625 -1341.4171142578125 -1345.5250244140625 -1349.9774169921875 -1354.7725830078125 -1359.216796875 -1362.4176025390625 -1363.5177001953125 -1363.155517578125 -1361.9544677734375 -1359.80078125 -1357.4444580078125 -1356.658203125 -1357.9298095703125 -1360.130126953125 -1361.9061279296875 -1362.7579345703125 -1362.7950439453125 -1362.5032958984375 -1362.7523193359375 -1364.75927734375 -1369.955810546875 -1377.11767578125 -1386.0108642578125 -1395.978759765625 -1406.5078125 -1416.678955078125 -1426.5126953125 -1435.8831787109375 -1444.27587890625 -1451.6351318359375 -1457.8211669921875 -1462.8262939453125 -1466.1046142578125 -1468.1134033203125 -1468.886962890625 -1468.340576171875 -1466.5894775390625 -1463.597412109375 -1459.650146484375 -1454.7669677734375 -1449.1024169921875 -1442.697021484375 -1435.6561279296875 -1428.080322265625 -1420.0057373046875 -1411.46875 -1402.580322265625 -1393.3529052734375 -1383.842041015625 -1374.0582275390625 -1364.1031494140625 -1353.93505859375 -1343.6624755859375 -1333.2623291015625 -1322.79345703125 -1312.25634765625 -1301.7335205078125 -1291.195556640625 -1280.6722412109375 -1270.21728515625 -1259.8084716796875 -1249.5059814453125 -1239.29736328125 -1229.2176513671875 -1219.32763671875 -1209.624267578125 -1200.162109375 -1190.9847412109375 -1182.030517578125 -1173.4573974609375 -1165.2034912109375 -1157.2607421875 -1149.60986328125 -1142.2408447265625 -1134.9908447265625 -1127.90185546875 -1120.7532958984375 -1113.49462890625 -1105.993896484375 -1098.23193359375 -1089.984619140625 -1081.2889404296875 -1072.1165771484375 -1062.6444091796875 -1052.8494873046875 -1043.081298828125 -1033.2376708984375 -1023.36480712890625 -1013.9349365234375 -1005.5584716796875 -1000.42315673828125 -999.8316650390625 -1004.03424072265625 -1009.990966796875 -1016.94561767578125 -1023.96533203125 -1030.2659912109375 -1035.9556884765625 -1041.4429931640625 -1047.0303955078125 -1053.3272705078125 -1060.3016357421875 -1068.8026123046875 -1080.87646484375 -1093.3533935546875 -1104.6529541015625 -1114.910400390625 -1123.9801025390625 -1132.060546875 -1139.033203125 -1145.53857421875 -99999 -99999
 -99999 -99999 -99999 -1333.3428955078125 -1334.920166015625 -1336.886962890625 -1339.2608642578125 -1342.0113525390625 -1345.105712890625 -1348.473388671875 -1352.1436767578125 -1355.9947509765625 -1359.9495849609375 -1364.0361328125 -1367.4642333984375 -1369.8345947265625 -1370.74609375 -1370.39013671875 -1369.0572509765625 -1366.7745361328125 -1364.0882568359375 -1364.2928466796875 -1367.56787109375 -1371.2197265625 -1374.03369140625 -1375.1219482421875 -1374.392333984375 -1373.032470703125 -1372.3218994140625 -1373.0675048828125 -1376.7138671875 -1382.6046142578125 -1390.6962890625 -1399.7734375 -1408.92431640625 -1417.9912109375 -1426.7816162109375 -1434.843994140625 -1441.8818359375 -1448.0494384765625 -1453.2547607421875 -1457.1146240234375 -1459.8319091796875 -1461.3673095703125 -1461.6431884765625 -1460.6221923828125 -1458.528564453125 -1455.3814697265625 -1451.371826171875 -1446.425537109375 -1440.6895751953125 -1434.3382568359375 -1427.2779541015625 -1419.6688232421875 -1411.544677734375 -1403.0264892578125 -1394.087890625 -1384.848876953125 -1375.28173828125 -1365.4969482421875 -1355.4718017578125 -1345.316162109375 -1334.986083984375 -1324.564453125 -1314.0875244140625 -1303.5721435546875 -1293.068115234375 -1282.5557861328125 -1272.0804443359375 -1261.6983642578125 -1251.34130859375 -1241.1025390625 -1230.9339599609375 -1220.9571533203125 -1211.120849609375 -1201.4588623046875 -1192.05908203125 -1182.872802734375 -1174.0037841796875 -1165.5029296875 -1157.2652587890625 -1149.4149169921875 -1141.7984619140625 -1134.49169921875 -1127.3243408203125 -1120.2550048828125 -1113.1195068359375 -1105.9075927734375 -1098.4466552734375 -1090.5948486328125 -1082.4134521484375 -1073.80126953125 -1064.8489990234375 -1055.5552978515625 -1046.2476806640625 -1036.76806640625 -1027.13671875 -1017.68719482421875 -1009.07177734375 -1001.4498291015625 -997.29962158203125 -996.918701171875 -1001.85845947265625 -1010.1876220703125 -1018.11578369140625 -1025.22998046875 -1031.36181640625 -1036.5869140625 -1040.913330078125 -1045.7247314453125 -1051.8292236328125 -1058.3896484375 -1066.654052734375 -1077.6600341796875 -1089.1173095703125 -1100.078857421875 -1110.3006591796875 -1119.4736328125 -1127.8067626953125 -1135.312255859375 -1141.9921875 -99999 -99999
 -99999 -99999 -99999 -1343.7279052734375 -1345.447509765625 -1347.4873046875 -1349.9034423828125 -1352.640380859375 -1355.6129150390625 -1358.862060546875 -1362.3441162109375 -1366.04541015625 -1369.627197265625 -1372.955810546875 -1375.6383056640625 -1377.4842529296875 -1378.250732421875 -1377.999267578125 -1376.7047119140625 -1374.1019287109375 -1371.5450439453125 -1373.0362548828125 -1379.206298828125 -1385.364501953125 -1388.9598388671875 -1389.8221435546875 -1388.615966796875 -1386.0152587890625 -1383.07666015625 -1382.6171875 -1385.30224609375 -1390.361083984375 -1397.294677734375 -1405.080078125 -1412.8968505859375 -1420.3577880859375 -1427.763671875 -1434.4931640625 -1440.4825439453125 -1445.5137939453125 -1449.2987060546875 -1452.498291015625 -1454.3729248046875 -1455.0361328125 -1454.6680908203125 -1453.2745361328125 -1450.9180908203125 -1447.548828125 -1443.28125 -1438.293701171875 -1432.4490966796875 -1425.9390869140625 -1418.7935791015625 -1411.220703125 -1403.08740234375 -1394.502685546875 -1385.5869140625 -1376.308837890625 -1366.68310546875 -1356.8643798828125 -1346.7899169921875 -1336.59130859375 -1326.238037109375 -1315.8177490234375 -1305.3419189453125 -1294.8448486328125 -1284.362060546875 -1273.8765869140625 -1263.5091552734375 -1253.168212890625 -1242.9080810546875 -1232.711669921875 -1222.649169921875 -1212.7269287109375 -1202.91162109375 -1193.2930908203125 -1183.8756103515625 -1174.8062744140625 -1165.9637451171875 -1157.4884033203125 -1149.4150390625 -1141.5985107421875 -1134.1243896484375 -1126.948486328125 -1119.8946533203125 -1112.9228515625 -1106.01220703125 -1098.9293212890625 -1091.6038818359375 -1083.863037109375 -1075.7794189453125 -1067.3504638671875 -1058.7034912109375 -1049.9552001953125 -1041.0831298828125 -1032.173828125 -1023.57220458984375 -1015.3560791015625 -1007.8675537109375 -1001.71148681640625 -999.01025390625 -999.55389404296875 -1005.4794921875 -1014.36865234375 -1022.68896484375 -1029.383056640625 -1034.4410400390625 -1038.68212890625 -1042.4188232421875 -1046.3023681640625 -1051.656982421875 -1058.0577392578125 -1065.8243408203125 -1075.2874755859375 -1085.939453125 -1096.415771484375 -1106.1788330078125 -1115.3756103515625 -1123.7630615234375 -1131.4637451171875 -99999 -99999 -99999
 -99999 -99999 -99999 -99999 -1355.66845703125 -1357.743408203125 -1360.2265625 -1362.978759765625 -1366.007080078125 -1369.1474609375 -1372.412841796875 -1375.6641845703125 -1378.8758544921875 -1381.74560546875 -1384.0904541015625 -1385.8612060546875 -1386.7021484375 -1386.607421875 -1385.721923828125 -1384.593505859375 -1384.2943115234375 -1388.3404541015625 -1395.2725830078125 -1402.2132568359375 -1406.5416259765625 -1407.1700439453125 -1404.9971923828125 -1400.7293701171875 -1396.469970703125 -1394.195068359375 -1395.2314453125 -1399.5880126953125 -1405.5264892578125 -1411.5838623046875 -1417.91650390625 -1424.0994873046875 -1429.8115234375 -1435.3035888671875 -1439.6846923828125 -1443.3984375 -1446.26708984375 -1448.2822265625 -1449.1214599609375 -1449.2183837890625 -1448.306396484375 -1446.3878173828125 -1443.6080322265625 -1440.0009765625 -1435.42529296875 -1430.1409912109375 -1424.2177734375 -1417.6707763671875 -1410.52294921875 -1402.801513671875 -1394.6595458984375 -1386.01171875 -1377.01513671875 -1367.6739501953125 -1358.0625 -1348.153564453125 -1338.0892333984375 -1327.852783203125 -1317.45458984375 -1307.036376953125 -1296.5504150390625 -1286.081787109375 -1275.6099853515625 -1265.2354736328125 -1254.9185791015625 -1244.65869140625 -1234.477294921875 -1224.3765869140625 -1214.420654296875 -1204.49853515625 -1194.761474609375 -1185.1500244140625 -1175.8135986328125 -1166.7366943359375 -1157.9638671875 -1149.60888671875 -1141.50244140625 -1133.820068359375 -1126.5830078125 -1119.523193359375 -1112.7388916015625 -1106.077880859375 -1099.377197265625 -1092.568359375 -1085.4129638671875 -1077.9925537109375 -1070.1903076171875 -1062.0809326171875 -1053.7919921875 -1045.5137939453125 -1037.41455078125 -1029.6474609375 -1022.16851806640625 -1015.1441650390625 -1009.125732421875 -1005.439697265625 -1004.80810546875 -1007.872802734375 -1015.0499267578125 -1023.744140625 -1030.500732421875 -1035.664794921875 -1039.448486328125 -1042.265380859375 -1044.634521484375 -1047.8670654296875 -1052.1763916015625 -1058.1240234375 -1065.572998046875 -1074.271728515625 -1083.7603759765625 -1093.4176025390625 -1102.995849609375 -1112.0047607421875 -1120.33447265625 -1127.9749755859375 -99999 -99999 -99999
 -99999 -99999 -99999 -99999 -99999 -1368.00146484375 -1370.4603271484375 -1373.1268310546875 -1375.9783935546875 -1379.000732421875 -1382.087890625 -1385.1380615234375 -1388.0902099609375 -1390.8026123046875 -1393.0047607421875 -1394.692626953125 -1395.8753662109375 -1396.616943359375 -1397.0997314453125 -1397.822509765625 -1400.3111572265625 -1405.5570068359375 -1412.9951171875 -1420.3311767578125 -1425.729248046875 -1426.7674560546875 -1422.483154296875 -1417.0074462890625 -1411.2864990234375 -1407.196044921875 -1407.576904296875 -1411.2681884765625 -1415.29931640625 -1419.609619140625 -1424.1600341796875 -1428.55859375 -1432.7298583984375 -1436.4168701171875 -1439.534912109375 -1442.0374755859375 -1443.8238525390625 -1444.6397705078125 -1444.670654296875 -1443.90869140625 -1442.35400390625 -1439.931396484375 -1436.5675048828125 -1432.45703125 -1427.7484130859375 -1422.2630615234375 -1416.1749267578125 -1409.4136962890625 -1402.20556640625 -1394.416015625 -1386.153564453125 -1377.5047607421875 -1368.49658203125 -1359.108154296875 -1349.4090576171875 -1339.4945068359375 -1329.350830078125 -1319.0335693359375 -1308.6627197265625 -1298.190185546875 -1287.7225341796875 -1277.258056640625 -1266.852783203125 -1256.56591796875 -1246.3148193359375 -1236.1826171875 -1226.0670166015625 -1216.1568603515625 -1206.236572265625 -1196.4339599609375 -1186.7066650390625 -1177.149169921875 -1167.8367919921875 -1158.7113037109375 -1149.9521484375 -1141.6229248046875 -1133.602294921875 -1126.18359375 -1119.172607421875 -1112.3895263671875 -1105.9476318359375 -1099.568603515625 -1093.290283203125 -1086.81591796875 -1080.2447509765625 -1073.109130859375 -1065.5965576171875 -1057.802978515625 -1049.8681640625 -1042.0716552734375 -1034.96142578125 -1028.364501953125 -1022.40093994140625 -1017.0157470703125 -1012.59527587890625 -1010.30303955078125 -1011.6168212890625 -1018.5028076171875 -1026.619384765625 -1034.7138671875 -1041.0157470703125 -1043.7109375 -1044.9349365234375 -1045.959228515625 -1047.194091796875 -1049.60791015625 -1053.3447265625 -1058.661865234375 -1065.31982421875 -1073.5098876953125 -1082.4556884765625 -1091.6705322265625 -1100.6357421875 -1109.242431640625 -1117.40478515625 -99999 -99999 -99999 -99999
 -99999 -99999 -99999 -99999 -99999 -99999 -1380.207275390625 -1382.8721923828125 -1385.6705322265625 -1388.5654296875 -1391.5289306640625 -1394.4661865234375 -1397.2479248046875 -1399.75390625 -1402.0538330078125 -1404.1090087890625 -1405.7391357421875 -1407.3546142578125 -1409.057373046875 -1411.602783203125 -1416.0421142578125 -1422.0438232421875 -1429.801513671875 -1438.374755859375 -1444.4305419921875 -1443.4825439453125 -1438.84228515625 -1433.297119140625 -1428.0888671875 -1425.04443359375 -1424.126220703125 -1424.770751953125 -1426.15087890625 -1428.7445068359375 -1431.0626220703125 -1433.608154296875 -1436.0096435546875 -1438.15576171875 -1439.9954833984375 -1441.05078125 -1441.529052734375 -1441.388916015625 -1440.614501953125 -1439.0599365234375 -1436.646240234375 -1433.5543212890625 -1429.8184814453125 -1425.4339599609375 -1420.282958984375 -1414.4954833984375 -1408.20263671875 -1401.343017578125 -1393.91943359375 -1386.1002197265625 -1377.8232421875 -1369.0892333984375 -1359.953857421875 -1350.5616455078125 -1340.7762451171875 -1330.7852783203125 -1320.586669921875 -1310.2454833984375 -1299.8021240234375 -1289.3167724609375 -1278.843017578125 -1268.369140625 -1258.091796875 -1247.83740234375 -1237.7591552734375 -1227.7034912109375 -1217.8389892578125 -1208.01025390625 -1198.2296142578125 -1188.4876708984375 -1178.8057861328125 -1169.270751953125 -1159.8388671875 -1150.7633056640625 -1142.030517578125 -1133.6746826171875 -1125.927734375 -1118.68310546875 -1111.8404541015625 -1105.4468994140625 -1099.3668212890625 -1093.3944091796875 -1087.7794189453125 -1081.909912109375 -1075.7708740234375 -1069.23486328125 -1062.2315673828125 -1054.667724609375 -1046.822021484375 -1039.5592041015625 -1033.1610107421875 -1028.1795654296875 -1024.1607666015625 -1020.22467041015625 -1016.40399169921875 -1014.414306640625 -1018.2152099609375 -1025.1717529296875 -1033.4072265625 -1041.2041015625 -1047.12646484375 -1048.5693359375 -1048.6600341796875 -1048.8011474609375 -1049.159423828125 -1050.463623046875 -1053.5390625 -1058.79296875 -1065.56982421875 -1073.347412109375 -1081.7783203125 -1090.4609375 -1099.095703125 -1107.4200439453125 -1115.3250732421875 -99999 -99999 -99999 -99999
 -99999 -99999 -99999 -99999 -99999 -99999 -1389.731201171875 -1392.331298828125 -1395.0665283203125 -1397.8956298828125 -1400.64697265625 -1403.4617919921875 -1406.298583984375 -1408.9110107421875 -1411.4044189453125 -1413.743896484375 -1415.87060546875 -1418.236328125 -1421.139892578125 -1424.7520751953125 -1429.52587890625 -1435.9864501953125 -1443.6412353515625 -1451.347412109375 -1456.0482177734375 -1454.9803466796875 -1450.90771484375 -1446.76513671875 -1444.1881103515625 -1442.943115234375 -1440.0875244140625 -1438.0423583984375 -1437.07373046875 -1437.093017578125 -1437.6444091796875 -1438.6865234375 -1439.5911865234375 -1440.1043701171875 -1440.3221435546875 -1440.1695556640625 -1439.716796875 -1438.5245361328125 -1436.6436767578125 -1434.1968994140625 -1431.17822265625 -1427.5986328125 -1423.275390625 -1418.2904052734375 -1412.8614501953125 -1406.900390625 -1400.3743896484375 -1393.3131103515625 -1385.8519287109375 -1377.8819580078125 -1369.4422607421875 -1360.6712646484375 -1351.511962890625 -1341.995361328125 -1332.197998046875 -1322.1478271484375 -1311.83837890625 -1301.4393310546875 -1290.9364013671875 -1280.4190673828125 -1269.887451171875 -1259.5264892578125 -1249.26025390625 -1239.169189453125 -1229.1778564453125 -1219.348876953125 -1209.69091796875 -1200.0225830078125 -1190.4000244140625 -1180.714111328125 -1171.150146484375 -1161.543701171875 -1152.1185302734375 -1142.8958740234375 -1134.1357421875 -1125.9403076171875 -1118.239501953125 -1111.1575927734375 -1104.66357421875 -1098.736328125 -1093.0333251953125 -1087.7994384765625 -1082.7318115234375 -1077.6363525390625 -1072.254150390625 -1066.287109375 -1059.7291259765625 -1052.5458984375 -1044.953857421875 -1037.7176513671875 -1031.7642822265625 -1028.2490234375 -1025.93212890625 -1023.73388671875 -1021.07421875 -1020.16363525390625 -1022.4693603515625 -1029.1729736328125 -1036.308349609375 -1042.7899169921875 -1047.6446533203125 -1049.5810546875 -1050.369384765625 -1050.2471923828125 -1049.7220458984375 -1050.276123046875 -1053.5966796875 -1059.0032958984375 -1065.795166015625 -1073.6121826171875 -1081.9039306640625 -1090.0885009765625 -1098.4075927734375 -1106.2855224609375 -99999 -99999 -99999 -99999 -99999
 -99999 -99999 -99999 -99999 -99999 -99999 -99999 -1401.3846435546875 -1404.0303955078125 -1406.9072265625 -1409.708984375 -1412.494140625 -1415.2457275390625 -1417.9306640625 -1420.5224609375 -1423.14306640625 -1425.8509521484375 -1428.775390625 -1432.065185546875 -1436.238525390625 -1441.4617919921875 -1447.2257080078125 -1453.6724853515625 -1459.1470947265625 -1462.5802001953125 -1462.1834716796875 -1458.93896484375 -1456.0594482421875 -1454.19140625 -1452.881103515625 -1450.921630859375 -1447.93701171875 -1445.9190673828125 -1444.80810546875 -1444.0760498046875 -1443.2999267578125 -1442.5269775390625 -1441.8203125 -1440.9844970703125 -1439.5830078125 -1437.7305908203125 -1435.46923828125 -1432.826904296875 -1429.73193359375 -1425.8863525390625 -1421.5255126953125 -1416.696044921875 -1411.431884765625 -1405.6248779296875 -1399.3116455078125 -1392.5833740234375 -1385.3343505859375 -1377.7288818359375 -1369.671142578125 -1361.243896484375 -1352.3480224609375 -1343.141357421875 -1333.558349609375 -1323.681640625 -1313.492431640625 -1303.171142578125 -1292.635009765625 -1282.0516357421875 -1271.450927734375 -1260.9515380859375 -1250.5885009765625 -1240.410400390625 -1230.404541015625 -1220.606201171875 -1211.0780029296875 -1201.5682373046875 -1192.2392578125 -1182.75146484375 -1173.339599609375 -1163.7392578125 -1154.08740234375 -1144.5394287109375 -1135.2032470703125 -1126.4127197265625 -1118.1123046875 -1110.563232421875 -1103.87744140625 -1097.6607666015625 -1092.128662109375 -1087.0474853515625 -1082.5220947265625 -1077.998291015625 -1073.5736083984375 -1069.1492919921875 -1064.3319091796875 -1058.447021484375 -1051.417236328125 -1043.8848876953125 -1036.342529296875 -1030.170654296875 -1027.851806640625 -1027.1356201171875 -1026.178955078125 -1024.4896240234375 -1024.400634765625 -1026.9794921875 -1031.661376953125 -1037.5264892578125 -1043.0960693359375 -1047.1341552734375 -1049.3521728515625 -1050.248291015625 -1050.0670166015625 -1048.529052734375 -1048.783203125 -1052.83349609375 -1059.08203125 -1066.724853515625 -1074.6407470703125 -1082.6605224609375 -1090.6348876953125 -1098.359375 -1105.8177490234375 -99999 -99999 -99999 -99999 -99999
 -99999 -99999 -99999 -99999 -99999 -99999 -99999 -99999 -1412.935302734375 -1415.6427001953125 -1418.3843994140625 -1421.1558837890625 -1423.9197998046875 -1426.67138671875 -1429.44140625 -1432.2396240234375 -1435.1961669921875 -1438.4176025390625 -1442.144775390625 -1446.2388916015625 -1451.0870361328125 -1456.295654296875 -1461.2491455078125 -1465.5457763671875 -1467.8253173828125 -1467.209716796875 -1465.0672607421875 -1462.1328125 -1460.0133056640625 -1458.281005859375 -1456.64306640625 -1454.94384765625 -1453.0789794921875 -1451.2652587890625 -1449.3614501953125 -1447.361572265625 -1445.5496826171875 -1443.3612060546875 -1441.009033203125 -1438.5401611328125 -1435.8558349609375 -1432.795166015625 -1428.96630859375 -1424.9447021484375 -1420.4349365234375 -1415.634765625 -1410.311279296875 -1404.537841796875 -1398.346435546875 -1391.77001953125 -1384.7886962890625 -1377.4453125 -1369.7056884765625 -1361.56591796875 -1353.0240478515625 -1344.1436767578125 -1334.845947265625 -1325.185546875 -1315.20947265625 -1304.9625244140625 -1294.4713134765625 -1283.8411865234375 -1273.1737060546875 -1262.4566650390625 -1251.9415283203125 -1241.5836181640625 -1231.463623046875 -1221.5614013671875 -1212.0775146484375 -1202.8173828125 -1193.78369140625 -1184.668701171875 -1175.519287109375 -1166.270263671875 -1156.7149658203125 -1147.0765380859375 -1137.245361328125 -1127.81640625 -1118.7667236328125 -1110.4517822265625 -1103.148681640625 -1096.572509765625 -1090.820556640625 -1085.8680419921875 -1081.326904296875 -1077.2108154296875 -1073.572998046875 -1070.0743408203125 -1066.599365234375 -1062.60693359375 -1057.8123779296875 -1051.0819091796875 -1043.642578125 -1036.425537109375 -1030.650634765625 -1028.0494384765625 -1027.5416259765625 -1026.8939208984375 -1026.6998291015625 -1027.343017578125 -1029.7760009765625 -1033.76611328125 -1038.348388671875 -1042.504150390625 -1045.8558349609375 -1048.0023193359375 -1048.5294189453125 -1048.052978515625 -1045.3804931640625 -1046.70458984375 -1053.0943603515625 -1060.6024169921875 -1068.4532470703125 -1076.4796142578125 -1084.3662109375 -1091.6942138671875 -1099.1492919921875 -99999 -99999 -99999 -99999 -99999 -99999
 -99999 -99999 -99999 -99999 -99999 -99999 -99999 -99999 -1421.3726806640625 -1424.0538330078125 -1426.764404296875 -1429.4989013671875 -1432.25830078125 -1435.0540771484375 -1437.8817138671875 -1440.80517578125 -1443.94384765625 -1447.1968994140625 -1450.865478515625 -1454.9423828125 -1459.1993408203125 -1463.5987548828125 -1467.6483154296875 -1470.5152587890625 -1471.9190673828125 -1471.458984375 -1469.6163330078125 -1467.06689453125 -1464.6904296875 -1462.9605712890625 -1461.648681640625 -1460.3126220703125 -1458.715087890625 -1456.3555908203125 -1453.515380859375 -1450.6292724609375 -1447.3642578125 -1444.219970703125 -1441.0072021484375 -1437.5771484375 -1433.666015625 -1429.477783203125 -1425.137451171875 -1420.365966796875 -1415.1826171875 -1409.55419921875 -1403.7069091796875 -1397.55517578125 -1391.00537109375 -1384.189453125 -1377.031982421875 -1369.5836181640625 -1361.713623046875 -1353.522705078125 -1344.9705810546875 -1336.0042724609375 -1326.638916015625 -1316.9610595703125 -1306.86181640625 -1296.4954833984375 -1285.8785400390625 -1275.142578125 -1264.2640380859375 -1253.4840087890625 -1242.844970703125 -1232.4178466796875 -1222.412353515625 -1212.7860107421875 -1203.5609130859375 -1194.6669921875 -1185.8994140625 -1177.240234375 -1168.6263427734375 -1159.6348876953125 -1150.2845458984375 -1140.3822021484375 -1130.460205078125 -1120.4716796875 -1111.26171875 -1102.964111328125 -1095.6767578125 -1089.3663330078125 -1084.3599853515625 -1079.8035888671875 -1075.874755859375 -1072.354248046875 -1069.150146484375 -1066.25830078125 -1063.59521484375 -1061.1478271484375 -1057.0755615234375 -1050.904541015625 -1043.9537353515625 -1037.4884033203125 -1032.3150634765625 -1029.5135498046875 -1028.299072265625 -1028.060546875 -1028.31591796875 -1029.4091796875 -1031.67138671875 -1034.7398681640625 -1038.4056396484375 -1041.911376953125 -1044.715087890625 -1046.51953125 -1047.0499267578125 -1046.0975341796875 -1045.44580078125 -1048.33837890625 -1055.51953125 -1063.38671875 -1071.4674072265625 -1079.251953125 -1086.5838623046875 -1093.556396484375 -1100.1998291015625 -99999 -99999 -99999 -99999 -99999 -99999
 -99999 -99999 -99999 -99999 -99999 -99999 -99999 -99999 -1429.4615478515625 -1432.0806884765625 -1434.747802734375 -1437.4599609375 -1440.1973876953125 -1442.985595703125 -1445.86328125 -1448.7362060546875 -1451.845703125 -1455.1690673828125 -1458.655029296875 -1462.3253173828125 -1466.027099609375 -1469.5943603515625 -1472.593017578125 -1474.7183837890625 -1475.7078857421875 -1475.249267578125 -1473.6170654296875 -1471.2410888671875 -1468.7823486328125 -1466.8001708984375 -1465.6864013671875 -1464.980224609375 -1463.299560546875 -1460.611572265625 -1457.0286865234375 -1452.7855224609375 -1448.5594482421875 -1444.5662841796875 -1440.2230224609375 -1435.86474609375 -1431.235107421875 -1426.376953125 -1421.0572509765625 -1415.373291015625 -1409.55078125 -1403.4339599609375 -1397.0782470703125 -1390.4517822265625 -1383.6658935546875 -1376.586669921875 -1369.2493896484375 -1361.6417236328125 -1353.7998046875 -1345.5252685546875 -1336.9549560546875 -1327.9630126953125 -1318.6573486328125 -1308.823486328125 -1298.696044921875 -1288.1826171875 -1277.3597412109375 -1266.4365234375 -1255.373046875 -1244.45263671875 -1233.6917724609375 -1223.2327880859375 -1213.340576171875 -1203.8076171875 -1194.828369140625 -1186.439453125 -1178.1314697265625 -1170.2823486328125 -1162.2623291015625 -1153.625244140625 -1144.3687744140625 -1134.513671875 -1124.1119384765625 -1113.735107421875 -1103.9278564453125 -1095.2711181640625 -1088.4239501953125 -1082.8453369140625 -1078.2750244140625 -1074.2664794921875 -1070.6580810546875 -1067.5565185546875 -1064.900390625 -1062.5166015625 -1060.311279296875 -1058.057373046875 -1054.8853759765625 -1049.821044921875 -1043.6414794921875 -1038.1363525390625 -1033.7919921875 -1031.0147705078125 -1029.5965576171875 -1029.14111328125 -1029.55712890625 -1030.8033447265625 -1032.8621826171875 -1035.5445556640625 -1038.5677490234375 -1041.404541015625 -1043.813720703125 -1045.506591796875 -1046.4635009765625 -1046.9932861328125 -1048.4600830078125 -1052.8404541015625 -1059.64111328125 -1067.4681396484375 -1075.30712890625 -1082.75244140625 -1089.557373046875 -1095.739501953125 -99999 -99999 -99999 -99999 -99999 -99999 -99999
 -99999 -99999 -99999 -99999 -99999 -99999 -99999 -99999 -99999 -1439.7352294921875 -1442.34423828125 -1445.0008544921875 -1447.640380859375 -1450.40869140625 -1453.20361328125 -1456.1124267578125 -1459.1015625 -1462.2066650390625 -1465.39990234375 -1468.6461181640625 -1471.7869873046875 -1474.6495361328125 -1477.0721435546875 -1478.6322021484375 -1479.1019287109375 -1478.5469970703125 -1477.098876953125 -1474.9708251953125 -1472.421630859375 -1470.1016845703125 -1469.1923828125 -1468.728759765625 -1467.5653076171875 -1463.9537353515625 -1459.009033203125 -1453.91748046875 -1448.9088134765625 -1443.976318359375 -1439.0433349609375 -1433.927001953125 -1428.358154296875 -1422.65478515625 -1416.595947265625 -1410.3404541015625 -1403.7720947265625 -1397.0823974609375 -1390.2529296875 -1383.2447509765625 -1376.1197509765625 -1368.831298828125 -1361.3875732421875 -1353.7130126953125 -1345.810302734375 -1337.6270751953125 -1329.1153564453125 -1320.146728515625 -1310.7569580078125 -1300.9595947265625 -1290.6505126953125 -1279.9544677734375 -1269.0579833984375 -1257.84521484375 -1246.606201171875 -1235.41845703125 -1224.3834228515625 -1213.9498291015625 -1203.8768310546875 -1194.6409912109375 -1185.988037109375 -1178.066650390625 -1170.69970703125 -1163.514404296875 -1156.0843505859375 -1148.3270263671875 -1139.6759033203125 -1129.511962890625 -1118.53173828125 -1107.2904052734375 -1096.9659423828125 -1088.190185546875 -1081.8155517578125 -1076.739990234375 -1072.5850830078125 -1069.0123291015625 -1065.87939453125 -1063.2232666015625 -1060.873779296875 -1058.76708984375 -1056.8463134765625 -1054.70703125 -1051.668212890625 -1047.667724609375 -1042.882080078125 -1038.410888671875 -1034.6688232421875 -1031.9837646484375 -1030.585205078125 -1030.2576904296875 -1030.698486328125 -1031.843017578125 -1033.635498046875 -1035.974853515625 -1038.599365234375 -1041.1805419921875 -1043.5345458984375 -1045.5408935546875 -1047.0677490234375 -1049.235107421875 -1052.364990234375 -1057.48046875 -1064.2181396484375 -1071.833251953125 -1079.6409912109375 -1086.3692626953125 -1092.2593994140625 -1097.9864501953125 -99999 -99999 -99999 -99999 -99999 -99999 -99999
 -99999 -99999 -99999 -99999 -99999 -99999 -99999 -99999 -99999 -1446.9530029296875 -1449.4854736328125 -1452.0860595703125 -1454.6923828125 -1457.3370361328125 -1460.0247802734375 -1462.76220703125 -1465.5655517578125 -1468.406005859375 -1471.2509765625 -1473.9913330078125 -1476.7125244140625 -1479.016357421875 -1480.776123046875 -1481.8885498046875 -1482.2618408203125 -1481.839111328125 -1480.45947265625 -1478.45751953125 -1476.09814453125 -1473.8494873046875 -1472.379150390625 -1472.1666259765625 -1470.624267578125 -1466.1365966796875 -1459.57470703125 -1453.5755615234375 -1448.2437744140625 -1442.656982421875 -1437.1707763671875 -1431.2752685546875 -1425.1832275390625 -1418.6754150390625 -1411.8765869140625 -1404.8380126953125 -1397.6529541015625 -1390.429931640625 -1383.1314697265625 -1375.779541015625 -1368.391357421875 -1360.932373046875 -1353.3966064453125 -1345.7694091796875 -1337.9259033203125 -1329.7711181640625 -1321.2542724609375 -1312.4117431640625 -1303.02880859375 -1293.1971435546875 -1282.8460693359375 -1272.1031494140625 -1260.878662109375 -1249.43896484375 -1237.8614501953125 -1226.3299560546875 -1215.082763671875 -1204.38330078125 -1194.4674072265625 -1185.1866455078125 -1176.9388427734375 -1169.7674560546875 -1163.0712890625 -1156.8380126953125 -1150.624755859375 -1143.62890625 -1135.6593017578125 -1125.582275390625 -1113.95458984375 -1101.8873291015625 -1090.22705078125 -1081.6531982421875 -1075.2965087890625 -1071.1103515625 -1067.6318359375 -1064.5108642578125 -1061.6295166015625 -1059.1014404296875 -1057.015869140625 -1055.15380859375 -1053.2725830078125 -1051.1431884765625 -1048.59423828125 -1045.2503662109375 -1041.53076171875 -1037.8585205078125 -1034.890380859375 -1032.76953125 -1031.50048828125 -1031.060302734375 -1031.4041748046875 -1032.59619140625 -1034.3037109375 -1036.4107666015625 -1038.7911376953125 -1041.2982177734375 -1043.7607421875 -1046.2283935546875 -1048.74609375 -1051.8944091796875 -1056.0452880859375 -1061.4144287109375 -1068.0709228515625 -1075.6572265625 -1082.8768310546875 -1089.2113037109375 -1094.6815185546875 -1099.789794921875 -99999 -99999 -99999 -99999 -99999 -99999 -99999
 -99999 -99999 -99999 -99999 -99999 -99999 -99999 -99999 -99999 -1453.782470703125 -1456.224365234375 -1458.6842041015625 -1461.1588134765625 -1463.658203125 -1466.192626953125 -1468.726806640625 -1471.2542724609375 -1473.73095703125 -1476.2916259765625 -1478.659423828125 -1480.79150390625 -1482.618896484375 -1484.0521240234375 -1484.9639892578125 -1485.08203125 -1484.583984375 -1483.516357421875 -1481.932373046875 -1479.8021240234375 -1477.45556640625 -1475.705078125 -1473.78515625 -1471.0723876953125 -1464.8553466796875 -1458.1922607421875 -1451.890625 -1446.10205078125 -1440.4791259765625 -1434.6104736328125 -1428.32373046875 -1421.4674072265625 -1414.1781005859375 -1406.645263671875 -1398.893310546875 -1391.095703125 -1383.342041015625 -1375.5987548828125 -1367.9666748046875 -1360.34228515625 -1352.8297119140625 -1345.29931640625 -1337.673583984375 -1329.934814453125 -1321.94580078125 -1313.6602783203125 -1304.899169921875 -1295.68896484375 -1285.8453369140625 -1275.4349365234375 -1264.5 -1252.9881591796875 -1241.2279052734375 -1229.227783203125 -1217.3580322265625 -1205.759033203125 -1194.7408447265625 -1184.4779052734375 -1175.44873046875 -1167.653076171875 -1160.9022216796875 -1155.1103515625 -1150.1422119140625 -1145.213134765625 -1139.873291015625 -1132.742431640625 -1123.187255859375 -1111.1507568359375 -1097.4869384765625 -1084.0098876953125 -1074.308349609375 -1069.631103515625 -1066.086181640625 -1062.9744873046875 -1060.085205078125 -1057.490966796875 -1055.29052734375 -1053.3333740234375 -1051.5379638671875 -1049.79248046875 -1047.911865234375 -1045.6134033203125 -1042.7108154296875 -1039.7843017578125 -1037.0269775390625 -1034.6458740234375 -1032.8203125 -1031.783935546875 -1031.61083984375 -1032.0755615234375 -1033.1217041015625 -1034.6842041015625 -1036.750244140625 -1039.10595703125 -1041.6397705078125 -1044.288818359375 -1047.0869140625 -1050.3741455078125 -1054.078857421875 -1058.6417236328125 -1064.5567626953125 -1071.1065673828125 -1078.0694580078125 -1084.9556884765625 -1090.7166748046875 -1096.1551513671875 -99999 -99999 -99999 -99999 -99999 -99999 -99999 -99999
 -99999 -99999 -99999 -99999 -99999 -99999 -99999 -99999 -1457.8341064453125 -1460.1513671875 -1462.46044921875 -1464.81787109375 -1467.1529541015625 -1469.4599609375 -1471.74658203125 -1473.9776611328125 -1476.330322265625 -1478.5107421875 -1480.58544921875 -1482.518310546875 -1484.272216796875 -1485.768310546875 -1486.7509765625 -1487.3074951171875 -1487.4171142578125 -1487.039306640625 -1486.11962890625 -1484.8048095703125 -1483.16015625 -1481.15966796875 -1478.5794677734375 -1475.4671630859375 -1470.228515625 -1463.5574951171875 -1456.235107421875 -1449.5018310546875 -1443.4749755859375 -1437.75244140625 -1431.73388671875 -1424.859375 -1417.142578125 -1409.1400146484375 -1400.76123046875 -1392.3138427734375 -1383.9703369140625 -1375.7520751953125 -1367.6929931640625 -1359.69482421875 -1352.0279541015625 -1344.4517822265625 -1336.9498291015625 -1329.4964599609375 -1321.934814453125 -1314.1395263671875 -1306.1802978515625 -1297.5697021484375 -1288.518798828125 -1278.73681640625 -1268.30712890625 -1257.09228515625 -1245.447998046875 -1233.302978515625 -1220.9072265625 -1208.453857421875 -1196.2789306640625 -1184.9132080078125 -1174.3087158203125 -1165.3251953125 -1157.8326416015625 -1151.8148193359375 -1146.93701171875 -1142.9407958984375 -1139.4351806640625 -1135.861328125 -1130.7532958984375 -1121.745361328125 -1109.6024169921875 -1094.9017333984375 -1080.1268310546875 -1069.4334716796875 -1064.8941650390625 -1061.5501708984375 -1058.6109619140625 -1055.9981689453125 -1053.6591796875 -1051.5806884765625 -1049.72705078125 -1048.146240234375 -1046.432861328125 -1044.4754638671875 -1042.442138671875 -1040.262451171875 -1038.013671875 -1035.7852783203125 -1033.911376953125 -1032.65771484375 -1031.9541015625 -1031.8284912109375 -1032.33349609375 -1033.4622802734375 -1035.086669921875 -1037.0936279296875 -1039.4310302734375 -1042.0479736328125 -1044.935302734375 -1048.1060791015625 -1051.67724609375 -1055.9388427734375 -1060.8946533203125 -1066.5498046875 -1072.9034423828125 -1079.5579833984375 -1085.821044921875 -1091.5498046875 -1096.632080078125 -99999 -99999 -99999 -99999 -99999 -99999 -99999 -99999
 -99999 -99999 -99999 -99999 -99999 -99999 -99999 -99999 -1463.8939208984375 -1466.1226806640625 -1468.3138427734375 -1470.469970703125 -1472.58544921875 -1474.6778564453125 -1476.815673828125 -1478.8011474609375 -1480.7120361328125 -1482.5306396484375 -1484.2958984375 -1485.88330078125 -1487.151123046875 -1488.1527099609375 -1488.8570556640625 -1489.2174072265625 -1489.142333984375 -1488.655517578125 -1487.8743896484375 -1486.8134765625 -1485.446533203125 -1483.68994140625 -1480.5599365234375 -1475.568115234375 -1469.494873046875 -1462.22412109375 -1454.46826171875 -1447.1055908203125 -1440.6124267578125 -1434.6031494140625 -1428.335205078125 -1420.732421875 -1412.4736328125 -1403.457763671875 -1394.27099609375 -1385.2960205078125 -1376.37158203125 -1367.6661376953125 -1359.2431640625 -1351.1641845703125 -1343.31494140625 -1335.73486328125 -1328.32080078125 -1321.0540771484375 -1313.748779296875 -1306.4066162109375 -1298.7177734375 -1290.571533203125 -1281.7552490234375 -1272.104736328125 -1261.5323486328125 -1250.3028564453125 -1238.40576171875 -1225.8111572265625 -1212.947265625 -1199.942626953125 -1187.129150390625 -1175.183837890625 -1164.3533935546875 -1155.0743408203125 -1147.818115234375 -1142.1561279296875 -1137.94873046875 -1134.831298828125 -1132.996337890625 -1131.3948974609375 -1128.6168212890625 -1120.69287109375 -1108.60791015625 -1093.7138671875 -1079.4398193359375 -1068.4168701171875 -1062.5133056640625 -1058.262451171875 -1055.019287109375 -1052.3646240234375 -1050.069091796875 -1048.154296875 -1046.34765625 -1044.5843505859375 -1042.9708251953125 -1041.354248046875 -1039.6654052734375 -1037.8214111328125 -1036.01611328125 -1034.43408203125 -1033.1170654296875 -1032.158447265625 -1031.6885986328125 -1031.833984375 -1032.51806640625 -1033.6688232421875 -1035.29150390625 -1037.3277587890625 -1039.7532958984375 -1042.5009765625 -1045.4921875 -1048.9788818359375 -1052.8612060546875 -1057.2283935546875 -1062.2513427734375 -1067.9022216796875 -1073.9178466796875 -1080.0118408203125 -1085.986083984375 -1091.517578125 -99999 -99999 -99999 -99999 -99999 -99999 -99999 -99999 -99999
 -99999 -99999 -99999 -99999 -99999 -99999 -99999 -1467.49072265625 -1469.58447265625 -1471.642822265625 -1473.6558837890625 -1475.680908203125 -1477.6370849609375 -1479.48291015625 -1481.2523193359375 -1482.97216796875 -1484.621826171875 -1486.1231689453125 -1487.3990478515625 -1488.4906005859375 -1489.416259765625 -1490.097412109375 -1490.4202880859375 -1490.3740234375 -1490.0361328125 -1489.4227294921875 -1488.540283203125 -1487.3546142578125 -1485.789794921875 -1483.576416015625 -1480.0107421875 -1474.4578857421875 -1467.5191650390625 -1459.8345947265625 -1452.0155029296875 -1444.3751220703125 -1437.386474609375 -1431.287841796875 -1424.8262939453125 -1416.3541259765625 -1406.73779296875 -1396.8642578125 -1386.9837646484375 -1377.3311767578125 -1368.011962890625 -1358.9757080078125 -1350.3203125 -1342.0780029296875 -1334.1953125 -1326.6339111328125 -1319.375732421875 -1312.385498046875 -1305.557373046875 -1298.74267578125 -1291.4437255859375 -1283.6934814453125 -1275.19287109375 -1265.6939697265625 -1255.294677734375 -1243.8736572265625 -1231.5987548828125 -1218.802734375 -1205.3262939453125 -1191.6322021484375 -1178.3380126953125 -1165.373779296875 -1154.0010986328125 -1144.6097412109375 -1137.5181884765625 -1132.5880126953125 -1129.1363525390625 -1126.669677734375 -1124.7244873046875 -1124.994140625 -1123.7032470703125 -1116.533935546875 -1105.0889892578125 -1091.712646484375 -1078.8570556640625 -1068.4212646484375 -1060.8818359375 -1055.978759765625 -1052.230224609375 -1049.27587890625 -1046.9468994140625 -1044.7471923828125 -1042.9390869140625 -1041.3353271484375 -1039.8353271484375 -1038.3546142578125 -1036.9013671875 -1035.511474609375 -1034.189697265625 -1032.9556884765625 -1031.9752197265625 -1031.4453125 -1031.33740234375 -1031.6541748046875 -1032.4476318359375 -1033.686767578125 -1035.4173583984375 -1037.524169921875 -1040.001220703125 -1042.829833984375 -1045.930908203125 -1049.5948486328125 -1053.59033203125 -1058.0948486328125 -1063.0797119140625 -1068.4537353515625 -1074.1903076171875 -1080.001708984375 -1085.54345703125 -1090.78515625 -99999 -99999 -99999 -99999 -99999 -99999 -99999 -99999 -99999
 -99999 -99999 -99999 -99999 -99999 -99999 -99999 -1472.86669921875 -1474.835205078125 -1476.7850341796875 -1478.6585693359375 -1480.4268798828125 -1482.12744140625 -1483.76953125 -1485.3216552734375 -1486.7239990234375 -1487.9395751953125 -1489.03076171875 -1489.9810791015625 -1490.7431640625 -1491.2120361328125 -1491.323974609375 -1491.2327880859375 -1490.8753662109375 -1490.235107421875 -1489.2176513671875 -1487.877197265625 -1486.2529296875 -1484.1884765625 -1481.3963623046875 -1476.9730224609375 -1471.1181640625 -1463.897216796875 -1456.2371826171875 -1448.2952880859375 -1440.595947265625 -1433.479736328125 -1427.0218505859375 -1419.885009765625 -1410.1597900390625 -1399.4273681640625 -1388.9884033203125 -1378.7811279296875 -1368.755126953125 -1359.0421142578125 -1349.8026123046875 -1340.943359375 -1332.537109375 -1324.6138916015625 -1317.07177734375 -1310.0762939453125 -1303.548828125 -1297.1455078125 -1290.7496337890625 -1284.2457275390625 -1277.2174072265625 -1269.072509765625 -1259.888427734375 -1249.4901123046875 -1237.8798828125 -1225.4898681640625 -1212.1478271484375 -1198.3896484375 -1184.4119873046875 -1170.260986328125 -1156.6024169921875 -1144.139892578125 -1133.9603271484375 -1127.599853515625 -1123.48388671875 -1120.557861328125 -1118.16845703125 -1116.2786865234375 -1116.315673828125 -1114.8531494140625 -1109.2889404296875 -1099.2957763671875 -1088.1436767578125 -1076.87353515625 -1067.0650634765625 -1059.4603271484375 -1053.862060546875 -1049.7069091796875 -1046.392822265625 -1043.7967529296875 -1041.6221923828125 -1039.821044921875 -1038.2364501953125 -1036.8402099609375 -1035.5792236328125 -1034.3748779296875 -1033.232177734375 -1032.1912841796875 -1031.41650390625 -1030.8873291015625 -1030.631591796875 -1030.7376708984375 -1031.2388916015625 -1032.23681640625 -1033.61962890625 -1035.4190673828125 -1037.584228515625 -1040.11328125 -1043.0384521484375 -1046.29736328125 -1049.9613037109375 -1054.0140380859375 -1058.495849609375 -1063.3800048828125 -1068.5771484375 -1073.9588623046875 -1079.3406982421875 -1084.6387939453125 -99999 -99999 -99999 -99999 -99999 -99999 -99999 -99999 -99999 -99999
 -99999 -99999 -99999 -99999 -99999 -99999 -99999 -1477.9036865234375 -1479.7431640625 -1481.4893798828125 -1483.1790771484375 -1484.78369140625 -1486.2939453125 -1487.6456298828125 -1488.8394775390625 -1489.95263671875 -1490.8685302734375 -1491.6103515625 -1492.102783203125 -1492.3868408203125 -1492.3824462890625 -1492.09326171875 -1491.590576171875 -1490.6629638671875 -1489.45703125 -1487.980712890625 -1486.1822509765625 -1484.0146484375 -1481.0296630859375 -1477.2484130859375 -1472.34619140625 -1466.1129150390625 -1458.97900390625 -1451.273193359375 -1443.0928955078125 -1435.20654296875 -1427.58984375 -1420.0802001953125 -1411.8658447265625 -1401.6287841796875 -1390.828125 -1380.16845703125 -1369.64306640625 -1359.28857421875 -1349.5128173828125 -1340.02783203125 -1331.0997314453125 -1322.6256103515625 -1314.625 -1307.2581787109375 -1300.4554443359375 -1294.0787353515625 -1288.369384765625 -1282.914306640625 -1276.9937744140625 -1270.6859130859375 -1263.1859130859375 -1254.336181640625 -1244.05517578125 -1232.4547119140625 -1219.6717529296875 -1206.1375732421875 -1192.0701904296875 -1177.7437744140625 -1163.2078857421875 -1148.6192626953125 -1134.874267578125 -1123.78271484375 -1118.5084228515625 -1114.7208251953125 -1111.9385986328125 -1109.7708740234375 -1108.153076171875 -1106.899169921875 -1104.647705078125 -1099.6300048828125 -1092.0654296875 -1082.5670166015625 -1073.1343994140625 -1064.412841796875 -1057.248779296875 -1051.62841796875 -1047.114013671875 -1043.6326904296875 -1040.8729248046875 -1038.6243896484375 -1036.8133544921875 -1035.3201904296875 -1034.0308837890625 -1032.8896484375 -1031.87353515625 -1031.0670166015625 -1030.3876953125 -1029.8822021484375 -1029.60595703125 -1029.6207275390625 -1030.034423828125 -1030.7891845703125 -1031.906982421875 -1033.387451171875 -1035.2515869140625 -1037.510009765625 -1040.1448974609375 -1043.111328125 -1046.39501953125 -1050.09765625 -1054.1463623046875 -1058.5252685546875 -1063.224609375 -1068.206298828125 -1073.3267822265625 -1078.4632568359375 -1083.4814453125 -99999 -99999 -99999 -99999 -99999 -99999 -99999 -99999 -99999 -99999
 -99999 -99999 -99999 -99999 -99999 -99999 -1480.768310546875 -1482.5400390625 -1484.2408447265625 -1485.8577880859375 -1487.3807373046875 -1488.7421875 -1490.015380859375 -1491.146240234375 -1492.048095703125 -1492.7823486328125 -1493.3284912109375 -1493.693115234375 -1493.7532958984375 -1493.52099609375 -1493.0438232421875 -1492.273681640625 -1491.1839599609375 -1489.7977294921875 -1488.090087890625 -1486.0272216796875 -1483.4205322265625 -1480.37451171875 -1476.642333984375 -1472.2706298828125 -1466.7626953125 -1460.058837890625 -1452.7508544921875 -1444.712158203125 -1436.45068359375 -1428.2113037109375 -1419.90771484375 -1411.5086669921875 -1402.3782958984375 -1391.9913330078125 -1381.1781005859375 -1370.4981689453125 -1359.9056396484375 -1349.56787109375 -1339.5838623046875 -1330.052001953125 -1320.9244384765625 -1312.29638671875 -1304.3829345703125 -1296.8656005859375 -1290.2138671875 -1284.4072265625 -1279.187744140625 -1274.353759765625 -1269.78369140625 -1264.3492431640625 -1257.809814453125 -1249.403564453125 -1238.9622802734375 -1227.17626953125 -1214.0860595703125 -1200.371337890625 -1186.208740234375 -1171.7978515625 -1157.31640625 -1142.6356201171875 -1127.6614990234375 -1115.9306640625 -1110.0950927734375 -1106.3311767578125 -1103.612548828125 -1101.418701171875 -1099.5501708984375 -1097.7103271484375 -1094.8760986328125 -1090.43798828125 -1083.80712890625 -1076.237548828125 -1068.160400390625 -1060.637451171875 -1053.9976806640625 -1048.6414794921875 -1044.2242431640625 -1040.652587890625 -1037.904541015625 -1035.7330322265625 -1033.9520263671875 -1032.488037109375 -1031.2877197265625 -1030.3516845703125 -1029.5780029296875 -1028.9639892578125 -1028.5189208984375 -1028.290283203125 -1028.341796875 -1028.646728515625 -1029.239501953125 -1030.1390380859375 -1031.3990478515625 -1033.0494384765625 -1035.0360107421875 -1037.347412109375 -1039.979248046875 -1042.9637451171875 -1046.281982421875 -1049.9599609375 -1053.9541015625 -1058.261962890625 -1062.8204345703125 -1067.55615234375 -1072.4072265625 -1077.2554931640625 -1082.0225830078125 -99999 -99999 -99999 -99999 -99999 -99999 -99999 -99999 -99999 -99999
 -99999 -99999 -99999 -99999 -99999 -99999 -1485.18505859375 -1486.8472900390625 -1488.422607421875 -1489.8570556640625 -1491.188232421875 -1492.3782958984375 -1493.3848876953125 -1494.183349609375 -1494.817626953125 -1495.25146484375 -1495.4215087890625 -1495.312744140625 -1494.944091796875 -1494.3018798828125 -1493.3719482421875 -1492.0223388671875 -1490.414794921875 -1488.4378662109375 -1486.0162353515625 -1483.1973876953125 -1479.9351806640625 -1476.1629638671875 -1471.6485595703125 -1466.32177734375 -1460.1031494140625 -1453.18310546875 -1445.421142578125 -1437.0828857421875 -1428.5509033203125 -1419.7681884765625 -1410.859130859375 -1401.7799072265625 -1392.1226806640625 -1381.789306640625 -1371.18603515625 -1360.5145263671875 -1349.9541015625 -1339.5322265625 -1329.4598388671875 -1319.842529296875 -1310.683837890625 -1301.958984375 -1293.79345703125 -1286.310546875 -1279.619384765625 -1273.792724609375 -1269.07470703125 -1265.491455078125 -1262.3736572265625 -1258.4183349609375 -1252.3585205078125 -1244.3253173828125 -1234.1597900390625 -1221.9832763671875 -1208.6314697265625 -1194.663818359375 -1180.4168701171875 -1166.238037109375 -1151.8870849609375 -1137.3480224609375 -1122.785400390625 -1110.836181640625 -1104.0269775390625 -1099.1702880859375 -1095.751220703125 -1093.06103515625 -1090.8829345703125 -1088.3365478515625 -1085.0672607421875 -1080.6322021484375 -1075.16259765625 -1068.898193359375 -1062.218505859375 -1055.79736328125 -1050.01318359375 -1044.9736328125 -1040.96044921875 -1037.64306640625 -1034.936279296875 -1032.7545166015625 -1031.0391845703125 -1029.7451171875 -1028.7113037109375 -1027.904541015625 -1027.2999267578125 -1026.91064453125 -1026.744384765625 -1026.780517578125 -1027.0355224609375 -1027.5274658203125 -1028.3309326171875 -1029.4581298828125 -1030.878662109375 -1032.5975341796875 -1034.617431640625 -1037.0108642578125 -1039.7327880859375 -1042.7467041015625 -1046.05224609375 -1049.697998046875 -1053.5771484375 -1057.7158203125 -1062.0892333984375 -1066.6409912109375 -1071.263671875 -1075.8905029296875 -99999 -99999 -99999 -99999 -99999 -99999 -99999 -99999 -99999 -99999 -99999
 -99999 -99999 -99999 -99999 -99999 -1487.625732421875 -1489.27587890625 -1490.8236083984375 -1492.278076171875 -1493.53955078125 -1494.6551513671875 -1495.597412109375 -1496.3734130859375 -1496.9583740234375 -1497.2847900390625 -1497.3323974609375 -1497.1219482421875 -1496.638671875 -1495.885009765625 -1494.7281494140625 -1493.2486572265625 -1491.4169921875 -1489.154541015625 -1486.503662109375 -1483.4493408203125 -1479.971435546875 -1475.9693603515625 -1471.28857421875 -1465.9215087890625 -1459.905517578125 -1453.180908203125 -1445.6387939453125 -1437.327392578125 -1428.659912109375 -1419.619873046875 -1410.4161376953125 -1401.0257568359375 -1391.3739013671875 -1381.483642578125 -1371.2940673828125 -1360.8720703125 -1350.4117431640625 -1339.93115234375 -1329.450439453125 -1319.435302734375 -1309.894775390625 -1300.7020263671875 -1291.7750244140625 -1283.27197265625 -1275.24365234375 -1268.142578125 -1262.6173095703125 -1258.19287109375 -1255.765869140625 -1254.26904296875 -1251.9884033203125 -1247.61181640625 -1239.822021484375 -1229.0185546875 -1216.4947509765625 -1202.6673583984375 -1188.4832763671875 -1174.357177734375 -1159.9954833984375 -1145.520263671875 -1131.2265625 -1117.8935546875 -1106.74658203125 -1098.1376953125 -1092.310302734375 -1088.1900634765625 -1084.60595703125 -1081.7578125 -1078.7691650390625 -1075.3802490234375 -1071.4241943359375 -1066.6934814453125 -1061.261474609375 -1055.7374267578125 -1050.37109375 -1045.3134765625 -1041.0089111328125 -1037.278564453125 -1034.152099609375 -1031.6715087890625 -1029.749267578125 -1028.2186279296875 -1027.021484375 -1026.1195068359375 -1025.537109375 -1025.15087890625 -1024.9739990234375 -1024.9873046875 -1025.208984375 -1025.69580078125 -1026.435302734375 -1027.41943359375 -1028.656005859375 -1030.1636962890625 -1032.0252685546875 -1034.1722412109375 -1036.593505859375 -1039.286865234375 -1042.2769775390625 -1045.5650634765625 -1049.1180419921875 -1052.9510498046875 -1056.991943359375 -1061.19775390625 -1065.5313720703125 -1069.9593505859375 -1074.3922119140625 -99999 -99999 -99999 -99999 -99999 -99999 -99999 -99999 -99999 -99999 -99999
 -99999 -99999 -99999 -99999 -99999 -1491.5029296875 -1493.071533203125 -1494.447998046875 -1495.704833984375 -1496.8321533203125 -1497.7947998046875 -1498.5870361328125 -1499.1119384765625 -1499.382568359375 -1499.400390625 -1499.1497802734375 -1498.64794921875 -1497.707763671875 -1496.427978515625 -1494.801025390625 -1492.83056640625 -1490.392333984375 -1487.5704345703125 -1484.39013671875 -1480.6444091796875 -1476.3289794921875 -1471.4925537109375 -1466.0015869140625 -1460.11376953125 -1453.2222900390625 -1445.7764892578125 -1437.60205078125 -1428.757568359375 -1419.52392578125 -1410.025146484375 -1400.28759765625 -1390.4517822265625 -1380.605712890625 -1370.6099853515625 -1360.5540771484375 -1350.4730224609375 -1340.333984375 -1330.2139892578125 -1320.092529296875 -1310.3916015625 -1300.8551025390625 -1291.299560546875 -1281.95947265625 -1273.0321044921875 -1264.3756103515625 -1256.860595703125 -1250.61865234375 -1246.30322265625 -1244.2850341796875 -1245.335205078125 -1245.7386474609375 -1241.911376953125 -1233.80078125 -1223.1378173828125 -1209.919189453125 -1195.7801513671875 -1181.475341796875 -1167.1390380859375 -1152.7349853515625 -1138.31201171875 -1124.6036376953125 -1111.5975341796875 -1100.573974609375 -1092.098388671875 -1085.330322265625 -1080.36962890625 -1076.3115234375 -1072.78466796875 -1069.51806640625 -1066.1043701171875 -1062.255126953125 -1058.0582275390625 -1053.5968017578125 -1048.9393310546875 -1044.4306640625 -1040.2318115234375 -1036.3975830078125 -1033.1708984375 -1030.540283203125 -1028.365234375 -1026.6187744140625 -1025.261962890625 -1024.2908935546875 -1023.62738037109375 -1023.2210693359375 -1023.014892578125 -1023.0096435546875 -1023.26629638671875 -1023.7366943359375 -1024.4095458984375 -1025.2872314453125 -1026.40087890625 -1027.8192138671875 -1029.484619140625 -1031.395751953125 -1033.5626220703125 -1036.0225830078125 -1038.7752685546875 -1041.7677001953125 -1044.981201171875 -1048.45751953125 -1052.18701171875 -1056.05810546875 -1060.1376953125 -1064.3145751953125 -1068.5333251953125 -99999 -99999 -99999 -99999 -99999 -99999 -99999 -99999 -99999 -99999 -99999 -99999
 -99999 -99999 -99999 -99999 -1493.51123046875 -1495.0203857421875 -1496.426025390625 -1497.7318115234375 -1498.899658203125 -1499.912109375 -1500.6795654296875 -1501.2242431640625 -1501.5316162109375 -1501.591064453125 -1501.3763427734375 -1500.7476806640625 -1499.78759765625 -1498.4798583984375 -1496.8448486328125 -1494.8023681640625 -1492.25 -1489.3360595703125 -1485.88330078125 -1481.915771484375 -1477.458984375 -1472.5355224609375 -1466.9522705078125 -1460.7620849609375 -1453.923828125 -1446.417236328125 -1438.1748046875 -1429.2470703125 -1419.835205078125 -1410.15087890625 -1400.0086669921875 -1389.793212890625 -1379.625732421875 -1369.4852294921875 -1359.507568359375 -1349.7156982421875 -1340.142578125 -1330.7293701171875 -1321.23486328125 -1311.803466796875 -1302.4503173828125 -1292.835693359375 -1282.9947509765625 -1273.0977783203125 -1263.491943359375 -1254.1527099609375 -1245.57275390625 -1238.0198974609375 -1232.6217041015625 -1230.1136474609375 -1233.2110595703125 -1238.4410400390625 -1235.967529296875 -1226.3941650390625 -1215.4698486328125 -1202.02734375 -1187.5445556640625 -1173.2484130859375 -1158.5948486328125 -1144.0572509765625 -1130.1009521484375 -1116.6424560546875 -1104.406494140625 -1093.7601318359375 -1084.8160400390625 -1077.87353515625 -1072.224853515625 -1067.703857421875 -1063.82421875 -1060.2950439453125 -1056.852294921875 -1053.3878173828125 -1049.6610107421875 -1045.8790283203125 -1042.0379638671875 -1038.145751953125 -1034.67724609375 -1031.6326904296875 -1028.95654296875 -1026.666015625 -1024.802734375 -1023.389404296875 -1022.3751220703125 -1021.6220703125 -1021.14190673828125 -1020.89599609375 -1020.946044921875 -1021.19427490234375 -1021.631591796875 -1022.2503662109375 -1023.072509765625 -1024.160400390625 -1025.4635009765625 -1026.9561767578125 -1028.6959228515625 -1030.686279296875 -1032.9447021484375 -1035.4268798828125 -1038.13427734375 -1041.105224609375 -1044.305908203125 -1047.690185546875 -1051.3106689453125 -1055.0811767578125 -1058.9715576171875 -1062.955810546875 -1067.0478515625 -99999 -99999 -99999 -99999 -99999 -99999 -99999 -99999 -99999 -99999 -99999 -99999
 -99999 -99999 -99999 -99999 -1496.745361328125 -1498.20751953125 -1499.5604248046875 -1500.7850341796875 -1501.8056640625 -1502.6422119140625 -1503.27001953125 -1503.66796875 -1503.79736328125 -1503.5587158203125 -1502.999267578125 -1502.1065673828125 -1500.869140625 -1499.207763671875 -1497.0421142578125 -1494.455078125 -1491.474609375 -1487.9395751953125 -1483.9256591796875 -1479.456787109375 -1474.46435546875 -1468.69677734375 -1462.2625732421875 -1455.4268798828125 -1447.8792724609375 -1439.4775390625 -1430.600341796875 -1421.0509033203125 -1410.9659423828125 -1400.55029296875 -1389.7965087890625 -1379.008056640625 -1368.39599609375 -1358.1484375 -1348.3126220703125 -1338.9613037109375 -1329.9674072265625 -1321.1614990234375 -1312.6033935546875 -1304.2099609375 -1295.5325927734375 -1286.2115478515625 -1275.905517578125 -1265.413818359375 -1254.730224609375 -1244.75048828125 -1235.386962890625 -1226.8209228515625 -1219.7557373046875 -1215.1817626953125 -1213.529052734375 -1226.0264892578125 -1226.183837890625 -1215.552490234375 -1204.4298095703125 -1191.2698974609375 -1177.115966796875 -1162.673583984375 -1148.2618408203125 -1133.94873046875 -1120.41162109375 -1107.486572265625 -1095.5697021484375 -1085.4503173828125 -1076.6351318359375 -1069.48046875 -1063.5966796875 -1058.806884765625 -1054.711669921875 -1051.1298828125 -1047.77294921875 -1044.5941162109375 -1041.298583984375 -1037.978271484375 -1034.845703125 -1031.91064453125 -1029.1656494140625 -1026.5804443359375 -1024.3851318359375 -1022.64324951171875 -1021.2921142578125 -1020.18450927734375 -1019.387939453125 -1018.880859375 -1018.7080078125 -1018.74603271484375 -1018.9737548828125 -1019.38287353515625 -1019.993896484375 -1020.837646484375 -1021.8568115234375 -1023.05645751953125 -1024.458984375 -1026.0721435546875 -1027.9217529296875 -1029.9718017578125 -1032.2481689453125 -1034.743408203125 -1037.4654541015625 -1040.3941650390625 -1043.506103515625 -1046.8502197265625 -1050.3284912109375 -1053.9652099609375 -1057.74267578125 -1061.5999755859375 -99999 -99999 -99999 -99999 -99999 -99999 -99999 -99999 -99999 -99999 -99999 -99999 -99999
 -99999 -99999 -99999 -1498.2471923828125 -1499.7442626953125 -1501.141357421875 -1502.388671875 -1503.492431640625 -1504.4239501953125 -1505.1641845703125 -1505.6651611328125 -1505.856689453125 -1505.7529296875 -1505.3284912109375 -1504.56884765625 -1503.384033203125 -1501.72705078125 -1499.65234375 -1497.1549072265625 -1494.2176513671875 -1490.6373291015625 -1486.6568603515625 -1482.15234375 -1476.927734375 -1471.1468505859375 -1464.755615234375 -1457.94091796875 -1450.2821044921875 -1441.9210205078125 -1433.0390625 -1423.273681640625 -1412.84814453125 -1402.178466796875 -1390.8499755859375 -1379.485107421875 -1368.2010498046875 -1357.1441650390625 -1346.7174072265625 -1336.9344482421875 -1327.9173583984375 -1319.68359375 -1311.9322509765625 -1304.647705078125 -1297.5999755859375 -1289.7410888671875 -1281.06689453125 -1271.21533203125 -1259.29296875 -1247.6611328125 -1236.910888671875 -1226.5115966796875 -1216.8934326171875 -1208.465087890625 -1202.5015869140625 -1200.1351318359375 -1207.273681640625 -1207.37841796875 -1200.8095703125 -1190.3216552734375 -1177.5931396484375 -1164.195556640625 -1150.0810546875 -1135.8865966796875 -1122.345947265625 -1109.2236328125 -1096.8184814453125 -1085.738525390625 -1075.802490234375 -1067.3851318359375 -1060.260009765625 -1054.4112548828125 -1049.4239501953125 -1045.3929443359375 -1041.87548828125 -1038.677978515625 -1035.6849365234375 -1032.9615478515625 -1030.4051513671875 -1027.8470458984375 -1025.455078125 -1023.2816162109375 -1021.46624755859375 -1019.95111083984375 -1018.60479736328125 -1017.57049560546875 -1016.84912109375 -1016.4739990234375 -1016.3140869140625 -1016.34423828125 -1016.57562255859375 -1017.0230712890625 -1017.68719482421875 -1018.5059814453125 -1019.48101806640625 -1020.62420654296875 -1021.96771240234375 -1023.50653076171875 -1025.2276611328125 -1027.1353759765625 -1029.22216796875 -1031.5302734375 -1034.0291748046875 -1036.7303466796875 -1039.623779296875 -1042.69091796875 -1045.89990234375 -1049.3062744140625 -1052.8369140625 -1056.442626953125 -1060.1363525390625 -99999 -99999 -99999 -99999 -99999 -99999 -99999 -99999 -99999 -99999 -99999 -99999 -99999
 -99999 -99999 -99999 -1501.009033203125 -1502.4227294921875 -1503.7327880859375 -1504.9183349609375 -1505.9593505859375 -1506.8082275390625 -1507.417724609375 -1507.767333984375 -1507.8416748046875 -1507.613525390625 -1506.9833984375 -1505.920166015625 -1504.4376220703125 -1502.53125 -1500.1842041015625 -1497.2381591796875 -1493.7791748046875 -1489.881103515625 -1485.2872314453125 -1480.1651611328125 -1474.4874267578125 -1468.1978759765625 -1461.2354736328125 -1453.53369140625 -1445.361328125 -1436.2916259765625 -1426.55419921875 -1416.1397705078125 -1405.3309326171875 -1393.6402587890625 -1381.67578125 -1369.5738525390625 -1357.400634765625 -1345.9150390625 -1335.0716552734375 -1325.49609375 -1316.9320068359375 -1309.6033935546875 -1303.0948486328125 -1296.826171875 -1290.6641845703125 -1284.3433837890625 -1277.4036865234375 -1268.0379638671875 -1255.0028076171875 -1241.2628173828125 -1229.9031982421875 -1218.9515380859375 -1208.45703125 -1199.7376708984375 -1193.50634765625 -1190.93701171875 -1190.2484130859375 -1188.7662353515625 -1182.913330078125 -1173.483642578125 -1161.49462890625 -1148.7200927734375 -1135.4066162109375 -1122.0054931640625 -1108.9840087890625 -1096.57763671875 -1085.030029296875 -1074.534912109375 -1065.1739501953125 -1057.234375 -1050.1968994140625 -1044.5419921875 -1039.810546875 -1035.7872314453125 -1032.378662109375 -1029.5711669921875 -1027.06494140625 -1024.77734375 -1022.68017578125 -1020.72283935546875 -1019.13311767578125 -1017.656005859375 -1016.327392578125 -1015.25018310546875 -1014.46710205078125 -1013.99755859375 -1013.68658447265625 -1013.586669921875 -1013.689697265625 -1014.0263671875 -1014.56591796875 -1015.234619140625 -1016.0570068359375 -1017.02911376953125 -1018.18670654296875 -1019.5037841796875 -1020.96624755859375 -1022.58953857421875 -1024.3687744140625 -1026.342529296875 -1028.4857177734375 -1030.812744140625 -1033.307861328125 -1035.96923828125 -1038.8037109375 -1041.8056640625 -1044.966552734375 -1048.225341796875 -1051.640625 -1055.1407470703125 -99999 -99999 -99999 -99999 -99999 -99999 -99999 -99999 -99999 -99999 -99999 -99999 -99999 -99999
 -99999 -99999 -1501.985107421875 -1503.4300537109375 -1504.7916259765625 -1506.0550537109375 -1507.179443359375 -1508.1275634765625 -1508.88671875 -1509.4302978515625 -1509.7283935546875 -1509.68212890625 -1509.244140625 -1508.42626953125 -1507.202392578125 -1505.546875 -1503.2904052734375 -1500.5113525390625 -1497.232177734375 -1493.447998046875 -1489.0196533203125 -1484.033935546875 -1478.5018310546875 -1472.19482421875 -1465.29150390625 -1457.729736328125 -1449.595947265625 -1440.6624755859375 -1431.0284423828125 -1420.7301025390625 -1409.8231201171875 -1398.175537109375 -1385.7056884765625 -1372.8370361328125 -1359.9329833984375 -1346.8817138671875 -1334.6337890625 -1323.668701171875 -1313.95361328125 -1306.14453125 -1299.60986328125 -1293.77783203125 -1288.7078857421875 -1283.923828125 -1278.83740234375 -1273.3143310546875 -1265.4530029296875 -1251.48291015625 -1236.4613037109375 -1223.196044921875 -1211.680419921875 -1200.7882080078125 -1191.405029296875 -1184.6676025390625 -1179.661865234375 -1175.7613525390625 -1171.08740234375 -1164.1961669921875 -1154.9354248046875 -1144.0567626953125 -1131.8914794921875 -1119.2703857421875 -1106.752197265625 -1094.501953125 -1082.7606201171875 -1072.102783203125 -1062.333984375 -1053.531494140625 -1045.9688720703125 -1039.561767578125 -1034.087158203125 -1029.55810546875 -1025.9412841796875 -1022.97686767578125 -1020.49420166015625 -1018.34124755859375 -1016.587646484375 -1015.16851806640625 -1013.87353515625 -1012.7762451171875 -1011.86553955078125 -1011.2274169921875 -1010.7877197265625 -1010.49853515625 -1010.39654541015625 -1010.4761962890625 -1010.79608154296875 -1011.2623291015625 -1011.86572265625 -1012.6099853515625 -1013.4884033203125 -1014.54425048828125 -1015.71478271484375 -1017.010498046875 -1018.434326171875 -1019.98870849609375 -1021.7149658203125 -1023.5953369140625 -1025.6009521484375 -1027.76416015625 -1030.075927734375 -1032.560302734375 -1035.209228515625 -1037.99853515625 -1040.92236328125 -1043.9754638671875 -1047.1043701171875 -1050.4454345703125 -1053.7930908203125 -99999 -99999 -99999 -99999 -99999 -99999 -99999 -99999 -99999 -99999 -99999 -99999 -99999 -99999
 -99999 -99999 -1504.1671142578125 -1505.5616455078125 -1506.860107421875 -1508.048095703125 -1509.1124267578125 -1510.02978515625 -1510.774169921875 -1511.240478515625 -1511.4154052734375 -1511.2752685546875 -1510.781982421875 -1509.8944091796875 -1508.414306640625 -1506.4388427734375 -1503.957275390625 -1500.9552001953125 -1497.3861083984375 -1493.1126708984375 -1488.3759765625 -1482.938720703125 -1476.769775390625 -1470.09326171875 -1462.727783203125 -1454.7296142578125 -1445.8504638671875 -1436.467041015625 -1426.367919921875 -1415.490966796875 -1404.0518798828125 -1391.5687255859375 -1378.4771728515625 -1364.8729248046875 -1350.9173583984375 -1337.14794921875 -1324.03369140625 -1312.16796875 -1302.8721923828125 -1295.1317138671875 -1289.49365234375 -1284.8349609375 -1280.427978515625 -1276.1719970703125 -1271.931640625 -1267.001708984375 -1259.585693359375 -1247.404541015625 -1230.9705810546875 -1217.0093994140625 -1204.300048828125 -1193.098876953125 -1183.080810546875 -1175.0650634765625 -1168.0145263671875 -1161.510009765625 -1154.3392333984375 -1146.1588134765625 -1136.61328125 -1125.69921875 -1114.0513916015625 -1102.1971435546875 -1090.38916015625 -1079.035400390625 -1068.2291259765625 -1058.204833984375 -1049.072998046875 -1041.0655517578125 -1034.0380859375 -1028.0750732421875 -1023.16619873046875 -1019.19464111328125 -1015.90179443359375 -1013.28173828125 -1011.3033447265625 -1009.79205322265625 -1008.60687255859375 -1007.69488525390625 -1007.01617431640625 -1006.6175537109375 -1006.36859130859375 -1006.27947998046875 -1006.3441162109375 -1006.55670166015625 -1006.96795654296875 -1007.49365234375 -1008.14373779296875 -1008.9119873046875 -1009.7926025390625 -1010.81988525390625 -1011.940673828125 -1013.16180419921875 -1014.48321533203125 -1015.908203125 -1017.47271728515625 -1019.1458740234375 -1020.93377685546875 -1022.84027099609375 -1024.87841796875 -1027.07470703125 -1029.4010009765625 -1031.857177734375 -1034.44091796875 -1037.156982421875 -1040.02392578125 -1042.9986572265625 -1046.078369140625 -1049.2420654296875 -1052.4857177734375 -99999 -99999 -99999 -99999 -99999 -99999 -99999 -99999 -99999 -99999 -99999 -99999 -99999 -99999
 -99999 -99999 -1506.0147705078125 -1507.332763671875 -1508.5775146484375 -1509.7353515625 -1510.781982421875 -1511.644287109375 -1512.32177734375 -1512.776123046875 -1512.968994140625 -1512.81201171875 -1512.1859130859375 -1511.1114501953125 -1509.551513671875 -1507.4718017578125 -1504.766357421875 -1501.3756103515625 -1497.4144287109375 -1492.93017578125 -1487.724853515625 -1481.9268798828125 -1475.521240234375 -1468.39306640625 -1460.4560546875 -1451.9110107421875 -1442.6695556640625 -1432.6322021484375 -1422.145751953125 -1411.0076904296875 -1399.0074462890625 -1386.1591796875 -1372.475830078125 -1358.2451171875 -1343.2489013671875 -1328.251708984375 -1314.2257080078125 -1301.2431640625 -1291.430908203125 -1284.9190673828125 -1280.0316162109375 -1275.933837890625 -1271.9384765625 -1267.918701171875 -1263.4447021484375 -1258.3013916015625 -1250.0626220703125 -1238.1451416015625 -1223.9827880859375 -1209.999267578125 -1196.878662109375 -1184.738037109375 -1174.3555908203125 -1164.9537353515625 -1156.2191162109375 -1147.295654296875 -1138.20947265625 -1128.33349609375 -1117.9388427734375 -1107.0419921875 -1095.8414306640625 -1084.5096435546875 -1073.47900390625 -1062.807373046875 -1052.6754150390625 -1043.4578857421875 -1035.1497802734375 -1027.8714599609375 -1021.5113525390625 -1016.2724609375 -1011.83447265625 -1008.26812744140625 -1005.56866455078125 -1003.63787841796875 -1002.22705078125 -1001.28009033203125 -1000.72406005859375 -1000.44635009765625 -1000.41021728515625 -1000.64483642578125 -1001.01678466796875 -1001.5269775390625 -1002.1207275390625 -1002.89617919921875 -1003.76470947265625 -1004.65826416015625 -1005.6510009765625 -1006.76824951171875 -1007.95428466796875 -1009.2088623046875 -1010.53173828125 -1011.9202880859375 -1013.4136962890625 -1014.98431396484375 -1016.63641357421875 -1018.3746337890625 -1020.21929931640625 -1022.18585205078125 -1024.2567138671875 -1026.44580078125 -1028.7257080078125 -1031.1580810546875 -1033.711181640625 -1036.3720703125 -1039.1365966796875 -1042.00146484375 -1044.9891357421875 -1048.01611328125 -99999 -99999 -99999 -99999 -99999 -99999 -99999 -99999 -99999 -99999 -99999 -99999 -99999 -99999 -99999
 -99999 -1506.2060546875 -1507.520263671875 -1508.785888671875 -1509.9879150390625 -1511.0870361328125 -1512.0855712890625 -1512.954833984375 -1513.6658935546875 -1514.111083984375 -1514.26513671875 -1514.07666015625 -1513.49609375 -1512.4234619140625 -1510.743896484375 -1508.4093017578125 -1505.4613037109375 -1501.8944091796875 -1497.7017822265625 -1492.760498046875 -1487.3262939453125 -1481.26513671875 -1474.390625 -1466.8741455078125 -1458.586181640625 -1449.5482177734375 -1439.7088623046875 -1429.4462890625 -1418.6968994140625 -1407.33544921875 -1395.1617431640625 -1381.9085693359375 -1367.707763671875 -1352.8284912109375 -1337.1204833984375 -1321.5733642578125 -1306.024658203125 -1291.8685302734375 -1281.6275634765625 -1275.077392578125 -1271.1683349609375 -1267.4849853515625 -1263.430419921875 -1259.206787109375 -1254.1229248046875 -1247.8548583984375 -1239.3453369140625 -1228.334716796875 -1215.2261962890625 -1201.44970703125 -1188.1265869140625 -1175.8883056640625 -1164.5380859375 -1154.6356201171875 -1144.0946044921875 -1132.8365478515625 -1121.778076171875 -1110.697998046875 -1099.6800537109375 -1088.6854248046875 -1077.623291015625 -1066.7637939453125 -1056.251953125 -1046.17919921875 -1036.9237060546875 -1028.4927978515625 -1020.862548828125 -1014.27496337890625 -1008.54156494140625 -1003.83038330078125 -1000.12225341796875 -997.34490966796875 -995.19940185546875 -993.92596435546875 -993.18695068359375 -992.908203125 -992.96368408203125 -993.33056640625 -994.04534912109375 -994.92718505859375 -995.94000244140625 -996.98382568359375 -998.14453125 -999.424072265625 -1000.75299072265625 -1002.06500244140625 -1003.486083984375 -1004.883544921875 -1006.32373046875 -1007.78594970703125 -1009.3251953125 -1010.90252685546875 -1012.52288818359375 -1014.18841552734375 -1015.92657470703125 -1017.74810791015625 -1019.642333984375 -1021.61614990234375 -1023.69171142578125 -1025.86474609375 -1028.1448974609375 -1030.5213623046875 -1032.994140625 -1035.58935546875 -1038.28662109375 -1041.0679931640625 -1043.9278564453125 -1046.8797607421875 -99999 -99999 -99999 -99999 -99999 -99999 -99999 -99999 -99999 -99999 -99999 -99999 -99999 -99999 -99999
 -99999 -1507.47802734375 -1508.72314453125 -1509.90478515625 -1511.0384521484375 -1512.1163330078125 -1513.103515625 -1513.963623046875 -1514.6697998046875 -1515.1737060546875 -1515.4390869140625 -1515.27978515625 -1514.7059326171875 -1513.5455322265625 -1511.860595703125 -1509.4744873046875 -1506.3712158203125 -1502.48486328125 -1497.8953857421875 -1492.73193359375 -1486.9498291015625 -1480.57861328125 -1473.623779296875 -1465.7906494140625 -1457.179931640625 -1447.5460205078125 -1437.3729248046875 -1426.53662109375 -1415.5703125 -1404.32421875 -1392.09130859375 -1378.7003173828125 -1364.232421875 -1348.6611328125 -1332.72998046875 -1316.6192626953125 -1300.2237548828125 -1284.4869384765625 -1272.9603271484375 -1266.92236328125 -1263.14794921875 -1259.1973876953125 -1254.8486328125 -1250.0390625 -1244.45068359375 -1237.560546875 -1228.6710205078125 -1217.613037109375 -1204.9793701171875 -1191.7666015625 -1178.626953125 -1166.03125 -1153.9654541015625 -1142.49755859375 -1130.3616943359375 -1117.5234375 -1105.2130126953125 -1093.4918212890625 -1081.884521484375 -1070.6329345703125 -1059.7232666015625 -1049.0899658203125 -1039.1773681640625 -1029.783203125 -1021.11663818359375 -1013.2689208984375 -1006.24114990234375 -1000.2967529296875 -995.49737548828125 -991.4244384765625 -988.36358642578125 -986.31500244140625 -985.01043701171875 -984.35150146484375 -984.1964111328125 -984.626953125 -985.5181884765625 -986.67333984375 -988.036865234375 -989.45416259765625 -991.09271240234375 -992.83544921875 -994.60302734375 -996.3289794921875 -998.00994873046875 -999.77130126953125 -1001.53814697265625 -1003.2196044921875 -1004.9412841796875 -1006.65777587890625 -1008.36676025390625 -1010.0623779296875 -1011.802978515625 -1013.5819091796875 -1015.39422607421875 -1017.24945068359375 -1019.16668701171875 -1021.16107177734375 -1023.22821044921875 -1025.3746337890625 -1027.6029052734375 -1029.9375 -1032.3599853515625 -1034.865234375 -1037.4515380859375 -1040.1396484375 -1042.91650390625 -99999 -99999 -99999 -99999 -99999 -99999 -99999 -99999 -99999 -99999 -99999 -99999 -99999 -99999 -99999 -99999
 -99999 -1508.4266357421875 -1509.567626953125 -1510.6878662109375 -1511.773193359375 -1512.8016357421875 -1513.7655029296875 -1514.66796875 -1515.4232177734375 -1515.9910888671875 -1516.305908203125 -1516.286865234375 -1515.8482666015625 -1514.758544921875 -1513.054443359375 -1510.5478515625 -1507.22607421875 -1503.1060791015625 -1498.251708984375 -1492.6934814453125 -1486.6558837890625 -1480.1300048828125 -1472.9903564453125 -1465.1243896484375 -1456.211181640625 -1446.180419921875 -1434.994873046875 -1423.834228515625 -1412.820068359375 -1401.9014892578125 -1390.1246337890625 -1376.768310546875 -1361.884765625 -1346.1297607421875 -1329.9127197265625 -1313.4776611328125 -1297.0609130859375 -1281.4071044921875 -1268.906982421875 -1261.8602294921875 -1256.35107421875 -1251.4967041015625 -1246.658447265625 -1241.211669921875 -1234.6514892578125 -1227.2127685546875 -1217.6505126953125 -1206.595703125 -1194.4090576171875 -1181.4329833984375 -1168.240966796875 -1155.0269775390625 -1142.2767333984375 -1129.4298095703125 -1116.0821533203125 -1102.49169921875 -1089.3994140625 -1076.8592529296875 -1064.7813720703125 -1053.2720947265625 -1042.4993896484375 -1032.3072509765625 -1022.6845703125 -1013.58935546875 -1005.31982421875 -998.00469970703125 -991.8226318359375 -986.4322509765625 -982.2386474609375 -979.06390380859375 -976.8072509765625 -975.3929443359375 -974.68133544921875 -974.8310546875 -975.6475830078125 -976.87860107421875 -978.3836669921875 -980.1539306640625 -982.28338623046875 -984.5433349609375 -986.85791015625 -989.06451416015625 -991.2740478515625 -993.557373046875 -995.77862548828125 -997.90191650390625 -999.91424560546875 -1001.93426513671875 -1003.86798095703125 -1005.74884033203125 -1007.623779296875 -1009.48248291015625 -1011.3260498046875 -1013.1588134765625 -1015.01519775390625 -1016.91009521484375 -1018.840576171875 -1020.81622314453125 -1022.8642578125 -1024.9769287109375 -1027.1629638671875 -1029.4150390625 -1031.752197265625 -1034.1885986328125 -1036.7003173828125 -1039.2740478515625 -1041.9129638671875 -99999 -99999 -99999 -99999 -99999 -99999 -99999 -99999 -99999 -99999 -99999 -99999 -99999 -99999 -99999 -99999
 -99999 -1509.069091796875 -1510.1278076171875 -1511.1441650390625 -1512.137939453125 -1513.1263427734375 -1514.081787109375 -1514.982421875 -1515.816162109375 -1516.52392578125 -1516.980224609375 -1517.0904541015625 -1516.786376953125 -1515.8857421875 -1514.25732421875 -1511.6971435546875 -1508.2637939453125 -1503.9498291015625 -1498.6217041015625 -1492.6690673828125 -1486.31787109375 -1479.6241455078125 -1472.6044921875 -1464.83544921875 -1456.0123291015625 -1445.325439453125 -1433.427734375 -1421.078857421875 -1410.0487060546875 -1399.8896484375 -1389.0767822265625 -1375.5863037109375 -1360.3311767578125 -1344.305419921875 -1327.967041015625 -1311.563720703125 -1295.265869140625 -1280.0194091796875 -1267.29736328125 -1258.2774658203125 -1251.4158935546875 -1245.3443603515625 -1239.1151123046875 -1232.491455078125 -1225.3848876953125 -1216.7999267578125 -1206.9381103515625 -1195.853759765625 -1183.70556640625 -1170.7669677734375 -1157.38623046875 -1143.915771484375 -1130.4571533203125 -1116.6060791015625 -1102.4761962890625 -1088.44140625 -1074.48974609375 -1061.1807861328125 -1048.5865478515625 -1037.0888671875 -1026.4722900390625 -1016.34320068359375 -1006.79705810546875 -997.8668212890625 -990.07965087890625 -983.14398193359375 -977.45343017578125 -972.888427734375 -969.38714599609375 -966.78729248046875 -965.17889404296875 -964.60247802734375 -964.90380859375 -965.87530517578125 -967.3101806640625 -969.213623046875 -971.70611572265625 -974.43304443359375 -977.18121337890625 -979.99212646484375 -982.83612060546875 -985.80767822265625 -988.66766357421875 -991.30718994140625 -993.8577880859375 -996.3282470703125 -998.7254638671875 -1000.99444580078125 -1003.1405029296875 -1005.20703125 -1007.1966552734375 -1009.13604736328125 -1011.0478515625 -1012.94805908203125 -1014.8370361328125 -1016.73370361328125 -1018.6573486328125 -1020.61614990234375 -1022.6160888671875 -1024.6700439453125 -1026.7939453125 -1028.9857177734375 -1031.2454833984375 -1033.5648193359375 -1035.95703125 -1038.4442138671875 -99999 -99999 -99999 -99999 -99999 -99999 -99999 -99999 -99999 -99999 -99999 -99999 -99999 -99999 -99999 -99999 -99999
 -99999 -1509.40869140625 -1510.326171875 -1511.2510986328125 -1512.1724853515625 -1513.093994140625 -1514.0189208984375 -1514.9542236328125 -1515.857177734375 -1516.6632080078125 -1517.31640625 -1517.7242431640625 -1517.6453857421875 -1516.9090576171875 -1515.4384765625 -1513.0318603515625 -1509.5025634765625 -1504.723876953125 -1499.02880859375 -1492.5784912109375 -1485.7720947265625 -1478.9659423828125 -1472.1260986328125 -1465.094482421875 -1456.57568359375 -1445.6649169921875 -1431.412841796875 -1418.0474853515625 -1406.9146728515625 -1398.068115234375 -1387.955322265625 -1375.048095703125 -1359.0751953125 -1342.9229736328125 -1326.5078125 -1310.13818359375 -1294.0426025390625 -1279.126708984375 -1266.4112548828125 -1256.107421875 -1247.3079833984375 -1239.560791015625 -1232.428466796875 -1224.7547607421875 -1216.344970703125 -1207.1239013671875 -1196.7769775390625 -1185.5760498046875 -1173.1162109375 -1160.0985107421875 -1146.5142822265625 -1132.7650146484375 -1118.5384521484375 -1104.1536865234375 -1089.7200927734375 -1074.9837646484375 -1060.6556396484375 -1046.9322509765625 -1033.7178955078125 -1022.3477783203125 -1011.90985107421875 -1001.6650390625 -992.0064697265625 -983.022705078125 -975.287841796875 -968.861328125 -963.64825439453125 -959.56280517578125 -956.59088134765625 -954.76361083984375 -953.95172119140625 -954.2052001953125 -955.29193115234375 -957.0767822265625 -959.49163818359375 -962.4654541015625 -965.6099853515625 -968.96759033203125 -972.5 -976.1805419921875 -979.69818115234375 -983.08123779296875 -986.362548828125 -989.529052734375 -992.55804443359375 -995.31903076171875 -997.92498779296875 -1000.3837890625 -1002.6953125 -1004.9415283203125 -1007.0513916015625 -1009.08392333984375 -1011.0404052734375 -1012.95562744140625 -1014.85125732421875 -1016.73809814453125 -1018.62371826171875 -1020.53741455078125 -1022.4903564453125 -1024.48193359375 -1026.5238037109375 -1028.60791015625 -1030.780517578125 -1033.018310546875 -1035.319091796875 -1037.6724853515625 -99999 -99999 -99999 -99999 -99999 -99999 -99999 -99999 -99999 -99999 -99999 -99999 -99999 -99999 -99999 -99999 -99999
 -99999 -1509.4593505859375 -1510.2601318359375 -1511.0479736328125 -1511.827880859375 -1512.672607421875 -1513.5672607421875 -1514.4998779296875 -1515.475341796875 -1516.4764404296875 -1517.342041015625 -1517.969970703125 -1518.23095703125 -1517.956787109375 -1516.760986328125 -1514.395751953125 -1510.7117919921875 -1505.94677734375 -1499.674560546875 -1492.3988037109375 -1484.9613037109375 -1477.7391357421875 -1471.40185546875 -1465.15478515625 -1457.9072265625 -1448.001708984375 -1431.6695556640625 -1414.776611328125 -1403.3685302734375 -1395.0533447265625 -1385.7137451171875 -1372.7840576171875 -1357.49365234375 -1341.4561767578125 -1325.0745849609375 -1308.7760009765625 -1293.0244140625 -1278.3980712890625 -1265.1298828125 -1253.99169921875 -1243.95263671875 -1234.9866943359375 -1226.2947998046875 -1217.3472900390625 -1208.0980224609375 -1198.090576171875 -1187.3167724609375 -1175.5986328125 -1162.93310546875 -1149.6854248046875 -1136.0286865234375 -1121.80419921875 -1107.2877197265625 -1092.5992431640625 -1077.6741943359375 -1062.8140869140625 -1048.2384033203125 -1034.2562255859375 -1021.0958251953125 -1009.78277587890625 -999.1422119140625 -988.439697265625 -978.0257568359375 -969.0421142578125 -961.26763916015625 -955.1085205078125 -950.47607421875 -947.01043701171875 -944.5592041015625 -943.3916015625 -943.4454345703125 -944.43328857421875 -946.2696533203125 -948.83831787109375 -952.26025390625 -956.0235595703125 -960.002685546875 -964.416015625 -968.66943359375 -972.88922119140625 -977.02203369140625 -981.03717041015625 -984.84796142578125 -988.36883544921875 -991.6732177734375 -994.764404296875 -997.65606689453125 -1000.29241943359375 -1002.759521484375 -1005.0784912109375 -1007.2376708984375 -1009.30133056640625 -1011.28582763671875 -1013.2034912109375 -1015.0693359375 -1016.9176025390625 -1018.7625732421875 -1020.6158447265625 -1022.4810791015625 -1024.389404296875 -1026.346923828125 -1028.3515625 -1030.4114990234375 -1032.51611328125 -1034.7027587890625 -1036.9554443359375 -99999 -99999 -99999 -99999 -99999 -99999 -99999 -99999 -99999 -99999 -99999 -99999 -99999 -99999 -99999 -99999 -99999
 -99999 -1509.2486572265625 -1509.87939453125 -1510.5147705078125 -1511.1746826171875 -1511.883544921875 -1512.671630859375 -1513.627197265625 -1514.6492919921875 -1515.7640380859375 -1516.9251708984375 -1517.9774169921875 -1518.60302734375 -1518.63623046875 -1517.804443359375 -1516.035888671875 -1512.635009765625 -1507.2369384765625 -1500.326416015625 -1492.3011474609375 -1483.77001953125 -1476.0438232421875 -1469.4854736328125 -1464.61083984375 -1459.5877685546875 -1451.0885009765625 -1433.3994140625 -1415.423828125 -1402.222412109375 -1392.58544921875 -1381.9576416015625 -1369.446044921875 -1355.1153564453125 -1339.4326171875 -1323.42431640625 -1307.4686279296875 -1291.86962890625 -1277.0869140625 -1263.9007568359375 -1251.6558837890625 -1240.5513916015625 -1230.625 -1220.5921630859375 -1210.6126708984375 -1200.468994140625 -1189.8038330078125 -1178.4122314453125 -1166.1173095703125 -1153.3072509765625 -1139.9385986328125 -1125.9718017578125 -1111.4539794921875 -1096.8192138671875 -1081.7705078125 -1066.6617431640625 -1051.7852783203125 -1037.11376953125 -1022.90972900390625 -1010.11041259765625 -998.46282958984375 -987.33953857421875 -976.0198974609375 -965.1900634765625 -955.61151123046875 -948.3563232421875 -942.54058837890625 -938.10699462890625 -935.06463623046875 -933.40045166015625 -932.8218994140625 -933.40179443359375 -934.96331787109375 -937.81927490234375 -941.45855712890625 -945.6966552734375 -950.36761474609375 -955.3577880859375 -960.51177978515625 -965.513671875 -970.50384521484375 -975.21173095703125 -979.6900634765625 -983.89129638671875 -987.876220703125 -991.49603271484375 -994.78485107421875 -997.8212890625 -1000.5999755859375 -1003.1317138671875 -1005.5552978515625 -1007.77294921875 -1009.8450927734375 -1011.7965087890625 -1013.67694091796875 -1015.5035400390625 -1017.29290771484375 -1019.05487060546875 -1020.82391357421875 -1022.6097412109375 -1024.417724609375 -1026.2628173828125 -1028.1510009765625 -1030.1029052734375 -1032.1083984375 -1034.16943359375 -99999 -99999 -99999 -99999 -99999 -99999 -99999 -99999 -99999 -99999 -99999 -99999 -99999 -99999 -99999 -99999 -99999 -99999
 -99999 -1508.7860107421875 -1509.2474365234375 -1509.6912841796875 -1510.17138671875 -1510.7213134765625 -1511.3984375 -1512.2432861328125 -1513.291015625 -1514.5855712890625 -1516.0052490234375 -1517.3858642578125 -1518.5496826171875 -1519.27001953125 -1518.959716796875 -1517.3101806640625 -1514.400146484375 -1509.2763671875 -1501.906494140625 -1492.381591796875 -1482.385009765625 -1473.131591796875 -1466.7562255859375 -1462.1954345703125 -1457.4638671875 -1450.8248291015625 -1435.18212890625 -1417.462890625 -1403.0341796875 -1391.1468505859375 -1379.5394287109375 -1366.464599609375 -1352.4342041015625 -1337.132080078125 -1321.4349365234375 -1305.624755859375 -1290.332763671875 -1275.7222900390625 -1261.9310302734375 -1249.3060302734375 -1237.4755859375 -1226.2418212890625 -1215.3753662109375 -1204.525634765625 -1193.5599365234375 -1182.2938232421875 -1170.0989990234375 -1157.5928955078125 -1144.3641357421875 -1130.822021484375 -1116.4654541015625 -1101.862060546875 -1087.091552734375 -1071.8935546875 -1056.85888671875 -1041.8272705078125 -1027.12744140625 -1013.1632080078125 -999.94110107421875 -987.61376953125 -975.7310791015625 -964.12615966796875 -952.95489501953125 -943.2674560546875 -935.9630126953125 -931.18060302734375 -927.39056396484375 -924.59783935546875 -923.0284423828125 -922.7755126953125 -924.16412353515625 -926.71649169921875 -930.29833984375 -934.83013916015625 -939.91693115234375 -945.65313720703125 -951.578125 -957.54803466796875 -963.3380126953125 -968.93414306640625 -974.27215576171875 -979.262451171875 -983.85076904296875 -988.0693359375 -991.93341064453125 -995.4581298828125 -998.64007568359375 -1001.49603271484375 -1004.11328125 -1006.4752197265625 -1008.6512451171875 -1010.6851806640625 -1012.60052490234375 -1014.4208984375 -1016.15972900390625 -1017.85284423828125 -1019.5230712890625 -1021.1846923828125 -1022.8585205078125 -1024.5567626953125 -1026.282958984375 -1028.0531005859375 -1029.8682861328125 -1031.74755859375 -1033.6878662109375 -99999 -99999 -99999 -99999 -99999 -99999 -99999 -99999 -99999 -99999 -99999 -99999 -99999 -99999 -99999 -99999 -99999 -99999
 -99999 -99999 -1508.414306640625 -1508.6480712890625 -1508.8927001953125 -1509.194580078125 -1509.677490234375 -1510.400146484375 -1511.428955078125 -1512.79052734375 -1514.4776611328125 -1516.2593994140625 -1517.9288330078125 -1519.0960693359375 -1519.5037841796875 -1518.985107421875 -1516.441162109375 -1511.651611328125 -1503.4578857421875 -1493.287841796875 -1482.023193359375 -1471.3668212890625 -1463.5595703125 -1459.6175537109375 -1454.2159423828125 -1446.3585205078125 -1432.7481689453125 -1417.91357421875 -1403.3106689453125 -1390.2359619140625 -1377.2142333984375 -1363.85693359375 -1349.524169921875 -1334.501953125 -1319.09765625 -1303.6510009765625 -1288.4656982421875 -1273.7176513671875 -1259.85498046875 -1246.606689453125 -1234.1729736328125 -1222.3447265625 -1210.4755859375 -1198.94482421875 -1187.2784423828125 -1175.1605224609375 -1162.5753173828125 -1149.579833984375 -1136.207763671875 -1122.2052001953125 -1107.8255615234375 -1093.19189453125 -1078.17578125 -1063.0771484375 -1048.01904296875 -1032.9569091796875 -1018.2501220703125 -1004.1888427734375 -990.660888671875 -977.76556396484375 -965.44879150390625 -953.32049560546875 -941.6710205078125 -932.49456787109375 -926.6783447265625 -921.84710693359375 -917.912109375 -915.11297607421875 -913.6578369140625 -913.92828369140625 -915.78070068359375 -919.14337158203125 -923.59503173828125 -929.17510986328125 -935.3956298828125 -942.06292724609375 -948.88421630859375 -955.61297607421875 -962.31854248046875 -968.46746826171875 -974.29119873046875 -979.69012451171875 -984.62347412109375 -989.18206787109375 -993.17791748046875 -996.75225830078125 -999.9781494140625 -1002.8966064453125 -1005.44866943359375 -1007.7852783203125 -1009.92047119140625 -1011.890380859375 -1013.69171142578125 -1015.39398193359375 -1017.02301025390625 -1018.5986328125 -1020.16705322265625 -1021.6968994140625 -1023.2376708984375 -1024.7952880859375 -1026.3787841796875 -1028.03564453125 -1029.7208251953125 -1031.4586181640625 -99999 -99999 -99999 -99999 -99999 -99999 -99999 -99999 -99999 -99999 -99999 -99999 -99999 -99999 -99999 -99999 -99999 -99999 -99999
 -99999 -99999 -1507.4012451171875 -1507.4219970703125 -1507.4635009765625 -1507.5050048828125 -1507.6822509765625 -1508.1158447265625 -1508.9912109375 -1510.358154296875 -1512.2457275390625 -1514.514892578125 -1516.8114013671875 -1518.4847412109375 -1519.298095703125 -1519.1005859375 -1517.8717041015625 -1514.7567138671875 -1505.8487548828125 -1494.5289306640625 -1482.9267578125 -1471.72021484375 -1464.1158447265625 -1457.447998046875 -1450.913330078125 -1441.9307861328125 -1430.1824951171875 -1416.549560546875 -1402.45263671875 -1388.6268310546875 -1375.007080078125 -1361.2857666015625 -1346.7393798828125 -1331.8397216796875 -1316.621826171875 -1301.31494140625 -1286.254638671875 -1271.6009521484375 -1257.4466552734375 -1243.9539794921875 -1230.90771484375 -1218.3182373046875 -1205.9151611328125 -1193.5709228515625 -1181.317138671875 -1168.6138916015625 -1155.667724609375 -1142.445068359375 -1128.67822265625 -1114.507568359375 -1100.0552978515625 -1085.2877197265625 -1070.232177734375 -1055.16455078125 -1040.134521484375 -1025.0328369140625 -1010.5048828125 -996.3514404296875 -982.5704345703125 -969.52093505859375 -956.9158935546875 -944.91473388671875 -933.94183349609375 -925.05230712890625 -919.46588134765625 -914.69085693359375 -910.30303955078125 -907.3321533203125 -905.89959716796875 -906.45166015625 -908.79754638671875 -912.622802734375 -918.3291015625 -924.8057861328125 -931.81634521484375 -939.51068115234375 -947.3831787109375 -955.030029296875 -962.2264404296875 -969.11492919921875 -975.46575927734375 -981.181396484375 -986.3470458984375 -990.96868896484375 -995.0875244140625 -998.728271484375 -1001.9835205078125 -1004.75982666015625 -1007.275390625 -1009.5340576171875 -1011.52008056640625 -1013.33892822265625 -1015.0196533203125 -1016.6058349609375 -1018.11346435546875 -1019.53399658203125 -1020.926025390625 -1022.30517578125 -1023.71875 -1025.1451416015625 -1026.588134765625 -1028.068359375 -1029.59716796875 -1031.2216796875 -99999 -99999 -99999 -99999 -99999 -99999 -99999 -99999 -99999 -99999 -99999 -99999 -99999 -99999 -99999 -99999 -99999 -99999 -99999
 -99999 -99999 -1506.3812255859375 -1506.174072265625 -1505.8919677734375 -1505.5941162109375 -1505.484130859375 -1505.6300048828125 -1506.212646484375 -1507.422119140625 -1509.4061279296875 -1511.950927734375 -1514.8487548828125 -1517.1429443359375 -1517.97509765625 -1517.970458984375 -1517.393798828125 -1514.9329833984375 -1506.537841796875 -1495.4512939453125 -1483.9256591796875 -1473.3416748046875 -1463.9285888671875 -1456.12451171875 -1448.1583251953125 -1438.25439453125 -1426.89111328125 -1413.8609619140625 -1400.3055419921875 -1386.524658203125 -1372.5560302734375 -1358.43017578125 -1343.8680419921875 -1329.0169677734375 -1313.947021484375 -1298.82861328125 -1283.834716796875 -1269.1397705078125 -1254.8489990234375 -1240.9560546875 -1227.5684814453125 -1214.367919921875 -1201.5457763671875 -1188.76123046875 -1175.880126953125 -1162.7664794921875 -1149.447998046875 -1135.857666015625 -1121.84130859375 -1107.5404052734375 -1092.997314453125 -1078.1689453125 -1063.2198486328125 -1048.1639404296875 -1033.1978759765625 -1018.357421875 -1003.86669921875 -989.65155029296875 -975.9154052734375 -962.76092529296875 -950.33380126953125 -938.71087646484375 -928.39691162109375 -920.2965087890625 -913.99530029296875 -908.94244384765625 -904.3326416015625 -900.5703125 -898.97247314453125 -899.8143310546875 -902.68804931640625 -907.6109619140625 -914.017333984375 -921.57720947265625 -929.9871826171875 -938.70751953125 -947.2847900390625 -955.72149658203125 -963.68426513671875 -970.90997314453125 -977.57806396484375 -983.60223388671875 -988.97515869140625 -993.66180419921875 -997.77899169921875 -1001.3470458984375 -1004.4464111328125 -1007.17266845703125 -1009.50311279296875 -1011.5712890625 -1013.423095703125 -1015.10919189453125 -1016.63555908203125 -1018.01629638671875 -1019.3216552734375 -1020.5931396484375 -1021.85186767578125 -1023.07958984375 -1024.297119140625 -1025.5313720703125 -1026.8353271484375 -1028.1932373046875 -1029.583740234375 -99999 -99999 -99999 -99999 -99999 -99999 -99999 -99999 -99999 -99999 -99999 -99999 -99999 -99999 -99999 -99999 -99999 -99999 -99999 -99999
 -99999 -99999 -1505.2713623046875 -1504.906982421875 -1504.4351806640625 -1503.87060546875 -1503.2484130859375 -1502.8492431640625 -1503.1502685546875 -1504.12451171875 -1505.918701171875 -1508.78125 -1512.3892822265625 -1515.1048583984375 -1515.9298095703125 -1515.6102294921875 -1514.5701904296875 -1511.6263427734375 -1504.313720703125 -1494.4058837890625 -1483.8760986328125 -1473.4071044921875 -1463.7396240234375 -1454.331787109375 -1445.2259521484375 -1434.75830078125 -1423.3939208984375 -1410.8837890625 -1397.5496826171875 -1383.7901611328125 -1369.809326171875 -1355.5184326171875 -1340.9129638671875 -1326.1214599609375 -1311.178955078125 -1296.115966796875 -1281.184326171875 -1266.5595703125 -1252.107177734375 -1238.048828125 -1224.322021484375 -1210.7847900390625 -1197.4093017578125 -1184.1624755859375 -1170.8231201171875 -1157.3353271484375 -1143.74755859375 -1129.8629150390625 -1115.717041015625 -1101.362060546875 -1086.74755859375 -1071.966064453125 -1057.086669921875 -1042.144287109375 -1027.3065185546875 -1012.59893798828125 -998.2144775390625 -984.19744873046875 -970.6444091796875 -957.62200927734375 -945.50787353515625 -934.193359375 -924.46923828125 -916.037353515625 -909.37139892578125 -903.8211669921875 -899.00982666015625 -895.06488037109375 -893.31951904296875 -894.88916015625 -898.44549560546875 -904.14129638671875 -911.182861328125 -920.12713623046875 -929.36407470703125 -938.9840087890625 -948.70892333984375 -957.69940185546875 -966.25042724609375 -974.0430908203125 -980.960693359375 -987.0972900390625 -992.51953125 -997.153076171875 -1001.131591796875 -1004.59942626953125 -1007.46795654296875 -1009.9547119140625 -1012.11956787109375 -1014.02105712890625 -1015.66278076171875 -1017.0870361328125 -1018.3858642578125 -1019.60809326171875 -1020.75665283203125 -1021.82281494140625 -1022.84613037109375 -1023.883056640625 -1024.95556640625 -1026.056884765625 -1027.1671142578125 -1028.3194580078125 -1029.5556640625 -99999 -99999 -99999 -99999 -99999 -99999 -99999 -99999 -99999 -99999 -99999 -99999 -99999 -99999 -99999 -99999 -99999 -99999 -99999 -99999
 -99999 -99999 -1504.2589111328125 -1503.7911376953125 -1503.1044921875 -1502.1986083984375 -1501.23193359375 -1500.4287109375 -1500.0994873046875 -1500.68017578125 -1502.171630859375 -1505.0191650390625 -1508.8046875 -1511.9747314453125 -1512.957763671875 -1512.3323974609375 -1510.6778564453125 -1507.208251953125 -1500.74462890625 -1492.2279052734375 -1482.2496337890625 -1472.1748046875 -1462.0518798828125 -1452.2098388671875 -1442.1866455078125 -1431.355712890625 -1419.754150390625 -1407.385009765625 -1394.197265625 -1380.6312255859375 -1366.628662109375 -1352.3221435546875 -1337.8194580078125 -1323.0555419921875 -1308.1505126953125 -1293.254638671875 -1278.381591796875 -1263.671142578125 -1249.181396484375 -1234.9381103515625 -1220.9205322265625 -1207.0933837890625 -1193.44189453125 -1179.883056640625 -1166.1634521484375 -1152.453857421875 -1138.678955078125 -1124.5543212890625 -1110.3094482421875 -1095.96875 -1081.328369140625 -1066.5841064453125 -1051.9183349609375 -1037.0968017578125 -1022.389404296875 -1008.00836181640625 -993.78363037109375 -979.98675537109375 -966.7926025390625 -954.11724853515625 -942.26495361328125 -931.2811279296875 -921.5928955078125 -913.2657470703125 -906.1827392578125 -900.10247802734375 -894.83050537109375 -890.68878173828125 -890.4930419921875 -892.2208251953125 -895.893798828125 -902.0306396484375 -910.6229248046875 -920.21685791015625 -930.92730712890625 -941.512451171875 -951.670166015625 -961.45135498046875 -970.33624267578125 -978.36041259765625 -985.520751953125 -991.680419921875 -996.93450927734375 -1001.50958251953125 -1005.22479248046875 -1008.305419921875 -1010.97314453125 -1013.24591064453125 -1015.1201171875 -1016.6864013671875 -1018.07708740234375 -1019.30712890625 -1020.40704345703125 -1021.3585205078125 -1022.2364501953125 -1023.1082763671875 -1023.9765625 -1024.827880859375 -1025.6708984375 -1026.553466796875 -1027.5167236328125 -1028.5330810546875 -1029.607666015625 -99999 -99999 -99999 -99999 -99999 -99999 -99999 -99999 -99999 -99999 -99999 -99999 -99999 -99999 -99999 -99999 -99999 -99999 -99999 -99999
 -99999 -99999 -99999 -1502.7666015625 -1502.03173828125 -1501.022216796875 -1499.5927734375 -1498.1295166015625 -1497.577880859375 -1497.9444580078125 -1499.1475830078125 -1501.5362548828125 -1504.8636474609375 -1507.4727783203125 -1508.5584716796875 -1508.2493896484375 -1506.19482421875 -1502.1649169921875 -1496.2476806640625 -1488.57275390625 -1479.2869873046875 -1469.580810546875 -1459.5528564453125 -1449.5399169921875 -1438.78076171875 -1427.809326171875 -1416.04443359375 -1403.7032470703125 -1390.6431884765625 -1377.10205078125 -1363.2247314453125 -1349.0009765625 -1334.5194091796875 -1319.864990234375 -1305.0936279296875 -1290.2545166015625 -1275.4603271484375 -1260.796875 -1246.2332763671875 -1231.860107421875 -1217.7344970703125 -1203.6590576171875 -1189.71728515625 -1175.9417724609375 -1161.9781494140625 -1148.0208740234375 -1134.1339111328125 -1119.8662109375 -1105.5650634765625 -1091.2706298828125 -1076.6669921875 -1062.052001953125 -1047.5577392578125 -1032.9580078125 -1018.522705078125 -1004.39801025390625 -990.53985595703125 -977.000244140625 -964.0037841796875 -951.68072509765625 -940.193115234375 -929.54534912109375 -920.073486328125 -911.4617919921875 -904.470703125 -898.32861328125 -893.46661376953125 -890.3514404296875 -889.976806640625 -891.790771484375 -895.25311279296875 -902.3338623046875 -911.841552734375 -922.80340576171875 -934.09619140625 -945.5413818359375 -956.537109375 -966.66021728515625 -975.94671630859375 -984.14959716796875 -991.12835693359375 -997.14031982421875 -1002.2498779296875 -1006.37506103515625 -1009.7945556640625 -1012.662353515625 -1014.92547607421875 -1016.7757568359375 -1018.33868408203125 -1019.65777587890625 -1020.776611328125 -1021.66448974609375 -1022.47235107421875 -1023.2059326171875 -1023.905029296875 -1024.531982421875 -1025.1162109375 -1025.7586669921875 -1026.4375 -1027.1507568359375 -1027.9075927734375 -1028.7099609375 -99999 -99999 -99999 -99999 -99999 -99999 -99999 -99999 -99999 -99999 -99999 -99999 -99999 -99999 -99999 -99999 -99999 -99999 -99999 -99999 -99999
 -99999 -99999 -99999 -1501.873779296875 -1501.256591796875 -1500.0947265625 -1498.5147705078125 -1496.833740234375 -1495.5772705078125 -1495.9423828125 -1497.1026611328125 -1498.9805908203125 -1501.263671875 -1503.22216796875 -1503.8377685546875 -1503.037353515625 -1500.77197265625 -1496.9774169921875 -1491.4908447265625 -1483.8641357421875 -1475.4625244140625 -1466.0753173828125 -1456.0474853515625 -1445.82177734375 -1435.0557861328125 -1423.851318359375 -1412.120849609375 -1399.8017578125 -1386.7506103515625 -1373.4129638671875 -1359.6953125 -1345.4569091796875 -1331.1512451171875 -1316.6611328125 -1301.8736572265625 -1287.1654052734375 -1272.4259033203125 -1257.7454833984375 -1243.1956787109375 -1228.764892578125 -1214.4671630859375 -1200.290283203125 -1186.18896484375 -1172.1549072265625 -1158.10546875 -1144.025634765625 -1129.919189453125 -1115.7052001953125 -1101.4014892578125 -1087.0548095703125 -1072.6590576171875 -1058.212646484375 -1043.8148193359375 -1029.581298828125 -1015.4388427734375 -1001.5133056640625 -988.09283447265625 -974.96099853515625 -962.56292724609375 -950.56903076171875 -939.49615478515625 -929.3028564453125 -920.11431884765625 -911.87677001953125 -904.97052001953125 -899.0281982421875 -894.3564453125 -891.94122314453125 -891.6409912109375 -892.80194091796875 -896.3087158203125 -904.0904541015625 -915.59625244140625 -927.42425537109375 -939.68035888671875 -951.76544189453125 -963.18157958984375 -973.498046875 -982.8134765625 -990.9417724609375 -998.00738525390625 -1003.73980712890625 -1008.22344970703125 -1012.05206298828125 -1014.95770263671875 -1017.26953125 -1019.13885498046875 -1020.6431884765625 -1021.8519287109375 -1022.72509765625 -1023.51336669921875 -1024.1622314453125 -1024.6861572265625 -1025.137451171875 -1025.5433349609375 -1025.9439697265625 -1026.34423828125 -1026.761474609375 -1027.1988525390625 -1027.7098388671875 -1028.29052734375 -1028.941650390625 -99999 -99999 -99999 -99999 -99999 -99999 -99999 -99999 -99999 -99999 -99999 -99999 -99999 -99999 -99999 -99999 -99999 -99999 -99999 -99999 -99999
 -99999 -99999 -99999 -1500.907958984375 -1500.349365234375 -1499.4439697265625 -1497.7039794921875 -1495.966064453125 -1494.9061279296875 -1494.66357421875 -1495.2303466796875 -1496.451904296875 -1497.8336181640625 -1498.7606201171875 -1498.887939453125 -1497.9293212890625 -1495.4254150390625 -1491.7540283203125 -1485.93798828125 -1478.841552734375 -1470.701171875 -1461.6243896484375 -1452.0205078125 -1441.7852783203125 -1430.9735107421875 -1419.730224609375 -1407.9246826171875 -1395.562255859375 -1382.7735595703125 -1369.4178466796875 -1355.79638671875 -1341.794677734375 -1327.5467529296875 -1313.1322021484375 -1298.57958984375 -1283.9541015625 -1269.2994384765625 -1254.704833984375 -1240.1688232421875 -1225.7066650390625 -1211.3634033203125 -1197.098876953125 -1182.913818359375 -1168.7606201171875 -1154.628662109375 -1140.5302734375 -1126.35595703125 -1112.1414794921875 -1097.955078125 -1083.7042236328125 -1069.400390625 -1055.2431640625 -1041.1058349609375 -1027.08740234375 -1013.3778076171875 -999.88861083984375 -986.78704833984375 -974.15570068359375 -962.02716064453125 -950.56341552734375 -940.0128173828125 -930.20538330078125 -921.39154052734375 -913.3902587890625 -906.988037109375 -901.7578125 -898.00921630859375 -895.904541015625 -895.5240478515625 -896.85772705078125 -901.682861328125 -910.706787109375 -922.515869140625 -934.8719482421875 -947.45135498046875 -959.8052978515625 -971.18084716796875 -981.7723388671875 -991.2264404296875 -999.234130859375 -1005.81201171875 -1010.9537353515625 -1014.93121337890625 -1018.02783203125 -1020.4356689453125 -1022.2655029296875 -1023.63641357421875 -1024.629638671875 -1025.37548828125 -1025.922607421875 -1026.3663330078125 -1026.690673828125 -1026.914306640625 -1027.0924072265625 -1027.242919921875 -1027.383056640625 -1027.5450439453125 -1027.735595703125 -1027.9752197265625 -1028.27490234375 -1028.644287109375 -99999 -99999 -99999 -99999 -99999 -99999 -99999 -99999 -99999 -99999 -99999 -99999 -99999 -99999 -99999 -99999 -99999 -99999 -99999 -99999 -99999 -99999
 -99999 -99999 -99999 -99999 -1499.2161865234375 -1498.1241455078125 -1496.6658935546875 -1495.109375 -1493.8829345703125 -1493.4234619140625 -1493.5765380859375 -1494.01123046875 -1494.5281982421875 -1494.744140625 -1494.46435546875 -1492.989013671875 -1489.9576416015625 -1485.6104736328125 -1480.0968017578125 -1473.4405517578125 -1465.6517333984375 -1456.7974853515625 -1447.4208984375 -1437.193603515625 -1426.5084228515625 -1415.20947265625 -1403.587646484375 -1391.27197265625 -1378.4996337890625 -1365.3897705078125 -1351.8330078125 -1337.9935302734375 -1323.9354248046875 -1309.632568359375 -1295.211669921875 -1280.6888427734375 -1266.159912109375 -1251.6231689453125 -1237.121826171875 -1222.7799072265625 -1208.3592529296875 -1194.0643310546875 -1179.9085693359375 -1165.6812744140625 -1151.5189208984375 -1137.433837890625 -1123.2772216796875 -1109.1357421875 -1095.0501708984375 -1080.9410400390625 -1066.881103515625 -1052.9344482421875 -1039.0560302734375 -1025.4537353515625 -1012.08245849609375 -998.94598388671875 -986.3763427734375 -974.1732177734375 -962.65142822265625 -951.744384765625 -941.60528564453125 -932.4013671875 -924.22833251953125 -917.0145263671875 -911.00115966796875 -906.4820556640625 -903.195068359375 -901.726806640625 -902.51275634765625 -905.479248046875 -911.048583984375 -920.58746337890625 -931.97369384765625 -944.156494140625 -956.8934326171875 -969.2159423828125 -980.98583984375 -991.45562744140625 -1000.8040771484375 -1008.2010498046875 -1014.0301513671875 -1018.591796875 -1021.98150634765625 -1024.5035400390625 -1026.25927734375 -1027.3065185546875 -1028.023193359375 -1028.5689697265625 -1028.9090576171875 -1029.1220703125 -1029.1815185546875 -1029.1707763671875 -1029.1048583984375 -1029.0184326171875 -1028.91845703125 -1028.79931640625 -1028.7061767578125 -1028.654296875 -1028.6871337890625 -1028.796630859375 -1028.982177734375 -99999 -99999 -99999 -99999 -99999 -99999 -99999 -99999 -99999 -99999 -99999 -99999 -99999 -99999 -99999 -99999 -99999 -99999 -99999 -99999 -99999 -99999
 -99999 -99999 -99999 -99999 -99999 -1496.7330322265625 -1495.3529052734375 -1493.9345703125 -1493.028564453125 -1491.9593505859375 -1491.5501708984375 -1491.3082275390625 -1491.0662841796875 -1490.6014404296875 -1489.41064453125 -1487.2451171875 -1484.104736328125 -1479.913330078125 -1474.481689453125 -1467.8189697265625 -1460.059814453125 -1451.6734619140625 -1442.289794921875 -1432.251708984375 -1421.731689453125 -1410.5987548828125 -1398.9537353515625 -1386.7967529296875 -1374.1583251953125 -1361.1824951171875 -1347.76416015625 -1334.0970458984375 -1320.1788330078125 -1306.0137939453125 -1291.7586669921875 -1277.41943359375 -1262.973388671875 -1248.55029296875 -1234.1483154296875 -1219.7628173828125 -1205.4539794921875 -1191.1981201171875 -1176.9874267578125 -1162.84228515625 -1148.7396240234375 -1134.6474609375 -1120.6234130859375 -1106.609375 -1092.6192626953125 -1078.77001953125 -1064.9090576171875 -1051.3153076171875 -1037.78076171875 -1024.4786376953125 -1011.56988525390625 -998.8828125 -986.74298095703125 -975.119873046875 -964.1341552734375 -953.72332763671875 -944.29644775390625 -935.5374755859375 -927.87823486328125 -921.49090576171875 -916.15057373046875 -912.12518310546875 -909.86883544921875 -909.392333984375 -910.8779296875 -914.78839111328125 -921.72607421875 -930.8502197265625 -942.20635986328125 -954.51068115234375 -967.17095947265625 -979.6934814453125 -991.35430908203125 -1001.83758544921875 -1010.5181884765625 -1017.4599609375 -1022.919189453125 -1026.804443359375 -1029.378173828125 -1030.766357421875 -1031.6619873046875 -1032.121337890625 -1032.3961181640625 -1032.4232177734375 -1032.3017578125 -1032.110595703125 -1031.8587646484375 -1031.6053466796875 -1031.2607421875 -1030.872802734375 -1030.4791259765625 -1030.1092529296875 -1029.8206787109375 -1029.546630859375 -1029.339599609375 -1029.2186279296875 -99999 -99999 -99999 -99999 -99999 -99999 -99999 -99999 -99999 -99999 -99999 -99999 -99999 -99999 -99999 -99999 -99999 -99999 -99999 -99999 -99999 -99999 -99999
 -99999 -99999 -99999 -99999 -99999 -99999 -99999 -1492.618408203125 -1491.0269775390625 -1489.8626708984375 -1488.9608154296875 -1488.2783203125 -1487.4859619140625 -1486.2427978515625 -1484.480224609375 -1482.0152587890625 -1478.61767578125 -1474.121826171875 -1468.5946044921875 -1461.9871826171875 -1454.567626953125 -1446.2286376953125 -1436.971923828125 -1427.162109375 -1416.669189453125 -1405.7861328125 -1394.1187744140625 -1382.1324462890625 -1369.660888671875 -1356.8367919921875 -1343.600830078125 -1330.120849609375 -1316.3583984375 -1302.400390625 -1288.3060302734375 -1274.06005859375 -1259.8155517578125 -1245.4993896484375 -1231.1748046875 -1216.924072265625 -1202.6756591796875 -1188.489501953125 -1174.3658447265625 -1160.261474609375 -1146.256591796875 -1132.272216796875 -1118.35205078125 -1104.525390625 -1090.7430419921875 -1077.080810546875 -1063.5618896484375 -1050.194580078125 -1037.092041015625 -1024.203369140625 -1011.67449951171875 -999.4896240234375 -987.89886474609375 -976.73101806640625 -966.2569580078125 -956.49896240234375 -947.580810546875 -939.63848876953125 -932.79718017578125 -927.00994873046875 -922.48236083984375 -919.26348876953125 -917.96746826171875 -918.38360595703125 -920.6785888671875 -925.384765625 -932.58428955078125 -942.0081787109375 -953.05047607421875 -965.284423828125 -977.99041748046875 -990.6439208984375 -1002.3984375 -1012.31060791015625 -1020.69757080078125 -1027.294677734375 -1031.9376220703125 -1034.6339111328125 -1036.087158203125 -1036.7601318359375 -1036.945556640625 -1036.6905517578125 -1036.2884521484375 -1035.8492431640625 -1035.429931640625 -1034.9803466796875 -1034.4368896484375 -1033.8426513671875 -1033.2117919921875 -1032.608642578125 -1032.0076904296875 -1031.3741455078125 -1030.7852783203125 -1030.2664794921875 -1029.8897705078125 -1029.6025390625 -99999 -99999 -99999 -99999 -99999 -99999 -99999 -99999 -99999 -99999 -99999 -99999 -99999 -99999 -99999 -99999 -99999 -99999 -99999 -99999 -99999 -99999 -99999
 -99999 -99999 -99999 -99999 -99999 -99999 -99999 -99999 -99999 -1487.6029052734375 -1486.37353515625 -1485.07275390625 -1483.645263671875 -1481.9652099609375 -1479.7882080078125 -1476.8294677734375 -1473.0216064453125 -1468.374267578125 -1462.732666015625 -1456.2093505859375 -1448.91259765625 -1440.458740234375 -1431.465576171875 -1421.822998046875 -1411.54296875 -1400.6669921875 -1389.271484375 -1377.405029296875 -1365.0814208984375 -1352.4984130859375 -1339.37841796875 -1326.0328369140625 -1312.537109375 -1298.6944580078125 -1284.7684326171875 -1270.799072265625 -1256.6060791015625 -1242.4732666015625 -1228.3663330078125 -1214.1488037109375 -1200.0469970703125 -1186.014404296875 -1171.935546875 -1157.9864501953125 -1144.1114501953125 -1130.24853515625 -1116.515380859375 -1102.8643798828125 -1089.30712890625 -1075.9288330078125 -1062.6820068359375 -1049.622314453125 -1036.913330078125 -1024.3690185546875 -1012.36309814453125 -1000.6435546875 -989.5440673828125 -979.0189208984375 -969.22772216796875 -959.987548828125 -951.8828125 -944.5347900390625 -938.1966552734375 -933.06170654296875 -929.4163818359375 -927.19549560546875 -926.5567626953125 -927.6292724609375 -930.71612548828125 -936.0731201171875 -943.43011474609375 -952.75341796875 -963.796142578125 -976.0560302734375 -988.71881103515625 -1001.27423095703125 -1012.53973388671875 -1022.3287353515625 -1030.5146484375 -1036.5645751953125 -1040.3341064453125 -1042.12841796875 -1042.6307373046875 -1042.0982666015625 -1041.298583984375 -1040.487060546875 -1039.7254638671875 -1038.98193359375 -1038.2279052734375 -1037.4788818359375 -1036.7235107421875 -1035.940673828125 -1035.11328125 -1034.2025146484375 -1033.287109375 -1032.4447021484375 -1031.66748046875 -1030.9525146484375 -1030.3106689453125 -99999 -99999 -99999 -99999 -99999 -99999 -99999 -99999 -99999 -99999 -99999 -99999 -99999 -99999 -99999 -99999 -99999 -99999 -99999 -99999 -99999 -99999 -99999 -99999
 -99999 -99999 -99999 -99999 -99999 -99999 -99999 -99999 -99999 -99999 -1483.329833984375 -1481.689208984375 -1479.876953125 -1477.632568359375 -1474.87255859375 -1471.5836181640625 -1467.48779296875 -1462.70263671875 -1456.9256591796875 -1450.5155029296875 -1443.0118408203125 -1434.838623046875 -1425.9251708984375 -1416.3177490234375 -1406.228271484375 -1395.4998779296875 -1384.261474609375 -1372.56689453125 -1360.5606689453125 -1347.929931640625 -1335.1270751953125 -1322.0111083984375 -1308.59912109375 -1295.060791015625 -1281.3165283203125 -1267.4752197265625 -1253.524169921875 -1239.533935546875 -1225.5377197265625 -1211.526611328125 -1197.5516357421875 -1183.62890625 -1169.7418212890625 -1155.9189453125 -1142.194580078125 -1128.5550537109375 -1114.97802734375 -1101.576904296875 -1088.2462158203125 -1075.171630859375 -1062.293701171875 -1049.597900390625 -1037.2587890625 -1025.2366943359375 -1013.66064453125 -1002.45172119140625 -991.90594482421875 -981.85943603515625 -972.515625 -964.040771484375 -956.38201904296875 -949.7447509765625 -944.27130126953125 -939.92724609375 -936.88214111328125 -935.29901123046875 -935.227783203125 -937.14056396484375 -940.94256591796875 -946.6168212890625 -954.05999755859375 -963.4296875 -974.29986572265625 -986.2437744140625 -998.5352783203125 -1010.64093017578125 -1021.6712646484375 -1031.220458984375 -1039.538330078125 -1045.5374755859375 -1048.3087158203125 -1048.7315673828125 -1047.9202880859375 -1046.3643798828125 -1045.0791015625 -1043.6041259765625 -1042.43896484375 -1041.474365234375 -1040.6025390625 -1039.7354736328125 -1038.8240966796875 -1037.7962646484375 -1036.7108154296875 -1035.610107421875 -1034.5020751953125 -1033.396728515625 -1032.324951171875 -1031.391357421875 -1030.5926513671875 -99999 -99999 -99999 -99999 -99999 -99999 -99999 -99999 -99999 -99999 -99999 -99999 -99999 -99999 -99999 -99999 -99999 -99999 -99999 -99999 -99999 -99999 -99999 -99999
 -99999 -99999 -99999 -99999 -99999 -99999 -99999 -99999 -99999 -99999 -99999 -99999 -1475.7567138671875 -1473.1319580078125 -1470.0841064453125 -1466.453125 -1462.042724609375 -1456.9384765625 -1451.18408203125 -1444.618896484375 -1437.1300048828125 -1429.06396484375 -1420.2669677734375 -1410.88427734375 -1400.9686279296875 -1390.318603515625 -1379.2786865234375 -1367.7086181640625 -1355.8096923828125 -1343.4534912109375 -1330.8187255859375 -1317.92041015625 -1304.7513427734375 -1291.3543701171875 -1277.8004150390625 -1264.1568603515625 -1250.4090576171875 -1236.61328125 -1222.7841796875 -1208.9674072265625 -1195.1844482421875 -1181.403564453125 -1167.7078857421875 -1154.0966796875 -1140.535888671875 -1127.1302490234375 -1113.8096923828125 -1100.65478515625 -1087.639404296875 -1074.849609375 -1062.2818603515625 -1049.9749755859375 -1038.0716552734375 -1026.4267578125 -1015.2586669921875 -1004.62518310546875 -994.52587890625 -985.19036865234375 -976.4569091796875 -968.582763671875 -961.47247314453125 -955.47723388671875 -950.660400390625 -946.828125 -944.439453125 -943.62042236328125 -944.317138671875 -946.61517333984375 -950.5274658203125 -956.37677001953125 -964.15093994140625 -973.26837158203125 -983.7257080078125 -995.23492431640625 -1006.9036865234375 -1018.52728271484375 -1029.2803955078125 -1038.97802734375 -1047.8070068359375 -1052.9144287109375 -1054.3179931640625 -1053.0069580078125 -1051.1339111328125 -1049.2235107421875 -1047.458251953125 -1045.683349609375 -1044.4505615234375 -1043.446044921875 -1042.5693359375 -1041.650146484375 -1040.6082763671875 -1039.45263671875 -1038.193359375 -1036.825927734375 -1035.426513671875 -1034.102783203125 -1032.8526611328125 -1031.7021484375 -99999 -99999 -99999 -99999 -99999 -99999 -99999 -99999 -99999 -99999 -99999 -99999 -99999 -99999 -99999 -99999 -99999 -99999 -99999 -99999 -99999 -99999 -99999 -99999 -99999
 -99999 -99999 -99999 -99999 -99999 -99999 -99999 -99999 -99999 -99999 -99999 -99999 -99999 -99999 -1465.1409912109375 -1461.1346435546875 -1456.5477294921875 -1451.4024658203125 -1445.5841064453125 -1438.716552734375 -1431.44970703125 -1423.4095458984375 -1414.60400390625 -1405.4393310546875 -1395.5205078125 -1385.0479736328125 -1374.1461181640625 -1362.84912109375 -1351.11474609375 -1338.98388671875 -1326.5511474609375 -1313.8355712890625 -1300.853271484375 -1287.7171630859375 -1274.418212890625 -1260.936767578125 -1247.4063720703125 -1233.8408203125 -1220.1976318359375 -1206.5601806640625 -1192.9586181640625 -1179.393310546875 -1165.90087890625 -1152.4805908203125 -1139.1556396484375 -1125.9796142578125 -1112.8968505859375 -1100.0162353515625 -1087.278076171875 -1074.8372802734375 -1062.6510009765625 -1050.7056884765625 -1039.192626953125 -1028.06591796875 -1017.41107177734375 -1007.18914794921875 -997.66009521484375 -988.82562255859375 -980.56085205078125 -973.1654052734375 -966.87384033203125 -961.5001220703125 -956.9669189453125 -954.04095458984375 -952.28851318359375 -951.81463623046875 -952.7291259765625 -955.31451416015625 -959.617431640625 -965.61865234375 -973.36279296875 -982.23553466796875 -992.23388671875 -1002.88275146484375 -1014.00408935546875 -1025.06494140625 -1035.45263671875 -1044.9591064453125 -1053.2083740234375 -1057.9635009765625 -1057.138427734375 -1055.20361328125 -1052.9156494140625 -1050.4453125 -1048.291015625 -1046.9661865234375 -1045.6510009765625 -1044.9027099609375 -1044.149658203125 -1043.2833251953125 -1042.2261962890625 -1040.9012451171875 -1039.3922119140625 -1037.8033447265625 -1036.1888427734375 -1034.6007080078125 -1033.0872802734375 -1031.754638671875 -99999 -99999 -99999 -99999 -99999 -99999 -99999 -99999 -99999 -99999 -99999 -99999 -99999 -99999 -99999 -99999 -99999 -99999 -99999 -99999 -99999 -99999 -99999 -99999 -99999
 -99999 -99999 -99999 -99999 -99999 -99999 -99999 -99999 -99999 -99999 -99999 -99999 -99999 -99999 -99999 -1455.9918212890625 -1451.190185546875 -1445.9764404296875 -1439.7825927734375 -1433.010498046875 -1425.6395263671875 -1417.5838623046875 -1409.093017578125 -1399.912841796875 -1390.08984375 -1379.8983154296875 -1369.1077880859375 -1358.0723876953125 -1346.4237060546875 -1334.4744873046875 -1322.2744140625 -1309.785400390625 -1297.0047607421875 -1284.0626220703125 -1270.9822998046875 -1257.752685546875 -1244.44580078125 -1231.0665283203125 -1217.67431640625 -1204.263671875 -1190.8641357421875 -1177.50634765625 -1164.2464599609375 -1151.0716552734375 -1137.974853515625 -1125.0509033203125 -1112.285888671875 -1099.7183837890625 -1087.3126220703125 -1075.1973876953125 -1063.361083984375 -1051.8118896484375 -1040.715576171875 -1030.0054931640625 -1019.740966796875 -1010.10015869140625 -1000.935546875 -992.59002685546875 -985.060546875 -978.259765625 -972.38641357421875 -967.4266357421875 -963.60614013671875 -961.06805419921875 -959.6932373046875 -959.6334228515625 -960.91156005859375 -963.953125 -968.479736328125 -974.3985595703125 -981.54364013671875 -989.85382080078125 -999.16632080078125 -1009.280029296875 -1019.61322021484375 -1029.806884765625 -1039.239013671875 -1047.7724609375 -1053.9615478515625 -1056.9921875 -1056.922119140625 -1055.2301025390625 -1052.7960205078125 -1050.2542724609375 -1048.2088623046875 -1046.8416748046875 -1046.276123046875 -1045.9197998046875 -1045.53857421875 -1044.7705078125 -1043.602294921875 -1042.1212158203125 -1040.4014892578125 -1038.53271484375 -1036.6390380859375 -1034.81640625 -1033.112060546875 -99999 -99999 -99999 -99999 -99999 -99999 -99999 -99999 -99999 -99999 -99999 -99999 -99999 -99999 -99999 -99999 -99999 -99999 -99999 -99999 -99999 -99999 -99999 -99999 -99999 -99999
 -99999 -99999 -99999 -99999 -99999 -99999 -99999 -99999 -99999 -99999 -99999 -99999 -99999 -99999 -99999 -99999 -99999 -1440.247802734375 -1434.0706787109375 -1427.3533935546875 -1419.9979248046875 -1412.0286865234375 -1403.53955078125 -1394.41943359375 -1384.7647705078125 -1374.6392822265625 -1364.11572265625 -1353.1092529296875 -1341.742431640625 -1330.056640625 -1318.0484619140625 -1305.75341796875 -1293.2623291015625 -1280.4991455078125 -1267.65087890625 -1254.635009765625 -1241.5552978515625 -1228.412109375 -1215.2369384765625 -1202.072265625 -1188.956298828125 -1175.8465576171875 -1162.8125 -1149.8896484375 -1137.065673828125 -1124.425048828125 -1111.919189453125 -1099.6180419921875 -1087.5472412109375 -1075.8023681640625 -1064.2886962890625 -1053.20458984375 -1042.438232421875 -1032.2086181640625 -1022.43719482421875 -1013.24658203125 -1004.5941162109375 -996.7142333984375 -989.61083984375 -983.1751708984375 -977.79461669921875 -973.48602294921875 -970.17010498046875 -967.90594482421875 -966.81121826171875 -967.18017578125 -968.89581298828125 -971.8800048828125 -976.10455322265625 -981.73797607421875 -988.6912841796875 -996.52984619140625 -1005.19195556640625 -1014.454345703125 -1023.78814697265625 -1032.7608642578125 -1041.2557373046875 -1048.5557861328125 -1053.3604736328125 -1055.8050537109375 -1055.4041748046875 -1053.897705078125 -1051.4962158203125 -1048.49853515625 -1046.562744140625 -1046.1744384765625 -1046.4571533203125 -1046.994140625 -1047.053955078125 -1046.3590087890625 -1044.9266357421875 -1043.2208251953125 -1041.1243896484375 -1038.9322509765625 -1036.74658203125 -1034.647705078125 -1032.756103515625 -99999 -99999 -99999 -99999 -99999 -99999 -99999 -99999 -99999 -99999 -99999 -99999 -99999 -99999 -99999 -99999 -99999 -99999 -99999 -99999 -99999 -99999 -99999 -99999 -99999 -99999
 -99999 -99999 -99999 -99999 -99999 -99999 -99999 -99999 -99999 -99999 -99999 -99999 -99999 -99999 -99999 -99999 -99999 -99999 -99999 -1421.7958984375 -1414.3370361328125 -1406.53271484375 -1398.029541015625 -1388.9625244140625 -1379.5244140625 -1369.5711669921875 -1359.2181396484375 -1348.3629150390625 -1337.1668701171875 -1325.6263427734375 -1313.917724609375 -1301.7679443359375 -1289.4765625 -1277.0238037109375 -1264.3858642578125 -1251.629638671875 -1238.8096923828125 -1225.9014892578125 -1212.9664306640625 -1200.0457763671875 -1187.1016845703125 -1174.2979736328125 -1161.500244140625 -1148.8095703125 -1136.2723388671875 -1123.915283203125 -1111.7337646484375 -1099.8056640625 -1088.046142578125 -1076.646484375 -1065.5399169921875 -1054.814697265625 -1044.4404296875 -1034.635009765625 -1025.2095947265625 -1016.3865966796875 -1008.30047607421875 -1000.80133056640625 -994.16778564453125 -988.34539794921875 -983.34307861328125 -979.34393310546875 -976.293701171875 -974.49688720703125 -973.83099365234375 -974.29473876953125 -975.92926025390625 -978.99560546875 -983.1585693359375 -988.53546142578125 -994.8450927734375 -1002.0556640625 -1010.031494140625 -1018.28009033203125 -1026.740966796875 -1034.7421875 -1041.820068359375 -1047.8529052734375 -1051.6251220703125 -1053.514404296875 -1053.5614013671875 -1052.0037841796875 -1049.217041015625 -1046.140380859375 -1044.835693359375 -1045.62841796875 -1046.8974609375 -1048.0013427734375 -1048.3345947265625 -1047.7054443359375 -1046.3154296875 -1043.9359130859375 -1041.4683837890625 -1038.948486328125 -1036.4896240234375 -1034.169677734375 -99999 -99999 -99999 -99999 -99999 -99999 -99999 -99999 -99999 -99999 -99999 -99999 -99999 -99999 -99999 -99999 -99999 -99999 -99999 -99999 -99999 -99999 -99999 -99999 -99999 -99999 -99999
 -99999 -99999 -99999 -99999 -99999 -99999 -99999 -99999 -99999 -99999 -99999 -99999 -99999 -99999 -99999 -99999 -99999 -99999 -99999 -99999 -99999 -1401.0689697265625 -1392.574951171875 -1383.6781005859375 -1374.2803955078125 -1364.4876708984375 -1354.2210693359375 -1343.5723876953125 -1332.6192626953125 -1321.3756103515625 -1309.7200927734375 -1297.907470703125 -1285.8597412109375 -1273.596435546875 -1261.22119140625 -1248.6654052734375 -1236.0506591796875 -1223.46728515625 -1210.7120361328125 -1198.0572509765625 -1185.4278564453125 -1172.821533203125 -1160.3607177734375 -1148 -1135.7279052734375 -1123.6724853515625 -1111.7918701171875 -1100.12939453125 -1088.72802734375 -1077.6812744140625 -1066.8878173828125 -1056.5390625 -1046.5521240234375 -1037.0933837890625 -1028.19921875 -1019.87677001953125 -1012.14312744140625 -1004.97052001953125 -998.837646484375 -993.32403564453125 -988.6483154296875 -985.0479736328125 -982.44464111328125 -980.82696533203125 -980.2271728515625 -980.88323974609375 -982.62841796875 -985.44903564453125 -989.34869384765625 -994.40411376953125 -1000.234130859375 -1006.83599853515625 -1014.1064453125 -1021.46539306640625 -1028.755615234375 -1035.5821533203125 -1041.7666015625 -1046.8985595703125 -1050.0023193359375 -1051.5770263671875 -1051.3770751953125 -1049.8609619140625 -1047.323486328125 -1044.8712158203125 -1044.3685302734375 -1045.736328125 -1047.9473876953125 -1049.87451171875 -1050.2403564453125 -1049.332763671875 -1047.3291015625 -1044.4317626953125 -1041.4661865234375 -1038.4986572265625 -1035.7127685546875 -1033.203857421875 -99999 -99999 -99999 -99999 -99999 -99999 -99999 -99999 -99999 -99999 -99999 -99999 -99999 -99999 -99999 -99999 -99999 -99999 -99999 -99999 -99999 -99999 -99999 -99999 -99999 -99999 -99999
 -99999 -99999 -99999 -99999 -99999 -99999 -99999 -99999 -99999 -99999 -99999 -99999 -99999 -99999 -99999 -99999 -99999 -99999 -99999 -99999 -99999 -99999 -1387.2012939453125 -1378.400634765625 -1369.18310546875 -1359.5372314453125 -1349.4185791015625 -1338.9404296875 -1328.1307373046875 -1317.0738525390625 -1305.67919921875 -1294.048095703125 -1282.216796875 -1270.2481689453125 -1258.0482177734375 -1245.813232421875 -1233.4947509765625 -1221.057373046875 -1208.68994140625 -1196.28515625 -1183.8662109375 -1171.6005859375 -1159.3399658203125 -1147.2191162109375 -1135.2576904296875 -1123.5146484375 -1111.9149169921875 -1100.6419677734375 -1089.547119140625 -1078.830810546875 -1068.458740234375 -1058.4940185546875 -1048.8277587890625 -1039.85546875 -1031.285400390625 -1023.2623291015625 -1015.9068603515625 -1009.2852783203125 -1003.2911376953125 -998.22967529296875 -993.99481201171875 -990.61492919921875 -988.16973876953125 -986.71270751953125 -986.35784912109375 -986.951416015625 -988.65533447265625 -991.37445068359375 -995.064453125 -999.58709716796875 -1004.98345947265625 -1010.916015625 -1017.18487548828125 -1023.77392578125 -1030.2237548828125 -1036.2691650390625 -1041.312255859375 -1045.4500732421875 -1048.5074462890625 -1049.6260986328125 -1049.7384033203125 -1048.60302734375 -1046.725341796875 -1045.4713134765625 -1045.4454345703125 -1047.066650390625 -1050.0948486328125 -1052.4088134765625 -1052.4720458984375 -1050.466796875 -1047.7471923828125 -1044.183349609375 -1040.684814453125 -1037.4595947265625 -1034.4686279296875 -99999 -99999 -99999 -99999 -99999 -99999 -99999 -99999 -99999 -99999 -99999 -99999 -99999 -99999 -99999 -99999 -99999 -99999 -99999 -99999 -99999 -99999 -99999 -99999 -99999 -99999 -99999 -99999
 -99999 -99999 -99999 -99999 -99999 -99999 -99999 -99999 -99999 -99999 -99999 -99999 -99999 -99999 -99999 -99999 -99999 -99999 -99999 -99999 -99999 -99999 -99999 -99999 -1364.1070556640625 -1354.632080078125 -1344.6239013671875 -1334.367431640625 -1323.773681640625 -1312.906005859375 -1301.7099609375 -1290.3419189453125 -1278.7252197265625 -1266.9688720703125 -1255.0631103515625 -1243.04638671875 -1230.9307861328125 -1218.8192138671875 -1206.6385498046875 -1194.478515625 -1182.4442138671875 -1170.3602294921875 -1158.4437255859375 -1146.6851806640625 -1134.9903564453125 -1123.541748046875 -1112.291748046875 -1101.296875 -1090.5416259765625 -1080.1776123046875 -1070.112060546875 -1060.4373779296875 -1051.2576904296875 -1042.47119140625 -1034.33740234375 -1026.751953125 -1019.7698974609375 -1013.44970703125 -1007.7593994140625 -1002.95867919921875 -998.96044921875 -995.8612060546875 -993.65380859375 -992.3631591796875 -992.03912353515625 -992.62890625 -994.18890380859375 -996.632080078125 -1000.013671875 -1004.0548095703125 -1008.8717041015625 -1014.24456787109375 -1019.9300537109375 -1025.730712890625 -1031.12548828125 -1036.2288818359375 -1040.7138671875 -1044.317626953125 -1046.9444580078125 -1048.25 -1048.396484375 -1047.9896240234375 -1047.377685546875 -1046.6737060546875 -1047.5926513671875 -1049.764892578125 -1052.961181640625 -1055.3565673828125 -1054.3157958984375 -1051.268798828125 -1047.3856201171875 -1043.1781005859375 -1039.2908935546875 -1035.7183837890625 -1032.590087890625 -99999 -99999 -99999 -99999 -99999 -99999 -99999 -99999 -99999 -99999 -99999 -99999 -99999 -99999 -99999 -99999 -99999 -99999 -99999 -99999 -99999 -99999 -99999 -99999 -99999 -99999 -99999 -99999
 -99999 -99999 -99999 -99999 -99999 -99999 -99999 -99999 -99999 -99999 -99999 -99999 -99999 -99999 -99999 -99999 -99999 -99999 -99999 -99999 -99999 -99999 -99999 -99999 -99999 -99999 -1340.0042724609375 -1329.8773193359375 -1319.4517822265625 -1308.7991943359375 -1297.8194580078125 -1286.634521484375 -1275.284912109375 -1263.787109375 -1252.0933837890625 -1240.3642578125 -1228.56689453125 -1216.6341552734375 -1204.7939453125 -1192.9195556640625 -1181.0911865234375 -1169.354736328125 -1157.6846923828125 -1146.152099609375 -1134.7891845703125 -1123.6617431640625 -1112.6812744140625 -1102.0228271484375 -1091.5833740234375 -1081.525146484375 -1071.89501953125 -1062.5985107421875 -1053.707275390625 -1045.2977294921875 -1037.5037841796875 -1030.1868896484375 -1023.43670654296875 -1017.48175048828125 -1012.2308349609375 -1007.69622802734375 -1003.74237060546875 -1000.84228515625 -998.87890625 -997.5849609375 -997.232177734375 -997.785888671875 -999.27374267578125 -1001.396240234375 -1004.32379150390625 -1008.1846923828125 -1012.447509765625 -1017.11248779296875 -1021.93902587890625 -1026.9810791015625 -1031.8289794921875 -1036.3214111328125 -1040.1663818359375 -1043.2362060546875 -1045.46728515625 -1047.1097412109375 -1047.65087890625 -1047.7320556640625 -1047.7900390625 -1048.2459716796875 -1049.6431884765625 -1052.0010986328125 -1054.96240234375 -1056.8900146484375 -1054.6998291015625 -1050.0501708984375 -1045.4288330078125 -1041.0133056640625 -1036.9388427734375 -1033.3409423828125 -99999 -99999 -99999 -99999 -99999 -99999 -99999 -99999 -99999 -99999 -99999 -99999 -99999 -99999 -99999 -99999 -99999 -99999 -99999 -99999 -99999 -99999 -99999 -99999 -99999 -99999 -99999 -99999 -99999
 -99999 -99999 -99999 -99999 -99999 -99999 -99999 -99999 -99999 -99999 -99999 -99999 -99999 -99999 -99999 -99999 -99999 -99999 -99999 -99999 -99999 -99999 -99999 -99999 -99999 -99999 -99999 -1325.4945068359375 -1315.35302734375 -1304.7568359375 -1294.0665283203125 -1283.10009765625 -1271.953125 -1260.6995849609375 -1249.2686767578125 -1237.76220703125 -1226.1966552734375 -1214.588134765625 -1202.9644775390625 -1191.3551025390625 -1179.8096923828125 -1168.3543701171875 -1156.9747314453125 -1145.798095703125 -1134.7083740234375 -1123.873779296875 -1113.2508544921875 -1102.90576171875 -1092.7830810546875 -1083.072021484375 -1073.6806640625 -1064.671142578125 -1056.130859375 -1048.0396728515625 -1040.5018310546875 -1033.57666015625 -1027.2379150390625 -1021.50335693359375 -1016.41680908203125 -1012.01910400390625 -1008.50079345703125 -1005.73089599609375 -1003.6397705078125 -1002.3531494140625 -1002.00640869140625 -1002.4052734375 -1003.7415771484375 -1005.80926513671875 -1008.42291259765625 -1011.611572265625 -1015.39349365234375 -1019.5235595703125 -1023.82745361328125 -1028.1707763671875 -1032.296630859375 -1036.1339111328125 -1039.4947509765625 -1042.2894287109375 -1044.4576416015625 -1045.926025390625 -1047.1456298828125 -1047.4693603515625 -1048.1038818359375 -1049.059326171875 -1050.5081787109375 -1052.4346923828125 -1054.300537109375 -1054.4105224609375 -1051.599853515625 -1047.1998291015625 -1042.5145263671875 -1037.9754638671875 -1033.8150634765625 -1030.2283935546875 -99999 -99999 -99999 -99999 -99999 -99999 -99999 -99999 -99999 -99999 -99999 -99999 -99999 -99999 -99999 -99999 -99999 -99999 -99999 -99999 -99999 -99999 -99999 -99999 -99999 -99999 -99999 -99999 -99999
 -99999 -99999 -99999 -99999 -99999 -99999 -99999 -99999 -99999 -99999 -99999 -99999 -99999 -99999 -99999 -99999 -99999 -99999 -99999 -99999 -99999 -99999 -99999 -99999 -99999 -99999 -99999 -99999 -99999 -1300.837158203125 -1290.326416015625 -1279.6280517578125 -1268.77392578125 -1257.660888671875 -1246.5189208984375 -1235.2666015625 -1223.93408203125 -1212.6083984375 -1201.267333984375 -1189.95751953125 -1178.671630859375 -1167.5037841796875 -1156.432373046875 -1145.499267578125 -1134.724609375 -1124.195556640625 -1113.8406982421875 -1103.756591796875 -1093.9736328125 -1084.5841064453125 -1075.547119140625 -1066.867919921875 -1058.6572265625 -1050.84765625 -1043.5989990234375 -1036.955322265625 -1030.787841796875 -1025.25634765625 -1020.4896240234375 -1016.37640380859375 -1012.92529296875 -1010.155517578125 -1008.19580078125 -1007.08056640625 -1006.66943359375 -1006.94940185546875 -1007.90106201171875 -1009.614990234375 -1011.96405029296875 -1014.7894287109375 -1018.0126953125 -1021.5479736328125 -1025.2835693359375 -1029.00927734375 -1032.6240234375 -1035.986328125 -1039.0123291015625 -1041.4527587890625 -1043.4005126953125 -1044.9100341796875 -1046.128662109375 -1047.196044921875 -1047.90625 -1048.7955322265625 -1049.9932861328125 -1051.107177734375 -1051.50537109375 -1050.596923828125 -1047.8634033203125 -1043.4615478515625 -1038.689697265625 -1034.0810546875 -1030.186279296875 -99999 -99999 -99999 -99999 -99999 -99999 -99999 -99999 -99999 -99999 -99999 -99999 -99999 -99999 -99999 -99999 -99999 -99999 -99999 -99999 -99999 -99999 -99999 -99999 -99999 -99999 -99999 -99999 -99999 -99999
 -99999 -99999 -99999 -99999 -99999 -99999 -99999 -99999 -99999 -99999 -99999 -99999 -99999 -99999 -99999 -99999 -99999 -99999 -99999 -99999 -99999 -99999 -99999 -99999 -99999 -99999 -99999 -99999 -99999 -99999 -99999 -1276.245361328125 -1265.608154296875 -1254.7598876953125 -1243.847900390625 -1232.877197265625 -1221.8201904296875 -1210.7242431640625 -1199.654541015625 -1188.6068115234375 -1177.6002197265625 -1166.7271728515625 -1155.931884765625 -1145.2720947265625 -1134.7779541015625 -1124.517333984375 -1114.5137939453125 -1104.79150390625 -1095.2822265625 -1086.1378173828125 -1077.4178466796875 -1068.984375 -1060.9991455078125 -1053.5689697265625 -1046.4718017578125 -1040.0992431640625 -1034.2838134765625 -1029.0177001953125 -1024.3182373046875 -1020.25750732421875 -1016.97784423828125 -1014.402099609375 -1012.478515625 -1011.20849609375 -1010.636962890625 -1010.85931396484375 -1011.69921875 -1013.09326171875 -1014.99603271484375 -1017.4256591796875 -1020.26275634765625 -1023.31707763671875 -1026.4990234375 -1029.7257080078125 -1032.9197998046875 -1035.7999267578125 -1038.381103515625 -1040.622314453125 -1042.4984130859375 -1043.962890625 -1045.0814208984375 -1046.051025390625 -1046.9403076171875 -1047.85400390625 -1048.4105224609375 -1048.8690185546875 -1048.546630859375 -1047.0941162109375 -1043.721923828125 -1039.40185546875 -1034.6932373046875 -1030.2125244140625 -1026.4150390625 -99999 -99999 -99999 -99999 -99999 -99999 -99999 -99999 -99999 -99999 -99999 -99999 -99999 -99999 -99999 -99999 -99999 -99999 -99999 -99999 -99999 -99999 -99999 -99999 -99999 -99999 -99999 -99999 -99999 -99999
 -99999 -99999 -99999 -99999 -99999 -99999 -99999 -99999 -99999 -99999 -99999 -99999 -99999 -99999 -99999 -99999 -99999 -99999 -99999 -99999 -99999 -99999 -99999 -99999 -99999 -99999 -99999 -99999 -99999 -99999 -99999 -99999 -99999 -99999 -99999 -99999 -99999 -99999 -99999 -1187.333251953125 -1176.609619140625 -1165.9903564453125 -1155.494140625 -1145.1536865234375 -1134.9459228515625 -1125.0029296875 -1115.2435302734375 -1105.741455078125 -1096.52978515625 -1087.72998046875 -1079.1783447265625 -1071.1114501953125 -1063.4700927734375 -1056.237060546875 -1049.4412841796875 -1043.25732421875 -1037.5777587890625 -1032.440673828125 -1027.9984130859375 -1024.1239013671875 -1020.8905029296875 -1018.2401123046875 -1016.31695556640625 -1015.097900390625 -1014.48541259765625 -1014.44635009765625 -1014.98602294921875 -1016.16888427734375 -1017.8206787109375 -1019.84393310546875 -1022.172607421875 -1024.8060302734375 -1027.597900390625 -1030.3419189453125 -1033.0078125 -1035.529541015625 -1037.8516845703125 -1039.851806640625 -1041.47900390625 -1042.827880859375 -1043.920654296875 -1044.796875 -1045.5013427734375 -1046.0479736328125 -1046.4046630859375 -1046.1922607421875 -1045.1602783203125 -1042.9129638671875 -1039.65966796875 -1035.6636962890625 -1031.206787109375 -1026.69189453125 -99999 -99999 -99999 -99999 -99999 -99999 -99999 -99999 -99999 -99999 -99999 -99999 -99999 -99999 -99999 -99999 -99999 -99999 -99999 -99999 -99999 -99999 -99999 -99999 -99999 -99999 -99999 -99999 -99999 -99999 -99999
 -99999 -99999 -99999 -99999 -99999 -99999 -99999 -99999 -99999 -99999 -99999 -99999 -99999 -99999 -99999 -99999 -99999 -99999 -99999 -99999 -99999 -99999 -99999 -99999 -99999 -99999 -99999 -99999 -99999 -99999 -99999 -99999 -99999 -99999 -99999 -99999 -99999 -99999 -99999 -99999 -99999 -99999 -99999 -99999 -99999 -99999 -1115.963623046875 -1106.7928466796875 -1097.889404296875 -1089.2421875 -1081.0853271484375 -1073.2320556640625 -1065.7950439453125 -1058.7650146484375 -1052.2578125 -1046.1990966796875 -1040.778076171875 -1035.858642578125 -1031.4635009765625 -1027.666748046875 -1024.4991455078125 -1021.9837646484375 -1020.013916015625 -1018.62384033203125 -1017.90130615234375 -1017.746826171875 -1018.132568359375 -1018.96697998046875 -1020.21795654296875 -1021.9561767578125 -1023.96807861328125 -1026.1417236328125 -1028.4202880859375 -1030.7628173828125 -1033.1221923828125 -1035.301025390625 -1037.236328125 -1038.9556884765625 -99999 -99999 -99999 -99999 -99999 -99999 -99999 -99999 -99999 -99999 -99999 -99999 -99999 -99999 -99999 -99999 -99999 -99999 -99999 -99999 -99999 -99999 -99999 -99999 -99999 -99999 -99999 -99999 -99999 -99999 -99999 -99999 -99999 -99999 -99999 -99999 -99999 -99999 -99999 -99999 -99999 -99999 -99999 -99999 -99999
 -99999 -99999 -99999 -99999 -99999 -99999 -99999 -99999 -99999 -99999 -99999 -99999 -99999 -99999 -99999 -99999 -99999 -99999 -99999 -99999 -99999 -99999 -99999 -99999 -99999 -99999 -99999 -99999 -99999 -99999 -99999 -99999 -99999 -99999 -99999 -99999 -99999 -99999 -99999 -99999 -99999 -99999 -99999 -99999 -99999 -99999 -99999 -99999 -99999 -99999 -99999 -99999 -99999 -99999 -1054.9923095703125 -1049.064697265625 -1043.8076171875 -1039.02294921875 -1034.739501953125 -1031.07421875 -1027.9300537109375 -1025.3817138671875 -1023.388916015625 -1021.98541259765625 -1021.11102294921875 -99999 -99999 -99999 -99999 -99999 -99999 -99999 -99999 -99999 -99999 -99999 -99999 -99999 -99999 -99999 -99999 -99999 -99999 -99999 -99999 -99999 -99999 -99999 -99999 -99999 -99999 -99999 -99999 -99999 -99999 -99999 -99999 -99999 -99999 -99999 -99999 -99999 -99999 -99999 -99999 -99999 -99999 -99999 -99999 -99999 -99999 -99999 -99999 -99999 -99999 -99999 -99999 -99999 -99999 -99999 -99999 -99999 -99999
