ncols        229
nrows        213
xllcorner    207242.524482158362
yllcorner    8951309.872862134129
cellsize     50.000000000000
NODATA_value  -99999
 -99999.0 -99999 -99999 -99999 -99999 -99999 -99999 -99999 -99999 -99999 -99999 -99999 -99999 -99999 -99999 -99999 -99999 -99999 -99999 -99999 -99999 -99999 -99999 -99999 -99999 -99999 -99999 -99999 -99999 -99999 -99999 -99999 -99999 -99999 -99999 -99999 -99999 -99999 -99999 -99999 -99999 -99999 -99999 -99999 -99999 -99999 -99999 -99999 -99999 -99999 -99999 -99999 -99999 -99999 -99999 -99999 -99999 -99999 -99999 -99999 -99999 -99999 -99999 -99999 -99999 -99999 -99999 -99999 -99999 -99999 -99999 -99999 -99999 -99999 -99999 -99999 -99999 -99999 -99999 -99999 -99999 -99999 -99999 -99999 -99999 -99999 -99999 -99999 -99999 -99999 -99999 -99999 -99999 -99999 -99999 -99999 -99999 -99999 -99999 -99999 -99999 -99999 -99999 -99999 -99999 -99999 -99999 -99999 -99999 -99999 -99999 -99999 -99999 -99999 -99999 -99999 -99999 -99999 -99999 -99999 -99999 -99999 -99999 -99999 -99999 -99999 -99999 -99999 -99999 -99999 -99999 -99999 -99999 -99999 -99999 -99999 -99999 -99999 -99999 -99999 -99999 -99999 -99999 -99999 -99999 -99999 -99999 -99999 -99999 -99999 -99999 -99999 -99999 -99999 -99999 -99999 -99999 -99999 -99999 -99999 -99999 -99999 -99999 -99999 -99999 -99999 -99999 -99999 -99999 -99999 -99999 -99999 -99999 -99999 -99999 -99999 -99999 -99999 -99999 -99999 -99999 -99999 -99999 -99999 -99999 -99999 -99999 -99999 -99999 -99999 -99999 -99999 -99999 -99999 -99999 -99999 -99999 -99999 -99999 -99999 -99999 -99999 -99999 -99999 -99999 -99999 -99999 -99999 -99999 -99999 -99999 -99999 -99999 -99999 -99999 -99999 -99999 -99999 -99999 -99999 -99999 -99999 -99999 -99999 -99999 -99999 -99999 -99999 -99999
 -99999 -99999 -99999 -99999 -99999 -99999 -99999 -99999 -99999 -99999 -99999 -99999 -99999 -99999 -99999 -99999 -99999 -99999 -99999 -99999 -99999 -99999 -99999 -99999 -99999 -99999 -99999 -99999 -99999 -99999 -99999 -99999 -99999 -99999 -99999 -99999 -99999 -99999 -99999 -99999 -99999 -99999 -99999 -99999 -99999 -99999 -99999 -99999 -99999 -99999 -99999 -99999 -99999 -99999 -99999 -99999 -99999 -99999 -99999 -99999 -99999 -99999 -99999 -99999 -99999 -99999 -99999 -99999 -99999 -99999 -99999 -99999 -99999 -99999 -99999 -99999 -99999 -99999 -99999 -99999 -99999 -99999 -99999 -99999 -99999 -99999 -99999 -99999 -99999 -99999 -99999 -99999 -99999 -99999 -99999 -99999 -99999 -99999 -99999 -99999 -99999 -99999 -99999 -99999 -99999 -99999 -99999 -99999 -99999 -99999 -99999 -99999 -99999 -99999 -99999 -99999 -99999 -99999 -99999 -99999 -99999 -99999 -99999 -99999 -99999 -99999 -99999 -99999 -99999 -99999 -99999 -99999 -99999 -99999 -99999 -99999 -99999 -99999 -99999 -99999 -99999 -99999 -99999 -99999 -99999 -99999 -99999 -99999 -99999 -99999 -99999 -99999 -99999 -99999 -99999 -99999 -99999 -99999 -99999 -99999 -99999 -99999 -99999 -99999 -99999 -99999 -99999 -99999 -99999 -99999 -99999 -99999 -99999 -99999 -99999 -99999 -99999 -99999 -99999 -99999 -99999 -99999 -99999 -99999 -99999 -99999 -99999 -99999 -99999 -99999 -99999 -99999 -99999 -99999 -99999 -99999 -99999 -99999 -99999 -99999 -99999 -99999 -99999 -99999 -99999 -99999 -99999 -99999 -99999 -99999 -99999 -99999 -99999 -99999 -99999 -99999 -99999 -99999 -99999 -99999 -2410.4306640625 -2410.751708984375 -2411.028564453125 -99999 -99999 -99999 -99999 -99999 -99999
 -99999 -99999 -99999 -99999 -99999 -99999 -99999 -99999 -99999 -99999 -99999 -99999 -99999 -99999 -99999 -99999 -99999 -99999 -99999 -99999 -99999 -99999 -99999 -99999 -99999 -99999 -99999 -99999 -99999 -99999 -99999 -99999 -99999 -99999 -99999 -99999 -99999 -99999 -99999 -99999 -99999 -99999 -99999 -99999 -99999 -99999 -99999 -99999 -99999 -99999 -99999 -99999 -99999 -99999 -99999 -99999 -99999 -99999 -99999 -99999 -99999 -99999 -99999 -99999 -99999 -99999 -99999 -99999 -99999 -99999 -99999 -99999 -99999 -99999 -99999 -99999 -99999 -99999 -99999 -99999 -99999 -99999 -99999 -99999 -99999 -99999 -99999 -99999 -99999 -99999 -99999 -99999 -99999 -99999 -99999 -99999 -99999 -99999 -99999 -99999 -99999 -99999 -99999 -99999 -99999 -99999 -99999 -99999 -99999 -99999 -99999 -99999 -99999 -99999 -99999 -99999 -99999 -99999 -99999 -99999 -99999 -99999 -99999 -99999 -99999 -99999 -99999 -99999 -99999 -99999 -99999 -99999 -99999 -99999 -99999 -99999 -99999 -99999 -99999 -99999 -99999 -99999 -99999 -99999 -99999 -99999 -99999 -99999 -99999 -99999 -99999 -99999 -99999 -99999 -99999 -99999 -99999 -99999 -99999 -99999 -99999 -99999 -99999 -99999 -99999 -99999 -99999 -99999 -99999 -99999 -99999 -99999 -99999 -99999 -99999 -99999 -99999 -99999 -99999 -99999 -99999 -99999 -99999 -99999 -99999 -99999 -99999 -99999 -99999 -99999 -99999 -99999 -99999 -99999 -99999 -99999 -99999 -99999 -99999 -99999 -99999 -99999 -99999 -99999 -99999 -99999 -99999 -99999 -99999 -99999 -99999 -99999 -99999 -99999 -99999 -99999 -99999 -2407.5107421875 -2406.5322265625 -2406.865966796875 -2407.412109375 -2407.837890625 -2408.1962890625 -2408.51806640625 -99999 -99999 -99999 -99999 -99999
 -99999 -99999 -99999 -99999 -99999 -99999 -99999 -99999 -99999 -99999 -99999 -99999 -99999 -99999 -99999 -99999 -99999 -99999 -99999 -99999 -99999 -99999 -99999 -99999 -99999 -99999 -99999 -99999 -99999 -99999 -99999 -99999 -99999 -99999 -99999 -99999 -99999 -99999 -99999 -99999 -99999 -99999 -99999 -99999 -99999 -99999 -99999 -99999 -99999 -99999 -99999 -99999 -99999 -99999 -99999 -99999 -99999 -99999 -99999 -99999 -99999 -99999 -99999 -99999 -99999 -99999 -99999 -99999 -99999 -99999 -99999 -99999 -99999 -99999 -99999 -99999 -99999 -99999 -99999 -99999 -99999 -99999 -99999 -99999 -99999 -99999 -99999 -99999 -99999 -99999 -99999 -99999 -99999 -99999 -99999 -99999 -99999 -99999 -99999 -99999 -99999 -99999 -99999 -99999 -99999 -99999 -99999 -99999 -99999 -99999 -99999 -99999 -99999 -99999 -99999 -99999 -99999 -99999 -99999 -99999 -99999 -99999 -99999 -99999 -99999 -99999 -99999 -99999 -99999 -99999 -99999 -99999 -99999 -99999 -99999 -99999 -99999 -99999 -99999 -99999 -99999 -99999 -99999 -99999 -99999 -99999 -99999 -99999 -99999 -99999 -99999 -99999 -99999 -99999 -99999 -99999 -99999 -99999 -99999 -99999 -99999 -99999 -99999 -99999 -99999 -99999 -99999 -99999 -99999 -99999 -99999 -99999 -99999 -99999 -99999 -99999 -99999 -99999 -99999 -99999 -99999 -99999 -99999 -99999 -99999 -99999 -99999 -99999 -99999 -99999 -99999 -99999 -99999 -99999 -99999 -99999 -99999 -99999 -99999 -99999 -99999 -99999 -99999 -99999 -99999 -99999 -99999 -99999 -99999 -99999 -99999 -99999 -99999 -99999 -99999 -2409.987060546875 -2407.57421875 -2404.77001953125 -2403.791259765625 -2404.0146484375 -2404.653076171875 -2405.16845703125 -2405.562744140625 -2405.862548828125 -2406.103759765625 -99999 -99999 -99999 -99999
 -99999 -99999 -99999 -99999 -99999 -99999 -99999 -99999 -99999 -99999 -99999 -99999 -99999 -99999 -99999 -99999 -99999 -99999 -99999 -99999 -99999 -99999 -99999 -99999 -99999 -99999 -99999 -99999 -99999 -99999 -99999 -99999 -99999 -99999 -99999 -99999 -99999 -99999 -99999 -99999 -99999 -99999 -99999 -99999 -99999 -99999 -99999 -99999 -99999 -99999 -99999 -99999 -99999 -99999 -99999 -99999 -99999 -99999 -99999 -99999 -99999 -99999 -99999 -99999 -99999 -99999 -99999 -99999 -99999 -99999 -99999 -99999 -99999 -99999 -99999 -99999 -99999 -99999 -99999 -99999 -99999 -99999 -99999 -99999 -99999 -99999 -99999 -99999 -99999 -99999 -99999 -99999 -99999 -99999 -99999 -99999 -99999 -99999 -99999 -99999 -99999 -99999 -99999 -99999 -99999 -99999 -99999 -99999 -99999 -99999 -99999 -99999 -99999 -99999 -99999 -99999 -99999 -99999 -99999 -99999 -99999 -99999 -99999 -99999 -99999 -99999 -99999 -99999 -99999 -99999 -99999 -99999 -99999 -99999 -99999 -99999 -99999 -99999 -99999 -99999 -99999 -99999 -99999 -99999 -99999 -99999 -99999 -99999 -99999 -99999 -99999 -99999 -99999 -99999 -99999 -99999 -99999 -99999 -99999 -99999 -99999 -99999 -99999 -99999 -99999 -99999 -99999 -99999 -99999 -99999 -99999 -99999 -99999 -99999 -99999 -99999 -99999 -99999 -99999 -99999 -99999 -99999 -99999 -99999 -99999 -99999 -99999 -99999 -99999 -99999 -99999 -99999 -99999 -99999 -99999 -99999 -99999 -99999 -99999 -99999 -99999 -99999 -99999 -99999 -99999 -99999 -99999 -99999 -99999 -99999 -99999 -99999 -2415.468017578125 -2413.471435546875 -2411.401123046875 -2409.291015625 -2406.87451171875 -2404.291015625 -2402.39501953125 -2402.244873046875 -2402.586669921875 -2402.927978515625 -2403.2060546875 -2403.427978515625 -2403.573486328125 -2403.662353515625 -2403.705078125 -99999 -99999
 -99999 -99999 -99999 -99999 -99999 -99999 -99999 -99999 -99999 -99999 -99999 -99999 -99999 -99999 -99999 -99999 -99999 -99999 -99999 -99999 -99999 -99999 -99999 -99999 -99999 -99999 -99999 -99999 -99999 -99999 -99999 -99999 -99999 -99999 -99999 -99999 -99999 -99999 -99999 -99999 -99999 -99999 -99999 -99999 -99999 -99999 -99999 -99999 -99999 -99999 -99999 -99999 -99999 -99999 -99999 -99999 -99999 -99999 -99999 -99999 -99999 -99999 -99999 -99999 -99999 -99999 -99999 -99999 -99999 -99999 -99999 -99999 -99999 -99999 -99999 -99999 -99999 -99999 -99999 -99999 -99999 -99999 -99999 -99999 -99999 -99999 -99999 -99999 -99999 -99999 -99999 -99999 -99999 -99999 -99999 -99999 -99999 -99999 -99999 -99999 -99999 -99999 -99999 -99999 -99999 -99999 -99999 -99999 -99999 -99999 -99999 -99999 -99999 -99999 -99999 -99999 -99999 -99999 -99999 -99999 -99999 -99999 -99999 -99999 -99999 -99999 -99999 -99999 -99999 -99999 -99999 -99999 -99999 -99999 -99999 -99999 -99999 -99999 -99999 -99999 -99999 -99999 -99999 -99999 -99999 -99999 -99999 -99999 -99999 -99999 -99999 -99999 -99999 -99999 -99999 -99999 -99999 -99999 -99999 -99999 -99999 -99999 -99999 -99999 -99999 -99999 -99999 -99999 -99999 -99999 -99999 -99999 -99999 -99999 -99999 -99999 -99999 -99999 -99999 -99999 -99999 -99999 -99999 -99999 -99999 -99999 -99999 -99999 -99999 -99999 -99999 -99999 -99999 -99999 -99999 -99999 -99999 -99999 -99999 -99999 -99999 -99999 -99999 -99999 -99999 -99999 -99999 -99999 -99999 -99999 -2418.04736328125 -2416.44287109375 -2414.64794921875 -2412.73046875 -2410.79931640625 -2408.916259765625 -2407.005859375 -2404.41357421875 -2402.53515625 -2401.528564453125 -2401.180419921875 -2401.11962890625 -2401.14599609375 -2401.177734375 -2401.18603515625 -2401.1630859375 -2401.106201171875 -2401.00830078125 -99999
 -99999 -99999 -99999 -99999 -99999 -99999 -99999 -99999 -99999 -99999 -99999 -99999 -99999 -99999 -99999 -99999 -99999 -99999 -99999 -99999 -99999 -99999 -99999 -99999 -99999 -99999 -99999 -99999 -99999 -99999 -99999 -99999 -99999 -99999 -99999 -99999 -99999 -99999 -99999 -99999 -99999 -99999 -99999 -99999 -99999 -99999 -99999 -99999 -99999 -99999 -99999 -99999 -99999 -99999 -99999 -99999 -99999 -99999 -99999 -99999 -99999 -99999 -99999 -99999 -99999 -99999 -99999 -99999 -99999 -99999 -99999 -99999 -99999 -99999 -99999 -99999 -99999 -99999 -99999 -99999 -99999 -99999 -99999 -99999 -99999 -99999 -99999 -99999 -99999 -99999 -99999 -99999 -99999 -99999 -99999 -99999 -99999 -99999 -99999 -99999 -99999 -99999 -99999 -99999 -99999 -99999 -99999 -99999 -99999 -99999 -99999 -99999 -99999 -99999 -99999 -99999 -99999 -99999 -99999 -99999 -99999 -99999 -99999 -99999 -99999 -99999 -99999 -99999 -99999 -99999 -99999 -99999 -99999 -99999 -99999 -99999 -99999 -99999 -99999 -99999 -99999 -99999 -99999 -99999 -99999 -99999 -99999 -99999 -99999 -99999 -99999 -99999 -99999 -99999 -99999 -99999 -99999 -99999 -99999 -99999 -99999 -99999 -99999 -99999 -99999 -99999 -99999 -99999 -99999 -99999 -99999 -99999 -99999 -99999 -99999 -99999 -99999 -99999 -99999 -99999 -99999 -99999 -99999 -99999 -99999 -99999 -99999 -99999 -99999 -99999 -99999 -99999 -99999 -99999 -99999 -99999 -99999 -99999 -99999 -99999 -99999 -99999 -99999 -99999 -99999 -99999 -99999 -99999 -99999 -2418.484619140625 -2417.173828125 -2415.634521484375 -2413.91845703125 -2412.080810546875 -2410.186767578125 -2408.323486328125 -2406.287109375 -2404.16162109375 -2402.182861328125 -2400.81298828125 -2400.093017578125 -2399.630126953125 -2399.328125 -2399.111083984375 -2398.947998046875 -2398.76123046875 -2398.564697265625 -2398.357666015625 -2398.140380859375
 -99999 -99999 -99999 -99999 -99999 -99999 -99999 -99999 -99999 -99999 -99999 -99999 -99999 -99999 -99999 -99999 -99999 -99999 -99999 -99999 -99999 -99999 -99999 -99999 -99999 -99999 -99999 -99999 -99999 -99999 -99999 -99999 -99999 -99999 -99999 -99999 -99999 -99999 -99999 -99999 -99999 -99999 -99999 -99999 -99999 -99999 -99999 -99999 -99999 -99999 -99999 -99999 -99999 -99999 -99999 -99999 -99999 -99999 -99999 -99999 -99999 -99999 -99999 -99999 -99999 -99999 -99999 -99999 -99999 -99999 -99999 -99999 -99999 -99999 -99999 -99999 -99999 -99999 -99999 -99999 -99999 -99999 -99999 -99999 -99999 -99999 -99999 -99999 -99999 -99999 -99999 -99999 -99999 -99999 -99999 -99999 -99999 -99999 -99999 -99999 -99999 -99999 -99999 -99999 -99999 -99999 -99999 -99999 -99999 -99999 -99999 -99999 -99999 -99999 -99999 -99999 -99999 -99999 -99999 -99999 -99999 -99999 -99999 -99999 -99999 -99999 -99999 -99999 -99999 -99999 -99999 -99999 -99999 -99999 -99999 -99999 -99999 -99999 -99999 -99999 -99999 -99999 -99999 -99999 -99999 -99999 -99999 -99999 -99999 -99999 -99999 -99999 -99999 -99999 -99999 -99999 -99999 -99999 -99999 -99999 -99999 -99999 -99999 -99999 -99999 -99999 -99999 -99999 -99999 -99999 -99999 -99999 -99999 -99999 -99999 -99999 -99999 -99999 -99999 -99999 -99999 -99999 -99999 -99999 -99999 -99999 -99999 -99999 -99999 -99999 -99999 -99999 -99999 -99999 -99999 -99999 -99999 -99999 -99999 -99999 -99999 -99999 -99999 -99999 -99999 -99999 -99999 -99999 -2418.328369140625 -2417.469970703125 -2416.326416015625 -2414.9208984375 -2413.24169921875 -2411.39794921875 -2409.490234375 -2407.5322265625 -2405.525146484375 -2403.44482421875 -2401.60888671875 -2400.12451171875 -2398.9873046875 -2398.17626953125 -2397.638671875 -2397.168701171875 -2396.7626953125 -2396.396240234375 -2396.06201171875 -2395.745849609375 -2395.413818359375
 -99999 -99999 -99999 -99999 -99999 -99999 -99999 -99999 -99999 -99999 -99999 -99999 -99999 -99999 -99999 -99999 -99999 -99999 -99999 -99999 -99999 -99999 -99999 -99999 -99999 -99999 -99999 -99999 -99999 -99999 -99999 -99999 -99999 -99999 -99999 -99999 -99999 -99999 -99999 -99999 -99999 -99999 -99999 -99999 -99999 -99999 -99999 -99999 -99999 -99999 -99999 -99999 -99999 -99999 -99999 -99999 -99999 -99999 -99999 -99999 -99999 -99999 -99999 -99999 -99999 -99999 -99999 -99999 -99999 -99999 -99999 -99999 -99999 -99999 -99999 -99999 -99999 -99999 -99999 -99999 -99999 -99999 -99999 -99999 -99999 -99999 -99999 -99999 -99999 -99999 -99999 -99999 -99999 -99999 -99999 -99999 -99999 -99999 -99999 -99999 -99999 -99999 -99999 -99999 -99999 -99999 -99999 -99999 -99999 -99999 -99999 -99999 -99999 -99999 -99999 -99999 -99999 -99999 -99999 -99999 -99999 -99999 -99999 -99999 -99999 -99999 -99999 -99999 -99999 -99999 -99999 -99999 -99999 -99999 -99999 -99999 -99999 -99999 -99999 -99999 -99999 -99999 -99999 -99999 -99999 -99999 -99999 -99999 -99999 -99999 -99999 -99999 -99999 -99999 -99999 -99999 -99999 -99999 -99999 -99999 -99999 -99999 -99999 -99999 -99999 -99999 -99999 -99999 -99999 -99999 -99999 -99999 -99999 -99999 -99999 -99999 -99999 -99999 -99999 -99999 -99999 -99999 -99999 -99999 -99999 -99999 -99999 -99999 -99999 -99999 -99999 -99999 -99999 -99999 -99999 -99999 -99999 -99999 -99999 -99999 -99999 -99999 -99999 -99999 -99999 -99999 -2417.44287109375 -2417.5390625 -2417.22412109375 -2416.499267578125 -2415.450439453125 -2414.125 -2412.505615234375 -2410.6435546875 -2408.694091796875 -2406.697509765625 -2404.64794921875 -2402.634033203125 -2400.7373046875 -2399.1298828125 -2397.835205078125 -2396.776611328125 -2395.903076171875 -2395.179443359375 -2394.611328125 -2394.082763671875 -2393.575439453125 -2393.10107421875 -2392.658203125
 -99999 -99999 -99999 -99999 -99999 -99999 -99999 -99999 -99999 -99999 -99999 -99999 -99999 -99999 -99999 -99999 -99999 -99999 -99999 -99999 -99999 -99999 -99999 -99999 -99999 -99999 -99999 -99999 -99999 -99999 -99999 -99999 -99999 -99999 -99999 -99999 -99999 -99999 -99999 -99999 -99999 -99999 -99999 -99999 -99999 -99999 -99999 -99999 -99999 -99999 -99999 -99999 -99999 -99999 -99999 -99999 -99999 -99999 -99999 -99999 -99999 -99999 -99999 -99999 -99999 -99999 -99999 -99999 -99999 -99999 -99999 -99999 -99999 -99999 -99999 -99999 -99999 -99999 -99999 -99999 -99999 -99999 -99999 -99999 -99999 -99999 -99999 -99999 -99999 -99999 -99999 -99999 -99999 -99999 -99999 -99999 -99999 -99999 -99999 -99999 -99999 -99999 -99999 -99999 -99999 -99999 -99999 -99999 -99999 -99999 -99999 -99999 -99999 -99999 -99999 -99999 -99999 -99999 -99999 -99999 -99999 -99999 -99999 -99999 -99999 -99999 -99999 -99999 -99999 -99999 -99999 -99999 -99999 -99999 -99999 -99999 -99999 -99999 -99999 -99999 -99999 -99999 -99999 -99999 -99999 -99999 -99999 -99999 -99999 -99999 -99999 -99999 -99999 -99999 -99999 -99999 -99999 -99999 -99999 -99999 -99999 -99999 -99999 -99999 -99999 -99999 -99999 -99999 -99999 -99999 -99999 -99999 -99999 -99999 -99999 -99999 -99999 -99999 -99999 -99999 -99999 -99999 -99999 -99999 -99999 -99999 -99999 -99999 -99999 -99999 -99999 -99999 -99999 -99999 -99999 -99999 -99999 -99999 -99999 -99999 -99999 -99999 -99999 -99999 -99999 -2415.093017578125 -2415.9189453125 -2416.17529296875 -2415.98974609375 -2415.35693359375 -2414.42822265625 -2413.296142578125 -2411.707275390625 -2409.7939453125 -2407.761474609375 -2405.69677734375 -2403.610595703125 -2401.58349609375 -2399.673828125 -2397.95458984375 -2396.435302734375 -2395.1845703125 -2394.13720703125 -2393.221435546875 -2392.402587890625 -2391.6708984375 -2391.0439453125 -2390.4619140625 -2389.902099609375
 -99999 -99999 -99999 -99999 -99999 -99999 -99999 -99999 -99999 -99999 -99999 -99999 -99999 -99999 -99999 -99999 -99999 -99999 -99999 -99999 -99999 -99999 -99999 -99999 -99999 -99999 -99999 -99999 -99999 -99999 -99999 -99999 -99999 -99999 -99999 -99999 -99999 -99999 -99999 -99999 -99999 -99999 -99999 -99999 -99999 -99999 -99999 -99999 -99999 -99999 -99999 -99999 -99999 -99999 -99999 -99999 -99999 -99999 -99999 -99999 -99999 -99999 -99999 -99999 -99999 -99999 -99999 -99999 -99999 -99999 -99999 -99999 -99999 -99999 -99999 -99999 -99999 -99999 -99999 -99999 -99999 -99999 -99999 -99999 -99999 -99999 -99999 -99999 -99999 -99999 -99999 -99999 -99999 -99999 -99999 -99999 -99999 -99999 -99999 -99999 -99999 -99999 -99999 -99999 -99999 -99999 -99999 -99999 -99999 -99999 -99999 -99999 -99999 -99999 -99999 -99999 -99999 -99999 -99999 -99999 -99999 -99999 -99999 -99999 -99999 -99999 -99999 -99999 -99999 -99999 -99999 -99999 -99999 -99999 -99999 -99999 -99999 -99999 -99999 -99999 -99999 -99999 -99999 -99999 -99999 -99999 -99999 -99999 -99999 -99999 -99999 -99999 -99999 -99999 -99999 -99999 -99999 -99999 -99999 -99999 -99999 -99999 -99999 -99999 -99999 -99999 -99999 -99999 -99999 -99999 -99999 -99999 -99999 -99999 -99999 -99999 -99999 -99999 -99999 -99999 -99999 -99999 -99999 -99999 -99999 -99999 -99999 -99999 -99999 -99999 -99999 -99999 -99999 -99999 -99999 -99999 -99999 -99999 -99999 -99999 -99999 -99999 -99999 -99999 -2411.3798828125 -2413.02685546875 -2414.17578125 -2414.715087890625 -2414.63720703125 -2414.01220703125 -2413.090576171875 -2411.983642578125 -2410.556640625 -2408.631591796875 -2406.5703125 -2404.461181640625 -2402.345703125 -2400.26904296875 -2398.2978515625 -2396.498779296875 -2394.882080078125 -2393.44580078125 -2392.168212890625 -2391.074951171875 -2390.11962890625 -2389.257080078125 -2388.454833984375 -2387.71630859375 -2387.060302734375
 -99999 -99999 -99999 -99999 -99999 -99999 -99999 -99999 -99999 -99999 -99999 -99999 -99999 -99999 -99999 -99999 -99999 -99999 -99999 -99999 -99999 -99999 -99999 -99999 -99999 -99999 -99999 -99999 -99999 -99999 -99999 -99999 -99999 -99999 -99999 -99999 -99999 -99999 -99999 -99999 -99999 -99999 -99999 -99999 -99999 -99999 -99999 -99999 -99999 -99999 -99999 -99999 -99999 -99999 -99999 -99999 -99999 -99999 -99999 -99999 -99999 -99999 -99999 -99999 -99999 -99999 -99999 -99999 -99999 -99999 -99999 -99999 -99999 -99999 -99999 -99999 -99999 -99999 -99999 -99999 -99999 -99999 -99999 -99999 -99999 -99999 -99999 -99999 -99999 -99999 -99999 -99999 -99999 -99999 -99999 -99999 -99999 -99999 -99999 -99999 -99999 -99999 -99999 -99999 -99999 -99999 -99999 -99999 -99999 -99999 -99999 -99999 -99999 -99999 -99999 -99999 -99999 -99999 -99999 -99999 -99999 -99999 -99999 -99999 -99999 -99999 -99999 -99999 -99999 -99999 -99999 -99999 -99999 -99999 -99999 -99999 -99999 -99999 -99999 -99999 -99999 -99999 -99999 -99999 -99999 -99999 -99999 -99999 -99999 -99999 -99999 -99999 -99999 -99999 -99999 -99999 -99999 -99999 -99999 -99999 -99999 -99999 -99999 -99999 -99999 -99999 -99999 -99999 -99999 -99999 -99999 -99999 -99999 -99999 -99999 -99999 -99999 -99999 -99999 -99999 -99999 -99999 -99999 -99999 -99999 -99999 -99999 -99999 -99999 -99999 -99999 -99999 -99999 -99999 -99999 -99999 -99999 -99999 -99999 -99999 -99999 -99999 -99999 -2406.04638671875 -2408.63623046875 -2410.91650390625 -2412.3017578125 -2413.01025390625 -2413.070556640625 -2412.47802734375 -2411.418701171875 -2410.2421875 -2408.81884765625 -2407.02978515625 -2405.008544921875 -2402.88232421875 -2400.74560546875 -2398.64599609375 -2396.6279296875 -2394.734375 -2392.9990234375 -2391.454345703125 -2390.0634765625 -2388.81298828125 -2387.673583984375 -2386.66259765625 -2385.759521484375 -2384.961181640625 -2384.234375
 -99999 -99999 -99999 -99999 -99999 -99999 -99999 -99999 -99999 -99999 -99999 -99999 -99999 -99999 -99999 -99999 -99999 -99999 -99999 -99999 -99999 -99999 -99999 -99999 -99999 -99999 -99999 -99999 -99999 -99999 -99999 -99999 -99999 -99999 -99999 -99999 -99999 -99999 -99999 -99999 -99999 -99999 -99999 -99999 -99999 -99999 -99999 -99999 -99999 -99999 -99999 -99999 -99999 -99999 -99999 -99999 -99999 -99999 -99999 -99999 -99999 -99999 -99999 -99999 -99999 -99999 -99999 -99999 -99999 -99999 -99999 -99999 -99999 -99999 -99999 -99999 -99999 -99999 -99999 -99999 -99999 -99999 -99999 -99999 -99999 -99999 -99999 -99999 -99999 -99999 -99999 -99999 -99999 -99999 -99999 -99999 -99999 -99999 -99999 -99999 -99999 -99999 -99999 -99999 -99999 -99999 -99999 -99999 -99999 -99999 -99999 -99999 -99999 -99999 -99999 -99999 -99999 -99999 -99999 -99999 -99999 -99999 -99999 -99999 -99999 -99999 -99999 -99999 -99999 -99999 -99999 -99999 -99999 -99999 -99999 -99999 -99999 -99999 -99999 -99999 -99999 -99999 -99999 -99999 -99999 -99999 -99999 -99999 -99999 -99999 -99999 -99999 -99999 -99999 -99999 -99999 -99999 -99999 -99999 -99999 -99999 -99999 -99999 -99999 -99999 -99999 -99999 -99999 -99999 -99999 -99999 -99999 -99999 -99999 -99999 -99999 -99999 -99999 -99999 -99999 -99999 -99999 -99999 -99999 -99999 -99999 -99999 -99999 -99999 -99999 -99999 -99999 -99999 -99999 -99999 -99999 -99999 -99999 -99999 -99999 -99999 -2395.421142578125 -2399.02294921875 -2402.52685546875 -2405.6689453125 -2408.212158203125 -2410.190673828125 -2411.226318359375 -2411.32470703125 -2410.654296875 -2409.57763671875 -2408.336181640625 -2406.792236328125 -2405.017822265625 -2403.01123046875 -2400.909423828125 -2398.762451171875 -2396.634521484375 -2394.59326171875 -2392.6611328125 -2390.85595703125 -2389.18896484375 -2387.670654296875 -2386.3193359375 -2385.11328125 -2384.0107421875 -2383.011474609375 -2382.0517578125 -2381.152099609375
 -99999 -99999 -99999 -99999 -99999 -99999 -99999 -99999 -99999 -99999 -99999 -99999 -99999 -99999 -99999 -99999 -99999 -99999 -99999 -99999 -99999 -99999 -99999 -99999 -99999 -99999 -99999 -99999 -99999 -99999 -99999 -99999 -99999 -99999 -99999 -99999 -99999 -99999 -99999 -99999 -99999 -99999 -99999 -99999 -99999 -99999 -99999 -99999 -99999 -99999 -99999 -99999 -99999 -99999 -99999 -99999 -99999 -99999 -99999 -99999 -99999 -99999 -99999 -99999 -99999 -99999 -99999 -99999 -99999 -99999 -99999 -99999 -99999 -99999 -99999 -99999 -99999 -99999 -99999 -99999 -99999 -99999 -99999 -99999 -99999 -99999 -99999 -99999 -99999 -99999 -99999 -99999 -99999 -99999 -99999 -99999 -99999 -99999 -99999 -99999 -99999 -99999 -99999 -99999 -99999 -99999 -99999 -99999 -99999 -99999 -99999 -99999 -99999 -99999 -99999 -99999 -99999 -99999 -99999 -99999 -99999 -99999 -99999 -99999 -99999 -99999 -99999 -99999 -99999 -99999 -99999 -99999 -99999 -99999 -99999 -99999 -99999 -99999 -99999 -99999 -99999 -99999 -99999 -99999 -99999 -99999 -99999 -99999 -99999 -99999 -99999 -99999 -99999 -99999 -99999 -99999 -99999 -99999 -99999 -99999 -99999 -99999 -99999 -99999 -99999 -99999 -99999 -99999 -99999 -99999 -99999 -99999 -99999 -99999 -99999 -99999 -99999 -99999 -99999 -99999 -99999 -99999 -99999 -99999 -99999 -99999 -99999 -99999 -99999 -99999 -99999 -99999 -99999 -99999 -99999 -99999 -99999 -99999 -99999 -99999 -2386.46044921875 -2390.3359375 -2394.32568359375 -2398.316650390625 -2402.167236328125 -2405.507080078125 -2407.673828125 -2408.829345703125 -2409.0908203125 -2408.7021484375 -2407.393310546875 -2406.005126953125 -2404.39208984375 -2402.577392578125 -2400.59375 -2398.48583984375 -2396.35302734375 -2394.238037109375 -2392.1748046875 -2390.194580078125 -2388.358154296875 -2386.647216796875 -2385.08984375 -2383.662841796875 -2382.360107421875 -2381.0712890625 -2379.94873046875 -2378.941650390625 -2378.0205078125
 -99999 -99999 -99999 -99999 -99999 -99999 -99999 -99999 -99999 -99999 -99999 -99999 -99999 -99999 -99999 -99999 -99999 -99999 -99999 -99999 -99999 -99999 -99999 -99999 -99999 -99999 -99999 -99999 -99999 -99999 -99999 -99999 -99999 -99999 -99999 -99999 -99999 -99999 -99999 -99999 -99999 -99999 -99999 -99999 -99999 -99999 -99999 -99999 -99999 -99999 -99999 -99999 -99999 -99999 -99999 -99999 -99999 -99999 -99999 -99999 -99999 -99999 -99999 -99999 -99999 -99999 -99999 -99999 -99999 -99999 -99999 -99999 -99999 -99999 -99999 -99999 -99999 -99999 -99999 -99999 -99999 -99999 -99999 -99999 -99999 -99999 -99999 -99999 -99999 -99999 -99999 -99999 -99999 -99999 -99999 -99999 -99999 -99999 -99999 -99999 -99999 -99999 -99999 -99999 -99999 -99999 -99999 -99999 -99999 -99999 -99999 -99999 -99999 -99999 -99999 -99999 -99999 -99999 -99999 -99999 -99999 -99999 -99999 -99999 -99999 -99999 -99999 -99999 -99999 -99999 -99999 -99999 -99999 -99999 -99999 -99999 -99999 -99999 -99999 -99999 -99999 -99999 -99999 -99999 -99999 -99999 -99999 -99999 -99999 -99999 -99999 -99999 -99999 -99999 -99999 -99999 -99999 -99999 -99999 -99999 -99999 -99999 -99999 -99999 -99999 -99999 -99999 -99999 -99999 -99999 -99999 -99999 -99999 -99999 -99999 -99999 -99999 -99999 -99999 -99999 -99999 -99999 -99999 -99999 -99999 -99999 -99999 -99999 -99999 -99999 -99999 -99999 -99999 -99999 -99999 -99999 -99999 -99999 -99999 -2376.5732421875 -2380.38671875 -2384.43505859375 -2388.83203125 -2393.34375 -2397.812255859375 -2401.843994140625 -2405.0625 -2406.238525390625 -2406.139892578125 -2405.5400390625 -2404.4853515625 -2403.074462890625 -2401.42041015625 -2399.571044921875 -2397.6025390625 -2395.552001953125 -2393.45751953125 -2391.3623046875 -2389.328125 -2387.3759765625 -2385.53564453125 -2383.78125 -2382.22412109375 -2380.612548828125 -2379.222412109375 -2377.9619140625 -2376.797607421875 -2375.723876953125 -2374.735595703125
 -99999 -99999 -99999 -99999 -99999 -99999 -99999 -99999 -99999 -99999 -99999 -99999 -99999 -99999 -99999 -99999 -99999 -99999 -99999 -99999 -99999 -99999 -99999 -99999 -99999 -99999 -99999 -99999 -99999 -99999 -99999 -99999 -99999 -99999 -99999 -99999 -99999 -99999 -99999 -99999 -99999 -99999 -99999 -99999 -99999 -99999 -99999 -99999 -99999 -99999 -99999 -99999 -99999 -99999 -99999 -99999 -99999 -99999 -99999 -99999 -99999 -99999 -99999 -99999 -99999 -99999 -99999 -99999 -99999 -99999 -99999 -99999 -99999 -99999 -99999 -99999 -99999 -99999 -99999 -99999 -99999 -99999 -99999 -99999 -99999 -99999 -99999 -99999 -99999 -99999 -99999 -99999 -99999 -99999 -99999 -99999 -99999 -99999 -99999 -99999 -99999 -99999 -99999 -99999 -99999 -99999 -99999 -99999 -99999 -99999 -99999 -99999 -99999 -99999 -99999 -99999 -99999 -99999 -99999 -99999 -99999 -99999 -99999 -99999 -99999 -99999 -99999 -99999 -99999 -99999 -99999 -99999 -99999 -99999 -99999 -99999 -99999 -99999 -99999 -99999 -99999 -99999 -99999 -99999 -99999 -99999 -99999 -99999 -99999 -99999 -99999 -99999 -99999 -99999 -99999 -99999 -99999 -99999 -99999 -99999 -99999 -99999 -99999 -99999 -99999 -99999 -99999 -99999 -99999 -99999 -99999 -99999 -99999 -99999 -99999 -99999 -99999 -99999 -99999 -99999 -99999 -99999 -99999 -99999 -99999 -99999 -99999 -99999 -99999 -99999 -99999 -99999 -99999 -99999 -99999 -99999 -99999 -2362.9912109375 -2366.244873046875 -2369.8408203125 -2373.748046875 -2377.9638671875 -2382.545166015625 -2387.354248046875 -2392.34130859375 -2397.331298828125 -2401.370361328125 -2402.760986328125 -2402.403076171875 -2401.7138671875 -2400.625732421875 -2399.2666015625 -2397.696533203125 -2395.955322265625 -2394.0634765625 -2392.0703125 -2390.0537109375 -2388.036376953125 -2386.088134765625 -2384.130859375 -2382.39404296875 -2380.516845703125 -2378.880859375 -2377.366943359375 -2375.9541015625 -2374.640380859375 -2373.4296875 -2372.328125 -2371.318115234375
 -99999 -99999 -99999 -99999 -99999 -99999 -99999 -99999 -99999 -99999 -99999 -99999 -99999 -99999 -99999 -99999 -99999 -99999 -99999 -99999 -99999 -99999 -99999 -99999 -99999 -99999 -99999 -99999 -99999 -99999 -99999 -99999 -99999 -99999 -99999 -99999 -99999 -99999 -99999 -99999 -99999 -99999 -99999 -99999 -99999 -99999 -99999 -99999 -99999 -99999 -99999 -99999 -99999 -99999 -99999 -99999 -99999 -99999 -99999 -99999 -99999 -99999 -99999 -99999 -99999 -99999 -99999 -99999 -99999 -99999 -99999 -99999 -99999 -99999 -99999 -99999 -99999 -99999 -99999 -99999 -99999 -99999 -99999 -99999 -99999 -99999 -99999 -99999 -99999 -99999 -99999 -99999 -99999 -99999 -99999 -99999 -99999 -99999 -99999 -99999 -99999 -99999 -99999 -99999 -99999 -99999 -99999 -99999 -99999 -99999 -99999 -99999 -99999 -99999 -99999 -99999 -99999 -99999 -99999 -99999 -99999 -99999 -99999 -99999 -99999 -99999 -99999 -99999 -99999 -99999 -99999 -99999 -99999 -99999 -99999 -99999 -99999 -99999 -99999 -99999 -99999 -99999 -99999 -99999 -99999 -99999 -99999 -99999 -99999 -99999 -99999 -99999 -99999 -99999 -99999 -99999 -99999 -99999 -99999 -99999 -99999 -99999 -99999 -99999 -99999 -99999 -99999 -99999 -99999 -99999 -99999 -99999 -99999 -99999 -99999 -99999 -99999 -99999 -99999 -99999 -99999 -99999 -99999 -99999 -99999 -99999 -99999 -99999 -99999 -99999 -99999 -99999 -99999 -99999 -99999 -99999 -2352.93798828125 -2355.836669921875 -2359.054931640625 -2362.61474609375 -2366.51318359375 -2370.745849609375 -2375.336181640625 -2380.220703125 -2385.4052734375 -2390.582275390625 -2395.2265625 -2396.96728515625 -2397.0029296875 -2396.60107421875 -2395.8154296875 -2394.706298828125 -2393.263427734375 -2391.65576171875 -2389.919677734375 -2388.11865234375 -2386.23876953125 -2384.27294921875 -2382.452880859375 -2380.477783203125 -2378.6806640625 -2376.981689453125 -2375.36669921875 -2373.841064453125 -2372.423095703125 -2371.1083984375 -2369.89453125 -2368.7685546875 -2367.730224609375
 -99999 -99999 -99999 -99999 -99999 -99999 -99999 -99999 -99999 -99999 -99999 -99999 -99999 -99999 -99999 -99999 -99999 -99999 -99999 -99999 -99999 -99999 -99999 -99999 -99999 -99999 -99999 -99999 -99999 -99999 -99999 -99999 -99999 -99999 -99999 -99999 -99999 -99999 -99999 -99999 -99999 -99999 -99999 -99999 -99999 -99999 -99999 -99999 -99999 -99999 -99999 -99999 -99999 -99999 -99999 -99999 -99999 -99999 -99999 -99999 -99999 -99999 -99999 -99999 -99999 -99999 -99999 -99999 -99999 -99999 -99999 -99999 -99999 -99999 -99999 -99999 -99999 -99999 -99999 -99999 -99999 -99999 -99999 -99999 -99999 -99999 -99999 -99999 -99999 -99999 -99999 -99999 -99999 -99999 -99999 -99999 -99999 -99999 -99999 -99999 -99999 -99999 -99999 -99999 -99999 -99999 -99999 -99999 -99999 -99999 -99999 -99999 -99999 -99999 -99999 -99999 -99999 -99999 -99999 -99999 -99999 -99999 -99999 -99999 -99999 -99999 -99999 -99999 -99999 -99999 -99999 -99999 -99999 -99999 -99999 -99999 -99999 -99999 -99999 -99999 -99999 -99999 -99999 -99999 -99999 -99999 -99999 -99999 -99999 -99999 -99999 -99999 -99999 -99999 -99999 -99999 -99999 -99999 -99999 -99999 -99999 -99999 -99999 -99999 -99999 -99999 -99999 -99999 -99999 -99999 -99999 -99999 -99999 -99999 -99999 -99999 -99999 -99999 -99999 -99999 -99999 -99999 -99999 -99999 -99999 -99999 -99999 -99999 -99999 -99999 -99999 -99999 -99999 -99999 -99999 -2343.039794921875 -2345.514404296875 -2348.388916015625 -2351.59326171875 -2355.115234375 -2358.876708984375 -2362.908203125 -2367.332275390625 -2372.158447265625 -2377.3447265625 -2382.3447265625 -2386.63818359375 -2389.11474609375 -2390.33056640625 -2390.4287109375 -2390.0029296875 -2389.222900390625 -2388.18994140625 -2386.847900390625 -2385.27294921875 -2383.642822265625 -2381.960693359375 -2380.07421875 -2378.238525390625 -2376.486328125 -2374.778564453125 -2373.12353515625 -2371.544189453125 -2370.060546875 -2368.670654296875 -2367.364013671875 -2366.15283203125 -2365.02783203125 -2363.995361328125
 -99999 -99999 -99999 -99999 -99999 -99999 -99999 -99999 -99999 -99999 -99999 -99999 -99999 -99999 -99999 -99999 -99999 -99999 -99999 -99999 -99999 -99999 -99999 -99999 -99999 -99999 -99999 -99999 -99999 -99999 -99999 -99999 -99999 -99999 -99999 -99999 -99999 -99999 -99999 -99999 -99999 -99999 -99999 -99999 -99999 -99999 -99999 -99999 -99999 -99999 -99999 -99999 -99999 -99999 -99999 -99999 -99999 -99999 -99999 -99999 -99999 -99999 -99999 -99999 -99999 -99999 -99999 -99999 -99999 -99999 -99999 -99999 -99999 -99999 -99999 -99999 -99999 -99999 -99999 -99999 -99999 -99999 -99999 -99999 -99999 -99999 -99999 -99999 -99999 -99999 -99999 -99999 -99999 -99999 -99999 -99999 -99999 -99999 -99999 -99999 -99999 -99999 -99999 -99999 -99999 -99999 -99999 -99999 -99999 -99999 -99999 -99999 -99999 -99999 -99999 -99999 -99999 -99999 -99999 -99999 -99999 -99999 -99999 -99999 -99999 -99999 -99999 -99999 -99999 -99999 -99999 -99999 -99999 -99999 -99999 -99999 -99999 -99999 -99999 -99999 -99999 -99999 -99999 -99999 -99999 -99999 -99999 -99999 -99999 -99999 -99999 -99999 -99999 -99999 -99999 -99999 -99999 -99999 -99999 -99999 -99999 -99999 -99999 -99999 -99999 -99999 -99999 -99999 -99999 -99999 -99999 -99999 -99999 -99999 -99999 -99999 -99999 -99999 -99999 -99999 -99999 -99999 -99999 -99999 -99999 -99999 -99999 -99999 -99999 -99999 -99999 -99999 -99999 -2331.9365234375 -2333.455078125 -2335.4599609375 -2337.856201171875 -2340.795654296875 -2343.95166015625 -2347.40234375 -2351.052001953125 -2354.891357421875 -2358.862548828125 -2363.40625 -2368.587646484375 -2373.58203125 -2377.854736328125 -2380.871337890625 -2382.6962890625 -2383.635009765625 -2383.68701171875 -2383.227783203125 -2382.433837890625 -2381.437255859375 -2380.093505859375 -2378.55810546875 -2377.01513671875 -2375.425537109375 -2373.78564453125 -2372.135009765625 -2370.5146484375 -2368.959228515625 -2367.467041015625 -2366.035888671875 -2364.676025390625 -2363.392822265625 -2362.224853515625 -2361.127685546875 -2360.11328125
 -99999 -99999 -99999 -99999 -99999 -99999 -99999 -99999 -99999 -99999 -99999 -99999 -99999 -99999 -99999 -99999 -99999 -99999 -99999 -99999 -99999 -99999 -99999 -99999 -99999 -99999 -99999 -99999 -99999 -99999 -99999 -99999 -99999 -99999 -99999 -99999 -99999 -99999 -99999 -99999 -99999 -99999 -99999 -99999 -99999 -99999 -99999 -99999 -99999 -99999 -99999 -99999 -99999 -99999 -99999 -99999 -99999 -99999 -99999 -99999 -99999 -99999 -99999 -99999 -99999 -99999 -99999 -99999 -99999 -99999 -99999 -99999 -99999 -99999 -99999 -99999 -99999 -99999 -99999 -99999 -99999 -99999 -99999 -99999 -99999 -99999 -99999 -99999 -99999 -99999 -99999 -99999 -99999 -99999 -99999 -99999 -99999 -99999 -99999 -99999 -99999 -99999 -99999 -99999 -99999 -99999 -99999 -99999 -99999 -99999 -99999 -99999 -99999 -99999 -99999 -99999 -99999 -99999 -99999 -99999 -99999 -99999 -99999 -99999 -99999 -99999 -99999 -99999 -99999 -99999 -99999 -99999 -99999 -99999 -99999 -99999 -99999 -99999 -99999 -99999 -99999 -99999 -99999 -99999 -99999 -99999 -99999 -99999 -99999 -99999 -99999 -99999 -99999 -99999 -99999 -99999 -99999 -99999 -99999 -99999 -99999 -99999 -99999 -99999 -99999 -99999 -99999 -99999 -99999 -99999 -99999 -99999 -99999 -99999 -99999 -99999 -99999 -99999 -99999 -99999 -99999 -99999 -99999 -99999 -99999 -99999 -99999 -99999 -99999 -99999 -99999 -99999 -2323.436767578125 -2324.32177734375 -2325.84521484375 -2327.849365234375 -2330.281982421875 -2333.14208984375 -2336.283447265625 -2339.63037109375 -2343.2080078125 -2346.843017578125 -2350.53857421875 -2354.773681640625 -2359.947265625 -2364.868896484375 -2369.051025390625 -2372.25439453125 -2374.51513671875 -2375.885986328125 -2376.562255859375 -2376.54345703125 -2376.087158203125 -2375.344970703125 -2374.371337890625 -2373.203369140625 -2371.84814453125 -2370.416748046875 -2368.938720703125 -2367.466796875 -2365.992919921875 -2364.5234375 -2363.098876953125 -2361.750244140625 -2360.474365234375 -2359.25830078125 -2358.115478515625 -2357.0478515625 -2356.05908203125
 -99999 -99999 -99999 -99999 -99999 -99999 -99999 -99999 -99999 -99999 -99999 -99999 -99999 -99999 -99999 -99999 -99999 -99999 -99999 -99999 -99999 -99999 -99999 -99999 -99999 -99999 -99999 -99999 -99999 -99999 -99999 -99999 -99999 -99999 -99999 -99999 -99999 -99999 -99999 -99999 -99999 -99999 -99999 -99999 -99999 -99999 -99999 -99999 -99999 -99999 -99999 -99999 -99999 -99999 -99999 -99999 -99999 -99999 -99999 -99999 -99999 -99999 -99999 -99999 -99999 -99999 -99999 -99999 -99999 -99999 -99999 -99999 -99999 -99999 -99999 -99999 -99999 -99999 -99999 -99999 -99999 -99999 -99999 -99999 -99999 -99999 -99999 -99999 -99999 -99999 -99999 -99999 -99999 -99999 -99999 -99999 -99999 -99999 -99999 -99999 -99999 -99999 -99999 -99999 -99999 -99999 -99999 -99999 -99999 -99999 -99999 -99999 -99999 -99999 -99999 -99999 -99999 -99999 -99999 -99999 -99999 -99999 -99999 -99999 -99999 -99999 -99999 -99999 -99999 -99999 -99999 -99999 -99999 -99999 -99999 -99999 -99999 -99999 -99999 -99999 -99999 -99999 -99999 -99999 -99999 -99999 -99999 -99999 -99999 -99999 -99999 -99999 -99999 -99999 -99999 -99999 -99999 -99999 -99999 -99999 -99999 -99999 -99999 -99999 -99999 -99999 -99999 -99999 -99999 -99999 -99999 -99999 -99999 -99999 -99999 -99999 -99999 -99999 -99999 -99999 -99999 -99999 -99999 -99999 -99999 -99999 -99999 -99999 -99999 -99999 -99999 -2315.751953125 -2315.951904296875 -2316.711181640625 -2318.048828125 -2320.04296875 -2322.604736328125 -2325.55419921875 -2328.7685546875 -2332.15771484375 -2335.654296875 -2339.189208984375 -2342.941162109375 -2347.07861328125 -2351.817138671875 -2356.393798828125 -2360.536865234375 -2363.862548828125 -2366.34765625 -2368.017333984375 -2369.031005859375 -2369.4912109375 -2369.505859375 -2369.050537109375 -2368.32763671875 -2367.39990234375 -2366.312744140625 -2365.136962890625 -2363.831298828125 -2362.491943359375 -2361.161376953125 -2359.83203125 -2358.533203125 -2357.26806640625 -2356.05615234375 -2354.902587890625 -2353.819091796875 -2352.8193359375 -2351.887939453125
 -99999 -99999 -99999 -99999 -99999 -99999 -99999 -99999 -99999 -99999 -99999 -99999 -99999 -99999 -99999 -99999 -99999 -99999 -99999 -99999 -99999 -99999 -99999 -99999 -99999 -99999 -99999 -99999 -99999 -99999 -99999 -99999 -99999 -99999 -99999 -99999 -99999 -99999 -99999 -99999 -99999 -99999 -99999 -99999 -99999 -99999 -99999 -99999 -99999 -99999 -99999 -99999 -99999 -99999 -99999 -99999 -99999 -99999 -99999 -99999 -99999 -99999 -99999 -99999 -99999 -99999 -99999 -99999 -99999 -99999 -99999 -99999 -99999 -99999 -99999 -99999 -99999 -99999 -99999 -99999 -99999 -99999 -99999 -99999 -99999 -99999 -99999 -99999 -99999 -99999 -99999 -99999 -99999 -99999 -99999 -99999 -99999 -99999 -99999 -99999 -99999 -99999 -99999 -99999 -99999 -99999 -99999 -99999 -99999 -99999 -99999 -99999 -99999 -99999 -99999 -99999 -99999 -99999 -99999 -99999 -99999 -99999 -99999 -99999 -99999 -99999 -99999 -99999 -99999 -99999 -99999 -99999 -99999 -99999 -99999 -99999 -99999 -99999 -99999 -99999 -99999 -99999 -99999 -99999 -99999 -99999 -99999 -99999 -99999 -99999 -99999 -99999 -99999 -99999 -99999 -99999 -99999 -99999 -99999 -99999 -99999 -99999 -99999 -99999 -99999 -99999 -99999 -99999 -99999 -99999 -99999 -99999 -99999 -99999 -99999 -99999 -99999 -99999 -99999 -99999 -99999 -99999 -99999 -99999 -99999 -99999 -99999 -99999 -99999 -2310.28564453125 -2309.1318359375 -2308.439453125 -2308.2841796875 -2308.90625 -2310.28369140625 -2312.30419921875 -2314.877197265625 -2317.942138671875 -2321.311279296875 -2324.78857421875 -2328.319580078125 -2331.91064453125 -2335.6455078125 -2339.7373046875 -2344.073486328125 -2348.32177734375 -2352.18017578125 -2355.453125 -2358.16357421875 -2360.19677734375 -2361.50048828125 -2362.2158203125 -2362.5068359375 -2362.4208984375 -2362.041015625 -2361.37548828125 -2360.50732421875 -2359.529296875 -2358.453125 -2357.293212890625 -2356.104736328125 -2354.90869140625 -2353.724853515625 -2352.56591796875 -2351.4541015625 -2350.39453125 -2349.39111328125 -2348.447509765625 -2347.566162109375
 -99999 -99999 -99999 -99999 -99999 -99999 -99999 -99999 -99999 -99999 -99999 -99999 -99999 -99999 -99999 -99999 -99999 -99999 -99999 -99999 -99999 -99999 -99999 -99999 -99999 -99999 -99999 -99999 -99999 -99999 -99999 -99999 -99999 -99999 -99999 -99999 -99999 -99999 -99999 -99999 -99999 -99999 -99999 -99999 -99999 -99999 -99999 -99999 -99999 -99999 -99999 -99999 -99999 -99999 -99999 -99999 -99999 -99999 -99999 -99999 -99999 -99999 -99999 -99999 -99999 -99999 -99999 -99999 -99999 -99999 -99999 -99999 -99999 -99999 -99999 -99999 -99999 -99999 -99999 -99999 -99999 -99999 -99999 -99999 -99999 -99999 -99999 -99999 -99999 -99999 -99999 -99999 -99999 -99999 -99999 -99999 -99999 -99999 -99999 -99999 -99999 -99999 -99999 -99999 -99999 -99999 -99999 -99999 -99999 -99999 -99999 -99999 -99999 -99999 -99999 -99999 -99999 -99999 -99999 -99999 -99999 -99999 -99999 -99999 -99999 -99999 -99999 -99999 -99999 -99999 -99999 -99999 -99999 -99999 -99999 -99999 -99999 -99999 -99999 -99999 -99999 -99999 -99999 -99999 -99999 -99999 -99999 -99999 -99999 -99999 -99999 -99999 -99999 -99999 -99999 -99999 -99999 -99999 -99999 -99999 -99999 -99999 -99999 -99999 -99999 -99999 -99999 -99999 -99999 -99999 -99999 -99999 -99999 -99999 -99999 -99999 -99999 -99999 -99999 -99999 -99999 -99999 -99999 -99999 -99999 -99999 -99999 -99999 -2305.636962890625 -2303.67822265625 -2302.0927734375 -2301.116455078125 -2300.78125 -2301.163818359375 -2302.31787109375 -2304.3310546875 -2307.194091796875 -2310.498291015625 -2314.03271484375 -2317.55078125 -2321.13232421875 -2324.7138671875 -2328.467041015625 -2332.3984375 -2336.48974609375 -2340.493408203125 -2344.15869140625 -2347.478271484375 -2350.12451171875 -2352.227294921875 -2353.806396484375 -2354.892333984375 -2355.4736328125 -2355.62353515625 -2355.482421875 -2355.09521484375 -2354.504638671875 -2353.7216796875 -2352.826171875 -2351.858642578125 -2350.841796875 -2349.796142578125 -2348.738037109375 -2347.704345703125 -2346.6982421875 -2345.728515625 -2344.803466796875 -2343.93994140625 -2343.141845703125
 -99999 -99999 -99999 -99999 -99999 -99999 -99999 -99999 -99999 -99999 -99999 -99999 -99999 -99999 -99999 -99999 -99999 -99999 -99999 -99999 -99999 -99999 -99999 -99999 -99999 -99999 -99999 -99999 -99999 -99999 -99999 -99999 -99999 -99999 -99999 -99999 -99999 -99999 -99999 -99999 -99999 -99999 -99999 -99999 -99999 -99999 -99999 -99999 -99999 -99999 -99999 -99999 -99999 -99999 -99999 -99999 -99999 -99999 -99999 -99999 -99999 -99999 -99999 -99999 -99999 -99999 -99999 -99999 -99999 -99999 -99999 -99999 -99999 -99999 -99999 -99999 -99999 -99999 -99999 -99999 -99999 -99999 -99999 -99999 -99999 -99999 -99999 -99999 -99999 -99999 -99999 -99999 -99999 -99999 -99999 -99999 -99999 -99999 -99999 -99999 -99999 -99999 -99999 -99999 -99999 -99999 -99999 -99999 -99999 -99999 -99999 -99999 -99999 -99999 -99999 -99999 -99999 -99999 -99999 -99999 -99999 -99999 -99999 -99999 -99999 -99999 -99999 -99999 -99999 -99999 -99999 -99999 -99999 -99999 -99999 -99999 -99999 -99999 -99999 -99999 -99999 -99999 -99999 -99999 -99999 -99999 -99999 -99999 -99999 -99999 -99999 -99999 -99999 -99999 -99999 -99999 -99999 -99999 -99999 -99999 -99999 -99999 -99999 -99999 -99999 -99999 -99999 -99999 -99999 -99999 -99999 -99999 -99999 -99999 -99999 -99999 -99999 -99999 -99999 -99999 -99999 -99999 -99999 -99999 -99999 -99999 -99999 -2302.172607421875 -2299.65966796875 -2297.317138671875 -2295.267578125 -2293.7001953125 -2293.00537109375 -2293.12353515625 -2294.218505859375 -2296.37890625 -2299.42236328125 -2303.058837890625 -2306.919677734375 -2310.4609375 -2313.882080078125 -2317.491455078125 -2321.201904296875 -2325.085693359375 -2328.9853515625 -2332.78125 -2336.401611328125 -2339.65478515625 -2342.350341796875 -2344.5966796875 -2346.28564453125 -2347.49951171875 -2348.321044921875 -2348.78515625 -2348.904052734375 -2348.706298828125 -2348.317626953125 -2347.768310546875 -2347.08935546875 -2346.287353515625 -2345.41796875 -2344.528564453125 -2343.6181640625 -2342.714111328125 -2341.796875 -2340.9375 -2340.117431640625 -2339.345703125 -2338.6064453125
 -99999 -99999 -99999 -99999 -99999 -99999 -99999 -99999 -99999 -99999 -99999 -99999 -99999 -99999 -99999 -99999 -99999 -99999 -99999 -99999 -99999 -99999 -99999 -99999 -99999 -99999 -99999 -99999 -99999 -99999 -99999 -99999 -99999 -99999 -99999 -99999 -99999 -99999 -99999 -99999 -99999 -99999 -99999 -99999 -99999 -99999 -99999 -99999 -99999 -99999 -99999 -99999 -99999 -99999 -99999 -99999 -99999 -99999 -99999 -99999 -99999 -99999 -99999 -99999 -99999 -99999 -99999 -99999 -99999 -99999 -99999 -99999 -99999 -99999 -99999 -99999 -99999 -99999 -99999 -99999 -99999 -99999 -99999 -99999 -99999 -99999 -99999 -99999 -99999 -99999 -99999 -99999 -99999 -99999 -99999 -99999 -99999 -99999 -99999 -99999 -99999 -99999 -99999 -99999 -99999 -99999 -99999 -99999 -99999 -99999 -99999 -99999 -99999 -99999 -99999 -99999 -99999 -99999 -99999 -99999 -99999 -99999 -99999 -99999 -99999 -99999 -99999 -99999 -99999 -99999 -99999 -99999 -99999 -99999 -99999 -99999 -99999 -99999 -99999 -99999 -99999 -99999 -99999 -99999 -99999 -99999 -99999 -99999 -99999 -99999 -99999 -99999 -99999 -99999 -99999 -99999 -99999 -99999 -99999 -99999 -99999 -99999 -99999 -99999 -99999 -99999 -99999 -99999 -99999 -99999 -99999 -99999 -99999 -99999 -99999 -99999 -99999 -99999 -99999 -99999 -99999 -99999 -99999 -99999 -99999 -2302.872314453125 -2299.929931640625 -2296.906005859375 -2293.874267578125 -2291.202880859375 -2288.787353515625 -2286.738037109375 -2285.48876953125 -2285.272705078125 -2286.238525390625 -2288.40673828125 -2291.504150390625 -2295.333740234375 -2299.53076171875 -2303.30126953125 -2306.605712890625 -2310.24560546875 -2314.00341796875 -2317.817626953125 -2321.638671875 -2325.36328125 -2328.815673828125 -2331.943603515625 -2334.711669921875 -2337.032958984375 -2338.978759765625 -2340.3408203125 -2341.3291015625 -2341.978271484375 -2342.2919921875 -2342.353759765625 -2342.146728515625 -2341.766845703125 -2341.265380859375 -2340.649169921875 -2339.954345703125 -2339.174072265625 -2338.388671875 -2337.6201171875 -2336.804931640625 -2336.041259765625 -2335.30322265625 -2334.616455078125 -2333.9755859375
 -99999 -99999 -99999 -99999 -99999 -99999 -99999 -99999 -99999 -99999 -99999 -99999 -99999 -99999 -99999 -99999 -99999 -99999 -99999 -99999 -99999 -99999 -99999 -99999 -99999 -99999 -99999 -99999 -99999 -99999 -99999 -99999 -99999 -99999 -99999 -99999 -99999 -99999 -99999 -99999 -99999 -99999 -99999 -99999 -99999 -99999 -99999 -99999 -99999 -99999 -99999 -99999 -99999 -99999 -99999 -99999 -99999 -99999 -99999 -99999 -99999 -99999 -99999 -99999 -99999 -99999 -99999 -99999 -99999 -99999 -99999 -99999 -99999 -99999 -99999 -99999 -99999 -99999 -99999 -99999 -99999 -99999 -99999 -99999 -99999 -99999 -99999 -99999 -99999 -99999 -99999 -99999 -99999 -99999 -99999 -99999 -99999 -99999 -99999 -99999 -99999 -99999 -99999 -99999 -99999 -99999 -99999 -99999 -99999 -99999 -99999 -99999 -99999 -99999 -99999 -99999 -99999 -99999 -99999 -99999 -99999 -99999 -99999 -99999 -99999 -99999 -99999 -99999 -99999 -99999 -99999 -99999 -99999 -99999 -99999 -99999 -99999 -99999 -99999 -99999 -99999 -99999 -99999 -99999 -99999 -99999 -99999 -99999 -99999 -99999 -99999 -99999 -99999 -99999 -99999 -99999 -99999 -99999 -99999 -99999 -99999 -99999 -99999 -99999 -99999 -99999 -99999 -99999 -99999 -99999 -99999 -99999 -99999 -99999 -99999 -99999 -99999 -99999 -99999 -99999 -99999 -99999 -99999 -99999 -2301.51513671875 -2298.470703125 -2295.21728515625 -2292.05712890625 -2288.775390625 -2285.536376953125 -2282.594970703125 -2280.064453125 -2278.147216796875 -2277.303466796875 -2277.97265625 -2280.166015625 -2283.49853515625 -2287.484375 -2291.59326171875 -2295.55126953125 -2299.303466796875 -2303.076171875 -2306.87744140625 -2310.71533203125 -2314.475830078125 -2318.085205078125 -2321.518798828125 -2324.6201171875 -2327.371826171875 -2329.70263671875 -2331.662109375 -2333.21923828125 -2334.35791015625 -2335.153076171875 -2335.65234375 -2335.900390625 -2335.909423828125 -2335.696533203125 -2335.34619140625 -2334.89013671875 -2334.34619140625 -2333.718017578125 -2333.04833984375 -2332.377685546875 -2331.7177734375 -2331.0693359375 -2330.427978515625 -2329.819091796875 -2329.27197265625
 -99999 -99999 -99999 -99999 -99999 -99999 -99999 -99999 -99999 -99999 -99999 -99999 -99999 -99999 -99999 -99999 -99999 -99999 -99999 -99999 -99999 -99999 -99999 -99999 -99999 -99999 -99999 -99999 -99999 -99999 -99999 -99999 -99999 -99999 -99999 -99999 -99999 -99999 -99999 -99999 -99999 -99999 -99999 -99999 -99999 -99999 -99999 -99999 -99999 -99999 -99999 -99999 -99999 -99999 -99999 -99999 -99999 -99999 -99999 -99999 -99999 -99999 -99999 -99999 -99999 -99999 -99999 -99999 -99999 -99999 -99999 -99999 -99999 -99999 -99999 -99999 -99999 -99999 -99999 -99999 -99999 -99999 -99999 -99999 -99999 -99999 -99999 -99999 -99999 -99999 -99999 -99999 -99999 -99999 -99999 -99999 -99999 -99999 -99999 -99999 -99999 -99999 -99999 -99999 -99999 -99999 -99999 -99999 -99999 -99999 -99999 -99999 -99999 -99999 -99999 -99999 -99999 -99999 -99999 -99999 -99999 -99999 -99999 -99999 -99999 -99999 -99999 -99999 -99999 -99999 -99999 -99999 -99999 -99999 -99999 -99999 -99999 -99999 -99999 -99999 -99999 -99999 -99999 -99999 -99999 -99999 -99999 -99999 -99999 -99999 -99999 -99999 -99999 -99999 -99999 -99999 -99999 -99999 -99999 -99999 -99999 -99999 -99999 -99999 -99999 -99999 -99999 -99999 -99999 -99999 -99999 -99999 -99999 -99999 -99999 -99999 -99999 -99999 -99999 -99999 -99999 -99999 -99999 -2300.5078125 -2297.49072265625 -2294.4658203125 -2291.114013671875 -2287.728759765625 -2284.1806640625 -2280.58740234375 -2276.98583984375 -2273.63720703125 -2271.07421875 -2269.627197265625 -2269.7880859375 -2272.092041015625 -2275.5869140625 -2279.699462890625 -2283.859619140625 -2288.027587890625 -2292.1005859375 -2296.09521484375 -2299.974365234375 -2303.8232421875 -2307.553955078125 -2311.135498046875 -2314.49462890625 -2317.534423828125 -2320.315185546875 -2322.67041015625 -2324.666259765625 -2326.30078125 -2327.585205078125 -2328.54150390625 -2329.162109375 -2329.534912109375 -2329.69091796875 -2329.6689453125 -2329.473876953125 -2329.134521484375 -2328.70703125 -2328.2275390625 -2327.71142578125 -2327.154052734375 -2326.580810546875 -2326.0166015625 -2325.49462890625 -2325.004638671875 -2324.539794921875
 -99999 -99999 -99999 -99999 -99999 -99999 -99999 -99999 -99999 -99999 -99999 -99999 -99999 -99999 -99999 -99999 -99999 -99999 -99999 -99999 -99999 -99999 -99999 -99999 -99999 -99999 -99999 -99999 -99999 -99999 -99999 -99999 -99999 -99999 -99999 -99999 -99999 -99999 -99999 -99999 -99999 -99999 -99999 -99999 -99999 -99999 -99999 -99999 -99999 -99999 -99999 -99999 -99999 -99999 -99999 -99999 -99999 -99999 -99999 -99999 -99999 -99999 -99999 -99999 -99999 -99999 -99999 -99999 -99999 -99999 -99999 -99999 -99999 -99999 -99999 -99999 -99999 -99999 -99999 -99999 -99999 -99999 -99999 -99999 -99999 -99999 -99999 -99999 -99999 -99999 -99999 -99999 -99999 -99999 -99999 -99999 -99999 -99999 -99999 -99999 -99999 -99999 -99999 -99999 -99999 -99999 -99999 -99999 -99999 -99999 -99999 -99999 -99999 -99999 -99999 -99999 -99999 -99999 -99999 -99999 -99999 -99999 -99999 -99999 -99999 -99999 -99999 -99999 -99999 -99999 -99999 -99999 -99999 -99999 -99999 -99999 -99999 -99999 -99999 -99999 -99999 -99999 -99999 -99999 -99999 -99999 -99999 -99999 -99999 -99999 -99999 -99999 -99999 -99999 -99999 -99999 -99999 -99999 -99999 -99999 -99999 -99999 -99999 -99999 -99999 -99999 -99999 -99999 -99999 -99999 -99999 -99999 -99999 -99999 -99999 -99999 -99999 -99999 -99999 -99999 -99999 -2302.2158203125 -2299.58447265625 -2296.80224609375 -2293.905517578125 -2290.8427734375 -2287.562255859375 -2284.010986328125 -2280.169189453125 -2276.18310546875 -2272.218017578125 -2268.44677734375 -2265.000244140625 -2262.26123046875 -2261.926513671875 -2264.190673828125 -2267.999267578125 -2272.2880859375 -2276.7451171875 -2281.048828125 -2285.26171875 -2289.375244140625 -2293.4091796875 -2297.231689453125 -2300.973876953125 -2304.495361328125 -2307.78173828125 -2310.802001953125 -2313.5341796875 -2315.92236328125 -2317.974609375 -2319.657958984375 -2321.006103515625 -2322.051025390625 -2322.820068359375 -2323.33740234375 -2323.59326171875 -2323.673095703125 -2323.60302734375 -2323.417236328125 -2323.12841796875 -2322.74658203125 -2322.32080078125 -2321.866943359375 -2321.425048828125 -2320.977783203125 -2320.53662109375 -2320.12353515625 -2319.746337890625
 -99999 -99999 -99999 -99999 -99999 -99999 -99999 -99999 -99999 -99999 -99999 -99999 -99999 -99999 -99999 -99999 -99999 -99999 -99999 -99999 -99999 -99999 -99999 -99999 -99999 -99999 -99999 -99999 -99999 -99999 -99999 -99999 -99999 -99999 -99999 -99999 -99999 -99999 -99999 -99999 -99999 -99999 -99999 -99999 -99999 -99999 -99999 -99999 -99999 -99999 -99999 -99999 -99999 -99999 -99999 -99999 -99999 -99999 -99999 -99999 -99999 -99999 -99999 -99999 -99999 -99999 -99999 -99999 -99999 -99999 -99999 -99999 -99999 -99999 -99999 -99999 -99999 -99999 -99999 -99999 -99999 -99999 -99999 -99999 -99999 -99999 -99999 -99999 -99999 -99999 -99999 -99999 -99999 -99999 -99999 -99999 -99999 -99999 -99999 -99999 -99999 -99999 -99999 -99999 -99999 -99999 -99999 -99999 -99999 -99999 -99999 -99999 -99999 -99999 -99999 -99999 -99999 -99999 -99999 -99999 -99999 -99999 -99999 -99999 -99999 -99999 -99999 -99999 -99999 -99999 -99999 -99999 -99999 -99999 -99999 -99999 -99999 -99999 -99999 -99999 -99999 -99999 -99999 -99999 -99999 -99999 -99999 -99999 -99999 -99999 -99999 -99999 -99999 -99999 -99999 -99999 -99999 -99999 -99999 -99999 -99999 -99999 -99999 -99999 -99999 -99999 -99999 -99999 -99999 -99999 -99999 -99999 -99999 -99999 -99999 -99999 -99999 -99999 -99999 -99999 -2300.95263671875 -2298.511474609375 -2296.02490234375 -2293.329833984375 -2290.69189453125 -2287.74560546875 -2284.469482421875 -2280.84228515625 -2276.923583984375 -2272.78076171875 -2268.455810546875 -2264.2646484375 -2260.3896484375 -2257.201904296875 -2255.49658203125 -2257.57177734375 -2261.63232421875 -2265.97900390625 -2270.378662109375 -2274.77099609375 -2279.052978515625 -2283.19091796875 -2287.192626953125 -2291.097412109375 -2294.766357421875 -2298.1953125 -2301.47509765625 -2304.451171875 -2307.116943359375 -2309.47509765625 -2311.52685546875 -2313.27783203125 -2314.690673828125 -2315.78857421875 -2316.62255859375 -2317.224609375 -2317.60693359375 -2317.822265625 -2317.83837890625 -2317.736328125 -2317.54150390625 -2317.27490234375 -2316.969970703125 -2316.614990234375 -2316.2529296875 -2315.89501953125 -2315.5517578125 -2315.25048828125 -2314.970703125
 -99999 -99999 -99999 -99999 -99999 -99999 -99999 -99999 -99999 -99999 -99999 -99999 -99999 -99999 -99999 -99999 -99999 -99999 -99999 -99999 -99999 -99999 -99999 -99999 -99999 -99999 -99999 -99999 -99999 -99999 -99999 -99999 -99999 -99999 -99999 -99999 -99999 -99999 -99999 -99999 -99999 -99999 -99999 -99999 -99999 -99999 -99999 -99999 -99999 -99999 -99999 -99999 -99999 -99999 -99999 -99999 -99999 -99999 -99999 -99999 -99999 -99999 -99999 -99999 -99999 -99999 -99999 -99999 -99999 -99999 -99999 -99999 -99999 -99999 -99999 -99999 -99999 -99999 -99999 -99999 -99999 -99999 -99999 -99999 -99999 -99999 -99999 -99999 -99999 -99999 -99999 -99999 -99999 -99999 -99999 -99999 -99999 -99999 -99999 -99999 -99999 -99999 -99999 -99999 -99999 -99999 -99999 -99999 -99999 -99999 -99999 -99999 -99999 -99999 -99999 -99999 -99999 -99999 -99999 -99999 -99999 -99999 -99999 -99999 -99999 -99999 -99999 -99999 -99999 -99999 -99999 -99999 -99999 -99999 -99999 -99999 -99999 -99999 -99999 -99999 -99999 -99999 -99999 -99999 -99999 -99999 -99999 -99999 -99999 -99999 -99999 -99999 -99999 -99999 -99999 -99999 -99999 -99999 -99999 -99999 -99999 -99999 -99999 -99999 -99999 -99999 -99999 -99999 -99999 -99999 -99999 -99999 -99999 -99999 -99999 -99999 -99999 -99999 -99999 -2299.486572265625 -2297.18017578125 -2294.796142578125 -2292.53662109375 -2290.24072265625 -2287.71728515625 -2284.93798828125 -2281.8525390625 -2278.403076171875 -2274.45458984375 -2270.173583984375 -2265.806640625 -2261.58251953125 -2257.674072265625 -2254.394287109375 -2252.96923828125 -2254.11181640625 -2257.159912109375 -2261.033935546875 -2265.1728515625 -2269.358154296875 -2273.504150390625 -2277.59228515625 -2281.548095703125 -2285.321533203125 -2288.919677734375 -2292.37060546875 -2295.5419921875 -2298.40478515625 -2301.072021484375 -2303.44580078125 -2305.46142578125 -2307.171875 -2308.607666015625 -2309.77978515625 -2310.698974609375 -2311.3388671875 -2311.772705078125 -2312.04052734375 -2312.162841796875 -2312.163330078125 -2312.04638671875 -2311.862060546875 -2311.63232421875 -2311.373291015625 -2311.108642578125 -2310.840576171875 -2310.58984375 -2310.364501953125 -2310.168212890625
 -99999 -99999 -99999 -99999 -99999 -99999 -99999 -99999 -99999 -99999 -99999 -99999 -99999 -99999 -99999 -99999 -99999 -99999 -99999 -99999 -99999 -99999 -99999 -99999 -99999 -99999 -99999 -99999 -99999 -99999 -99999 -99999 -99999 -99999 -99999 -99999 -99999 -99999 -99999 -99999 -99999 -99999 -99999 -99999 -99999 -99999 -99999 -99999 -99999 -99999 -99999 -99999 -99999 -99999 -99999 -99999 -99999 -99999 -99999 -99999 -99999 -99999 -99999 -99999 -99999 -99999 -99999 -99999 -99999 -99999 -99999 -99999 -99999 -99999 -99999 -99999 -99999 -99999 -99999 -99999 -99999 -99999 -99999 -99999 -99999 -99999 -99999 -99999 -99999 -99999 -99999 -99999 -99999 -99999 -99999 -99999 -99999 -99999 -99999 -99999 -99999 -99999 -99999 -99999 -99999 -99999 -99999 -99999 -99999 -99999 -99999 -99999 -99999 -99999 -99999 -99999 -99999 -99999 -99999 -99999 -99999 -99999 -99999 -99999 -99999 -99999 -99999 -99999 -99999 -99999 -99999 -99999 -99999 -99999 -99999 -99999 -99999 -99999 -99999 -99999 -99999 -99999 -99999 -99999 -99999 -99999 -99999 -99999 -99999 -99999 -99999 -99999 -99999 -99999 -99999 -99999 -99999 -99999 -99999 -99999 -99999 -99999 -99999 -99999 -99999 -99999 -99999 -99999 -99999 -99999 -99999 -99999 -99999 -99999 -99999 -99999 -99999 -2300.17529296875 -2297.813232421875 -2295.495849609375 -2293.302978515625 -2291.268310546875 -2289.23046875 -2287.138916015625 -2284.94921875 -2282.569091796875 -2279.75927734375 -2276.476806640625 -2272.67919921875 -2268.408203125 -2263.949951171875 -2259.898681640625 -2256.374267578125 -2253.51806640625 -2251.71875 -2252.086181640625 -2254.3974609375 -2257.5029296875 -2261.075927734375 -2264.884521484375 -2268.824462890625 -2272.640380859375 -2276.41796875 -2280.092529296875 -2283.618408203125 -2286.933837890625 -2290.003662109375 -2292.8505859375 -2295.4384765625 -2297.71484375 -2299.707275390625 -2301.449462890625 -2302.897705078125 -2304.037353515625 -2304.94873046875 -2305.6494140625 -2306.158203125 -2306.4716796875 -2306.628173828125 -2306.677734375 -2306.64013671875 -2306.53466796875 -2306.373046875 -2306.189208984375 -2305.99951171875 -2305.81494140625 -2305.645263671875 -2305.50634765625 -2305.40625
 -99999 -99999 -99999 -99999 -99999 -99999 -99999 -99999 -99999 -99999 -99999 -99999 -99999 -99999 -99999 -99999 -99999 -99999 -99999 -99999 -99999 -99999 -99999 -99999 -99999 -99999 -99999 -99999 -99999 -99999 -99999 -99999 -99999 -99999 -99999 -99999 -99999 -99999 -99999 -99999 -99999 -99999 -99999 -99999 -99999 -99999 -99999 -99999 -99999 -99999 -99999 -99999 -99999 -99999 -99999 -99999 -99999 -99999 -99999 -99999 -99999 -99999 -99999 -99999 -99999 -99999 -99999 -99999 -99999 -99999 -99999 -99999 -99999 -99999 -99999 -99999 -99999 -99999 -99999 -99999 -99999 -99999 -99999 -99999 -99999 -99999 -99999 -99999 -99999 -99999 -99999 -99999 -99999 -99999 -99999 -99999 -99999 -99999 -99999 -99999 -99999 -99999 -99999 -99999 -99999 -99999 -99999 -99999 -99999 -99999 -99999 -99999 -99999 -99999 -99999 -99999 -99999 -99999 -99999 -99999 -99999 -99999 -99999 -99999 -99999 -99999 -99999 -99999 -99999 -99999 -99999 -99999 -99999 -99999 -99999 -99999 -99999 -99999 -99999 -99999 -99999 -99999 -99999 -99999 -99999 -99999 -99999 -99999 -99999 -99999 -99999 -99999 -99999 -99999 -99999 -99999 -99999 -99999 -99999 -99999 -99999 -99999 -99999 -99999 -99999 -99999 -99999 -99999 -99999 -99999 -99999 -99999 -99999 -99999 -99999 -99999 -2298.464111328125 -2295.9482421875 -2293.61865234375 -2291.483154296875 -2289.4765625 -2287.5830078125 -2285.800537109375 -2284.00439453125 -2282.2177734375 -2280.266357421875 -2278.020263671875 -2275.307373046875 -2271.715087890625 -2267.3857421875 -2262.838623046875 -2258.6376953125 -2255.25390625 -2252.557373046875 -2251.171630859375 -2251.15576171875 -2252.427490234375 -2254.78662109375 -2257.88037109375 -2261.228515625 -2264.7392578125 -2268.318359375 -2271.90966796875 -2275.419677734375 -2278.771728515625 -2281.959716796875 -2284.959228515625 -2287.7353515625 -2290.215087890625 -2292.397705078125 -2294.4033203125 -2296.074462890625 -2297.47119140625 -2298.626953125 -2299.5576171875 -2300.2421875 -2300.7373046875 -2301.076904296875 -2301.284912109375 -2301.375244140625 -2301.366455078125 -2301.3037109375 -2301.20556640625 -2301.08740234375 -2300.9560546875 -2300.84375 -2300.757080078125 -2300.700439453125 -2300.6787109375
 -99999 -99999 -99999 -99999 -99999 -99999 -99999 -99999 -99999 -99999 -99999 -99999 -99999 -99999 -99999 -99999 -99999 -99999 -99999 -99999 -99999 -99999 -99999 -99999 -99999 -99999 -99999 -99999 -99999 -99999 -99999 -99999 -99999 -99999 -99999 -99999 -99999 -99999 -99999 -99999 -99999 -99999 -99999 -99999 -99999 -99999 -99999 -99999 -99999 -99999 -99999 -99999 -99999 -99999 -99999 -99999 -99999 -99999 -99999 -99999 -99999 -99999 -99999 -99999 -99999 -99999 -99999 -99999 -99999 -99999 -99999 -99999 -99999 -99999 -99999 -99999 -99999 -99999 -99999 -99999 -99999 -99999 -99999 -99999 -99999 -99999 -99999 -99999 -99999 -99999 -99999 -99999 -99999 -99999 -99999 -99999 -99999 -99999 -99999 -99999 -99999 -99999 -99999 -99999 -99999 -99999 -99999 -99999 -99999 -99999 -99999 -99999 -99999 -99999 -99999 -99999 -99999 -99999 -99999 -99999 -99999 -99999 -99999 -99999 -99999 -99999 -99999 -99999 -99999 -99999 -99999 -99999 -99999 -99999 -99999 -99999 -99999 -99999 -99999 -99999 -99999 -99999 -99999 -99999 -99999 -99999 -99999 -99999 -99999 -99999 -99999 -99999 -99999 -99999 -99999 -99999 -99999 -99999 -99999 -99999 -99999 -99999 -99999 -99999 -99999 -99999 -99999 -99999 -99999 -99999 -99999 -99999 -99999 -99999 -99999 -2296.787353515625 -2294.1591796875 -2291.713623046875 -2289.412353515625 -2287.275634765625 -2285.34912109375 -2283.610595703125 -2282.10888671875 -2280.739501953125 -2279.4375 -2278.00244140625 -2276.3017578125 -2274.16796875 -2271.201171875 -2267.054931640625 -2262.201171875 -2257.850830078125 -2254.452392578125 -2251.93212890625 -2250.31689453125 -2250.01416015625 -2250.931884765625 -2252.753662109375 -2255.167236328125 -2258.0458984375 -2261.285400390625 -2264.587890625 -2267.907958984375 -2271.1982421875 -2274.4169921875 -2277.497802734375 -2280.343505859375 -2282.978759765625 -2285.39111328125 -2287.555419921875 -2289.4560546875 -2291.024169921875 -2292.364501953125 -2293.508056640625 -2294.41162109375 -2295.084228515625 -2295.58203125 -2295.914794921875 -2296.104736328125 -2296.19970703125 -2296.223876953125 -2296.201904296875 -2296.1337890625 -2296.051513671875 -2295.9853515625 -2295.93798828125 -2295.9228515625 -2295.928466796875 -2295.982421875
 -99999 -99999 -99999 -99999 -99999 -99999 -99999 -99999 -99999 -99999 -99999 -99999 -99999 -99999 -99999 -99999 -99999 -99999 -99999 -99999 -99999 -99999 -99999 -99999 -99999 -99999 -99999 -99999 -99999 -99999 -99999 -99999 -99999 -99999 -99999 -99999 -99999 -99999 -99999 -99999 -99999 -99999 -99999 -99999 -99999 -99999 -99999 -99999 -99999 -99999 -99999 -99999 -99999 -99999 -99999 -99999 -99999 -99999 -99999 -99999 -99999 -99999 -99999 -99999 -99999 -99999 -99999 -99999 -99999 -99999 -99999 -99999 -99999 -99999 -99999 -99999 -99999 -99999 -99999 -99999 -99999 -99999 -99999 -99999 -99999 -99999 -99999 -99999 -99999 -99999 -99999 -99999 -99999 -99999 -99999 -99999 -99999 -99999 -99999 -99999 -99999 -99999 -99999 -99999 -99999 -99999 -99999 -99999 -99999 -99999 -99999 -99999 -99999 -99999 -99999 -99999 -99999 -99999 -99999 -99999 -99999 -99999 -99999 -99999 -99999 -99999 -99999 -99999 -99999 -99999 -99999 -99999 -99999 -99999 -99999 -99999 -99999 -99999 -99999 -99999 -99999 -99999 -99999 -99999 -99999 -99999 -99999 -99999 -99999 -99999 -99999 -99999 -99999 -99999 -99999 -99999 -99999 -99999 -99999 -99999 -99999 -99999 -99999 -99999 -99999 -99999 -99999 -99999 -99999 -99999 -99999 -99999 -99999 -2298.107177734375 -2295.21142578125 -2292.474853515625 -2289.81640625 -2287.267333984375 -2284.9208984375 -2282.787841796875 -2280.947265625 -2279.40087890625 -2278.1357421875 -2277.050537109375 -2276.12548828125 -2275.308837890625 -2274.4296875 -2273.33154296875 -2271.005126953125 -2267.001953125 -2261.929443359375 -2257.283447265625 -2253.693115234375 -2251.076171875 -2249.518310546875 -2248.97705078125 -2249.40380859375 -2250.750244140625 -2252.868408203125 -2255.39111328125 -2258.207275390625 -2261.21533203125 -2264.363525390625 -2267.515380859375 -2270.51123046875 -2273.39599609375 -2276.151123046875 -2278.69970703125 -2281.017578125 -2283.05126953125 -2284.847412109375 -2286.396728515625 -2287.6962890625 -2288.75244140625 -2289.56640625 -2290.191162109375 -2290.635009765625 -2290.9453125 -2291.122314453125 -2291.2109375 -2291.238525390625 -2291.223388671875 -2291.18359375 -2291.145263671875 -2291.124755859375 -2291.131103515625 -2291.169189453125 -2291.244384765625 -2291.384765625
 -99999 -99999 -99999 -99999 -99999 -99999 -99999 -99999 -99999 -99999 -99999 -99999 -99999 -99999 -99999 -99999 -99999 -99999 -99999 -99999 -99999 -99999 -99999 -99999 -99999 -99999 -99999 -99999 -99999 -99999 -99999 -99999 -99999 -99999 -99999 -99999 -99999 -99999 -99999 -99999 -99999 -99999 -99999 -99999 -99999 -99999 -99999 -99999 -99999 -99999 -99999 -99999 -99999 -99999 -99999 -99999 -99999 -99999 -99999 -99999 -99999 -99999 -99999 -99999 -99999 -99999 -99999 -99999 -99999 -99999 -99999 -99999 -99999 -99999 -99999 -99999 -99999 -99999 -99999 -99999 -99999 -99999 -99999 -99999 -99999 -99999 -99999 -99999 -99999 -99999 -99999 -99999 -99999 -99999 -99999 -99999 -99999 -99999 -99999 -99999 -99999 -99999 -99999 -99999 -99999 -99999 -99999 -99999 -99999 -99999 -99999 -99999 -99999 -99999 -99999 -99999 -99999 -99999 -99999 -99999 -99999 -99999 -99999 -99999 -99999 -99999 -99999 -99999 -99999 -99999 -99999 -99999 -99999 -99999 -99999 -99999 -99999 -99999 -99999 -99999 -99999 -99999 -99999 -99999 -99999 -99999 -99999 -99999 -99999 -99999 -99999 -99999 -99999 -99999 -99999 -99999 -99999 -99999 -99999 -99999 -99999 -99999 -99999 -99999 -99999 -99999 -99999 -99999 -99999 -99999 -99999 -99999 -2296.87109375 -2293.95361328125 -2290.966552734375 -2288.11474609375 -2285.31982421875 -2282.657470703125 -2280.194580078125 -2278.00439453125 -2276.17822265625 -2274.69140625 -2273.621826171875 -2272.904541015625 -2272.380615234375 -2271.92041015625 -2271.526611328125 -2271.14208984375 -2270.862548828125 -2266.159423828125 -2260.8388671875 -2256.135986328125 -2252.52490234375 -2249.8818359375 -2248.188720703125 -2247.56494140625 -2247.78857421875 -2248.85107421875 -2250.6279296875 -2252.885986328125 -2255.496337890625 -2258.3095703125 -2261.204345703125 -2264.122802734375 -2267.0146484375 -2269.79443359375 -2272.404541015625 -2274.83203125 -2277.01220703125 -2278.96484375 -2280.682373046875 -2282.13330078125 -2283.3203125 -2284.285888671875 -2285.0390625 -2285.6103515625 -2285.995849609375 -2286.23779296875 -2286.377197265625 -2286.439453125 -2286.447509765625 -2286.419677734375 -2286.388916015625 -2286.372314453125 -2286.379638671875 -2286.419921875 -2286.52099609375 -2286.676025390625 -2286.87939453125
 -99999 -99999 -99999 -99999 -99999 -99999 -99999 -99999 -99999 -99999 -99999 -99999 -99999 -99999 -99999 -99999 -99999 -99999 -99999 -99999 -99999 -99999 -99999 -99999 -99999 -99999 -99999 -99999 -99999 -99999 -99999 -99999 -99999 -99999 -99999 -99999 -99999 -99999 -99999 -99999 -99999 -99999 -99999 -99999 -99999 -99999 -99999 -99999 -99999 -99999 -99999 -99999 -99999 -99999 -99999 -99999 -99999 -99999 -99999 -99999 -99999 -99999 -99999 -99999 -99999 -99999 -99999 -99999 -99999 -99999 -99999 -99999 -99999 -99999 -99999 -99999 -99999 -99999 -99999 -99999 -99999 -99999 -99999 -99999 -99999 -99999 -99999 -99999 -99999 -99999 -99999 -99999 -99999 -99999 -99999 -99999 -99999 -99999 -99999 -99999 -99999 -99999 -99999 -99999 -99999 -99999 -99999 -99999 -99999 -99999 -99999 -99999 -99999 -99999 -99999 -99999 -99999 -99999 -99999 -99999 -99999 -99999 -99999 -99999 -99999 -99999 -99999 -99999 -99999 -99999 -99999 -99999 -99999 -99999 -99999 -99999 -99999 -99999 -99999 -99999 -99999 -99999 -99999 -99999 -99999 -99999 -99999 -99999 -99999 -99999 -99999 -99999 -99999 -99999 -99999 -99999 -99999 -99999 -99999 -99999 -99999 -99999 -99999 -99999 -99999 -99999 -99999 -99999 -99999 -99999 -99999 -2295.89404296875 -2292.7861328125 -2289.76513671875 -2286.68994140625 -2283.62109375 -2280.6259765625 -2277.82763671875 -2275.249267578125 -2272.93701171875 -2270.990478515625 -2269.5263671875 -2268.608642578125 -2268.046875 -2267.735107421875 -2267.527587890625 -2267.10302734375 -2266.72802734375 -2266.175537109375 -2262.361083984375 -2257.984619140625 -2253.819091796875 -2250.3095703125 -2247.951904296875 -2246.4267578125 -2245.785400390625 -2245.953369140625 -2246.901123046875 -2248.4814453125 -2250.5322265625 -2252.96875 -2255.6162109375 -2258.391357421875 -2261.19482421875 -2263.94677734375 -2266.578125 -2269.070068359375 -2271.36865234375 -2273.469970703125 -2275.3115234375 -2276.8916015625 -2278.222900390625 -2279.3251953125 -2280.2099609375 -2280.849853515625 -2281.2998046875 -2281.60009765625 -2281.77978515625 -2281.862060546875 -2281.85498046875 -2281.815185546875 -2281.770263671875 -2281.732177734375 -2281.71533203125 -2281.748291015625 -2281.83642578125 -2281.980224609375 -2282.180419921875 -99999
 -99999 -99999 -99999 -99999 -99999 -99999 -99999 -99999 -99999 -99999 -99999 -99999 -99999 -99999 -99999 -99999 -99999 -99999 -99999 -99999 -99999 -99999 -99999 -99999 -99999 -99999 -99999 -99999 -99999 -99999 -99999 -99999 -99999 -99999 -99999 -99999 -99999 -99999 -99999 -99999 -99999 -99999 -99999 -99999 -99999 -99999 -99999 -99999 -99999 -99999 -99999 -99999 -99999 -99999 -99999 -99999 -99999 -99999 -99999 -99999 -99999 -99999 -99999 -99999 -99999 -99999 -99999 -99999 -99999 -99999 -99999 -99999 -99999 -99999 -99999 -99999 -99999 -99999 -99999 -99999 -99999 -99999 -99999 -99999 -99999 -99999 -99999 -99999 -99999 -99999 -99999 -99999 -99999 -99999 -99999 -99999 -99999 -99999 -99999 -99999 -99999 -99999 -99999 -99999 -99999 -99999 -99999 -99999 -99999 -99999 -99999 -99999 -99999 -99999 -99999 -99999 -99999 -99999 -99999 -99999 -99999 -99999 -99999 -99999 -99999 -99999 -99999 -99999 -99999 -99999 -99999 -99999 -99999 -99999 -99999 -99999 -99999 -99999 -99999 -99999 -99999 -99999 -99999 -99999 -99999 -99999 -99999 -99999 -99999 -99999 -99999 -99999 -99999 -99999 -99999 -99999 -99999 -99999 -99999 -99999 -99999 -99999 -99999 -99999 -99999 -99999 -99999 -99999 -99999 -2297.923583984375 -2294.9990234375 -2291.9453125 -2288.795654296875 -2285.5146484375 -2282.22998046875 -2279.010009765625 -2275.874755859375 -2272.86962890625 -2270.018798828125 -2267.5078125 -2265.41259765625 -2263.8271484375 -2262.79638671875 -2262.506103515625 -2262.46923828125 -2262.214111328125 -2261.645263671875 -2260.7138671875 -2259.244384765625 -2256.702392578125 -2253.301513671875 -2250.038818359375 -2247.265380859375 -2245.192626953125 -2243.8583984375 -2243.432373046875 -2243.787353515625 -2244.7861328125 -2246.321044921875 -2248.29248046875 -2250.642822265625 -2253.20947265625 -2255.874755859375 -2258.56982421875 -2261.221435546875 -2263.7705078125 -2266.1787109375 -2268.3662109375 -2270.3134765625 -2272.0419921875 -2273.527587890625 -2274.770263671875 -2275.724853515625 -2276.447265625 -2276.975341796875 -2277.331298828125 -2277.535888671875 -2277.580322265625 -2277.558349609375 -2277.48974609375 -2277.39697265625 -2277.30078125 -2277.230712890625 -2277.219482421875 -2277.26318359375 -2277.368408203125 -2277.54833984375 -2277.81689453125 -99999
 -99999 -99999 -99999 -99999 -99999 -99999 -99999 -99999 -99999 -99999 -99999 -99999 -99999 -99999 -99999 -99999 -99999 -99999 -99999 -99999 -99999 -99999 -99999 -99999 -99999 -99999 -99999 -99999 -99999 -99999 -99999 -99999 -99999 -99999 -99999 -99999 -99999 -99999 -99999 -99999 -99999 -99999 -99999 -99999 -99999 -99999 -99999 -99999 -99999 -99999 -99999 -99999 -99999 -99999 -99999 -99999 -99999 -99999 -99999 -99999 -99999 -99999 -99999 -99999 -99999 -99999 -99999 -99999 -99999 -99999 -99999 -99999 -99999 -99999 -99999 -99999 -99999 -99999 -99999 -99999 -99999 -99999 -99999 -99999 -99999 -99999 -99999 -99999 -99999 -99999 -99999 -99999 -99999 -99999 -99999 -99999 -99999 -99999 -99999 -99999 -99999 -99999 -99999 -99999 -99999 -99999 -99999 -99999 -99999 -99999 -99999 -99999 -99999 -99999 -99999 -99999 -99999 -99999 -99999 -99999 -99999 -99999 -99999 -99999 -99999 -99999 -99999 -99999 -99999 -99999 -99999 -99999 -99999 -99999 -99999 -99999 -99999 -99999 -99999 -99999 -99999 -99999 -99999 -99999 -99999 -99999 -99999 -99999 -99999 -99999 -99999 -99999 -99999 -99999 -99999 -99999 -99999 -99999 -99999 -99999 -99999 -99999 -99999 -99999 -99999 -99999 -99999 -99999 -2297.094970703125 -2294.251953125 -2291.27001953125 -2288.000244140625 -2284.615478515625 -2281.176025390625 -2277.72412109375 -2274.297119140625 -2270.961669921875 -2267.76953125 -2264.7216796875 -2261.897216796875 -2259.3583984375 -2257.4208984375 -2256.407958984375 -2256.1650390625 -2256.3330078125 -2256.209228515625 -2255.08740234375 -2253.76025390625 -2252.08056640625 -2250.0185546875 -2247.501953125 -2245.094482421875 -2242.955078125 -2241.560791015625 -2240.8095703125 -2240.7080078125 -2241.228759765625 -2242.33935546875 -2244.04931640625 -2246.12548828125 -2248.4658203125 -2251.001708984375 -2253.640380859375 -2256.287841796875 -2258.8935546875 -2261.361083984375 -2263.6513671875 -2265.7451171875 -2267.625 -2269.263671875 -2270.579345703125 -2271.65283203125 -2272.497314453125 -2273.138427734375 -2273.53369140625 -2273.68310546875 -2273.726806640625 -2273.688232421875 -2273.568115234375 -2273.374267578125 -2273.18603515625 -2273.035888671875 -2272.930419921875 -2272.88525390625 -2272.922607421875 -2273.063720703125 -2273.28955078125 -2273.591552734375 -99999
 -99999 -99999 -99999 -99999 -99999 -99999 -99999 -99999 -99999 -99999 -99999 -99999 -99999 -99999 -99999 -99999 -99999 -99999 -99999 -99999 -99999 -99999 -99999 -99999 -99999 -99999 -99999 -99999 -99999 -99999 -99999 -99999 -99999 -99999 -99999 -99999 -99999 -99999 -99999 -99999 -99999 -99999 -99999 -99999 -99999 -99999 -99999 -99999 -99999 -99999 -99999 -99999 -99999 -99999 -99999 -99999 -99999 -99999 -99999 -99999 -99999 -99999 -99999 -99999 -99999 -99999 -99999 -99999 -99999 -99999 -99999 -99999 -99999 -99999 -99999 -99999 -99999 -99999 -99999 -99999 -99999 -99999 -99999 -99999 -99999 -99999 -99999 -99999 -99999 -99999 -99999 -99999 -99999 -99999 -99999 -99999 -99999 -99999 -99999 -99999 -99999 -99999 -99999 -99999 -99999 -99999 -99999 -99999 -99999 -99999 -99999 -99999 -99999 -99999 -99999 -99999 -99999 -99999 -99999 -99999 -99999 -99999 -99999 -99999 -99999 -99999 -99999 -99999 -99999 -99999 -99999 -99999 -99999 -99999 -99999 -99999 -99999 -99999 -99999 -99999 -99999 -99999 -99999 -99999 -99999 -99999 -99999 -99999 -99999 -99999 -99999 -99999 -99999 -99999 -99999 -99999 -99999 -99999 -99999 -99999 -99999 -99999 -99999 -99999 -99999 -99999 -99999 -2296.068359375 -2293.549072265625 -2290.64208984375 -2287.396240234375 -2283.9482421875 -2280.370361328125 -2276.733154296875 -2273.1025390625 -2269.536376953125 -2266.040771484375 -2262.6318359375 -2259.319091796875 -2256.136962890625 -2253.181884765625 -2250.5322265625 -2248.888671875 -2248.783203125 -2249.31982421875 -2248.841796875 -2247.4990234375 -2245.914306640625 -2244.247314453125 -2242.55810546875 -2240.767578125 -2239.19091796875 -2237.978515625 -2237.22314453125 -2236.989501953125 -2237.350341796875 -2238.3798828125 -2239.86083984375 -2241.73095703125 -2243.924560546875 -2246.38720703125 -2249.010498046875 -2251.6748046875 -2254.327392578125 -2256.88818359375 -2259.316162109375 -2261.57470703125 -2263.618896484375 -2265.35693359375 -2266.8408203125 -2268.06689453125 -2269.035400390625 -2269.72802734375 -2270.136474609375 -2270.377685546875 -2270.41845703125 -2270.30517578125 -2270.068359375 -2269.78173828125 -2269.484375 -2269.201416015625 -2268.95849609375 -2268.79931640625 -2268.738525390625 -2268.774658203125 -2268.911376953125 -2269.1494140625 -2269.510009765625 -99999
 -99999 -99999 -99999 -99999 -99999 -99999 -99999 -99999 -99999 -99999 -99999 -99999 -99999 -99999 -99999 -99999 -99999 -99999 -99999 -99999 -99999 -99999 -99999 -99999 -99999 -99999 -99999 -99999 -99999 -99999 -99999 -99999 -99999 -99999 -99999 -99999 -99999 -99999 -99999 -99999 -99999 -99999 -99999 -99999 -99999 -99999 -99999 -99999 -99999 -99999 -99999 -99999 -99999 -99999 -99999 -99999 -99999 -99999 -99999 -99999 -99999 -99999 -99999 -99999 -99999 -99999 -99999 -99999 -99999 -99999 -99999 -99999 -99999 -99999 -99999 -99999 -99999 -99999 -99999 -99999 -99999 -99999 -99999 -99999 -99999 -99999 -99999 -99999 -99999 -99999 -99999 -99999 -99999 -99999 -99999 -99999 -99999 -99999 -99999 -99999 -99999 -99999 -99999 -99999 -99999 -99999 -99999 -99999 -99999 -99999 -99999 -99999 -99999 -99999 -99999 -99999 -99999 -99999 -99999 -99999 -99999 -99999 -99999 -99999 -99999 -99999 -99999 -99999 -99999 -99999 -99999 -99999 -99999 -99999 -99999 -99999 -99999 -99999 -99999 -99999 -99999 -99999 -99999 -99999 -99999 -99999 -99999 -99999 -99999 -99999 -99999 -99999 -99999 -99999 -99999 -99999 -99999 -99999 -99999 -99999 -99999 -99999 -99999 -99999 -99999 -2296.498291015625 -2294.8974609375 -2292.796875 -2290.05712890625 -2286.92236328125 -2283.4638671875 -2279.79833984375 -2275.95751953125 -2272.138916015625 -2268.349853515625 -2264.6435546875 -2261.054931640625 -2257.543212890625 -2254.048583984375 -2250.52587890625 -2247.008544921875 -2243.489990234375 -2240.20068359375 -2239.608154296875 -2240.08544921875 -2239.625 -2238.4677734375 -2237.07080078125 -2235.66357421875 -2234.423095703125 -2233.37841796875 -2232.603759765625 -2232.14501953125 -2232.10693359375 -2232.709228515625 -2233.775634765625 -2235.25439453125 -2237.103759765625 -2239.326904296875 -2241.837646484375 -2244.496826171875 -2247.23486328125 -2249.96533203125 -2252.714599609375 -2255.32373046875 -2257.7451171875 -2259.93505859375 -2261.885498046875 -2263.577880859375 -2264.99609375 -2266.0869140625 -2266.8583984375 -2267.367431640625 -2267.632568359375 -2267.680908203125 -2267.520263671875 -2267.200439453125 -2266.794677734375 -2266.34130859375 -2265.895751953125 -2265.4892578125 -2265.154296875 -2264.918212890625 -2264.794921875 -2264.80615234375 -2264.96533203125 -2265.246337890625 -99999 -99999
 -99999 -99999 -99999 -99999 -99999 -99999 -99999 -99999 -99999 -99999 -99999 -99999 -99999 -99999 -99999 -99999 -99999 -99999 -99999 -99999 -99999 -99999 -99999 -99999 -99999 -99999 -99999 -99999 -99999 -99999 -99999 -99999 -99999 -99999 -99999 -99999 -99999 -99999 -99999 -99999 -99999 -99999 -99999 -99999 -99999 -99999 -99999 -99999 -99999 -99999 -99999 -99999 -99999 -99999 -99999 -99999 -99999 -99999 -99999 -99999 -99999 -99999 -99999 -99999 -99999 -99999 -99999 -99999 -99999 -99999 -99999 -99999 -99999 -99999 -99999 -99999 -99999 -99999 -99999 -99999 -99999 -99999 -99999 -99999 -99999 -99999 -99999 -99999 -99999 -99999 -99999 -99999 -99999 -99999 -99999 -99999 -99999 -99999 -99999 -99999 -99999 -99999 -99999 -99999 -99999 -99999 -99999 -99999 -99999 -99999 -99999 -99999 -99999 -99999 -99999 -99999 -99999 -99999 -99999 -99999 -99999 -99999 -99999 -99999 -99999 -99999 -99999 -99999 -99999 -99999 -99999 -99999 -99999 -99999 -99999 -99999 -99999 -99999 -99999 -99999 -99999 -99999 -99999 -99999 -99999 -99999 -99999 -99999 -99999 -99999 -99999 -99999 -99999 -99999 -99999 -99999 -99999 -99999 -99999 -99999 -99999 -99999 -99999 -99999 -2294.173828125 -2293.359130859375 -2291.697021484375 -2289.4306640625 -2286.5263671875 -2283.1376953125 -2279.35205078125 -2275.388671875 -2271.352783203125 -2267.361572265625 -2263.4501953125 -2259.67529296875 -2256.04248046875 -2252.488037109375 -2249.013916015625 -2245.359375 -2241.488525390625 -2237.192626953125 -2232.4541015625 -2229.77294921875 -2229.9208984375 -2229.68505859375 -2228.721923828125 -2227.596923828125 -2226.574462890625 -2225.8232421875 -2225.335693359375 -2225.32958984375 -2225.87158203125 -2226.819091796875 -2228.166015625 -2229.817626953125 -2231.917724609375 -2234.386962890625 -2237.05224609375 -2239.8681640625 -2242.74169921875 -2245.70751953125 -2248.65185546875 -2251.435791015625 -2254.089111328125 -2256.534912109375 -2258.748046875 -2260.669677734375 -2262.2724609375 -2263.541259765625 -2264.502685546875 -2265.160888671875 -2265.52685546875 -2265.576416015625 -2265.376220703125 -2264.990966796875 -2264.466064453125 -2263.88720703125 -2263.227294921875 -2262.588134765625 -2262.015869140625 -2261.5556640625 -2261.248046875 -2261.086181640625 -2261.078369140625 -2261.22119140625 -2261.513916015625 -99999 -99999
 -99999 -99999 -99999 -99999 -99999 -99999 -99999 -99999 -99999 -99999 -99999 -99999 -99999 -99999 -99999 -99999 -99999 -99999 -99999 -99999 -99999 -99999 -99999 -99999 -99999 -99999 -99999 -99999 -99999 -99999 -99999 -99999 -99999 -99999 -99999 -99999 -99999 -99999 -99999 -99999 -99999 -99999 -99999 -99999 -99999 -99999 -99999 -99999 -99999 -99999 -99999 -99999 -99999 -99999 -99999 -99999 -99999 -99999 -99999 -99999 -99999 -99999 -99999 -99999 -99999 -99999 -99999 -99999 -99999 -99999 -99999 -99999 -99999 -99999 -99999 -99999 -99999 -99999 -99999 -99999 -99999 -99999 -99999 -99999 -99999 -99999 -99999 -99999 -99999 -99999 -99999 -99999 -99999 -99999 -99999 -99999 -99999 -99999 -99999 -99999 -99999 -99999 -99999 -99999 -99999 -99999 -99999 -99999 -99999 -99999 -99999 -99999 -99999 -99999 -99999 -99999 -99999 -99999 -99999 -99999 -99999 -99999 -99999 -99999 -99999 -99999 -99999 -99999 -99999 -99999 -99999 -99999 -99999 -99999 -99999 -99999 -99999 -99999 -99999 -99999 -99999 -99999 -99999 -99999 -99999 -99999 -99999 -99999 -99999 -99999 -99999 -99999 -99999 -99999 -99999 -99999 -99999 -99999 -99999 -99999 -99999 -99999 -99999 -2290.884765625 -2291.0908203125 -2290.2978515625 -2288.577392578125 -2286.03076171875 -2282.75244140625 -2279.008544921875 -2274.962890625 -2270.77001953125 -2266.50439453125 -2262.32373046875 -2258.310546875 -2254.4970703125 -2250.902099609375 -2247.47412109375 -2244.203125 -2240.728515625 -2236.822021484375 -2232.204833984375 -2227.217041015625 -2223.219482421875 -2221.663818359375 -2220.309814453125 -2219.062255859375 -2217.926513671875 -2217.048828125 -2216.70361328125 -2217.06201171875 -2218.0185546875 -2219.370849609375 -2221.07421875 -2223.351806640625 -2225.976318359375 -2228.7392578125 -2231.693603515625 -2234.760498046875 -2238.0234375 -2241.290771484375 -2244.513427734375 -2247.585693359375 -2250.5771484375 -2253.2861328125 -2255.773681640625 -2257.974853515625 -2259.854248046875 -2261.408447265625 -2262.604736328125 -2263.467041015625 -2263.932861328125 -2264.069091796875 -2263.915771484375 -2263.525634765625 -2262.947265625 -2262.145751953125 -2261.26806640625 -2260.37109375 -2259.57177734375 -2258.850830078125 -2258.25048828125 -2257.8212890625 -2257.580810546875 -2257.552734375 -2257.697509765625 -2258.023681640625 -99999 -99999
 -99999 -99999 -99999 -99999 -99999 -99999 -99999 -99999 -99999 -99999 -99999 -99999 -99999 -99999 -99999 -99999 -99999 -99999 -99999 -99999 -99999 -99999 -99999 -99999 -99999 -99999 -99999 -99999 -99999 -99999 -99999 -99999 -99999 -99999 -99999 -99999 -99999 -99999 -99999 -99999 -99999 -99999 -99999 -99999 -99999 -99999 -99999 -99999 -99999 -99999 -99999 -99999 -99999 -99999 -99999 -99999 -99999 -99999 -99999 -99999 -99999 -99999 -99999 -99999 -99999 -99999 -99999 -99999 -99999 -99999 -99999 -99999 -99999 -99999 -99999 -99999 -99999 -99999 -99999 -99999 -99999 -99999 -99999 -99999 -99999 -99999 -99999 -99999 -99999 -99999 -99999 -99999 -99999 -99999 -99999 -99999 -99999 -99999 -99999 -99999 -99999 -99999 -99999 -99999 -99999 -99999 -99999 -99999 -99999 -99999 -99999 -99999 -99999 -99999 -99999 -99999 -99999 -99999 -99999 -99999 -99999 -99999 -99999 -99999 -99999 -99999 -99999 -99999 -99999 -99999 -99999 -99999 -99999 -99999 -99999 -99999 -99999 -99999 -99999 -99999 -99999 -99999 -99999 -99999 -99999 -99999 -99999 -99999 -99999 -99999 -99999 -99999 -99999 -99999 -99999 -99999 -99999 -99999 -99999 -99999 -99999 -2285.218994140625 -2286.06640625 -2287.427978515625 -2288.09033203125 -2287.233154296875 -2285.18115234375 -2282.27197265625 -2278.678466796875 -2274.6552734375 -2270.229736328125 -2265.6806640625 -2261.23291015625 -2256.97021484375 -2252.89599609375 -2249.04736328125 -2245.6298828125 -2242.3955078125 -2239.427978515625 -2236.514892578125 -2232.650390625 -2227.9873046875 -2222.431884765625 -2217.724609375 -2214.203369140625 -2212.0126953125 -2209.995361328125 -2208.34716796875 -2207.44970703125 -2207.48486328125 -2208.441650390625 -2210.262939453125 -2212.762451171875 -2215.716552734375 -2218.834716796875 -2222.072998046875 -2225.498291015625 -2229.159912109375 -2232.884033203125 -2236.5009765625 -2240.051025390625 -2243.533203125 -2246.894287109375 -2249.98974609375 -2252.864013671875 -2255.43896484375 -2257.67138671875 -2259.53662109375 -2261.06005859375 -2262.144775390625 -2262.84716796875 -2263.168212890625 -2263.1484375 -2262.81494140625 -2262.120361328125 -2261.20751953125 -2260.173095703125 -2259.07958984375 -2257.95654296875 -2256.865478515625 -2255.91015625 -2255.190185546875 -2254.669921875 -2254.36328125 -2254.289306640625 -2254.42529296875 -2254.771728515625 -99999 -99999
 -99999 -99999 -99999 -99999 -99999 -99999 -99999 -99999 -99999 -99999 -99999 -99999 -99999 -99999 -99999 -99999 -99999 -99999 -99999 -99999 -99999 -99999 -99999 -99999 -99999 -99999 -99999 -99999 -99999 -99999 -99999 -99999 -99999 -99999 -99999 -99999 -99999 -99999 -99999 -99999 -99999 -99999 -99999 -99999 -99999 -99999 -99999 -99999 -99999 -99999 -99999 -99999 -99999 -99999 -99999 -99999 -99999 -99999 -99999 -99999 -99999 -99999 -99999 -99999 -99999 -99999 -99999 -99999 -99999 -99999 -99999 -99999 -99999 -99999 -99999 -99999 -99999 -99999 -99999 -99999 -99999 -99999 -99999 -99999 -99999 -99999 -99999 -99999 -99999 -99999 -99999 -99999 -99999 -99999 -99999 -99999 -99999 -99999 -99999 -99999 -99999 -99999 -99999 -99999 -99999 -99999 -99999 -99999 -99999 -99999 -99999 -99999 -99999 -99999 -99999 -99999 -99999 -99999 -99999 -99999 -99999 -99999 -99999 -99999 -99999 -99999 -99999 -99999 -99999 -99999 -99999 -99999 -99999 -99999 -99999 -99999 -99999 -99999 -99999 -99999 -99999 -99999 -99999 -99999 -99999 -99999 -99999 -99999 -99999 -99999 -99999 -99999 -99999 -99999 -99999 -99999 -99999 -99999 -99999 -99999 -2279.948974609375 -2280.928466796875 -2282.233642578125 -2284.70458984375 -2285.05810546875 -2283.77734375 -2281.429931640625 -2278.223876953125 -2274.123291015625 -2269.635498046875 -2264.892822265625 -2260.185546875 -2255.555908203125 -2251.17822265625 -2247.143798828125 -2243.43408203125 -2240.066162109375 -2237.036865234375 -2234.326416015625 -2231.69921875 -2228.232666015625 -2222.990966796875 -2217.321044921875 -2212.26025390625 -2207.964111328125 -2204.2626953125 -2201.338623046875 -2198.829345703125 -2197.584228515625 -2198.1171875 -2200.016845703125 -2202.82958984375 -2206.46484375 -2210.307373046875 -2214.316650390625 -2218.59619140625 -2222.82177734375 -2226.975830078125 -2231.086669921875 -2235.2109375 -2239.2373046875 -2243.02294921875 -2246.575927734375 -2249.88818359375 -2252.88232421875 -2255.53125 -2257.839111328125 -2259.713134765625 -2261.16259765625 -2262.16796875 -2262.779296875 -2262.9775390625 -2262.7099609375 -2262.08642578125 -2261.177490234375 -2260.041015625 -2258.69775390625 -2257.220458984375 -2255.8017578125 -2254.513427734375 -2253.376953125 -2252.443603515625 -2251.773193359375 -2251.3876953125 -2251.270751953125 -2251.403076171875 -99999 -99999 -99999
 -99999 -99999 -99999 -99999 -99999 -99999 -99999 -99999 -99999 -99999 -99999 -99999 -99999 -99999 -99999 -99999 -99999 -99999 -99999 -99999 -99999 -99999 -99999 -99999 -99999 -99999 -99999 -99999 -99999 -99999 -99999 -99999 -99999 -99999 -99999 -99999 -99999 -99999 -99999 -99999 -99999 -99999 -99999 -99999 -99999 -99999 -99999 -99999 -99999 -99999 -99999 -99999 -99999 -99999 -99999 -99999 -99999 -99999 -99999 -99999 -99999 -99999 -99999 -99999 -99999 -99999 -99999 -99999 -99999 -99999 -99999 -99999 -99999 -99999 -99999 -99999 -99999 -99999 -99999 -99999 -99999 -99999 -99999 -99999 -99999 -99999 -99999 -99999 -99999 -99999 -99999 -99999 -99999 -99999 -99999 -99999 -99999 -99999 -99999 -99999 -99999 -99999 -99999 -99999 -99999 -99999 -99999 -99999 -99999 -99999 -99999 -99999 -99999 -99999 -99999 -99999 -99999 -99999 -99999 -99999 -99999 -99999 -99999 -99999 -99999 -99999 -99999 -99999 -99999 -99999 -99999 -99999 -99999 -99999 -99999 -99999 -99999 -99999 -99999 -99999 -99999 -99999 -99999 -99999 -99999 -99999 -99999 -99999 -99999 -99999 -99999 -99999 -99999 -99999 -99999 -99999 -99999 -99999 -2272.358154296875 -2273.54833984375 -2274.778564453125 -2276.415283203125 -2278.426513671875 -2280.40185546875 -2280.829833984375 -2279.678466796875 -2276.8583984375 -2273.23095703125 -2268.82958984375 -2264.021240234375 -2258.970947265625 -2254.0517578125 -2249.27978515625 -2244.991943359375 -2241.092041015625 -2237.490966796875 -2234.178466796875 -2231.145751953125 -2228.452880859375 -2225.862548828125 -2222.107421875 -2217.217529296875 -2211.844482421875 -2206.58984375 -2201.72998046875 -2197.052490234375 -2192.7080078125 -2189.389892578125 -2187.710693359375 -2188.158447265625 -2191.476806640625 -2195.913330078125 -2200.661376953125 -2205.55908203125 -2210.578369140625 -2215.44677734375 -2220.293212890625 -2225.163330078125 -2229.88330078125 -2234.381591796875 -2238.70849609375 -2242.826416015625 -2246.707275390625 -2250.18408203125 -2253.371826171875 -2256.15869140625 -2258.452880859375 -2260.334228515625 -2261.789794921875 -2262.775146484375 -2263.23291015625 -2263.2138671875 -2262.789794921875 -2261.9892578125 -2260.78857421875 -2259.263916015625 -2257.600341796875 -2255.86669921875 -2254.142578125 -2252.495361328125 -2251.105224609375 -2249.984619140625 -2249.146484375 -2248.677490234375 -2248.5556640625 -2248.678955078125 -99999 -99999 -99999
 -99999 -99999 -99999 -99999 -99999 -99999 -99999 -99999 -99999 -99999 -99999 -99999 -99999 -99999 -99999 -99999 -99999 -99999 -99999 -99999 -99999 -99999 -99999 -99999 -99999 -99999 -99999 -99999 -99999 -99999 -99999 -99999 -99999 -99999 -99999 -99999 -99999 -99999 -99999 -99999 -99999 -99999 -99999 -99999 -99999 -99999 -99999 -99999 -99999 -99999 -99999 -99999 -99999 -99999 -99999 -99999 -99999 -99999 -99999 -99999 -99999 -99999 -99999 -99999 -99999 -99999 -99999 -99999 -99999 -99999 -99999 -99999 -99999 -99999 -99999 -99999 -99999 -99999 -99999 -99999 -99999 -99999 -99999 -99999 -99999 -99999 -99999 -99999 -99999 -99999 -99999 -99999 -99999 -99999 -99999 -99999 -99999 -99999 -99999 -99999 -99999 -99999 -99999 -99999 -99999 -99999 -99999 -99999 -99999 -99999 -99999 -99999 -99999 -99999 -99999 -99999 -99999 -99999 -99999 -99999 -99999 -99999 -99999 -99999 -99999 -99999 -99999 -99999 -99999 -99999 -99999 -99999 -99999 -99999 -99999 -99999 -99999 -99999 -99999 -99999 -99999 -99999 -99999 -99999 -99999 -99999 -99999 -99999 -99999 -99999 -99999 -99999 -99999 -99999 -99999 -99999 -99999 -2264.938720703125 -2266.16748046875 -2267.56591796875 -2269.1064453125 -2270.820556640625 -2272.651123046875 -2274.22998046875 -2274.784912109375 -2273.72509765625 -2271.1708984375 -2267.268310546875 -2262.643798828125 -2257.398681640625 -2252.22021484375 -2247.17822265625 -2242.61865234375 -2238.45947265625 -2234.67724609375 -2231.2421875 -2228.067138671875 -2225.048095703125 -2222.222412109375 -2219.3583984375 -2215.877685546875 -2211.380126953125 -2206.390625 -2201.0869140625 -2195.785400390625 -2190.526611328125 -2185.44970703125 -2180.650390625 -2177.451171875 -2179.573486328125 -2183.924072265625 -2189.634033203125 -2195.61279296875 -2201.595458984375 -2207.377685546875 -2213.005126953125 -2218.46728515625 -2223.775634765625 -2228.95458984375 -2233.947021484375 -2238.72412109375 -2243.11962890625 -2247.182861328125 -2250.9755859375 -2254.2646484375 -2257.14697265625 -2259.59912109375 -2261.56201171875 -2262.92529296875 -2263.797119140625 -2264.188720703125 -2264.10546875 -2263.478759765625 -2262.353271484375 -2260.869140625 -2259.090087890625 -2257.088623046875 -2254.910888671875 -2252.841552734375 -2250.906982421875 -2249.2021484375 -2247.96826171875 -2247.060546875 -2246.502685546875 -2246.2919921875 -2246.44580078125 -99999 -99999 -99999
 -99999 -99999 -99999 -99999 -99999 -99999 -99999 -99999 -99999 -99999 -99999 -99999 -99999 -99999 -99999 -99999 -99999 -99999 -99999 -99999 -99999 -99999 -99999 -99999 -99999 -99999 -99999 -99999 -99999 -99999 -99999 -99999 -99999 -99999 -99999 -99999 -99999 -99999 -99999 -99999 -99999 -99999 -99999 -99999 -99999 -99999 -99999 -99999 -99999 -99999 -99999 -99999 -99999 -99999 -99999 -99999 -99999 -99999 -99999 -99999 -99999 -99999 -99999 -99999 -99999 -99999 -99999 -99999 -99999 -99999 -99999 -99999 -99999 -99999 -99999 -99999 -99999 -99999 -99999 -99999 -99999 -99999 -99999 -99999 -99999 -99999 -99999 -99999 -99999 -99999 -99999 -99999 -99999 -99999 -99999 -99999 -99999 -99999 -99999 -99999 -99999 -99999 -99999 -99999 -99999 -99999 -99999 -99999 -99999 -99999 -99999 -99999 -99999 -99999 -99999 -99999 -99999 -99999 -99999 -99999 -99999 -99999 -99999 -99999 -99999 -99999 -99999 -99999 -99999 -99999 -99999 -99999 -99999 -99999 -99999 -99999 -99999 -99999 -99999 -99999 -99999 -99999 -99999 -99999 -99999 -99999 -99999 -99999 -99999 -99999 -99999 -99999 -99999 -99999 -99999 -2256.102783203125 -2257.052490234375 -2258.187255859375 -2259.447021484375 -2260.8212890625 -2262.295166015625 -2263.84765625 -2265.314697265625 -2266.356689453125 -2266.6669921875 -2265.92138671875 -2263.483154296875 -2259.88134765625 -2255.193603515625 -2249.797119140625 -2244.453369140625 -2239.612060546875 -2235.240478515625 -2231.389892578125 -2227.996337890625 -2224.938720703125 -2222.010498046875 -2219.147705078125 -2216.38037109375 -2213.419189453125 -2209.904541015625 -2205.874267578125 -2201.112548828125 -2196.021484375 -2190.7138671875 -2185.256591796875 -2179.61572265625 -2174.197021484375 -2171.2265625 -2172.3447265625 -2178.514892578125 -2185.231201171875 -2191.970458984375 -2198.57763671875 -2204.98974609375 -2211.13916015625 -2217.159912109375 -2223.012451171875 -2228.617431640625 -2233.9736328125 -2239.07421875 -2243.861083984375 -2248.291015625 -2252.171142578125 -2255.721923828125 -2258.729736328125 -2261.184814453125 -2263.137939453125 -2264.577880859375 -2265.496337890625 -2265.75048828125 -2265.443115234375 -2264.63720703125 -2263.3583984375 -2261.640380859375 -2259.45458984375 -2257.044677734375 -2254.540771484375 -2252.067626953125 -2249.78662109375 -2247.87451171875 -2246.309814453125 -2245.265625 -2244.677001953125 -2244.446533203125 -2244.5302734375 -99999 -99999 -99999
 -99999 -99999 -99999 -99999 -99999 -99999 -99999 -99999 -99999 -99999 -99999 -99999 -99999 -99999 -99999 -99999 -99999 -99999 -99999 -99999 -99999 -99999 -99999 -99999 -99999 -99999 -99999 -99999 -99999 -99999 -99999 -99999 -99999 -99999 -99999 -99999 -99999 -99999 -99999 -99999 -99999 -99999 -99999 -99999 -99999 -99999 -99999 -99999 -99999 -99999 -99999 -99999 -99999 -99999 -99999 -99999 -99999 -99999 -99999 -99999 -99999 -99999 -99999 -99999 -99999 -99999 -99999 -99999 -99999 -99999 -99999 -99999 -99999 -99999 -99999 -99999 -99999 -99999 -99999 -99999 -99999 -99999 -99999 -99999 -99999 -99999 -99999 -99999 -99999 -99999 -99999 -99999 -99999 -99999 -99999 -99999 -99999 -99999 -99999 -99999 -99999 -99999 -99999 -99999 -99999 -99999 -99999 -99999 -99999 -99999 -99999 -99999 -99999 -99999 -99999 -99999 -99999 -99999 -99999 -99999 -99999 -99999 -99999 -99999 -99999 -99999 -99999 -99999 -99999 -99999 -99999 -99999 -99999 -99999 -99999 -99999 -99999 -99999 -99999 -99999 -99999 -99999 -99999 -99999 -99999 -99999 -99999 -99999 -99999 -99999 -99999 -99999 -99999 -99999 -2248.240478515625 -2248.9931640625 -2249.8720703125 -2250.89892578125 -2252.03662109375 -2253.28955078125 -2254.55126953125 -2255.745849609375 -2256.73486328125 -2257.41357421875 -2257.309326171875 -2256.1923828125 -2254.194580078125 -2251.12109375 -2246.32373046875 -2240.785400390625 -2235.552734375 -2231.057861328125 -2227.22607421875 -2224.0400390625 -2221.192626953125 -2218.589111328125 -2216.18212890625 -2213.6796875 -2211.025634765625 -2208.17236328125 -2204.878173828125 -2200.835693359375 -2196.5615234375 -2191.742431640625 -2186.718994140625 -2181.587890625 -2176.62744140625 -2172.114501953125 -2169.329833984375 -2171.767578125 -2176.781005859375 -2183.139404296875 -2189.991943359375 -2196.83984375 -2203.5166015625 -2210.171142578125 -2216.573974609375 -2222.80224609375 -2228.838623046875 -2234.63720703125 -2240.045166015625 -2245.08154296875 -2249.78955078125 -2253.924560546875 -2257.593505859375 -2260.75634765625 -2263.399169921875 -2265.452880859375 -2266.82470703125 -2267.6220703125 -2267.8564453125 -2267.531005859375 -2266.611083984375 -2265.0322265625 -2262.977783203125 -2260.510498046875 -2257.71484375 -2254.791748046875 -2251.87744140625 -2249.1064453125 -2246.94970703125 -2245.259521484375 -2244.0458984375 -2243.30029296875 -2243.00927734375 -2243.1201171875 -99999 -99999 -99999
 -99999 -99999 -99999 -99999 -99999 -99999 -99999 -99999 -99999 -99999 -99999 -99999 -99999 -99999 -99999 -99999 -99999 -99999 -99999 -99999 -99999 -99999 -99999 -99999 -99999 -99999 -99999 -99999 -99999 -99999 -99999 -99999 -99999 -99999 -99999 -99999 -99999 -99999 -99999 -99999 -99999 -99999 -99999 -99999 -99999 -99999 -99999 -99999 -99999 -99999 -99999 -99999 -99999 -99999 -99999 -99999 -99999 -99999 -99999 -99999 -99999 -99999 -99999 -99999 -99999 -99999 -99999 -99999 -99999 -99999 -99999 -99999 -99999 -99999 -99999 -99999 -99999 -99999 -99999 -99999 -99999 -99999 -99999 -99999 -99999 -99999 -99999 -99999 -99999 -99999 -99999 -99999 -99999 -99999 -99999 -99999 -99999 -99999 -99999 -99999 -99999 -99999 -99999 -99999 -99999 -99999 -99999 -99999 -99999 -99999 -99999 -99999 -99999 -99999 -99999 -99999 -99999 -99999 -99999 -99999 -99999 -99999 -99999 -99999 -99999 -99999 -99999 -99999 -99999 -99999 -99999 -99999 -99999 -99999 -99999 -99999 -99999 -99999 -99999 -99999 -99999 -99999 -99999 -99999 -99999 -99999 -99999 -99999 -99999 -99999 -99999 -99999 -2240.078369140625 -2240.41064453125 -2240.935546875 -2241.587890625 -2242.344482421875 -2243.186767578125 -2244.11376953125 -2245.15478515625 -2246.079833984375 -2246.874755859375 -2247.403076171875 -2247.591064453125 -2247.028564453125 -2245.639892578125 -2243.4208984375 -2240.184814453125 -2235.6796875 -2230.374267578125 -2225.5869140625 -2221.912841796875 -2218.894775390625 -2216.4384765625 -2214.392578125 -2212.4697265625 -2210.529296875 -2208.5234375 -2206.15576171875 -2203.400146484375 -2200.27880859375 -2196.594482421875 -2192.53173828125 -2188.21142578125 -2183.757080078125 -2179.304443359375 -2175.16650390625 -2172.240966796875 -2171.218017578125 -2172.59765625 -2176.962890625 -2182.822021484375 -2189.346435546875 -2196.15625 -2203.053955078125 -2209.9130859375 -2216.65380859375 -2223.227294921875 -2229.5556640625 -2235.6494140625 -2241.436767578125 -2246.833251953125 -2251.716064453125 -2256.145263671875 -2260.0615234375 -2263.346435546875 -2266.006591796875 -2268.081787109375 -2269.55615234375 -2270.400390625 -2270.5859375 -2270.077880859375 -2269.0068359375 -2267.343017578125 -2265.101318359375 -2262.328125 -2259.09130859375 -2255.650390625 -2252.21044921875 -2249.16162109375 -2246.610595703125 -2244.628173828125 -2243.31494140625 -2242.561279296875 -2242.220703125 -99999 -99999 -99999 -99999
 -99999 -99999 -99999 -99999 -99999 -99999 -99999 -99999 -99999 -99999 -99999 -99999 -99999 -99999 -99999 -99999 -99999 -99999 -99999 -99999 -99999 -99999 -99999 -99999 -99999 -99999 -99999 -99999 -99999 -99999 -99999 -99999 -99999 -99999 -99999 -99999 -99999 -99999 -99999 -99999 -99999 -99999 -99999 -99999 -99999 -99999 -99999 -99999 -99999 -99999 -99999 -99999 -99999 -99999 -99999 -99999 -99999 -99999 -99999 -99999 -99999 -99999 -99999 -99999 -99999 -99999 -99999 -99999 -99999 -99999 -99999 -99999 -99999 -99999 -99999 -99999 -99999 -99999 -99999 -99999 -99999 -99999 -99999 -99999 -99999 -99999 -99999 -99999 -99999 -99999 -99999 -99999 -99999 -99999 -99999 -99999 -99999 -99999 -99999 -99999 -99999 -99999 -99999 -99999 -99999 -99999 -99999 -99999 -99999 -99999 -99999 -99999 -99999 -99999 -99999 -99999 -99999 -99999 -99999 -99999 -99999 -99999 -99999 -99999 -99999 -99999 -99999 -99999 -99999 -99999 -99999 -99999 -99999 -99999 -99999 -99999 -99999 -99999 -99999 -99999 -99999 -99999 -99999 -99999 -99999 -99999 -99999 -99999 -99999 -99999 -2232.793212890625 -2232.7294921875 -2232.84130859375 -2233.0888671875 -2233.449951171875 -2233.908203125 -2234.51220703125 -2235.180908203125 -2235.816162109375 -2236.42578125 -2236.946044921875 -2237.353759765625 -2237.4345703125 -2236.994873046875 -2236.01123046875 -2234.39208984375 -2231.9541015625 -2228.503662109375 -2224.154296875 -2219.54345703125 -2215.295654296875 -2212.3544921875 -2210.20751953125 -2208.93994140625 -2208.071044921875 -2206.802734375 -2205.3671875 -2203.687255859375 -2201.62255859375 -2199.11572265625 -2196.179443359375 -2192.871337890625 -2189.222412109375 -2185.27685546875 -2181.38671875 -2177.884033203125 -2174.903564453125 -2172.863037109375 -2172.44287109375 -2174.40625 -2178.2216796875 -2183.35498046875 -2189.585693359375 -2196.297119140625 -2203.193603515625 -2210.253173828125 -2217.208984375 -2224.10693359375 -2230.805419921875 -2237.25244140625 -2243.279052734375 -2248.965087890625 -2254.141357421875 -2258.775390625 -2262.831787109375 -2266.30224609375 -2269.151123046875 -2271.27490234375 -2272.760498046875 -2273.5498046875 -2273.716796875 -2273.227294921875 -2272.090087890625 -2270.286376953125 -2267.850830078125 -2264.782470703125 -2261.18701171875 -2257.328125 -2253.383056640625 -2249.802734375 -2246.890625 -2244.7763671875 -2243.30712890625 -2242.38623046875 -2241.9873046875 -99999 -99999 -99999 -99999
 -99999 -99999 -99999 -99999 -99999 -99999 -99999 -99999 -99999 -99999 -99999 -99999 -99999 -99999 -99999 -99999 -99999 -99999 -99999 -99999 -99999 -99999 -99999 -99999 -99999 -99999 -99999 -99999 -99999 -99999 -99999 -99999 -99999 -99999 -99999 -99999 -99999 -99999 -99999 -99999 -99999 -99999 -99999 -99999 -99999 -99999 -99999 -99999 -99999 -99999 -99999 -99999 -99999 -99999 -99999 -99999 -99999 -99999 -99999 -99999 -99999 -99999 -99999 -99999 -99999 -99999 -99999 -99999 -99999 -99999 -99999 -99999 -99999 -99999 -99999 -99999 -99999 -99999 -99999 -99999 -99999 -99999 -99999 -99999 -99999 -99999 -99999 -99999 -99999 -99999 -99999 -99999 -99999 -99999 -99999 -99999 -99999 -99999 -99999 -99999 -99999 -99999 -99999 -99999 -99999 -99999 -99999 -99999 -99999 -99999 -99999 -99999 -99999 -99999 -99999 -99999 -99999 -99999 -99999 -99999 -99999 -99999 -99999 -99999 -99999 -99999 -99999 -99999 -99999 -99999 -99999 -99999 -99999 -99999 -99999 -99999 -99999 -99999 -99999 -99999 -99999 -99999 -99999 -99999 -99999 -99999 -99999 -99999 -99999 -2226.021728515625 -2225.708740234375 -2225.552734375 -2225.522216796875 -2225.6328125 -2225.8662109375 -2226.165771484375 -2226.489501953125 -2226.826171875 -2227.189697265625 -2227.498779296875 -2227.631591796875 -2227.4599609375 -2227.01171875 -2226.203857421875 -2224.884765625 -2222.85791015625 -2220.176025390625 -2216.94287109375 -2212.95703125 -2208.85791015625 -2205.5166015625 -2203.021484375 -2201.66552734375 -2201.64453125 -2201.857421875 -2201.451171875 -2200.552978515625 -2199.27001953125 -2197.52587890625 -2195.322265625 -2192.589599609375 -2189.505615234375 -2186.1943359375 -2182.85107421875 -2179.71484375 -2176.75146484375 -2174.463134765625 -2173.4755859375 -2173.8818359375 -2175.81787109375 -2179.454345703125 -2184.435546875 -2190.408935546875 -2196.97119140625 -2203.92041015625 -2211.098388671875 -2218.32275390625 -2225.41455078125 -2232.380615234375 -2239.134765625 -2245.5654296875 -2251.515625 -2256.938232421875 -2261.87109375 -2266.08203125 -2269.71533203125 -2272.62890625 -2274.8291015625 -2276.36376953125 -2277.148681640625 -2277.30419921875 -2276.78564453125 -2275.6181640625 -2273.8408203125 -2271.329345703125 -2268.15625 -2264.237060546875 -2259.726806640625 -2255.054443359375 -2250.978759765625 -2247.810302734375 -2245.5791015625 -2244.030517578125 -2243.0322265625 -2242.45654296875 -99999 -99999 -99999 -99999
 -99999 -99999 -99999 -99999 -99999 -99999 -99999 -99999 -99999 -99999 -99999 -99999 -99999 -99999 -99999 -99999 -99999 -99999 -99999 -99999 -99999 -99999 -99999 -99999 -99999 -99999 -99999 -99999 -99999 -99999 -99999 -99999 -99999 -99999 -99999 -99999 -99999 -99999 -99999 -99999 -99999 -99999 -99999 -99999 -99999 -99999 -99999 -99999 -99999 -99999 -99999 -99999 -99999 -99999 -99999 -99999 -99999 -99999 -99999 -99999 -99999 -99999 -99999 -99999 -99999 -99999 -99999 -99999 -99999 -99999 -99999 -99999 -99999 -99999 -99999 -99999 -99999 -99999 -99999 -99999 -99999 -99999 -99999 -99999 -99999 -99999 -99999 -99999 -99999 -99999 -99999 -99999 -99999 -99999 -99999 -99999 -99999 -99999 -99999 -99999 -99999 -99999 -99999 -99999 -99999 -99999 -99999 -99999 -99999 -99999 -99999 -99999 -99999 -99999 -99999 -99999 -99999 -99999 -99999 -99999 -99999 -99999 -99999 -99999 -99999 -99999 -99999 -99999 -99999 -99999 -99999 -99999 -99999 -99999 -99999 -99999 -99999 -99999 -99999 -99999 -99999 -99999 -99999 -99999 -99999 -99999 -99999 -2220.39892578125 -2219.635498046875 -2219.064697265625 -2218.655517578125 -2218.404052734375 -2218.26611328125 -2218.20947265625 -2218.197265625 -2218.253173828125 -2218.35791015625 -2218.455078125 -2218.45263671875 -2218.279052734375 -2217.971435546875 -2217.459228515625 -2216.652099609375 -2215.328125 -2213.557373046875 -2211.330322265625 -2208.697021484375 -2205.583251953125 -2202.21240234375 -2198.952880859375 -2196.223876953125 -2194.4697265625 -2194.419921875 -2195.303466796875 -2196.21240234375 -2196.5205078125 -2196.240234375 -2195.254638671875 -2193.73095703125 -2191.7294921875 -2189.286865234375 -2186.5419921875 -2183.564208984375 -2180.640625 -2177.820068359375 -2175.69580078125 -2174.3076171875 -2173.90234375 -2174.723876953125 -2176.922607421875 -2180.662841796875 -2185.503173828125 -2191.421875 -2197.9599609375 -2204.947998046875 -2212.27783203125 -2219.656982421875 -2227.08349609375 -2234.424072265625 -2241.439697265625 -2248.14697265625 -2254.420654296875 -2260.0947265625 -2265.227294921875 -2269.699951171875 -2273.51953125 -2276.503173828125 -2278.739990234375 -2280.294921875 -2281.0927734375 -2281.226318359375 -2280.696044921875 -2279.572021484375 -2277.861572265625 -2275.464599609375 -2272.26708984375 -2268.12890625 -2263.24462890625 -2257.968017578125 -2252.894775390625 -2249.662841796875 -2247.31494140625 -2245.582763671875 -2244.3955078125 -2243.6435546875 -99999 -99999 -99999 -99999
 -99999 -99999 -99999 -99999 -99999 -99999 -99999 -99999 -99999 -99999 -99999 -99999 -99999 -99999 -99999 -99999 -99999 -99999 -99999 -99999 -99999 -99999 -99999 -99999 -99999 -99999 -99999 -99999 -99999 -99999 -99999 -99999 -99999 -99999 -99999 -99999 -99999 -99999 -99999 -99999 -99999 -99999 -99999 -99999 -99999 -99999 -99999 -99999 -99999 -99999 -99999 -99999 -99999 -99999 -99999 -99999 -99999 -99999 -99999 -99999 -99999 -99999 -99999 -99999 -99999 -99999 -99999 -99999 -99999 -99999 -99999 -99999 -99999 -99999 -99999 -99999 -99999 -99999 -99999 -99999 -99999 -99999 -99999 -99999 -99999 -99999 -99999 -99999 -99999 -99999 -99999 -99999 -99999 -99999 -99999 -99999 -99999 -99999 -99999 -99999 -99999 -99999 -99999 -99999 -99999 -99999 -99999 -99999 -99999 -99999 -99999 -99999 -99999 -99999 -99999 -99999 -99999 -99999 -99999 -99999 -99999 -99999 -99999 -99999 -99999 -99999 -99999 -99999 -99999 -99999 -99999 -99999 -99999 -99999 -99999 -99999 -99999 -99999 -99999 -99999 -99999 -99999 -99999 -99999 -99999 -99999 -2214.703125 -2213.685546875 -2212.89404296875 -2212.2587890625 -2211.755859375 -2211.3486328125 -2211.018310546875 -2210.788818359375 -2210.604248046875 -2210.445068359375 -2210.208740234375 -2209.953857421875 -2209.6171875 -2209.1396484375 -2208.47900390625 -2207.52294921875 -2206.267822265625 -2204.6357421875 -2202.59814453125 -2200.224609375 -2197.564697265625 -2194.746337890625 -2191.967529296875 -2189.64453125 -2187.68115234375 -2186.79541015625 -2187.711181640625 -2189.8681640625 -2191.321044921875 -2191.984130859375 -2192.01904296875 -2191.44873046875 -2190.24658203125 -2188.422119140625 -2186.1435546875 -2183.594482421875 -2180.939208984375 -2178.39794921875 -2176.1923828125 -2174.539794921875 -2173.62646484375 -2173.706787109375 -2175.104736328125 -2177.763671875 -2181.60302734375 -2186.5673828125 -2192.380126953125 -2199.03564453125 -2206.15380859375 -2213.662841796875 -2221.3505859375 -2229.006591796875 -2236.58056640625 -2243.963134765625 -2250.995849609375 -2257.5546875 -2263.6337890625 -2269.02587890625 -2273.645751953125 -2277.55810546875 -2280.728759765625 -2283.033935546875 -2284.50390625 -2285.23388671875 -2285.33642578125 -2284.85693359375 -2283.797607421875 -2282.22900390625 -2280.052001953125 -2277.099853515625 -2273.2744140625 -2268.03076171875 -2261.847900390625 -2256.514404296875 -2252.6025390625 -2250.088134765625 -2248.1064453125 -2246.60986328125 -99999 -99999 -99999 -99999 -99999
 -99999 -99999 -99999 -99999 -99999 -99999 -99999 -99999 -99999 -99999 -99999 -99999 -99999 -99999 -99999 -99999 -99999 -99999 -99999 -99999 -99999 -99999 -99999 -99999 -99999 -99999 -99999 -99999 -99999 -99999 -99999 -99999 -99999 -99999 -99999 -99999 -99999 -99999 -99999 -99999 -99999 -99999 -99999 -99999 -99999 -99999 -99999 -99999 -99999 -99999 -99999 -99999 -99999 -99999 -99999 -99999 -99999 -99999 -99999 -99999 -99999 -99999 -99999 -99999 -99999 -99999 -99999 -99999 -99999 -99999 -99999 -99999 -99999 -99999 -99999 -99999 -99999 -99999 -99999 -99999 -99999 -99999 -99999 -99999 -99999 -99999 -99999 -99999 -99999 -99999 -99999 -99999 -99999 -99999 -99999 -99999 -99999 -99999 -99999 -99999 -99999 -99999 -99999 -99999 -99999 -99999 -99999 -99999 -99999 -99999 -99999 -99999 -99999 -99999 -99999 -99999 -99999 -99999 -99999 -99999 -99999 -99999 -99999 -99999 -99999 -99999 -99999 -99999 -99999 -99999 -99999 -99999 -99999 -99999 -99999 -99999 -99999 -99999 -99999 -99999 -99999 -99999 -99999 -99999 -2211.09228515625 -2209.545654296875 -2208.252197265625 -2207.174560546875 -2206.2978515625 -2205.5390625 -2204.93359375 -2204.41015625 -2203.87939453125 -2203.44140625 -2203.03759765625 -2202.634033203125 -2202.18310546875 -2201.627685546875 -2200.975830078125 -2200.163330078125 -2199.14990234375 -2197.835693359375 -2196.176513671875 -2194.23193359375 -2192.022216796875 -2189.58154296875 -2187.072998046875 -2184.576171875 -2182.355224609375 -2180.640380859375 -2179.460693359375 -2179.9287109375 -2181.765869140625 -2184.11181640625 -2186.136962890625 -2187.590576171875 -2188.074462890625 -2187.694580078125 -2186.68603515625 -2185.1162109375 -2183.057373046875 -2180.667236328125 -2178.244140625 -2176.000244140625 -2174.123291015625 -2172.880859375 -2172.604736328125 -2173.309814453125 -2175.067138671875 -2177.921875 -2181.987060546875 -2187.238037109375 -2193.326904296875 -2200.06103515625 -2207.403076171875 -2215.134033203125 -2223.03369140625 -2231.033935546875 -2239.0126953125 -2246.68505859375 -2254.12939453125 -2260.9951171875 -2267.3037109375 -2272.98876953125 -2277.97119140625 -2282.036376953125 -2285.1435546875 -2287.43798828125 -2288.943359375 -2289.67724609375 -2289.60888671875 -2288.987060546875 -2287.95654296875 -2286.576416015625 -2284.89794921875 -2282.70068359375 -2279.0341796875 -2273.939208984375 -2267.787353515625 -2261.623291015625 -2257.2529296875 -2254.00537109375 -2251.40771484375 -2249.4560546875 -99999 -99999 -99999 -99999 -99999
 -99999 -99999 -99999 -99999 -99999 -99999 -99999 -99999 -99999 -99999 -99999 -99999 -99999 -99999 -99999 -99999 -99999 -99999 -99999 -99999 -99999 -99999 -99999 -99999 -99999 -99999 -99999 -99999 -99999 -99999 -99999 -99999 -99999 -99999 -99999 -99999 -99999 -99999 -99999 -99999 -99999 -99999 -99999 -99999 -99999 -99999 -99999 -99999 -99999 -99999 -99999 -99999 -99999 -99999 -99999 -99999 -99999 -99999 -99999 -99999 -99999 -99999 -99999 -99999 -99999 -99999 -99999 -99999 -99999 -99999 -99999 -99999 -99999 -99999 -99999 -99999 -99999 -99999 -99999 -99999 -99999 -99999 -99999 -99999 -99999 -99999 -99999 -99999 -99999 -99999 -99999 -99999 -99999 -99999 -99999 -99999 -99999 -99999 -99999 -99999 -99999 -99999 -99999 -99999 -99999 -99999 -99999 -99999 -99999 -99999 -99999 -99999 -99999 -99999 -99999 -99999 -99999 -99999 -99999 -99999 -99999 -99999 -99999 -99999 -99999 -99999 -99999 -99999 -99999 -99999 -99999 -99999 -99999 -99999 -99999 -99999 -99999 -99999 -99999 -99999 -99999 -99999 -99999 -2206.8388671875 -2204.881103515625 -2203.30859375 -2202.08935546875 -2201.0302734375 -2200.069091796875 -2199.2138671875 -2198.435791015625 -2197.70458984375 -2197.010498046875 -2196.342529296875 -2195.6875 -2195.0126953125 -2194.2890625 -2193.486328125 -2192.571533203125 -2191.4560546875 -2190.095947265625 -2188.485107421875 -2186.64794921875 -2184.490234375 -2182.021240234375 -2179.53173828125 -2177.14599609375 -2175.0009765625 -2173.3076171875 -2172.448974609375 -2172.517333984375 -2173.58984375 -2175.566650390625 -2178.159912109375 -2180.664306640625 -2182.6396484375 -2183.64404296875 -2183.80810546875 -2183.140625 -2181.680908203125 -2179.7158203125 -2177.49755859375 -2175.22119140625 -2173.193359375 -2171.743896484375 -2170.984375 -2171.0458984375 -2172.0400390625 -2174.27734375 -2177.71826171875 -2182.169677734375 -2187.653564453125 -2193.814208984375 -2200.927978515625 -2208.48681640625 -2216.52734375 -2224.805908203125 -2233.14501953125 -2241.427734375 -2249.57470703125 -2257.26123046875 -2264.579345703125 -2271.373291015625 -2277.24462890625 -2282.3203125 -2286.5537109375 -2289.897705078125 -2292.3046875 -2293.739501953125 -2294.154052734375 -2293.916015625 -2293.1357421875 -2291.95703125 -2290.62353515625 -2289.3369140625 -2287.864013671875 -2285.60791015625 -2280.4375 -2273.94775390625 -2267.832275390625 -2262.6181640625 -2258.451904296875 -2255.287109375 -2252.796630859375 -99999 -99999 -99999 -99999 -99999
 -99999 -99999 -99999 -99999 -99999 -99999 -99999 -99999 -99999 -99999 -99999 -99999 -99999 -99999 -99999 -99999 -99999 -99999 -99999 -99999 -99999 -99999 -99999 -99999 -99999 -99999 -99999 -99999 -99999 -99999 -99999 -99999 -99999 -99999 -99999 -99999 -99999 -99999 -99999 -99999 -99999 -99999 -99999 -99999 -99999 -99999 -99999 -99999 -99999 -99999 -99999 -99999 -99999 -99999 -99999 -99999 -99999 -99999 -99999 -99999 -99999 -99999 -99999 -99999 -99999 -99999 -99999 -99999 -99999 -99999 -99999 -99999 -99999 -99999 -99999 -99999 -99999 -99999 -99999 -99999 -99999 -99999 -99999 -99999 -99999 -99999 -99999 -99999 -99999 -99999 -99999 -99999 -99999 -99999 -99999 -99999 -99999 -99999 -99999 -99999 -99999 -99999 -99999 -99999 -99999 -99999 -99999 -99999 -99999 -99999 -99999 -99999 -99999 -99999 -99999 -99999 -99999 -99999 -99999 -99999 -99999 -99999 -99999 -99999 -99999 -99999 -99999 -99999 -99999 -99999 -99999 -99999 -99999 -99999 -99999 -99999 -99999 -99999 -99999 -99999 -99999 -2206.24462890625 -2203.309814453125 -2201.076416015625 -2199.22607421875 -2197.67236328125 -2196.3505859375 -2195.216064453125 -2194.1533203125 -2193.137939453125 -2192.157470703125 -2191.217041015625 -2190.316162109375 -2189.414306640625 -2188.511474609375 -2187.598876953125 -2186.665283203125 -2185.603759765625 -2184.437255859375 -2183.103759765625 -2181.5703125 -2179.822509765625 -2177.683837890625 -2175.3271484375 -2172.810546875 -2170.219970703125 -2167.83203125 -2166.12158203125 -2165.153076171875 -2164.947998046875 -2165.5654296875 -2167.109130859375 -2169.42236328125 -2172.041015625 -2174.69921875 -2177.12646484375 -2178.7998046875 -2179.3037109375 -2179.0419921875 -2177.94970703125 -2176.084228515625 -2173.847900390625 -2171.73388671875 -2169.962158203125 -2168.7119140625 -2168.162841796875 -2168.724365234375 -2170.35205078125 -2173.021484375 -2176.73974609375 -2181.50634765625 -2187.4111328125 -2194.15087890625 -2201.489990234375 -2209.43505859375 -2217.830078125 -2226.439208984375 -2235.18603515625 -2243.85791015625 -2252.436767578125 -2260.580078125 -2268.236572265625 -2275.291748046875 -2281.60888671875 -2287.124267578125 -2291.497314453125 -2295.001220703125 -2297.198974609375 -2298.324462890625 -2298.547607421875 -2298.038818359375 -2296.9619140625 -2295.546630859375 -2293.873291015625 -2292.458251953125 -2291.80126953125 -2289.86083984375 -2285.444580078125 -2279.144287109375 -2272.881103515625 -2267.564208984375 -2263.087158203125 -2259.34521484375 -99999 -99999 -99999 -99999 -99999 -99999
 -99999 -99999 -99999 -99999 -99999 -99999 -99999 -99999 -99999 -99999 -99999 -99999 -99999 -99999 -99999 -99999 -99999 -99999 -99999 -99999 -99999 -99999 -99999 -99999 -99999 -99999 -99999 -99999 -99999 -99999 -99999 -99999 -99999 -99999 -99999 -99999 -99999 -99999 -99999 -99999 -99999 -99999 -99999 -99999 -99999 -99999 -99999 -99999 -99999 -99999 -99999 -99999 -99999 -99999 -99999 -99999 -99999 -99999 -99999 -99999 -99999 -99999 -99999 -99999 -99999 -99999 -99999 -99999 -99999 -99999 -99999 -99999 -99999 -99999 -99999 -99999 -99999 -99999 -99999 -99999 -99999 -99999 -99999 -99999 -99999 -99999 -99999 -99999 -99999 -99999 -99999 -99999 -99999 -99999 -99999 -99999 -99999 -99999 -99999 -99999 -99999 -99999 -99999 -99999 -99999 -99999 -99999 -99999 -99999 -99999 -99999 -99999 -99999 -99999 -99999 -99999 -99999 -99999 -99999 -99999 -99999 -99999 -99999 -99999 -99999 -99999 -99999 -99999 -99999 -99999 -99999 -99999 -99999 -99999 -99999 -99999 -99999 -99999 -99999 -99999 -2204.56884765625 -2200.901611328125 -2198.080322265625 -2195.77783203125 -2193.95166015625 -2192.44775390625 -2191.09765625 -2189.82275390625 -2188.593017578125 -2187.422119140625 -2186.213134765625 -2185.00244140625 -2183.829833984375 -2182.6865234375 -2181.596435546875 -2180.46630859375 -2179.30029296875 -2178.06591796875 -2176.73291015625 -2175.2607421875 -2173.54931640625 -2171.62060546875 -2169.4453125 -2167.04150390625 -2164.42822265625 -2161.742431640625 -2159.292724609375 -2157.85107421875 -2157.5185546875 -2157.898193359375 -2158.983154296875 -2160.800048828125 -2163.12109375 -2165.783447265625 -2168.479736328125 -2170.867919921875 -2172.782958984375 -2174.112548828125 -2174.5693359375 -2173.572509765625 -2171.712158203125 -2169.601318359375 -2167.575439453125 -2165.92333984375 -2165.042724609375 -2164.983642578125 -2165.854736328125 -2167.77001953125 -2170.8291015625 -2175.231201171875 -2180.621337890625 -2186.91015625 -2193.9228515625 -2201.639404296875 -2210.08837890625 -2218.79052734375 -2227.830322265625 -2237.02490234375 -2246.179931640625 -2255.11572265625 -2263.75146484375 -2271.97314453125 -2279.443359375 -2286.04638671875 -2291.828857421875 -2296.504150390625 -2299.87890625 -2302.1259765625 -2303.205810546875 -2303.1904296875 -2302.282470703125 -2300.640869140625 -2298.700439453125 -2296.580322265625 -2294.5439453125 -2293.148681640625 -2291.937744140625 -2287.962158203125 -2282.58837890625 -2277.09765625 -2271.83203125 -2267.090576171875 -2263.115234375 -99999 -99999 -99999 -99999 -99999 -99999
 -99999 -99999 -99999 -99999 -99999 -99999 -99999 -99999 -99999 -99999 -99999 -99999 -99999 -99999 -99999 -99999 -99999 -99999 -99999 -99999 -99999 -99999 -99999 -99999 -99999 -99999 -99999 -99999 -99999 -99999 -99999 -99999 -99999 -99999 -99999 -99999 -99999 -99999 -99999 -99999 -99999 -99999 -99999 -99999 -99999 -99999 -99999 -99999 -99999 -99999 -99999 -99999 -99999 -99999 -99999 -99999 -99999 -99999 -99999 -99999 -99999 -99999 -99999 -99999 -99999 -99999 -99999 -99999 -99999 -99999 -99999 -99999 -99999 -99999 -99999 -99999 -99999 -99999 -99999 -99999 -99999 -99999 -99999 -99999 -99999 -99999 -99999 -99999 -99999 -99999 -99999 -99999 -99999 -99999 -99999 -99999 -99999 -99999 -99999 -99999 -99999 -99999 -99999 -99999 -99999 -99999 -99999 -99999 -99999 -99999 -99999 -99999 -99999 -99999 -99999 -99999 -99999 -99999 -99999 -99999 -2369.055419921875 -2362.0830078125 -2354.6259765625 -2346.768310546875 -2338.502197265625 -2329.86181640625 -2320.85791015625 -2311.6044921875 -2302.110595703125 -2292.4453125 -2282.609130859375 -2272.71484375 -2262.929443359375 -2253.240478515625 -2243.73193359375 -2234.5859375 -2225.911376953125 -2217.93359375 -2210.543212890625 -2204.442138671875 -2199.71044921875 -2196.06005859375 -2193.281982421875 -2191.142333984375 -2189.355712890625 -2187.7900390625 -2186.34130859375 -2184.95361328125 -2183.494140625 -2182.031494140625 -2180.524169921875 -2179.103759765625 -2177.6826171875 -2176.260009765625 -2174.879638671875 -2173.531982421875 -2172.22021484375 -2170.85498046875 -2169.38623046875 -2167.787109375 -2166.05322265625 -2164.12744140625 -2161.91162109375 -2159.502197265625 -2156.9365234375 -2154.33056640625 -2151.925537109375 -2150.448486328125 -2150.54931640625 -2151.271240234375 -2152.655029296875 -2154.526611328125 -2156.809326171875 -2159.40283203125 -2162.000244140625 -2164.394287109375 -2166.408447265625 -2167.89208984375 -2168.580322265625 -2168.211669921875 -2166.491943359375 -2164.53076171875 -2162.744384765625 -2161.366943359375 -2160.677734375 -2160.8349609375 -2162.11962890625 -2164.71435546875 -2168.410888671875 -2173.201171875 -2179.00341796875 -2185.76318359375 -2193.415771484375 -2201.6123046875 -2210.340576171875 -2219.558349609375 -2229.022216796875 -2238.604736328125 -2248.1591796875 -2257.704833984375 -2266.716064453125 -2275.364501953125 -2283.312744140625 -2290.501708984375 -2296.572265625 -2301.45361328125 -2305.203125 -2307.413330078125 -2308.291259765625 -2307.761474609375 -2306.234375 -2304.096435546875 -2301.776611328125 -2299.30419921875 -2296.895263671875 -2294.87255859375 -2292.9091796875 -2289.646484375 -2285.302001953125 -2280.23583984375 -2275.288818359375 -2270.718994140625 -99999 -99999 -99999 -99999 -99999 -99999 -99999
 -99999 -99999 -99999 -99999 -99999 -99999 -99999 -99999 -99999 -99999 -99999 -99999 -99999 -99999 -99999 -99999 -99999 -99999 -99999 -99999 -99999 -99999 -99999 -99999 -99999 -99999 -99999 -99999 -99999 -99999 -99999 -99999 -99999 -99999 -99999 -99999 -99999 -99999 -99999 -99999 -99999 -99999 -99999 -99999 -99999 -99999 -99999 -99999 -99999 -99999 -99999 -99999 -99999 -99999 -99999 -99999 -99999 -99999 -99999 -99999 -99999 -99999 -99999 -99999 -99999 -99999 -99999 -99999 -99999 -99999 -99999 -99999 -99999 -99999 -99999 -99999 -99999 -99999 -99999 -99999 -99999 -99999 -99999 -99999 -99999 -99999 -99999 -99999 -99999 -99999 -99999 -99999 -99999 -99999 -99999 -99999 -99999 -99999 -99999 -99999 -99999 -99999 -99999 -2398.21630859375 -2401.7529296875 -2404.555908203125 -2406.95458984375 -2408.829345703125 -2409.978271484375 -2410.369873046875 -2409.9052734375 -2408.65771484375 -2406.5791015625 -2403.8359375 -2400.419677734375 -2396.386474609375 -2391.839599609375 -2386.721435546875 -2381.177978515625 -2375.04345703125 -2368.46533203125 -2361.42626953125 -2353.8828125 -2345.9501953125 -2337.600830078125 -2328.81689453125 -2319.715087890625 -2310.31884765625 -2300.69189453125 -2290.7978515625 -2280.803466796875 -2270.706787109375 -2260.6650390625 -2250.660400390625 -2240.997314453125 -2231.57666015625 -2222.66796875 -2214.4130859375 -2206.906005859375 -2200.404541015625 -2195.3203125 -2192.02685546875 -2189.376220703125 -2187.21435546875 -2185.41162109375 -2183.785400390625 -2182.18798828125 -2180.52490234375 -2178.80322265625 -2177.071533203125 -2175.28759765625 -2173.450439453125 -2171.669677734375 -2170.012939453125 -2168.448486328125 -2166.920654296875 -2165.39599609375 -2163.895263671875 -2162.403564453125 -2160.789794921875 -2159.02734375 -2157.1142578125 -2155.08056640625 -2152.802001953125 -2150.4072265625 -2148.0546875 -2145.77490234375 -2144.541748046875 -2144.477783203125 -2145.172119140625 -2146.49365234375 -2148.307861328125 -2150.490478515625 -2152.85546875 -2155.2529296875 -2157.53662109375 -2159.52294921875 -2160.93359375 -2161.6884765625 -2161.437744140625 -2160.3544921875 -2158.732177734375 -2157.199462890625 -2156.223388671875 -2155.811279296875 -2156.3466796875 -2157.939208984375 -2160.923583984375 -2165.1787109375 -2170.578369140625 -2177.128173828125 -2184.448486328125 -2192.4990234375 -2201.084228515625 -2210.323974609375 -2219.8671875 -2229.71533203125 -2239.802734375 -2249.88232421875 -2259.80908203125 -2269.529541015625 -2278.713134765625 -2287.045654296875 -2294.64013671875 -2301.129638671875 -2306.405029296875 -2310.337158203125 -2312.65380859375 -2313.3779296875 -2312.46484375 -2310.426025390625 -2307.512939453125 -2304.648681640625 -2302.138916015625 -2299.657958984375 -2297.346923828125 -2294.784912109375 -2291.4462890625 -2287.323486328125 -2282.81005859375 -2278.17236328125 -2273.656982421875 -99999 -99999 -99999 -99999 -99999 -99999 -99999
 -99999 -99999 -99999 -99999 -99999 -99999 -99999 -99999 -99999 -99999 -99999 -99999 -99999 -99999 -99999 -99999 -99999 -99999 -99999 -99999 -99999 -99999 -99999 -99999 -99999 -99999 -99999 -99999 -99999 -99999 -99999 -99999 -99999 -99999 -99999 -99999 -99999 -99999 -99999 -99999 -99999 -99999 -99999 -99999 -99999 -99999 -99999 -99999 -99999 -99999 -99999 -99999 -99999 -99999 -99999 -99999 -99999 -99999 -99999 -99999 -99999 -99999 -99999 -99999 -99999 -99999 -99999 -99999 -99999 -99999 -99999 -99999 -99999 -99999 -99999 -99999 -99999 -99999 -99999 -99999 -99999 -99999 -99999 -99999 -99999 -99999 -99999 -99999 -99999 -99999 -99999 -99999 -99999 -99999 -99999 -99999 -99999 -99999 -99999 -99999 -99999 -99999 -2393.204833984375 -2397.794677734375 -2400.884765625 -2403.661376953125 -2406.1943359375 -2408.293212890625 -2409.655517578125 -2410.085205078125 -2409.612548828125 -2408.33056640625 -2406.1640625 -2403.32275390625 -2399.8330078125 -2395.768310546875 -2391.20166015625 -2386.0947265625 -2380.5185546875 -2374.43408203125 -2367.860595703125 -2360.796142578125 -2353.22705078125 -2345.268310546875 -2336.813720703125 -2327.98291015625 -2318.79638671875 -2309.264404296875 -2299.4833984375 -2289.481689453125 -2279.288330078125 -2269.0634765625 -2258.892578125 -2248.746337890625 -2238.934326171875 -2229.349609375 -2220.277099609375 -2211.847412109375 -2204.175537109375 -2197.4609375 -2192.408935546875 -2189.091064453125 -2186.385009765625 -2184.1201171875 -2182.20361328125 -2180.41943359375 -2178.6162109375 -2176.7177734375 -2174.65625 -2172.418701171875 -2170.181396484375 -2168.050048828125 -2165.99365234375 -2163.996337890625 -2162.113525390625 -2160.44677734375 -2158.862060546875 -2157.27880859375 -2155.74755859375 -2154.178955078125 -2152.50634765625 -2150.73193359375 -2148.817626953125 -2146.66064453125 -2144.395263671875 -2142.214111328125 -2140.3994140625 -2139.189697265625 -2138.958251953125 -2139.45654296875 -2140.5595703125 -2142.129638671875 -2144.07763671875 -2146.2470703125 -2148.448486328125 -2150.474365234375 -2152.190673828125 -2153.475830078125 -2154.132568359375 -2154.082763671875 -2153.35791015625 -2152.29541015625 -2151.1943359375 -2150.48388671875 -2150.3330078125 -2151.14892578125 -2153.22265625 -2156.787109375 -2161.609375 -2167.80517578125 -2174.857421875 -2182.667724609375 -2191.22509765625 -2200.309326171875 -2209.764404296875 -2219.783935546875 -2230.103759765625 -2240.5439453125 -2251.13330078125 -2261.595703125 -2271.745849609375 -2281.368408203125 -2290.3125 -2298.31689453125 -2305.368896484375 -2311.19677734375 -2315.463134765625 -2317.84521484375 -2318.68896484375 -2317.3740234375 -2314.39111328125 -2310.661376953125 -2307.577880859375 -2305.138671875 -2302.534423828125 -2299.701904296875 -2296.687255859375 -2293.228759765625 -2289.240966796875 -2284.884521484375 -2280.4072265625 -99999 -99999 -99999 -99999 -99999 -99999 -99999 -99999
 -99999 -99999 -99999 -99999 -99999 -99999 -99999 -99999 -99999 -99999 -99999 -99999 -99999 -99999 -99999 -99999 -99999 -99999 -99999 -99999 -99999 -99999 -99999 -99999 -99999 -99999 -99999 -99999 -99999 -99999 -99999 -99999 -99999 -99999 -99999 -99999 -99999 -99999 -99999 -99999 -99999 -99999 -99999 -99999 -99999 -99999 -99999 -99999 -99999 -99999 -99999 -99999 -99999 -99999 -99999 -99999 -99999 -99999 -99999 -99999 -99999 -99999 -99999 -99999 -99999 -99999 -99999 -99999 -99999 -99999 -99999 -99999 -99999 -99999 -99999 -99999 -99999 -99999 -99999 -99999 -99999 -99999 -99999 -99999 -99999 -99999 -99999 -99999 -99999 -99999 -99999 -99999 -99999 -99999 -99999 -99999 -99999 -99999 -99999 -99999 -99999 -99999 -2392.638916015625 -2396.84619140625 -2399.406494140625 -2402.23974609375 -2405.279296875 -2407.589599609375 -2409.108642578125 -2409.71142578125 -2409.2138671875 -2407.740234375 -2405.459228515625 -2402.48583984375 -2399.019287109375 -2394.92919921875 -2390.340576171875 -2385.33447265625 -2379.79638671875 -2373.724609375 -2367.18896484375 -2360.201171875 -2352.669677734375 -2344.653076171875 -2336.225830078125 -2327.322509765625 -2318.030517578125 -2308.414306640625 -2298.56201171875 -2288.434814453125 -2278.188232421875 -2267.8623046875 -2257.54931640625 -2247.36962890625 -2237.394775390625 -2227.747314453125 -2218.72021484375 -2210.2041015625 -2202.533203125 -2196.15869140625 -2191.05712890625 -2187.238525390625 -2184.108642578125 -2181.7412109375 -2179.717529296875 -2177.7880859375 -2175.686767578125 -2173.28564453125 -2170.767578125 -2168.14892578125 -2165.49560546875 -2162.808837890625 -2160.33935546875 -2158.134033203125 -2156.06884765625 -2154.240234375 -2152.555908203125 -2150.94775390625 -2149.3984375 -2147.884521484375 -2146.310302734375 -2144.64794921875 -2142.886962890625 -2141.0185546875 -2138.798828125 -2136.725830078125 -2135.0380859375 -2133.91650390625 -2133.509521484375 -2133.7861328125 -2134.70068359375 -2136.057861328125 -2137.7236328125 -2139.557861328125 -2141.44580078125 -2143.262451171875 -2144.795654296875 -2145.961669921875 -2146.5673828125 -2146.623779296875 -2146.178466796875 -2145.454833984375 -2144.770751953125 -2144.623779296875 -2144.608154296875 -2145.595458984375 -2147.90185546875 -2151.878173828125 -2157.73779296875 -2164.482177734375 -2172.379638671875 -2180.8076171875 -2189.723388671875 -2199.056396484375 -2208.883544921875 -2219.171142578125 -2229.776123046875 -2240.676025390625 -2251.740478515625 -2262.681640625 -2273.504638671875 -2283.622802734375 -2293.0908203125 -2301.640380859375 -2308.964599609375 -2315.264404296875 -2320.114501953125 -2323.221435546875 -2323.980712890625 -2322.262451171875 -2318.92431640625 -2314.705810546875 -2311.213134765625 -2308.314697265625 -2305.306884765625 -2302.109619140625 -2298.65673828125 -2294.891357421875 -2290.81396484375 -2286.52978515625 -2282.163330078125 -99999 -99999 -99999 -99999 -99999 -99999 -99999 -99999
 -99999 -99999 -99999 -99999 -99999 -99999 -99999 -99999 -99999 -99999 -99999 -99999 -99999 -99999 -99999 -99999 -99999 -99999 -99999 -99999 -99999 -99999 -99999 -99999 -99999 -99999 -99999 -99999 -99999 -99999 -99999 -99999 -99999 -99999 -99999 -99999 -99999 -99999 -99999 -99999 -99999 -99999 -99999 -99999 -99999 -99999 -99999 -99999 -99999 -99999 -99999 -99999 -99999 -99999 -99999 -99999 -99999 -99999 -99999 -99999 -99999 -99999 -99999 -99999 -99999 -99999 -99999 -99999 -99999 -99999 -99999 -99999 -99999 -99999 -99999 -99999 -99999 -99999 -99999 -99999 -99999 -99999 -99999 -99999 -99999 -99999 -99999 -99999 -99999 -99999 -99999 -99999 -99999 -99999 -99999 -99999 -99999 -99999 -99999 -99999 -99999 -99999 -2390.250732421875 -2393.987548828125 -2396.7529296875 -2400.30419921875 -2403.96923828125 -2406.77392578125 -2408.5849609375 -2408.989501953125 -2408.365478515625 -2406.819091796875 -2404.39404296875 -2401.3369140625 -2397.73095703125 -2393.676025390625 -2389.208251953125 -2384.31787109375 -2378.8310546875 -2372.970458984375 -2366.578125 -2359.5625 -2352.0322265625 -2344.115478515625 -2335.6630859375 -2326.724853515625 -2317.47509765625 -2307.817626953125 -2297.87255859375 -2287.715576171875 -2277.36669921875 -2266.983642578125 -2256.59716796875 -2246.369140625 -2236.474853515625 -2226.82763671875 -2217.707763671875 -2209.364990234375 -2201.844482421875 -2195.387451171875 -2190.200439453125 -2186.09814453125 -2182.643310546875 -2179.852294921875 -2177.913330078125 -2175.697021484375 -2173.184814453125 -2170.39111328125 -2167.357666015625 -2164.03076171875 -2160.82177734375 -2157.720458984375 -2154.8896484375 -2152.402587890625 -2150.180419921875 -2148.193359375 -2146.40478515625 -2144.79052734375 -2143.27587890625 -2141.814697265625 -2140.35107421875 -2138.832763671875 -2137.131103515625 -2135.26904296875 -2133.2255859375 -2131.204833984375 -2129.60498046875 -2128.578125 -2128.1201171875 -2128.216064453125 -2128.821044921875 -2129.861083984375 -2131.294189453125 -2132.8779296875 -2134.518798828125 -2136.091064453125 -2137.403564453125 -2138.387451171875 -2138.990966796875 -2139.189208984375 -2139.0244140625 -2138.672119140625 -2138.410888671875 -2138.334228515625 -2138.48388671875 -2139.313720703125 -2142.012451171875 -2147.10302734375 -2153.7001953125 -2161.465087890625 -2169.93701171875 -2178.750244140625 -2187.9228515625 -2197.47802734375 -2207.395263671875 -2217.90673828125 -2228.89208984375 -2240.1416015625 -2251.626220703125 -2263.115966796875 -2274.357421875 -2285.086669921875 -2295.080322265625 -2303.90380859375 -2311.911376953125 -2318.655517578125 -2323.961181640625 -2327.69873046875 -2329.164306640625 -2327.638427734375 -2323.64453125 -2319.38134765625 -2315.325439453125 -2311.577392578125 -2307.853271484375 -2304.0595703125 -2300.1923828125 -2296.25048828125 -2292.0322265625 -2287.68701171875 -99999 -99999 -99999 -99999 -99999 -99999 -99999 -99999 -99999
 -99999 -99999 -99999 -99999 -99999 -99999 -99999 -99999 -99999 -99999 -99999 -99999 -99999 -99999 -99999 -99999 -99999 -99999 -99999 -99999 -99999 -99999 -99999 -99999 -99999 -99999 -99999 -99999 -99999 -99999 -99999 -99999 -99999 -99999 -99999 -99999 -99999 -99999 -99999 -99999 -99999 -99999 -99999 -99999 -99999 -99999 -99999 -99999 -99999 -99999 -99999 -99999 -99999 -99999 -99999 -99999 -99999 -99999 -99999 -99999 -99999 -99999 -99999 -99999 -99999 -99999 -99999 -99999 -99999 -99999 -99999 -99999 -99999 -99999 -99999 -99999 -99999 -99999 -99999 -99999 -99999 -99999 -99999 -99999 -99999 -99999 -99999 -99999 -99999 -99999 -99999 -99999 -99999 -99999 -99999 -99999 -99999 -99999 -99999 -99999 -99999 -2382.231689453125 -2386.859375 -2390.792724609375 -2394.493408203125 -2398.75244140625 -2402.779052734375 -2405.73876953125 -2407.424072265625 -2408.095458984375 -2407.34765625 -2405.35302734375 -2402.672119140625 -2399.560791015625 -2396.017822265625 -2392.1015625 -2387.7275390625 -2382.994873046875 -2377.774658203125 -2372.005615234375 -2365.72900390625 -2358.928955078125 -2351.59375 -2343.60498046875 -2335.254638671875 -2326.33056640625 -2316.980712890625 -2307.2958984375 -2297.36279296875 -2287.154052734375 -2276.820068359375 -2266.4150390625 -2256.0576171875 -2245.843017578125 -2235.845947265625 -2226.3017578125 -2217.395263671875 -2209.00537109375 -2201.583740234375 -2195.266357421875 -2189.801513671875 -2185.252685546875 -2181.6142578125 -2179.052978515625 -2176.687255859375 -2174.17236328125 -2171.190185546875 -2167.733642578125 -2164.01953125 -2160.15673828125 -2156.312255859375 -2152.705322265625 -2149.484375 -2146.6748046875 -2144.314208984375 -2142.2919921875 -2140.480712890625 -2138.8203125 -2137.29833984375 -2135.92724609375 -2134.556884765625 -2133.060791015625 -2131.3662109375 -2129.418212890625 -2127.451171875 -2125.649658203125 -2124.161865234375 -2123.079345703125 -2122.471435546875 -2122.477783203125 -2122.935791015625 -2123.75830078125 -2124.870361328125 -2126.176513671875 -2127.580078125 -2128.91650390625 -2130.097412109375 -2131.0556640625 -2131.7080078125 -2131.98828125 -2132.04052734375 -2131.9677734375 -2131.883544921875 -2131.90771484375 -2132.220703125 -2133.226806640625 -2136.038330078125 -2141.791015625 -2149.886962890625 -2158.6103515625 -2167.705810546875 -2176.784423828125 -2186.005615234375 -2195.49365234375 -2205.382080078125 -2216.066162109375 -2227.131591796875 -2238.694580078125 -2250.7158203125 -2262.6787109375 -2274.484619140625 -2285.584716796875 -2296.07763671875 -2305.306884765625 -2313.37158203125 -2320.32373046875 -2326.3779296875 -2331.51416015625 -2333.769775390625 -2331.8623046875 -2327.75537109375 -2323.063720703125 -2318.461181640625 -2314.013671875 -2309.72119140625 -2305.48046875 -2301.24267578125 -2296.951904296875 -2292.641845703125 -2288.290283203125 -99999 -99999 -99999 -99999 -99999 -99999 -99999 -99999 -99999
 -99999 -99999 -99999 -99999 -99999 -99999 -99999 -99999 -99999 -99999 -99999 -99999 -99999 -99999 -99999 -99999 -99999 -99999 -99999 -99999 -99999 -99999 -99999 -99999 -99999 -99999 -99999 -99999 -99999 -99999 -99999 -99999 -99999 -99999 -99999 -99999 -99999 -99999 -99999 -99999 -99999 -99999 -99999 -99999 -99999 -99999 -99999 -99999 -99999 -99999 -99999 -99999 -99999 -99999 -99999 -99999 -99999 -99999 -99999 -99999 -99999 -99999 -99999 -99999 -99999 -99999 -99999 -99999 -99999 -99999 -99999 -99999 -99999 -99999 -99999 -99999 -99999 -99999 -99999 -99999 -99999 -99999 -99999 -99999 -99999 -99999 -99999 -99999 -99999 -99999 -99999 -99999 -99999 -99999 -99999 -99999 -99999 -99999 -99999 -99999 -99999 -2378.589111328125 -2383.500244140625 -2387.961669921875 -2392.394287109375 -2396.936279296875 -2401.0791015625 -2404.406494140625 -2406.4208984375 -2406.486572265625 -2405.32421875 -2402.994384765625 -2400.28515625 -2397.060546875 -2393.59912109375 -2389.88525390625 -2385.89990234375 -2381.461181640625 -2376.44580078125 -2371.013427734375 -2364.892578125 -2358.22216796875 -2350.94287109375 -2343.166748046875 -2334.802734375 -2325.906982421875 -2316.678955078125 -2307.022705078125 -2297.0263671875 -2286.8525390625 -2276.48583984375 -2266.100341796875 -2255.72802734375 -2245.553955078125 -2235.721923828125 -2226.17822265625 -2217.200439453125 -2208.963623046875 -2201.517578125 -2194.974365234375 -2189.509765625 -2184.9130859375 -2181.136474609375 -2178.095947265625 -2175.6689453125 -2172.684814453125 -2169.1484375 -2165.200927734375 -2160.914794921875 -2156.343505859375 -2151.647216796875 -2147.417236328125 -2143.930908203125 -2141.0556640625 -2138.6162109375 -2136.55712890625 -2134.70556640625 -2133.010009765625 -2131.468505859375 -2130.09716796875 -2128.7958984375 -2127.275634765625 -2125.404052734375 -2123.485107421875 -2121.612548828125 -2119.875244140625 -2118.425537109375 -2117.4169921875 -2116.821044921875 -2116.638427734375 -2116.87255859375 -2117.523193359375 -2118.44873046875 -2119.551513671875 -2120.73974609375 -2121.93701171875 -2123.02978515625 -2123.928466796875 -2124.6298828125 -2125.13330078125 -2125.45947265625 -2125.6337890625 -2125.852294921875 -2126.165771484375 -2126.64794921875 -2127.375 -2130.465087890625 -2137.704345703125 -2146.959716796875 -2156.693603515625 -2166.002197265625 -2174.91748046875 -2183.7666015625 -2192.97265625 -2202.678466796875 -2213.089599609375 -2224.394287109375 -2236.299560546875 -2248.563720703125 -2261.1376953125 -2273.50537109375 -2285.293701171875 -2296.020263671875 -2305.294677734375 -2313.577880859375 -2320.35888671875 -2326.088134765625 -2331.260498046875 -2334.636474609375 -2333.94140625 -2329.38037109375 -2324.632568359375 -2319.840087890625 -2315.099365234375 -2310.442626953125 -2305.910888671875 -2301.42529296875 -2297.062255859375 -2292.6337890625 -99999 -99999 -99999 -99999 -99999 -99999 -99999 -99999 -99999 -99999
 -99999 -99999 -99999 -99999 -99999 -99999 -99999 -99999 -99999 -99999 -99999 -99999 -99999 -99999 -99999 -99999 -99999 -99999 -99999 -99999 -99999 -99999 -99999 -99999 -99999 -99999 -99999 -99999 -99999 -99999 -99999 -99999 -99999 -99999 -99999 -99999 -99999 -99999 -99999 -99999 -99999 -99999 -99999 -99999 -99999 -99999 -99999 -99999 -99999 -99999 -99999 -99999 -99999 -99999 -99999 -99999 -99999 -99999 -99999 -99999 -99999 -99999 -99999 -99999 -99999 -99999 -99999 -99999 -99999 -99999 -99999 -99999 -99999 -99999 -99999 -99999 -99999 -99999 -99999 -99999 -99999 -99999 -99999 -99999 -99999 -99999 -99999 -99999 -99999 -99999 -99999 -99999 -99999 -99999 -99999 -99999 -99999 -99999 -99999 -99999 -99999 -2374.318359375 -2379.468505859375 -2384.516357421875 -2389.271484375 -2394.0771484375 -2398.480712890625 -2401.95361328125 -2404.4658203125 -2404.48779296875 -2402.6142578125 -2399.73583984375 -2396.681396484375 -2393.623779296875 -2390.534912109375 -2387.171630859375 -2383.507568359375 -2379.57275390625 -2374.945068359375 -2369.7509765625 -2363.9560546875 -2357.4921875 -2350.43896484375 -2342.717041015625 -2334.45166015625 -2325.648681640625 -2316.362548828125 -2306.70849609375 -2296.802734375 -2286.614501953125 -2276.298828125 -2265.93359375 -2255.617919921875 -2245.477294921875 -2235.609130859375 -2226.149658203125 -2217.319580078125 -2209.01171875 -2201.53955078125 -2195.002197265625 -2189.220703125 -2184.293701171875 -2180.2431640625 -2176.875732421875 -2173.772216796875 -2170.56640625 -2166.85302734375 -2162.689697265625 -2157.912841796875 -2152.3017578125 -2146.776611328125 -2142.06982421875 -2138.262939453125 -2135.346435546875 -2132.9697265625 -2131.0537109375 -2129.234375 -2127.40771484375 -2125.617919921875 -2124.192138671875 -2122.841796875 -2121.222900390625 -2119.38134765625 -2117.475830078125 -2115.649169921875 -2114.0185546875 -2112.61328125 -2111.576416015625 -2110.925537109375 -2110.65087890625 -2110.7451171875 -2111.244384765625 -2112.013427734375 -2112.959228515625 -2114.0078125 -2115.110595703125 -2116.178466796875 -2117.144775390625 -2117.960205078125 -2118.640625 -2119.256591796875 -2119.8857421875 -2120.54931640625 -2121.296142578125 -2122.531494140625 -2124.683349609375 -2128.807373046875 -2135.749755859375 -2145.31103515625 -2155.79443359375 -2164.971435546875 -2173.156494140625 -2181.239013671875 -2189.843505859375 -2198.9267578125 -2209.148193359375 -2220.515625 -2232.645263671875 -2245.4228515625 -2258.4990234375 -2271.447021484375 -2283.58642578125 -2294.820556640625 -2304.29541015625 -2311.980712890625 -2318.223876953125 -2323.29443359375 -2327.677734375 -2330.964111328125 -2330.611572265625 -2327.875 -2323.7978515625 -2319.15625 -2314.487548828125 -2309.798828125 -2305.15625 -2300.58544921875 -2296.083251953125 -2291.682373046875 -99999 -99999 -99999 -99999 -99999 -99999 -99999 -99999 -99999 -99999
 -99999 -99999 -99999 -99999 -99999 -99999 -99999 -99999 -99999 -99999 -99999 -99999 -99999 -99999 -99999 -99999 -99999 -99999 -99999 -99999 -99999 -99999 -99999 -99999 -99999 -99999 -99999 -99999 -99999 -99999 -99999 -99999 -99999 -99999 -99999 -99999 -99999 -99999 -99999 -99999 -99999 -99999 -99999 -99999 -99999 -99999 -99999 -99999 -99999 -99999 -99999 -99999 -99999 -99999 -99999 -99999 -99999 -99999 -99999 -99999 -99999 -99999 -99999 -99999 -99999 -99999 -99999 -99999 -99999 -99999 -99999 -99999 -99999 -99999 -99999 -99999 -99999 -99999 -99999 -99999 -99999 -99999 -99999 -99999 -99999 -99999 -99999 -99999 -99999 -99999 -99999 -99999 -99999 -99999 -99999 -99999 -99999 -99999 -99999 -99999 -2363.8349609375 -2369.240478515625 -2374.6015625 -2379.843994140625 -2385.065185546875 -2389.8115234375 -2394.375244140625 -2398.453125 -2401.578125 -2400.801025390625 -2398.00341796875 -2394.84619140625 -2391.8876953125 -2389.092041015625 -2386.605712890625 -2383.933837890625 -2380.87890625 -2377.36669921875 -2373.276611328125 -2368.511962890625 -2362.929443359375 -2356.669189453125 -2349.750732421875 -2342.22216796875 -2334.02490234375 -2325.27978515625 -2316.123046875 -2306.502685546875 -2296.59423828125 -2286.45458984375 -2276.154541015625 -2265.83056640625 -2255.55224609375 -2245.44677734375 -2235.67822265625 -2226.216064453125 -2217.2939453125 -2209.018310546875 -2201.396484375 -2194.669677734375 -2188.718994140625 -2183.5244140625 -2179.0068359375 -2174.994384765625 -2171.49072265625 -2167.87353515625 -2164.00537109375 -2159.881103515625 -2154.64404296875 -2147.73388671875 -2141.164306640625 -2136.116943359375 -2132.338623046875 -2129.734619140625 -2127.673828125 -2125.922607421875 -2124.17626953125 -2122.263427734375 -2120.096435546875 -2118.272705078125 -2116.82373046875 -2115.17138671875 -2113.322998046875 -2111.43896484375 -2109.626953125 -2108.01220703125 -2106.6435546875 -2105.563232421875 -2104.864990234375 -2104.543701171875 -2104.59326171875 -2104.938232421875 -2105.543701171875 -2106.401123046875 -2107.385498046875 -2108.437255859375 -2109.51416015625 -2110.5830078125 -2111.5439453125 -2112.497314453125 -2113.486328125 -2114.57177734375 -2115.728271484375 -2117.523193359375 -2119.695068359375 -2122.832763671875 -2127.809326171875 -2135.40478515625 -2145.248046875 -2155.744873046875 -2163.930419921875 -2170.729736328125 -2177.955078125 -2185.672607421875 -2194.390625 -2204.08203125 -2215.328125 -2227.68408203125 -2240.818603515625 -2254.48681640625 -2268.073974609375 -2281.048095703125 -2292.714599609375 -2301.989501953125 -2309.431396484375 -2315.026123046875 -2319.369384765625 -2323.1123046875 -2325.66162109375 -2326.027099609375 -2323.9267578125 -2320.568603515625 -2316.549560546875 -2312.18896484375 -2307.659912109375 -2303.10595703125 -2298.644287109375 -2294.35302734375 -99999 -99999 -99999 -99999 -99999 -99999 -99999 -99999 -99999 -99999 -99999
 -99999 -99999 -99999 -99999 -99999 -99999 -99999 -99999 -99999 -99999 -99999 -99999 -99999 -99999 -99999 -99999 -99999 -99999 -99999 -99999 -99999 -99999 -99999 -99999 -99999 -99999 -99999 -99999 -99999 -99999 -99999 -99999 -99999 -99999 -99999 -99999 -99999 -99999 -99999 -99999 -99999 -99999 -99999 -99999 -99999 -99999 -99999 -99999 -99999 -99999 -99999 -99999 -99999 -99999 -99999 -99999 -99999 -99999 -99999 -99999 -99999 -99999 -99999 -99999 -99999 -99999 -99999 -99999 -99999 -99999 -99999 -99999 -99999 -99999 -99999 -99999 -99999 -99999 -99999 -99999 -99999 -99999 -99999 -99999 -99999 -99999 -99999 -99999 -99999 -99999 -99999 -99999 -99999 -99999 -99999 -99999 -99999 -99999 -99999 -99999 -2357.724853515625 -2363.355712890625 -2368.85498046875 -2374.194091796875 -2379.48779296875 -2384.232666015625 -2388.76953125 -2392.456787109375 -2394.58642578125 -2394.339111328125 -2391.371826171875 -2388.267333984375 -2385.689697265625 -2383.84912109375 -2382.149169921875 -2380.3134765625 -2378.10888671875 -2375.05908203125 -2371.3720703125 -2366.973876953125 -2361.809326171875 -2355.841796875 -2349.0703125 -2341.65673828125 -2333.58203125 -2324.91650390625 -2315.781494140625 -2306.21240234375 -2296.3681640625 -2286.25341796875 -2276.01806640625 -2265.727783203125 -2255.485107421875 -2245.4072265625 -2235.634521484375 -2226.183837890625 -2217.286376953125 -2208.885009765625 -2201.179443359375 -2194.231689453125 -2187.8955078125 -2182.357421875 -2177.450439453125 -2173.0048828125 -2168.776123046875 -2164.70654296875 -2160.566162109375 -2156.149658203125 -2150.12548828125 -2142.215576171875 -2134.8173828125 -2129.92431640625 -2126.697509765625 -2124.380859375 -2122.60791015625 -2121.147705078125 -2119.619140625 -2117.752197265625 -2115.2373046875 -2112.897705078125 -2111.071533203125 -2109.271484375 -2107.330810546875 -2105.3876953125 -2103.557373046875 -2101.918212890625 -2100.53955078125 -2099.461669921875 -2098.739501953125 -2098.340576171875 -2098.30078125 -2098.58837890625 -2099.14794921875 -2099.918212890625 -2100.861083984375 -2101.931396484375 -2103.05517578125 -2104.2275390625 -2105.46484375 -2106.7724609375 -2108.1064453125 -2109.580322265625 -2111.4599609375 -2113.864501953125 -2116.88037109375 -2121.263427734375 -2127.12255859375 -2134.9296875 -2144.7646484375 -2154.564697265625 -2161.49853515625 -2167.322509765625 -2173.5087890625 -2180.34765625 -2188.457763671875 -2197.933349609375 -2208.7705078125 -2221.305419921875 -2234.7041015625 -2248.818359375 -2263.072998046875 -2276.920166015625 -2289.28564453125 -2299.085205078125 -2305.6787109375 -2310.615234375 -2314.52978515625 -2317.762939453125 -2319.674072265625 -2319.734130859375 -2318.40771484375 -2315.746337890625 -2312.146728515625 -2308.1767578125 -2304.05810546875 -2299.84326171875 -2295.588134765625 -2291.475341796875 -99999 -99999 -99999 -99999 -99999 -99999 -99999 -99999 -99999 -99999 -99999
 -99999 -99999 -99999 -99999 -99999 -99999 -99999 -99999 -99999 -99999 -99999 -99999 -99999 -99999 -99999 -99999 -99999 -99999 -99999 -99999 -99999 -99999 -99999 -99999 -99999 -99999 -99999 -99999 -99999 -99999 -99999 -99999 -99999 -99999 -99999 -99999 -99999 -99999 -99999 -99999 -99999 -99999 -99999 -99999 -99999 -99999 -99999 -99999 -99999 -99999 -99999 -99999 -99999 -99999 -99999 -99999 -99999 -99999 -99999 -99999 -99999 -99999 -99999 -99999 -99999 -99999 -99999 -99999 -99999 -99999 -99999 -99999 -99999 -99999 -99999 -99999 -99999 -99999 -99999 -99999 -99999 -99999 -99999 -99999 -99999 -99999 -99999 -99999 -99999 -99999 -99999 -99999 -99999 -99999 -99999 -99999 -99999 -99999 -99999 -99999 -2350.7705078125 -2356.48681640625 -2362.099365234375 -2367.4580078125 -2372.564208984375 -2377.3017578125 -2381.48388671875 -2384.523681640625 -2386.149658203125 -2385.59130859375 -2383.239013671875 -2380.325927734375 -2378.441650390625 -2378.03515625 -2377.507080078125 -2376.46337890625 -2374.853759765625 -2372.572265625 -2369.505615234375 -2365.414794921875 -2360.545166015625 -2354.828369140625 -2348.270751953125 -2341.003173828125 -2333.010009765625 -2324.4482421875 -2315.36767578125 -2305.839111328125 -2296.046630859375 -2285.98291015625 -2275.78173828125 -2265.532958984375 -2255.329833984375 -2245.264892578125 -2235.500244140625 -2226.0185546875 -2217.044921875 -2208.554931640625 -2200.630859375 -2193.45556640625 -2186.9130859375 -2180.926513671875 -2175.429931640625 -2170.46044921875 -2165.83544921875 -2161.189453125 -2156.34228515625 -2151.03857421875 -2144.029296875 -2135.293212890625 -2128.214111328125 -2123.95068359375 -2121.42578125 -2119.537109375 -2117.978759765625 -2116.84130859375 -2115.517822265625 -2113.5029296875 -2110.7998046875 -2108.1640625 -2105.806640625 -2103.5322265625 -2101.37548828125 -2099.348876953125 -2097.45068359375 -2095.760498046875 -2094.34521484375 -2093.238037109375 -2092.487060546875 -2092.06005859375 -2091.983642578125 -2092.21484375 -2092.739501953125 -2093.49755859375 -2094.44580078125 -2095.558349609375 -2096.8134765625 -2098.16259765625 -2099.588623046875 -2101.124755859375 -2102.923583984375 -2105.01708984375 -2107.444091796875 -2110.397216796875 -2114.16455078125 -2119.112060546875 -2125.23828125 -2132.968994140625 -2141.6259765625 -2150.033447265625 -2156.72119140625 -2162.122314453125 -2167.772705078125 -2174.26416015625 -2181.58203125 -2190.55908203125 -2201.084716796875 -2213.547607421875 -2227.308349609375 -2241.802490234375 -2256.6748046875 -2271.46337890625 -2284.27880859375 -2294.684814453125 -2300.747802734375 -2305.051025390625 -2308.43359375 -2310.7919921875 -2312.220458984375 -2312.345947265625 -2311.148681640625 -2309.031494140625 -2306.190185546875 -2302.8203125 -2299.12158203125 -2295.28466796875 -2291.47314453125 -2287.5009765625 -99999 -99999 -99999 -99999 -99999 -99999 -99999 -99999 -99999 -99999 -99999
 -99999 -99999 -99999 -99999 -99999 -99999 -99999 -99999 -99999 -99999 -99999 -99999 -99999 -99999 -99999 -99999 -99999 -99999 -99999 -99999 -99999 -99999 -99999 -99999 -99999 -99999 -99999 -99999 -99999 -99999 -99999 -99999 -99999 -99999 -99999 -99999 -99999 -99999 -99999 -99999 -99999 -99999 -99999 -99999 -99999 -99999 -99999 -99999 -99999 -99999 -99999 -99999 -99999 -99999 -99999 -99999 -99999 -99999 -99999 -99999 -99999 -99999 -99999 -99999 -99999 -99999 -99999 -99999 -99999 -99999 -99999 -99999 -99999 -99999 -99999 -99999 -99999 -99999 -99999 -99999 -99999 -99999 -99999 -99999 -99999 -99999 -99999 -99999 -99999 -99999 -99999 -99999 -99999 -99999 -99999 -99999 -99999 -99999 -99999 -2337.293701171875 -2343.06298828125 -2348.73486328125 -2354.3427734375 -2359.739013671875 -2364.79052734375 -2369.280517578125 -2372.978759765625 -2375.638427734375 -2376.892578125 -2376.553466796875 -2374.6513671875 -2371.662841796875 -2371.185546875 -2371.984130859375 -2372.777099609375 -2372.777587890625 -2371.825927734375 -2369.9716796875 -2367.298828125 -2363.740234375 -2359.19287109375 -2353.677490234375 -2347.27197265625 -2340.1533203125 -2332.25830078125 -2323.772216796875 -2314.801513671875 -2305.343994140625 -2295.595458984375 -2285.57080078125 -2275.4248046875 -2265.20849609375 -2255.025390625 -2244.9755859375 -2235.1962890625 -2225.677978515625 -2216.57080078125 -2207.8935546875 -2199.876953125 -2192.333251953125 -2185.388427734375 -2179.05810546875 -2173.24169921875 -2167.806640625 -2162.616455078125 -2157.46728515625 -2152.113037109375 -2146.03955078125 -2138.71484375 -2130.571044921875 -2123.66845703125 -2119.9951171875 -2117.488525390625 -2115.493896484375 -2113.77734375 -2112.798828125 -2111.302978515625 -2109.07177734375 -2106.18603515625 -2103.202392578125 -2100.472900390625 -2097.94140625 -2095.5556640625 -2093.302001953125 -2091.270263671875 -2089.54248046875 -2088.08984375 -2086.93212890625 -2086.13525390625 -2085.693359375 -2085.617919921875 -2085.83935546875 -2086.33740234375 -2087.11572265625 -2088.134521484375 -2089.3330078125 -2090.685302734375 -2092.180419921875 -2093.930419921875 -2095.85009765625 -2097.953125 -2100.39404296875 -2103.2548828125 -2106.828369140625 -2111.1103515625 -2116.241455078125 -2122.338134765625 -2129.47802734375 -2137.1259765625 -2144.4560546875 -2150.60498046875 -2156.03857421875 -2161.293701171875 -2166.864990234375 -2173.712158203125 -2182.15087890625 -2192.391357421875 -2204.468994140625 -2218.4443359375 -2233.222900390625 -2248.1728515625 -2263.11669921875 -2277.00341796875 -2287.449462890625 -2293.6767578125 -2297.30029296875 -2300.126708984375 -2302.13134765625 -2303.28955078125 -2303.477783203125 -2302.76904296875 -2301.07958984375 -2298.814208984375 -2295.998046875 -2292.958740234375 -2289.53759765625 -2286.089111328125 -99999 -99999 -99999 -99999 -99999 -99999 -99999 -99999 -99999 -99999 -99999 -99999
 -99999 -99999 -99999 -99999 -99999 -99999 -99999 -99999 -99999 -99999 -99999 -99999 -99999 -99999 -99999 -99999 -99999 -99999 -99999 -99999 -99999 -99999 -99999 -99999 -99999 -99999 -99999 -99999 -99999 -99999 -99999 -99999 -99999 -99999 -99999 -99999 -99999 -99999 -99999 -99999 -99999 -99999 -99999 -99999 -99999 -99999 -99999 -99999 -99999 -99999 -99999 -99999 -99999 -99999 -99999 -99999 -99999 -99999 -99999 -99999 -99999 -99999 -99999 -99999 -99999 -99999 -99999 -99999 -99999 -99999 -99999 -99999 -99999 -99999 -99999 -99999 -99999 -99999 -99999 -99999 -99999 -99999 -99999 -99999 -99999 -99999 -99999 -99999 -99999 -99999 -99999 -99999 -99999 -99999 -99999 -99999 -99999 -99999 -99999 -2328.707275390625 -2334.470947265625 -2340.2421875 -2345.782958984375 -2351.139404296875 -2356.051513671875 -2360.41357421875 -2364.019287109375 -2366.67529296875 -2368.10595703125 -2368.07373046875 -2367.01123046875 -2365.561279296875 -2365.614501953125 -2367.56103515625 -2368.675048828125 -2369.010986328125 -2368.5947265625 -2367.3984375 -2365.192138671875 -2361.880859375 -2357.55517578125 -2352.37890625 -2346.206787109375 -2339.206298828125 -2331.353759765625 -2322.907958984375 -2313.971435546875 -2304.580078125 -2294.8994140625 -2284.9404296875 -2274.847900390625 -2264.675537109375 -2254.510009765625 -2244.4580078125 -2234.621337890625 -2225.047607421875 -2215.875244140625 -2207.0341796875 -2198.7138671875 -2190.9658203125 -2183.66162109375 -2176.904296875 -2170.601318359375 -2164.84375 -2159.229736328125 -2153.785400390625 -2148.1796875 -2142.133544921875 -2135.500244140625 -2128.743408203125 -2122.814208984375 -2118.737060546875 -2115.62158203125 -2112.374267578125 -2110.0576171875 -2108.615478515625 -2107.114990234375 -2104.4130859375 -2101.34716796875 -2098.210205078125 -2095.181640625 -2092.270263671875 -2089.64697265625 -2087.26123046875 -2085.11474609375 -2083.23828125 -2081.700439453125 -2080.56103515625 -2079.764404296875 -2079.303466796875 -2079.174072265625 -2079.418212890625 -2079.99267578125 -2080.82177734375 -2081.88330078125 -2083.1669921875 -2084.707763671875 -2086.4384765625 -2088.369140625 -2090.5234375 -2093.00927734375 -2095.84228515625 -2099.166259765625 -2103.025390625 -2107.501220703125 -2112.69921875 -2118.765380859375 -2125.347900390625 -2132.03369140625 -2138.53955078125 -2144.38134765625 -2149.67529296875 -2154.5537109375 -2159.429443359375 -2165.364501953125 -2172.74609375 -2182.656494140625 -2194.769775390625 -2208.53271484375 -2223.245361328125 -2237.94482421875 -2252.213623046875 -2265.252685546875 -2275.591064453125 -2282.23779296875 -2286.584228515625 -2289.5068359375 -2291.634521484375 -2292.939208984375 -2293.2978515625 -2292.97998046875 -2291.846923828125 -2290.122314453125 -2287.930419921875 -2285.464599609375 -2282.781494140625 -2279.89306640625 -99999 -99999 -99999 -99999 -99999 -99999 -99999 -99999 -99999 -99999 -99999 -99999
 -99999 -99999 -99999 -99999 -99999 -99999 -99999 -99999 -99999 -99999 -99999 -99999 -99999 -99999 -99999 -99999 -99999 -99999 -99999 -99999 -99999 -99999 -99999 -99999 -99999 -99999 -99999 -99999 -99999 -99999 -99999 -99999 -99999 -99999 -99999 -99999 -99999 -99999 -99999 -99999 -99999 -99999 -99999 -99999 -99999 -99999 -99999 -99999 -99999 -99999 -99999 -99999 -99999 -99999 -99999 -99999 -99999 -99999 -99999 -99999 -99999 -99999 -99999 -99999 -99999 -99999 -99999 -99999 -99999 -99999 -99999 -99999 -99999 -99999 -99999 -99999 -99999 -99999 -99999 -99999 -99999 -99999 -99999 -99999 -99999 -99999 -99999 -99999 -99999 -99999 -99999 -99999 -99999 -99999 -99999 -99999 -99999 -99999 -99999 -2319.427490234375 -2325.20458984375 -2330.943115234375 -2336.544677734375 -2341.861083984375 -2346.688720703125 -2351.134765625 -2354.727783203125 -2357.40087890625 -2359.232177734375 -2360.17822265625 -2360.403076171875 -2360.690185546875 -2361.748779296875 -2363.364501953125 -2364.791259765625 -2365.4599609375 -2365.34423828125 -2364.46044921875 -2362.693603515625 -2359.895263671875 -2355.973388671875 -2350.76904296875 -2344.683349609375 -2337.8076171875 -2330.027099609375 -2321.720458984375 -2312.8681640625 -2303.60888671875 -2293.993896484375 -2284.08056640625 -2274.035888671875 -2263.894775390625 -2253.75927734375 -2243.70849609375 -2233.849609375 -2224.193359375 -2214.81884765625 -2205.774169921875 -2197.297119140625 -2189.135009765625 -2181.5625 -2174.49658203125 -2167.845458984375 -2161.61279296875 -2155.835693359375 -2150.2900390625 -2144.832275390625 -2139.33740234375 -2133.693603515625 -2128.157958984375 -2123.075439453125 -2118.72802734375 -2114.827392578125 -2110.568603515625 -2106.901611328125 -2105.13818359375 -2102.8857421875 -2099.90673828125 -2096.506591796875 -2093.05078125 -2089.748779296875 -2086.63330078125 -2083.75 -2081.116943359375 -2078.84228515625 -2076.922607421875 -2075.35302734375 -2074.115478515625 -2073.250732421875 -2072.841552734375 -2072.787353515625 -2073.05810546875 -2073.638671875 -2074.509033203125 -2075.7138671875 -2077.154296875 -2078.819580078125 -2080.70703125 -2082.8642578125 -2085.326904296875 -2088.094482421875 -2091.219482421875 -2094.743896484375 -2098.83837890625 -2103.559326171875 -2108.82421875 -2114.553955078125 -2120.6943359375 -2126.936767578125 -2132.98388671875 -2138.58056640625 -2143.52978515625 -2148.07666015625 -2152.541015625 -2157.356689453125 -2163.781494140625 -2172.7109375 -2184.1015625 -2198.4091796875 -2212.632080078125 -2226.557373046875 -2239.60400390625 -2251.652587890625 -2261.19677734375 -2268.146240234375 -2273.230712890625 -2276.71630859375 -2279.208740234375 -2280.816650390625 -2281.65478515625 -2281.8125 -2281.37158203125 -2280.3955078125 -2278.88916015625 -2277.07666015625 -2274.980712890625 -99999 -99999 -99999 -99999 -99999 -99999 -99999 -99999 -99999 -99999 -99999 -99999 -99999
 -99999 -99999 -99999 -99999 -99999 -99999 -99999 -99999 -99999 -99999 -99999 -99999 -99999 -99999 -99999 -99999 -99999 -99999 -99999 -99999 -99999 -99999 -99999 -99999 -99999 -99999 -99999 -99999 -99999 -99999 -99999 -99999 -99999 -99999 -99999 -99999 -99999 -99999 -99999 -99999 -99999 -99999 -99999 -99999 -99999 -99999 -99999 -99999 -99999 -99999 -99999 -99999 -99999 -99999 -99999 -99999 -99999 -99999 -99999 -99999 -99999 -99999 -99999 -99999 -99999 -99999 -99999 -99999 -99999 -99999 -99999 -99999 -99999 -99999 -99999 -99999 -99999 -99999 -99999 -99999 -99999 -99999 -99999 -99999 -99999 -99999 -99999 -99999 -99999 -99999 -99999 -99999 -99999 -99999 -99999 -99999 -99999 -99999 -99999 -2309.49365234375 -2315.3056640625 -2321.02490234375 -2326.56982421875 -2331.89013671875 -2336.916259765625 -2341.373779296875 -2345.116455078125 -2348.338623046875 -2350.71728515625 -2352.4365234375 -2353.861328125 -2355.26708984375 -2356.906005859375 -2358.772216796875 -2360.3603515625 -2361.337890625 -2361.692626953125 -2361.44384765625 -2360.10693359375 -2357.510986328125 -2353.77001953125 -2348.908935546875 -2343.001708984375 -2336.035888671875 -2328.464111328125 -2320.17626953125 -2311.38916015625 -2302.17431640625 -2292.649169921875 -2282.8369140625 -2272.8896484375 -2262.8076171875 -2252.670166015625 -2242.65283203125 -2232.725830078125 -2222.990478515625 -2213.529296875 -2204.292724609375 -2195.525634765625 -2187.13818359375 -2179.17236328125 -2171.612548828125 -2164.671630859375 -2158.166015625 -2152.230712890625 -2146.8037109375 -2141.755615234375 -2136.947021484375 -2132.385986328125 -2127.922119140625 -2123.63818359375 -2119.304443359375 -2114.9189453125 -2111.071533203125 -2107.452880859375 -2103.677490234375 -2099.686767578125 -2095.63720703125 -2091.7001953125 -2087.890380859375 -2084.251953125 -2080.857421875 -2077.7802734375 -2075.004150390625 -2072.53271484375 -2070.475341796875 -2068.87451171875 -2067.590576171875 -2066.72021484375 -2066.32958984375 -2066.3154296875 -2066.642578125 -2067.296630859375 -2068.26123046875 -2069.582763671875 -2071.119384765625 -2072.947509765625 -2075.0830078125 -2077.458740234375 -2080.106201171875 -2083.0478515625 -2086.421875 -2090.245361328125 -2094.471435546875 -2099.170654296875 -2104.33447265625 -2110.00634765625 -2115.891357421875 -2121.8798828125 -2127.670166015625 -2133.112060546875 -2138.1865234375 -2142.777099609375 -2146.945556640625 -2151.2646484375 -2155.91552734375 -2162.8828125 -2174.894287109375 -2188.73193359375 -2202.369384765625 -2214.08984375 -2226.28759765625 -2237.190673828125 -2246.07373046875 -2253.195068359375 -2258.500732421875 -2262.398193359375 -2265.31884765625 -2267.488037109375 -2269.00732421875 -2269.688232421875 -2269.8681640625 -2269.578369140625 -2268.88720703125 -2267.771484375 -2266.411865234375 -99999 -99999 -99999 -99999 -99999 -99999 -99999 -99999 -99999 -99999 -99999 -99999 -99999
 -99999 -99999 -99999 -99999 -99999 -99999 -99999 -99999 -99999 -99999 -99999 -99999 -99999 -99999 -99999 -99999 -99999 -99999 -99999 -99999 -99999 -99999 -99999 -99999 -99999 -99999 -99999 -99999 -99999 -99999 -99999 -99999 -99999 -99999 -99999 -99999 -99999 -99999 -99999 -99999 -99999 -99999 -99999 -99999 -99999 -99999 -99999 -99999 -99999 -99999 -99999 -99999 -99999 -99999 -99999 -99999 -99999 -99999 -99999 -99999 -99999 -99999 -99999 -99999 -99999 -99999 -99999 -99999 -99999 -99999 -99999 -99999 -99999 -99999 -99999 -99999 -99999 -99999 -99999 -99999 -99999 -99999 -99999 -99999 -99999 -99999 -99999 -99999 -99999 -99999 -99999 -99999 -99999 -99999 -99999 -99999 -99999 -99999 -2293.193359375 -2298.961181640625 -2304.724853515625 -2310.473876953125 -2316.15185546875 -2321.52685546875 -2326.553466796875 -2331.20849609375 -2335.42529296875 -2339.04541015625 -2342.0927734375 -2344.643310546875 -2346.876953125 -2349.060302734375 -2351.360595703125 -2353.58056640625 -2355.56201171875 -2356.89697265625 -2357.714599609375 -2357.858154296875 -2357.0419921875 -2355.031982421875 -2351.4765625 -2346.4951171875 -2340.679931640625 -2333.81689453125 -2326.235595703125 -2318.112060546875 -2309.461181640625 -2300.39306640625 -2290.95166015625 -2281.29052734375 -2271.38623046875 -2261.356689453125 -2251.302001953125 -2241.25927734375 -2231.312744140625 -2221.510009765625 -2211.85986328125 -2202.510009765625 -2193.44873046875 -2184.739501953125 -2176.4521484375 -2168.591552734375 -2161.19677734375 -2154.51123046875 -2148.430419921875 -2143.0517578125 -2138.34375 -2134.26611328125 -2130.82421875 -2127.628173828125 -2124.199462890625 -2119.8544921875 -2115.037841796875 -2110.4638671875 -2106.679443359375 -2101.484375 -2096.190673828125 -2091.2607421875 -2086.78173828125 -2082.6591796875 -2078.75 -2075.113037109375 -2071.73779296875 -2068.7890625 -2066.177734375 -2063.975830078125 -2062.26025390625 -2061.0263671875 -2060.216552734375 -2059.809814453125 -2059.791015625 -2060.181396484375 -2060.978271484375 -2062.0869140625 -2063.4912109375 -2065.178466796875 -2067.154052734375 -2069.4638671875 -2071.982666015625 -2074.833740234375 -2078.03466796875 -2081.55029296875 -2085.417724609375 -2089.751953125 -2094.511474609375 -2099.705078125 -2105.18505859375 -2110.951904296875 -2116.885498046875 -2122.7109375 -2128.35986328125 -2133.607421875 -2138.627197265625 -2143.237060546875 -2147.5693359375 -2151.464111328125 -2156.351318359375 -2166.2236328125 -2183.25244140625 -2193.668701171875 -2202.843017578125 -2212.97998046875 -2222.376220703125 -2230.596923828125 -2237.572265625 -2242.900390625 -2247.203125 -2250.587890625 -2253.211669921875 -2255.22119140625 -2256.725830078125 -2257.744140625 -2258.131103515625 -2258.124267578125 -2257.807373046875 -99999 -99999 -99999 -99999 -99999 -99999 -99999 -99999 -99999 -99999 -99999 -99999 -99999 -99999
 -99999 -99999 -99999 -99999 -99999 -99999 -99999 -99999 -99999 -99999 -99999 -99999 -99999 -99999 -99999 -99999 -99999 -99999 -99999 -99999 -99999 -99999 -99999 -99999 -99999 -99999 -99999 -99999 -99999 -99999 -99999 -99999 -99999 -99999 -99999 -99999 -99999 -99999 -99999 -99999 -99999 -99999 -99999 -99999 -99999 -99999 -99999 -99999 -99999 -99999 -99999 -99999 -99999 -99999 -99999 -99999 -99999 -99999 -99999 -99999 -99999 -99999 -99999 -99999 -99999 -99999 -99999 -99999 -99999 -99999 -99999 -99999 -99999 -99999 -99999 -99999 -99999 -99999 -99999 -99999 -99999 -99999 -99999 -99999 -99999 -99999 -99999 -99999 -99999 -99999 -99999 -99999 -99999 -99999 -99999 -99999 -99999 -99999 -2282.123046875 -2287.92578125 -2293.662841796875 -2299.474853515625 -2305.135009765625 -2310.657958984375 -2315.95654296875 -2320.847412109375 -2325.28271484375 -2329.34521484375 -2333.102294921875 -2336.420654296875 -2339.4912109375 -2342.39453125 -2345.146484375 -2347.72802734375 -2350.073974609375 -2351.96435546875 -2353.3388671875 -2353.994873046875 -2353.55126953125 -2351.772216796875 -2348.35009765625 -2343.62744140625 -2337.647705078125 -2330.9091796875 -2323.544921875 -2315.5322265625 -2306.97802734375 -2298.09912109375 -2288.807861328125 -2279.261962890625 -2269.5048828125 -2259.5751953125 -2249.511962890625 -2239.552001953125 -2229.59130859375 -2219.73046875 -2209.9970703125 -2200.4765625 -2191.21044921875 -2182.18212890625 -2173.47705078125 -2165.1279296875 -2157.4716796875 -2150.2685546875 -2144.0458984375 -2138.7236328125 -2134.40966796875 -2131.041259765625 -2128.519775390625 -2126.4091796875 -2124.072265625 -2119.78564453125 -2114.21728515625 -2108.89599609375 -2103.459716796875 -2097.82177734375 -2091.93994140625 -2086.73046875 -2081.859619140625 -2077.365234375 -2073.142822265625 -2069.221435546875 -2065.64794921875 -2062.471923828125 -2059.742431640625 -2057.498291015625 -2055.7294921875 -2054.41259765625 -2053.597900390625 -2053.2412109375 -2053.35107421875 -2053.840087890625 -2054.6865234375 -2055.876953125 -2057.410888671875 -2059.28466796875 -2061.434814453125 -2063.85400390625 -2066.549072265625 -2069.5693359375 -2072.86279296875 -2076.500732421875 -2080.517822265625 -2084.87890625 -2089.589599609375 -2094.718505859375 -2100.180908203125 -2105.916748046875 -2111.84912109375 -2117.865234375 -2123.853759765625 -2129.81005859375 -2135.46240234375 -2140.8603515625 -2146.1611328125 -2151.587646484375 -2157.1591796875 -2165.723388671875 -2173.012451171875 -2183.22314453125 -2190.82958984375 -2199.9375 -2208.576904296875 -2215.860595703125 -2221.930908203125 -2227.04736328125 -2231.488525390625 -2235.202880859375 -2238.33544921875 -2241.00927734375 -2243.234130859375 -2245.011474609375 -2246.239501953125 -2247.060546875 -2247.444580078125 -99999 -99999 -99999 -99999 -99999 -99999 -99999 -99999 -99999 -99999 -99999 -99999 -99999 -99999
 -99999 -99999 -99999 -99999 -99999 -99999 -99999 -99999 -99999 -99999 -99999 -99999 -99999 -99999 -99999 -99999 -99999 -99999 -99999 -99999 -99999 -99999 -99999 -99999 -99999 -99999 -99999 -99999 -99999 -99999 -99999 -99999 -99999 -99999 -99999 -99999 -99999 -99999 -99999 -99999 -99999 -99999 -99999 -99999 -99999 -99999 -99999 -99999 -99999 -99999 -99999 -99999 -99999 -99999 -99999 -99999 -99999 -99999 -99999 -99999 -99999 -99999 -99999 -99999 -99999 -99999 -99999 -99999 -99999 -99999 -99999 -99999 -99999 -99999 -99999 -99999 -99999 -99999 -99999 -99999 -99999 -99999 -99999 -99999 -99999 -99999 -99999 -99999 -99999 -99999 -99999 -99999 -99999 -99999 -99999 -99999 -99999 -99999 -2270.60498046875 -2276.31787109375 -2282.123291015625 -2288.023193359375 -2293.7744140625 -2299.43115234375 -2304.84716796875 -2310.058349609375 -2314.999267578125 -2319.534912109375 -2323.65966796875 -2327.554443359375 -2331.330810546875 -2334.88134765625 -2338.274169921875 -2341.36669921875 -2344.08642578125 -2346.34619140625 -2348.114013671875 -2349.183349609375 -2349.482421875 -2348.148193359375 -2344.752685546875 -2339.756591796875 -2333.849365234375 -2327.26416015625 -2320.0185546875 -2312.27490234375 -2304.00634765625 -2295.262451171875 -2286.228271484375 -2276.844482421875 -2267.191650390625 -2257.359130859375 -2247.44873046875 -2237.501220703125 -2227.576416015625 -2217.693115234375 -2207.88671875 -2198.234130859375 -2188.714111328125 -2179.414306640625 -2170.41650390625 -2161.65380859375 -2153.438720703125 -2145.872314453125 -2139.212158203125 -2133.66552734375 -2129.48974609375 -2126.4404296875 -2124.551025390625 -2123.34912109375 -2121.93310546875 -2117.779052734375 -2111.8681640625 -2105.652099609375 -2099.72607421875 -2093.6240234375 -2087.62548828125 -2081.912353515625 -2076.784912109375 -2072.097412109375 -2067.58837890625 -2063.41015625 -2059.59375 -2056.211181640625 -2053.30078125 -2050.92724609375 -2049.11767578125 -2047.8240966796875 -2047.0628662109375 -2046.7578125 -2046.90673828125 -2047.4644775390625 -2048.44287109375 -2049.771728515625 -2051.434326171875 -2053.4130859375 -2055.68115234375 -2058.269287109375 -2061.147705078125 -2064.283203125 -2067.7021484375 -2071.402099609375 -2075.43701171875 -2079.807373046875 -2084.517578125 -2089.57666015625 -2094.97314453125 -2100.69970703125 -2106.703125 -2113 -2119.40185546875 -2125.8955078125 -2132.621826171875 -2139.365966796875 -2146.091064453125 -2152.771484375 -2159.45361328125 -2166.748291015625 -2166.121826171875 -2170.861572265625 -2178.968505859375 -2187.877197265625 -2195.50244140625 -2201.622802734375 -2206.784423828125 -2211.4365234375 -2215.693359375 -2219.703125 -2223.42431640625 -2226.65966796875 -2229.469482421875 -2231.935302734375 -2234.005615234375 -2235.704833984375 -99999 -99999 -99999 -99999 -99999 -99999 -99999 -99999 -99999 -99999 -99999 -99999 -99999 -99999 -99999
 -99999 -99999 -99999 -99999 -99999 -99999 -99999 -99999 -99999 -99999 -99999 -99999 -99999 -99999 -99999 -99999 -99999 -99999 -99999 -99999 -99999 -99999 -99999 -99999 -99999 -99999 -99999 -99999 -99999 -99999 -99999 -99999 -99999 -99999 -99999 -99999 -99999 -99999 -99999 -99999 -99999 -99999 -99999 -99999 -99999 -99999 -99999 -99999 -99999 -99999 -99999 -99999 -99999 -99999 -99999 -99999 -99999 -99999 -99999 -99999 -99999 -99999 -99999 -99999 -99999 -99999 -99999 -99999 -99999 -99999 -99999 -99999 -99999 -99999 -99999 -99999 -99999 -99999 -99999 -99999 -99999 -99999 -99999 -99999 -99999 -99999 -99999 -99999 -99999 -99999 -99999 -99999 -99999 -99999 -99999 -99999 -99999 -99999 -2258.626953125 -2264.316162109375 -2270.16650390625 -2276.07958984375 -2281.96728515625 -2287.834716796875 -2293.510498046875 -2298.98193359375 -2304.1728515625 -2309.165771484375 -2313.96337890625 -2318.4423828125 -2322.606689453125 -2326.583984375 -2330.44921875 -2334.01513671875 -2337.268310546875 -2340.0283203125 -2342.076904296875 -2343.529541015625 -2344.201416015625 -2343.3515625 -2339.796630859375 -2334.7099609375 -2329.1015625 -2322.795166015625 -2315.794677734375 -2308.270263671875 -2300.27734375 -2291.853759765625 -2283.06005859375 -2273.916259765625 -2264.4658203125 -2254.774169921875 -2244.99462890625 -2235.13330078125 -2225.2509765625 -2215.387939453125 -2205.582275390625 -2195.861572265625 -2186.221923828125 -2176.65283203125 -2167.181640625 -2158.0263671875 -2149.15185546875 -2140.91845703125 -2133.8291015625 -2127.895263671875 -2123.59619140625 -2120.815185546875 -2119.0439453125 -2117.743896484375 -2116.169677734375 -2112.376220703125 -2106.95947265625 -2101.123291015625 -2095.06591796875 -2088.9228515625 -2082.86279296875 -2077.06494140625 -2071.774169921875 -2066.81494140625 -2062.04638671875 -2057.52294921875 -2053.456298828125 -2049.928466796875 -2046.9049072265625 -2044.4100341796875 -2042.5601806640625 -2041.2784423828125 -2040.561767578125 -2040.3076171875 -2040.54541015625 -2041.21435546875 -2042.277099609375 -2043.710693359375 -2045.466796875 -2047.5963134765625 -2050.041259765625 -2052.750244140625 -2055.732177734375 -2058.9638671875 -2062.496337890625 -2066.264404296875 -2070.302734375 -2074.63671875 -2079.25 -2084.233642578125 -2089.551513671875 -2095.2392578125 -2101.325927734375 -2107.8408203125 -2114.751953125 -2121.973876953125 -2129.464599609375 -2137.08203125 -2144.7236328125 -2151.94873046875 -2157.515625 -2161.175048828125 -2160.677490234375 -2163.23779296875 -2170.38232421875 -2178.45166015625 -2183.9921875 -2187.94482421875 -2191.975341796875 -2195.987548828125 -2200.1591796875 -2204.408203125 -2208.48779296875 -2212.322021484375 -2216.021484375 -2219.16064453125 -2221.81396484375 -2224.0693359375 -99999 -99999 -99999 -99999 -99999 -99999 -99999 -99999 -99999 -99999 -99999 -99999 -99999 -99999 -99999
 -99999 -99999 -99999 -99999 -99999 -99999 -99999 -99999 -99999 -99999 -99999 -99999 -99999 -99999 -99999 -99999 -99999 -99999 -99999 -99999 -99999 -99999 -99999 -99999 -99999 -99999 -99999 -99999 -99999 -99999 -99999 -99999 -99999 -99999 -99999 -99999 -99999 -99999 -99999 -99999 -99999 -99999 -99999 -99999 -99999 -99999 -99999 -99999 -99999 -99999 -99999 -99999 -99999 -99999 -99999 -99999 -99999 -99999 -99999 -99999 -99999 -99999 -99999 -99999 -99999 -99999 -99999 -99999 -99999 -99999 -99999 -99999 -99999 -99999 -99999 -99999 -99999 -99999 -99999 -99999 -99999 -99999 -99999 -99999 -99999 -99999 -99999 -99999 -99999 -99999 -99999 -99999 -99999 -99999 -99999 -99999 -99999 -99999 -2246.2373046875 -2251.942626953125 -2257.816650390625 -2263.772705078125 -2269.7958984375 -2275.824462890625 -2281.740234375 -2287.541748046875 -2293.146240234375 -2298.51953125 -2303.635009765625 -2308.54638671875 -2313.337646484375 -2317.841064453125 -2321.964111328125 -2325.779052734375 -2329.355712890625 -2332.383544921875 -2334.77392578125 -2336.479736328125 -2337.26416015625 -2336.088134765625 -2332.95654296875 -2328.5830078125 -2323.28662109375 -2317.278564453125 -2310.700439453125 -2303.663818359375 -2296.116943359375 -2287.974609375 -2279.4384765625 -2270.472412109375 -2261.21533203125 -2251.6962890625 -2242.091796875 -2232.37744140625 -2222.619140625 -2212.861083984375 -2203.080322265625 -2193.36962890625 -2183.634521484375 -2173.916259765625 -2164.2568359375 -2154.580322265625 -2145.103759765625 -2136.08984375 -2127.868896484375 -2121.469482421875 -2116.643310546875 -2114.02783203125 -2112.30078125 -2110.71728515625 -2108.696533203125 -2105.401123046875 -2100.9560546875 -2095.47265625 -2089.66650390625 -2083.699951171875 -2077.777587890625 -2071.998291015625 -2066.551025390625 -2061.34326171875 -2056.330810546875 -2051.664794921875 -2047.486572265625 -2043.6881103515625 -2040.45947265625 -2037.97265625 -2036.0972900390625 -2034.808837890625 -2034.1455078125 -2033.9871826171875 -2034.31640625 -2035.049072265625 -2036.163818359375 -2037.72021484375 -2039.6326904296875 -2041.8792724609375 -2044.4195556640625 -2047.230224609375 -2050.360107421875 -2053.720947265625 -2057.3046875 -2061.102783203125 -2065.1171875 -2069.369384765625 -2073.895263671875 -2078.7177734375 -2083.85595703125 -2089.52587890625 -2095.570068359375 -2102.11279296875 -2109.322998046875 -2116.95947265625 -2125.07421875 -2133.652099609375 -2141.3896484375 -2147.797607421875 -2152.480224609375 -2154.593505859375 -2155.858642578125 -2158.082275390625 -2163.4580078125 -2169.274658203125 -2172.855224609375 -2174.96533203125 -2177.345947265625 -2180.8720703125 -2185.118896484375 -2189.5810546875 -2194.09228515625 -2198.583740234375 -2202.756591796875 -2206.554931640625 -2209.91796875 -99999 -99999 -99999 -99999 -99999 -99999 -99999 -99999 -99999 -99999 -99999 -99999 -99999 -99999 -99999 -99999
 -99999 -99999 -99999 -99999 -99999 -99999 -99999 -99999 -99999 -99999 -99999 -99999 -99999 -99999 -99999 -99999 -99999 -99999 -99999 -99999 -99999 -99999 -99999 -99999 -99999 -99999 -99999 -99999 -99999 -99999 -99999 -99999 -99999 -99999 -99999 -99999 -99999 -99999 -99999 -99999 -99999 -99999 -99999 -99999 -99999 -99999 -99999 -99999 -99999 -99999 -99999 -99999 -99999 -99999 -99999 -99999 -99999 -99999 -99999 -99999 -99999 -99999 -99999 -99999 -99999 -99999 -99999 -99999 -99999 -99999 -99999 -99999 -99999 -99999 -99999 -99999 -99999 -99999 -99999 -99999 -99999 -99999 -99999 -99999 -99999 -99999 -99999 -99999 -99999 -99999 -99999 -99999 -99999 -99999 -99999 -99999 -99999 -99999 -2233.4677734375 -2239.1865234375 -2245.09765625 -2251.1708984375 -2257.3232421875 -2263.4765625 -2269.634033203125 -2275.708984375 -2281.656005859375 -2287.41162109375 -2292.999755859375 -2298.319091796875 -2303.3837890625 -2308.209228515625 -2312.789794921875 -2317.014892578125 -2320.65771484375 -2323.771484375 -2326.322998046875 -2328.054443359375 -2328.540771484375 -2327.504638671875 -2324.994384765625 -2321.39208984375 -2316.61328125 -2310.955322265625 -2304.784912109375 -2298.1572265625 -2291.151611328125 -2283.416259765625 -2275.22802734375 -2266.544677734375 -2257.548095703125 -2248.19873046875 -2238.83251953125 -2229.296875 -2219.692138671875 -2210.05712890625 -2200.4404296875 -2190.793701171875 -2181.11181640625 -2171.36572265625 -2161.45556640625 -2151.498779296875 -2141.222900390625 -2131.23681640625 -2122.164794921875 -2114.282470703125 -2109.50341796875 -2106.647216796875 -2104.937744140625 -2103.27685546875 -2101.10888671875 -2098.04931640625 -2094.0361328125 -2089.242919921875 -2083.91455078125 -2078.197021484375 -2072.41943359375 -2066.71875 -2061.18408203125 -2055.84033203125 -2050.650390625 -2045.8675537109375 -2041.5347900390625 -2037.62451171875 -2034.2540283203125 -2031.532958984375 -2029.665771484375 -2028.5428466796875 -2027.890625 -2027.7672119140625 -2028.150634765625 -2028.965087890625 -2030.233154296875 -2031.8624267578125 -2033.84326171875 -2036.1729736328125 -2038.872314453125 -2041.85205078125 -2045.06689453125 -2048.491943359375 -2052.134765625 -2055.953857421875 -2059.9521484375 -2064.127197265625 -2068.475341796875 -2073.076904296875 -2078.063720703125 -2083.388671875 -2089.292724609375 -2095.861083984375 -2103.191650390625 -2110.9951171875 -2119.224365234375 -2127.809814453125 -2135.97802734375 -2141.09130859375 -2144.833251953125 -2147.307373046875 -2149.2431640625 -2151.7431640625 -2155.255126953125 -2158.861083984375 -2160.5068359375 -2160.68115234375 -2162.79638671875 -2166.449462890625 -2170.81005859375 -2175.6689453125 -2180.59521484375 -2185.508544921875 -2190.108642578125 -2194.432373046875 -2198.442626953125 -99999 -99999 -99999 -99999 -99999 -99999 -99999 -99999 -99999 -99999 -99999 -99999 -99999 -99999 -99999 -99999
 -99999 -99999 -99999 -99999 -99999 -99999 -99999 -99999 -99999 -99999 -99999 -99999 -99999 -99999 -99999 -99999 -99999 -99999 -99999 -99999 -99999 -99999 -99999 -99999 -99999 -99999 -99999 -99999 -99999 -99999 -99999 -99999 -99999 -99999 -99999 -99999 -99999 -99999 -99999 -99999 -99999 -99999 -99999 -99999 -99999 -99999 -99999 -99999 -99999 -99999 -99999 -99999 -99999 -99999 -99999 -99999 -99999 -99999 -99999 -99999 -99999 -99999 -99999 -99999 -99999 -99999 -99999 -99999 -99999 -99999 -99999 -99999 -99999 -99999 -99999 -99999 -99999 -99999 -99999 -99999 -99999 -99999 -99999 -99999 -99999 -99999 -99999 -99999 -99999 -99999 -99999 -99999 -99999 -99999 -99999 -99999 -99999 -99999 -2220.4501953125 -2226.120849609375 -2232.036376953125 -2238.20556640625 -2244.510009765625 -2250.88818359375 -2257.26904296875 -2263.566162109375 -2269.823974609375 -2275.895263671875 -2281.839599609375 -2287.501953125 -2292.991455078125 -2298.114990234375 -2302.861572265625 -2307.26611328125 -2311.22314453125 -2314.590576171875 -2317.076904296875 -2318.643798828125 -2319.231201171875 -2318.60302734375 -2316.644287109375 -2313.2294921875 -2308.791259765625 -2303.654541015625 -2298.134521484375 -2292.15966796875 -2285.645751953125 -2278.48779296875 -2270.52734375 -2262.068359375 -2253.29541015625 -2244.25341796875 -2235.084716796875 -2225.791259765625 -2216.41748046875 -2206.961181640625 -2197.599853515625 -2188.169189453125 -2178.648681640625 -2169.015625 -2159.188720703125 -2148.8818359375 -2138.290283203125 -2127.4375 -2116.563720703125 -2107.245849609375 -2100.78955078125 -2098.986328125 -2097.573974609375 -2095.977294921875 -2093.884521484375 -2091.104736328125 -2087.36572265625 -2082.88720703125 -2077.871826171875 -2072.548583984375 -2066.9580078125 -2061.34765625 -2055.77783203125 -2050.346435546875 -2045.1754150390625 -2040.326416015625 -2035.8074951171875 -2031.5966796875 -2027.9447021484375 -2025.247314453125 -2023.4744873046875 -2022.458251953125 -2021.9405517578125 -2021.8621826171875 -2022.2025146484375 -2023.0487060546875 -2024.3436279296875 -2026.01953125 -2028.1177978515625 -2030.6373291015625 -2033.4180908203125 -2036.4814453125 -2039.815673828125 -2043.3701171875 -2047.0694580078125 -2050.893310546875 -2054.830810546875 -2058.875 -2063.078125 -2067.435546875 -2072.053955078125 -2077.0400390625 -2082.644287109375 -2088.885009765625 -2096.01806640625 -2103.964111328125 -2111.99853515625 -2120.034423828125 -2127.081298828125 -2132.474365234375 -2136.482177734375 -2139.274658203125 -2141.375 -2143.58251953125 -2145.77294921875 -2147.395751953125 -2147.51904296875 -2147.3232421875 -2149.318115234375 -2152.994384765625 -2157.763916015625 -2163.03369140625 -2168.225830078125 -2173.39453125 -2178.361572265625 -2183.10498046875 -99999 -99999 -99999 -99999 -99999 -99999 -99999 -99999 -99999 -99999 -99999 -99999 -99999 -99999 -99999 -99999 -99999
 -99999 -99999 -99999 -99999 -99999 -99999 -99999 -99999 -99999 -99999 -99999 -99999 -99999 -99999 -99999 -99999 -99999 -99999 -99999 -99999 -99999 -99999 -99999 -99999 -99999 -99999 -99999 -99999 -99999 -99999 -99999 -99999 -99999 -99999 -99999 -99999 -99999 -99999 -99999 -99999 -99999 -99999 -99999 -99999 -99999 -99999 -99999 -99999 -99999 -99999 -99999 -99999 -99999 -99999 -99999 -99999 -99999 -99999 -99999 -99999 -99999 -99999 -99999 -99999 -99999 -99999 -99999 -99999 -99999 -99999 -99999 -99999 -99999 -99999 -99999 -99999 -99999 -99999 -99999 -99999 -99999 -99999 -99999 -99999 -99999 -99999 -99999 -99999 -99999 -99999 -99999 -99999 -99999 -99999 -99999 -99999 -99999 -99999 -2207.04931640625 -2212.7578125 -2218.7548828125 -2224.988037109375 -2231.41259765625 -2237.951904296875 -2244.58837890625 -2251.184814453125 -2257.70654296875 -2264.067138671875 -2270.312255859375 -2276.289794921875 -2282.054443359375 -2287.455810546875 -2292.5107421875 -2297.095458984375 -2301.06982421875 -2304.43408203125 -2307.114990234375 -2308.985107421875 -2309.578369140625 -2309.020751953125 -2307.35302734375 -2304.591552734375 -2300.75537109375 -2295.987060546875 -2290.996337890625 -2285.76513671875 -2279.67138671875 -2272.802734375 -2265.195556640625 -2257.1474609375 -2248.653076171875 -2239.83740234375 -2230.921875 -2221.883056640625 -2212.79443359375 -2203.676513671875 -2194.562744140625 -2185.407470703125 -2176.223876953125 -2166.91015625 -2157.32763671875 -2147.39697265625 -2136.673828125 -2125.01611328125 -2113.072509765625 -2099.659423828125 -2094.11865234375 -2092.599853515625 -2091.447998046875 -2089.735595703125 -2087.46044921875 -2084.571044921875 -2081.041748046875 -2076.899658203125 -2072.18408203125 -2066.968505859375 -2061.57177734375 -2056.04296875 -2050.53271484375 -2045.1187744140625 -2039.850830078125 -2034.8502197265625 -2030.2135009765625 -2025.77392578125 -2021.9259033203125 -2019.3443603515625 -2017.7264404296875 -2016.748046875 -2016.190185546875 -2016.1510009765625 -2016.541015625 -2017.361328125 -2018.613525390625 -2020.3094482421875 -2022.5272216796875 -2025.0791015625 -2027.9783935546875 -2031.2423095703125 -2034.7027587890625 -2038.33642578125 -2042.09716796875 -2045.9609375 -2049.854736328125 -2053.80078125 -2057.78125 -2061.847900390625 -2066.10693359375 -2070.55419921875 -2075.488037109375 -2081.385498046875 -2088.29833984375 -2095.995849609375 -2103.9951171875 -2111.400634765625 -2118.178466796875 -2123.523193359375 -2127.441162109375 -2130.463134765625 -2132.82470703125 -2134.73388671875 -2136.203125 -2136.8251953125 -2136.850341796875 -2136.855224609375 -2137.562255859375 -2141.60693359375 -2146.595703125 -2151.78662109375 -2157.139892578125 -2162.50439453125 -2167.661376953125 -2172.6455078125 -99999 -99999 -99999 -99999 -99999 -99999 -99999 -99999 -99999 -99999 -99999 -99999 -99999 -99999 -99999 -99999 -99999
 -99999 -99999 -99999 -99999 -99999 -99999 -99999 -99999 -99999 -99999 -99999 -99999 -99999 -99999 -99999 -99999 -99999 -99999 -99999 -99999 -99999 -99999 -99999 -99999 -99999 -99999 -99999 -99999 -99999 -99999 -99999 -99999 -99999 -99999 -99999 -99999 -99999 -99999 -99999 -99999 -99999 -99999 -99999 -99999 -99999 -99999 -99999 -99999 -99999 -99999 -99999 -99999 -99999 -99999 -99999 -99999 -99999 -99999 -99999 -99999 -99999 -99999 -99999 -99999 -99999 -99999 -99999 -99999 -99999 -99999 -99999 -99999 -99999 -99999 -99999 -99999 -99999 -99999 -99999 -99999 -99999 -99999 -99999 -99999 -99999 -99999 -99999 -99999 -99999 -99999 -99999 -99999 -99999 -99999 -99999 -99999 -99999 -99999 -2193.46826171875 -2199.17626953125 -2205.155029296875 -2211.494384765625 -2218.111083984375 -2224.842529296875 -2231.672607421875 -2238.5126953125 -2245.360107421875 -2252.0087890625 -2258.493896484375 -2264.71826171875 -2270.72314453125 -2276.35400390625 -2281.624267578125 -2286.31494140625 -2290.5341796875 -2294.058837890625 -2296.78173828125 -2298.586669921875 -2299.494873046875 -2299.428955078125 -2298.12548828125 -2295.718017578125 -2292.44921875 -2288.279296875 -2283.877685546875 -2278.96630859375 -2273.466796875 -2266.83349609375 -2259.3916015625 -2251.464599609375 -2243.262451171875 -2234.81884765625 -2226.232666015625 -2217.5625 -2208.801513671875 -2200.012451171875 -2191.281982421875 -2182.433837890625 -2173.635498046875 -2164.840087890625 -2155.897216796875 -2146.514892578125 -2136.342529296875 -2124.973876953125 -2112.6767578125 -2101.391357421875 -2092.85693359375 -2089.93212890625 -2087.29736328125 -2084.838134765625 -2082.1787109375 -2079.13623046875 -2075.465087890625 -2071.3466796875 -2066.68896484375 -2061.646728515625 -2056.392578125 -2050.9892578125 -2045.5474853515625 -2040.1258544921875 -2034.8795166015625 -2029.8193359375 -2024.99609375 -2020.4368896484375 -2016.4971923828125 -2013.700927734375 -2012.526123046875 -2011.6300048828125 -2011.01513671875 -2010.7747802734375 -2010.970458984375 -2011.7381591796875 -2013.0257568359375 -2014.777099609375 -2016.974609375 -2019.599609375 -2022.6417236328125 -2025.9998779296875 -2029.6239013671875 -2033.4215087890625 -2037.30029296875 -2041.1951904296875 -2045.0711669921875 -2048.91748046875 -2052.731689453125 -2056.540283203125 -2060.376220703125 -2064.271728515625 -2068.380859375 -2073.24853515625 -2079.751708984375 -2087.625 -2095.369384765625 -2102.59228515625 -2109.07177734375 -2114.420166015625 -2118.5791015625 -2121.755615234375 -2124.069580078125 -2125.806396484375 -2127.028076171875 -2127.781494140625 -2128.089111328125 -2128.548828125 -2130.15087890625 -2133.112060546875 -2137.31640625 -2142.32373046875 -2147.576171875 -2152.808837890625 -2158.081298828125 -99999 -99999 -99999 -99999 -99999 -99999 -99999 -99999 -99999 -99999 -99999 -99999 -99999 -99999 -99999 -99999 -99999 -99999
 -99999 -99999 -99999 -99999 -99999 -99999 -99999 -99999 -99999 -99999 -99999 -99999 -99999 -99999 -99999 -99999 -99999 -99999 -99999 -99999 -99999 -99999 -99999 -99999 -99999 -99999 -99999 -99999 -99999 -99999 -99999 -99999 -99999 -99999 -99999 -99999 -99999 -99999 -99999 -99999 -99999 -99999 -99999 -99999 -99999 -99999 -99999 -99999 -99999 -99999 -99999 -99999 -99999 -99999 -99999 -99999 -99999 -99999 -99999 -99999 -99999 -99999 -99999 -99999 -99999 -99999 -99999 -99999 -99999 -99999 -99999 -99999 -99999 -99999 -99999 -99999 -99999 -99999 -99999 -99999 -99999 -99999 -99999 -99999 -99999 -99999 -99999 -99999 -99999 -99999 -99999 -99999 -99999 -99999 -99999 -99999 -99999 -99999 -2179.757568359375 -2185.385498046875 -2191.451904296875 -2197.89794921875 -2204.610595703125 -2211.541015625 -2218.58837890625 -2225.70068359375 -2232.749267578125 -2239.701171875 -2246.494384765625 -2252.98388671875 -2259.17578125 -2264.956787109375 -2270.37353515625 -2275.262939453125 -2279.6201171875 -2283.21826171875 -2286.07470703125 -2288.0576171875 -2289.1875 -2289.423583984375 -2288.525634765625 -2286.604736328125 -2283.922119140625 -2280.53369140625 -2276.59765625 -2272.0712890625 -2266.679443359375 -2260.190185546875 -2253.075927734375 -2245.35986328125 -2237.45654296875 -2229.337158203125 -2221.068603515625 -2212.76806640625 -2204.43701171875 -2196.023193359375 -2187.62353515625 -2179.18115234375 -2170.799560546875 -2162.45556640625 -2154.459716796875 -2146.445556640625 -2137.236083984375 -2126.053466796875 -2113.96435546875 -2102.918212890625 -2094.679931640625 -2088.863037109375 -2084.5849609375 -2081.34033203125 -2077.955322265625 -2074.396484375 -2070.5263671875 -2066.26416015625 -2061.64990234375 -2056.749267578125 -2051.56982421875 -2046.2530517578125 -2040.88037109375 -2035.5382080078125 -2030.267333984375 -2025.2342529296875 -2020.418701171875 -2015.9344482421875 -2012.0233154296875 -2009.7576904296875 -2008.24560546875 -2007.04638671875 -2006.146728515625 -2005.6827392578125 -2005.7626953125 -2006.359375 -2007.483642578125 -2009.2030029296875 -2011.4571533203125 -2014.2083740234375 -2017.378173828125 -2020.900390625 -2024.669189453125 -2028.651611328125 -2032.64990234375 -2036.6214599609375 -2040.5179443359375 -2044.3037109375 -2047.9742431640625 -2051.584228515625 -2055.175537109375 -2058.70068359375 -2062.23876953125 -2066.045654296875 -2071.830810546875 -2079.58447265625 -2087.25634765625 -2094.237060546875 -2100.34130859375 -2105.5576171875 -2109.8388671875 -2113.131591796875 -2115.655517578125 -2117.475830078125 -2118.758544921875 -2119.63916015625 -2120.4208984375 -2121.43505859375 -2123.074462890625 -2125.90283203125 -2129.848388671875 -2134.26318359375 -2139.11865234375 -2144.289306640625 -99999 -99999 -99999 -99999 -99999 -99999 -99999 -99999 -99999 -99999 -99999 -99999 -99999 -99999 -99999 -99999 -99999 -99999 -99999
 -99999 -99999 -99999 -99999 -99999 -99999 -99999 -99999 -99999 -99999 -99999 -99999 -99999 -99999 -99999 -99999 -99999 -99999 -99999 -99999 -99999 -99999 -99999 -99999 -99999 -99999 -99999 -99999 -99999 -99999 -99999 -99999 -99999 -99999 -99999 -99999 -99999 -99999 -99999 -99999 -99999 -99999 -99999 -99999 -99999 -99999 -99999 -99999 -99999 -99999 -99999 -99999 -99999 -99999 -99999 -99999 -99999 -99999 -99999 -99999 -99999 -99999 -99999 -99999 -99999 -99999 -99999 -99999 -99999 -99999 -99999 -99999 -99999 -99999 -99999 -99999 -99999 -99999 -99999 -99999 -99999 -99999 -99999 -99999 -99999 -99999 -99999 -99999 -99999 -99999 -99999 -99999 -99999 -99999 -99999 -99999 -99999 -99999 -2165.8583984375 -2171.509033203125 -2177.66259765625 -2184.224365234375 -2191.079345703125 -2198.209716796875 -2205.47314453125 -2212.809814453125 -2220.072998046875 -2227.268798828125 -2234.274658203125 -2241.023193359375 -2247.47119140625 -2253.448974609375 -2258.99853515625 -2264.004150390625 -2268.43701171875 -2272.18603515625 -2275.304443359375 -2277.479736328125 -2278.77685546875 -2279.202392578125 -2278.7568359375 -2277.49462890625 -2275.205078125 -2272.239501953125 -2268.65087890625 -2264.38525390625 -2259.345703125 -2253.003662109375 -2246.10791015625 -2238.7177734375 -2231.04638671875 -2223.28515625 -2215.53759765625 -2207.675048828125 -2199.768310546875 -2191.814453125 -2183.64501953125 -2175.431396484375 -2167.30029296875 -2159.42529296875 -2151.968994140625 -2145.1328125 -2138.498291015625 -2127.02001953125 -2114.71875 -2103.926025390625 -2095.0224609375 -2088.3134765625 -2082.976806640625 -2078.4345703125 -2074.34423828125 -2070.39892578125 -2066.17138671875 -2061.794189453125 -2057.14013671875 -2052.20947265625 -2047.1163330078125 -2041.898193359375 -2036.60205078125 -2031.3153076171875 -2026.1263427734375 -2021.1346435546875 -2016.3857421875 -2012.1507568359375 -2008.6121826171875 -2005.932373046875 -2004.2686767578125 -2002.825439453125 -2001.5447998046875 -2000.7825927734375 -2000.643798828125 -2001.0870361328125 -2002.1156005859375 -2003.7623291015625 -2005.9937744140625 -2008.7686767578125 -2012.0445556640625 -2015.7652587890625 -2019.7918701171875 -2023.9735107421875 -2028.1448974609375 -2032.2496337890625 -2036.1966552734375 -2039.9598388671875 -2043.5770263671875 -2047.0447998046875 -2050.471435546875 -2053.927001953125 -2057.291748046875 -2060.954345703125 -2066.14501953125 -2072.9462890625 -2079.963134765625 -2086.450927734375 -2092.35009765625 -2097.4453125 -2101.59375 -2104.9140625 -2107.55517578125 -2109.55615234375 -2111.017333984375 -2112.218994140625 -2113.435302734375 -2114.8271484375 -2116.77490234375 -2119.5009765625 -2122.990966796875 -2127.2099609375 -2131.87060546875 -99999 -99999 -99999 -99999 -99999 -99999 -99999 -99999 -99999 -99999 -99999 -99999 -99999 -99999 -99999 -99999 -99999 -99999 -99999 -99999
 -99999 -99999 -99999 -99999 -99999 -99999 -99999 -99999 -99999 -99999 -99999 -99999 -99999 -99999 -99999 -99999 -99999 -99999 -99999 -99999 -99999 -99999 -99999 -99999 -99999 -99999 -99999 -99999 -99999 -99999 -99999 -99999 -99999 -99999 -99999 -99999 -99999 -99999 -99999 -99999 -99999 -99999 -99999 -99999 -99999 -99999 -99999 -99999 -99999 -99999 -99999 -99999 -99999 -99999 -99999 -99999 -99999 -99999 -99999 -99999 -99999 -99999 -99999 -99999 -99999 -99999 -99999 -99999 -99999 -99999 -99999 -99999 -99999 -99999 -99999 -99999 -99999 -99999 -99999 -99999 -99999 -99999 -99999 -99999 -99999 -99999 -99999 -99999 -99999 -99999 -99999 -99999 -99999 -99999 -99999 -99999 -99999 -2147.035400390625 -2152.03955078125 -2157.587646484375 -2163.793212890625 -2170.456298828125 -2177.506591796875 -2184.85595703125 -2192.377197265625 -2199.93701171875 -2207.479248046875 -2214.87646484375 -2222.058837890625 -2228.99365234375 -2235.57177734375 -2241.79443359375 -2247.5322265625 -2252.659912109375 -2257.20458984375 -2261.068115234375 -2264.289306640625 -2266.682373046875 -2268.277587890625 -2269.024658203125 -2268.85302734375 -2267.87109375 -2266.105224609375 -2263.603759765625 -2260.244873046875 -2256.146484375 -2251.13232421875 -2245.232177734375 -2238.638671875 -2231.6201171875 -2224.276611328125 -2216.92822265625 -2209.57275390625 -2202.33984375 -2194.89013671875 -2187.18896484375 -2179.309814453125 -2171.255859375 -2163.1962890625 -2155.398193359375 -2148.1318359375 -2141.77294921875 -2135.696533203125 -2124.91796875 -2113.586669921875 -2103.3203125 -2094.595458984375 -2087.2236328125 -2081.142578125 -2076.05615234375 -2071.375 -2066.857421875 -2062.410888671875 -2057.81494140625 -2053.060791015625 -2048.1552734375 -2043.0927734375 -2037.9215087890625 -2032.7110595703125 -2027.4757080078125 -2022.3914794921875 -2017.4876708984375 -2012.8599853515625 -2008.7066650390625 -2005.1824951171875 -2002.3638916015625 -2000.1612548828125 -1998.406005859375 -1996.9879150390625 -1996.1170654296875 -1995.6846923828125 -1995.8681640625 -1996.748779296875 -1998.3157958984375 -2000.4798583984375 -2003.304931640625 -2006.7515869140625 -2010.665283203125 -2014.8892822265625 -2019.27880859375 -2023.7412109375 -2028.00927734375 -2032.04296875 -2035.83056640625 -2039.3876953125 -2042.8175048828125 -2046.22412109375 -2049.720947265625 -2053.231689453125 -2056.960693359375 -2061.77294921875 -2067.5380859375 -2073.7041015625 -2079.69921875 -2085.150634765625 -2089.9033203125 -2093.927001953125 -2097.33837890625 -2100.043212890625 -2102.1943359375 -2103.98291015625 -2105.52685546875 -2107.000244140625 -2108.685302734375 -2110.8974609375 -2113.624755859375 -2117.017578125 -2120.951416015625 -2125.261962890625 -99999 -99999 -99999 -99999 -99999 -99999 -99999 -99999 -99999 -99999 -99999 -99999 -99999 -99999 -99999 -99999 -99999 -99999 -99999 -99999
 -99999 -99999 -99999 -99999 -99999 -99999 -99999 -99999 -99999 -99999 -99999 -99999 -99999 -99999 -99999 -99999 -99999 -99999 -99999 -99999 -99999 -99999 -99999 -99999 -99999 -99999 -99999 -99999 -99999 -99999 -99999 -99999 -99999 -99999 -99999 -99999 -99999 -99999 -99999 -99999 -99999 -99999 -99999 -99999 -99999 -99999 -99999 -99999 -99999 -99999 -99999 -99999 -99999 -99999 -99999 -99999 -99999 -99999 -99999 -99999 -99999 -99999 -99999 -99999 -99999 -99999 -99999 -99999 -99999 -99999 -99999 -99999 -99999 -99999 -99999 -99999 -99999 -99999 -99999 -99999 -99999 -99999 -99999 -99999 -99999 -99999 -99999 -99999 -99999 -99999 -99999 -99999 -99999 -99999 -99999 -99999 -99999 -2133.332275390625 -2138.19384765625 -2143.830322265625 -2150.10107421875 -2156.774658203125 -2164.07373046875 -2171.619140625 -2179.31005859375 -2187.12841796875 -2194.934326171875 -2202.542724609375 -2209.9697265625 -2217.07421875 -2223.7744140625 -2230.11328125 -2235.953857421875 -2241.273193359375 -2245.962158203125 -2250.0166015625 -2253.305419921875 -2255.81005859375 -2257.629638671875 -2258.65478515625 -2258.87451171875 -2258.233154296875 -2256.721435546875 -2254.51318359375 -2251.510986328125 -2247.72607421875 -2242.93701171875 -2237.3984375 -2231.140380859375 -2224.229248046875 -2217.064697265625 -2210.046875 -2203.346435546875 -2196.748046875 -2189.87841796875 -2182.559814453125 -2174.7353515625 -2166.68798828125 -2158.437255859375 -2150.28271484375 -2142.734375 -2136.10009765625 -2129.074951171875 -2120.379638671875 -2110.835205078125 -2101.57958984375 -2093.021240234375 -2085.619873046875 -2079.2333984375 -2073.64404296875 -2068.56201171875 -2063.710693359375 -2058.968017578125 -2054.246337890625 -2049.4326171875 -2044.5018310546875 -2039.46728515625 -2034.3629150390625 -2029.1912841796875 -2024.0645751953125 -2019.060302734375 -2014.215576171875 -2009.641357421875 -2005.4959716796875 -2001.82080078125 -1998.80322265625 -1996.3123779296875 -1994.22412109375 -1992.607421875 -1991.4139404296875 -1990.756591796875 -1990.7725830078125 -1991.502197265625 -1992.818359375 -1994.888427734375 -1997.7742919921875 -2001.298095703125 -2005.382568359375 -2009.9676513671875 -2014.7261962890625 -2019.3768310546875 -2023.8565673828125 -2028.013916015625 -2031.8067626953125 -2035.37060546875 -2038.7333984375 -2042.1099853515625 -2045.619873046875 -2049.20947265625 -2053.089111328125 -2057.578125 -2062.67041015625 -2068.091552734375 -2073.5009765625 -2078.539306640625 -2083.092529296875 -2087.05078125 -2090.37060546875 -2093.154296875 -2095.4658203125 -2097.427978515625 -2099.213623046875 -2101.043212890625 -2103.041259765625 -2105.37744140625 -2108.17333984375 -2111.424560546875 -2115.22705078125 -2119.353759765625 -99999 -99999 -99999 -99999 -99999 -99999 -99999 -99999 -99999 -99999 -99999 -99999 -99999 -99999 -99999 -99999 -99999 -99999 -99999 -99999
 -99999 -99999 -99999 -99999 -99999 -99999 -99999 -99999 -99999 -99999 -99999 -99999 -99999 -99999 -99999 -99999 -99999 -99999 -99999 -99999 -99999 -99999 -99999 -99999 -99999 -99999 -99999 -99999 -99999 -99999 -99999 -99999 -99999 -99999 -99999 -99999 -99999 -99999 -99999 -99999 -99999 -99999 -99999 -99999 -99999 -99999 -99999 -99999 -99999 -99999 -99999 -99999 -99999 -99999 -99999 -99999 -99999 -99999 -99999 -99999 -99999 -99999 -99999 -99999 -99999 -99999 -99999 -99999 -99999 -99999 -99999 -99999 -99999 -99999 -99999 -99999 -99999 -99999 -99999 -99999 -99999 -99999 -99999 -99999 -99999 -99999 -99999 -99999 -99999 -99999 -99999 -99999 -99999 -99999 -99999 -99999 -99999 -2119.794677734375 -2124.66845703125 -2130.206298828125 -2136.44970703125 -2143.419189453125 -2150.878662109375 -2158.56396484375 -2166.59033203125 -2174.578125 -2182.55078125 -2190.37060546875 -2198.02001953125 -2205.305419921875 -2212.17578125 -2218.60009765625 -2224.48681640625 -2229.89453125 -2234.71533203125 -2238.904296875 -2242.323486328125 -2245.05712890625 -2247.08447265625 -2248.344970703125 -2248.8203125 -2248.5224609375 -2247.3349609375 -2245.421630859375 -2242.72607421875 -2239.219482421875 -2234.740966796875 -2229.479248046875 -2223.4306640625 -2216.822998046875 -2209.689453125 -2203.18359375 -2197.351806640625 -2191.35595703125 -2184.830810546875 -2177.729248046875 -2170.148681640625 -2161.9013671875 -2153.319580078125 -2144.663330078125 -2136.747314453125 -2129.878662109375 -2122.806396484375 -2115.046630859375 -2106.6640625 -2098.281982421875 -2090.451171875 -2083.31591796875 -2076.9443359375 -2071.116943359375 -2065.82177734375 -2060.801513671875 -2055.9052734375 -2051.04541015625 -2046.157470703125 -2041.2149658203125 -2036.204345703125 -2031.1346435546875 -2026.044189453125 -2021.0069580078125 -2016.0318603515625 -2011.238525390625 -2006.71875 -2002.553466796875 -1998.7996826171875 -1995.484130859375 -1992.6029052734375 -1990.258056640625 -1988.365966796875 -1986.888671875 -1985.8359375 -1985.80029296875 -1986.24609375 -1987.3514404296875 -1989.2188720703125 -1991.9439697265625 -1995.5987548828125 -2000.023681640625 -2004.87744140625 -2009.939697265625 -2015.0372314453125 -2019.7222900390625 -2023.9261474609375 -2027.802490234375 -2031.303955078125 -2034.6395263671875 -2037.9957275390625 -2041.4854736328125 -2045.17724609375 -2049.151611328125 -2053.528076171875 -2058.264892578125 -2063.190673828125 -2068.047607421875 -2072.701171875 -2076.97314453125 -2080.711669921875 -2083.97119140625 -2086.806396484375 -2089.25 -2091.42041015625 -2093.456787109375 -2095.502685546875 -2097.685302734375 -2100.1337890625 -2102.9931640625 -2106.2900390625 -2109.96240234375 -99999 -99999 -99999 -99999 -99999 -99999 -99999 -99999 -99999 -99999 -99999 -99999 -99999 -99999 -99999 -99999 -99999 -99999 -99999 -99999 -99999
 -99999 -99999 -99999 -99999 -99999 -99999 -99999 -99999 -99999 -99999 -99999 -99999 -99999 -99999 -99999 -99999 -99999 -99999 -99999 -99999 -99999 -99999 -99999 -99999 -99999 -99999 -99999 -99999 -99999 -99999 -99999 -99999 -99999 -99999 -99999 -99999 -99999 -99999 -99999 -99999 -99999 -99999 -99999 -99999 -99999 -99999 -99999 -99999 -99999 -99999 -99999 -99999 -99999 -99999 -99999 -99999 -99999 -99999 -99999 -99999 -99999 -99999 -99999 -99999 -99999 -99999 -99999 -99999 -99999 -99999 -99999 -99999 -99999 -99999 -99999 -99999 -99999 -99999 -99999 -99999 -99999 -99999 -99999 -99999 -99999 -99999 -99999 -99999 -99999 -99999 -99999 -99999 -99999 -99999 -99999 -99999 -99999 -2106.653564453125 -2111.29345703125 -2116.824951171875 -2123.28369140625 -2130.369873046875 -2137.91845703125 -2145.93896484375 -2154.149658203125 -2162.36669921875 -2170.579345703125 -2178.54345703125 -2186.279052734375 -2193.7177734375 -2200.753173828125 -2207.270751953125 -2213.307861328125 -2218.759765625 -2223.572998046875 -2227.8115234375 -2231.391845703125 -2234.4013671875 -2236.53662109375 -2237.935546875 -2238.639892578125 -2238.641357421875 -2237.91748046875 -2236.27392578125 -2233.85107421875 -2230.66748046875 -2226.67333984375 -2221.93701171875 -2216.252197265625 -2209.840087890625 -2203.183837890625 -2197.1005859375 -2191.575439453125 -2186.107421875 -2180.007080078125 -2173.138427734375 -2165.418701171875 -2156.94921875 -2147.973388671875 -2139.2744140625 -2131.283203125 -2123.91259765625 -2116.830810546875 -2109.447998046875 -2101.944091796875 -2094.433837890625 -2087.2626953125 -2080.47509765625 -2074.208251953125 -2068.489501953125 -2063.13134765625 -2057.9921875 -2053.0302734375 -2048.109619140625 -2043.1922607421875 -2038.255126953125 -2033.279541015625 -2028.258056640625 -2023.232666015625 -2018.2431640625 -2013.3468017578125 -2008.6044921875 -2004.0577392578125 -1999.7860107421875 -1995.8985595703125 -1992.41162109375 -1989.302978515625 -1986.5880126953125 -1984.23974609375 -1982.456787109375 -1981.317138671875 -1980.9219970703125 -1980.854736328125 -1981.510009765625 -1983.2640380859375 -1986.0621337890625 -1989.685546875 -1994.1749267578125 -1999.5101318359375 -2005.141845703125 -2010.47607421875 -2015.39013671875 -2019.7012939453125 -2023.463134765625 -2027.0565185546875 -2030.3472900390625 -2033.755126953125 -2037.3582763671875 -2041.158447265625 -2045.1834716796875 -2049.46728515625 -2053.98583984375 -2058.578125 -2063.102294921875 -2067.44873046875 -2071.477783203125 -2074.947021484375 -2078.218505859375 -2081.0126953125 -2083.514892578125 -2085.82861328125 -2088.037353515625 -2090.255126953125 -2092.637451171875 -2095.24755859375 -2098.158935546875 -2101.37548828125 -2104.94091796875 -99999 -99999 -99999 -99999 -99999 -99999 -99999 -99999 -99999 -99999 -99999 -99999 -99999 -99999 -99999 -99999 -99999 -99999 -99999 -99999 -99999
 -99999 -99999 -99999 -99999 -99999 -99999 -99999 -99999 -99999 -99999 -99999 -99999 -99999 -99999 -99999 -99999 -99999 -99999 -99999 -99999 -99999 -99999 -99999 -99999 -99999 -99999 -99999 -99999 -99999 -99999 -99999 -99999 -99999 -99999 -99999 -99999 -99999 -99999 -99999 -99999 -99999 -99999 -99999 -99999 -99999 -99999 -99999 -99999 -99999 -99999 -99999 -99999 -99999 -99999 -99999 -99999 -99999 -99999 -99999 -99999 -99999 -99999 -99999 -99999 -99999 -99999 -99999 -99999 -99999 -99999 -99999 -99999 -99999 -99999 -99999 -99999 -99999 -99999 -99999 -99999 -99999 -99999 -99999 -99999 -99999 -99999 -99999 -99999 -99999 -99999 -99999 -99999 -99999 -99999 -99999 -99999 -99999 -2093.740478515625 -2098.27880859375 -2104.041748046875 -2110.498291015625 -2117.705810546875 -2125.604736328125 -2133.78662109375 -2142.171630859375 -2150.67041015625 -2159.048095703125 -2167.18115234375 -2175.037841796875 -2182.498779296875 -2189.52099609375 -2196.1494140625 -2202.28369140625 -2207.79736328125 -2212.699462890625 -2217.058837890625 -2220.65576171875 -2223.686279296875 -2226.039794921875 -2227.72119140625 -2228.7177734375 -2228.88037109375 -2228.325439453125 -2227.129150390625 -2225.241943359375 -2222.419189453125 -2218.7939453125 -2214.470458984375 -2209.489013671875 -2203.90771484375 -2197.9326171875 -2192.0703125 -2186.77099609375 -2181.352783203125 -2175.157958984375 -2168.44677734375 -2160.833251953125 -2151.776123046875 -2142.3935546875 -2133.438232421875 -2125.31396484375 -2117.75048828125 -2110.6298828125 -2103.68310546875 -2096.78857421875 -2090.019775390625 -2083.387939453125 -2077.157470703125 -2071.206298828125 -2065.66455078125 -2060.397705078125 -2055.293701171875 -2050.303955078125 -2045.3853759765625 -2040.4852294921875 -2035.56982421875 -2030.6434326171875 -2025.684814453125 -2020.715087890625 -2015.78759765625 -2010.927490234375 -2006.1939697265625 -2001.6512451171875 -1997.3538818359375 -1993.3109130859375 -1989.5499267578125 -1986.145263671875 -1983.139404296875 -1980.4515380859375 -1978.3551025390625 -1976.8203125 -1975.7525634765625 -1975.23046875 -1975.580078125 -1977.206298828125 -1979.571533203125 -1983.107421875 -1988.0091552734375 -1993.7166748046875 -1999.8685302734375 -2005.8927001953125 -2010.9283447265625 -2014.9107666015625 -2018.4693603515625 -2022.0048828125 -2025.5333251953125 -2029.213134765625 -2032.9825439453125 -2037.0135498046875 -2041.22705078125 -2045.5537109375 -2049.9404296875 -2054.328857421875 -2058.589111328125 -2062.602783203125 -2066.341796875 -2069.81494140625 -2072.88818359375 -2075.654052734375 -2078.228515625 -2080.619873046875 -2082.949462890625 -2085.32470703125 -2087.81396484375 -2090.47998046875 -2093.4423828125 -2096.71923828125 -2100.267333984375 -2104.06640625 -99999 -99999 -99999 -99999 -99999 -99999 -99999 -99999 -99999 -99999 -99999 -99999 -99999 -99999 -99999 -99999 -99999 -99999 -99999 -99999
 -99999 -99999 -99999 -99999 -99999 -99999 -99999 -99999 -99999 -99999 -99999 -99999 -99999 -99999 -99999 -99999 -99999 -99999 -99999 -99999 -99999 -99999 -99999 -99999 -99999 -99999 -99999 -99999 -99999 -99999 -99999 -99999 -99999 -99999 -99999 -99999 -99999 -99999 -99999 -99999 -99999 -99999 -99999 -99999 -99999 -99999 -99999 -99999 -99999 -99999 -99999 -99999 -99999 -99999 -99999 -99999 -99999 -99999 -99999 -99999 -99999 -99999 -99999 -99999 -99999 -99999 -99999 -99999 -99999 -99999 -99999 -99999 -99999 -99999 -99999 -99999 -99999 -99999 -99999 -99999 -99999 -99999 -99999 -99999 -99999 -99999 -99999 -99999 -99999 -99999 -99999 -99999 -99999 -99999 -99999 -99999 -99999 -2081.724365234375 -2086.25537109375 -2091.78466796875 -2098.33349609375 -2105.869873046875 -2113.9150390625 -2122.31640625 -2130.945556640625 -2139.556396484375 -2148.051025390625 -2156.314697265625 -2164.268798828125 -2171.796630859375 -2178.917724609375 -2185.485107421875 -2191.52001953125 -2197.05078125 -2202.04833984375 -2206.416748046875 -2210.127685546875 -2213.302978515625 -2215.72412109375 -2217.507568359375 -2218.677490234375 -2219.226806640625 -2219.08642578125 -2218.13037109375 -2216.504638671875 -2214.216552734375 -2211.252685546875 -2207.5478515625 -2203.12060546875 -2198.33544921875 -2192.994384765625 -2187.705322265625 -2182.33984375 -2176.4677734375 -2170.021484375 -2163.43896484375 -2156.095703125 -2146.44677734375 -2136.223876953125 -2126.9775390625 -2118.566162109375 -2111.101318359375 -2104.215087890625 -2097.6875 -2091.380126953125 -2085.2177734375 -2079.299072265625 -2073.563232421875 -2068.01953125 -2062.746337890625 -2057.6123046875 -2052.603515625 -2047.6968994140625 -2042.8436279296875 -2037.990966796875 -2033.136962890625 -2028.2587890625 -2023.3717041015625 -2018.4703369140625 -2013.590087890625 -2008.795654296875 -2004.08349609375 -1999.509521484375 -1995.100830078125 -1990.9510498046875 -1987.03857421875 -1983.328125 -1980.0203857421875 -1977.011474609375 -1974.380859375 -1972.184814453125 -1970.6727294921875 -1969.819091796875 -1969.8968505859375 -1970.8447265625 -1972.578125 -1975.8948974609375 -1980.566162109375 -1986.9267578125 -1993.998291015625 -2000.6839599609375 -2006.136962890625 -2009.7586669921875 -2012.6129150390625 -2016.1197509765625 -2019.9639892578125 -2024.03466796875 -2028.3455810546875 -2032.7730712890625 -2037.2677001953125 -2041.729736328125 -2046.1279296875 -2050.37841796875 -2054.434326171875 -2058.263671875 -2061.8359375 -2065.0439453125 -2067.974365234375 -2070.74853515625 -2073.298095703125 -2075.7216796875 -2078.13330078125 -2080.572998046875 -2083.157958984375 -2085.94189453125 -2088.95166015625 -2092.17578125 -2095.683837890625 -2099.4775390625 -99999 -99999 -99999 -99999 -99999 -99999 -99999 -99999 -99999 -99999 -99999 -99999 -99999 -99999 -99999 -99999 -99999 -99999 -99999 -99999
 -99999 -99999 -99999 -99999 -99999 -99999 -99999 -99999 -99999 -99999 -99999 -99999 -99999 -99999 -99999 -99999 -99999 -99999 -99999 -99999 -99999 -99999 -99999 -99999 -99999 -99999 -99999 -99999 -99999 -99999 -99999 -99999 -99999 -99999 -99999 -99999 -99999 -99999 -99999 -99999 -99999 -99999 -99999 -99999 -99999 -99999 -99999 -99999 -99999 -99999 -99999 -99999 -99999 -99999 -99999 -99999 -99999 -99999 -99999 -99999 -99999 -99999 -99999 -99999 -99999 -99999 -99999 -99999 -99999 -99999 -99999 -99999 -99999 -99999 -99999 -99999 -99999 -99999 -99999 -99999 -99999 -99999 -99999 -99999 -99999 -99999 -99999 -99999 -99999 -99999 -99999 -99999 -99999 -99999 -99999 -99999 -99999 -2070.2802734375 -2074.6796875 -2080.39306640625 -2087.245849609375 -2094.86083984375 -2103.154052734375 -2111.682861328125 -2120.53662109375 -2129.277099609375 -2137.826904296875 -2146.105224609375 -2154.050537109375 -2161.572021484375 -2168.60546875 -2175.18798828125 -2181.24755859375 -2186.7646484375 -2191.63720703125 -2195.96337890625 -2199.7470703125 -2202.960205078125 -2205.543701171875 -2207.52001953125 -2208.874267578125 -2209.5859375 -2209.69677734375 -2209.2255859375 -2208.072265625 -2206.2158203125 -2203.746337890625 -2200.63623046875 -2196.859375 -2192.664306640625 -2188.030517578125 -2183.027587890625 -2177.568603515625 -2171.169677734375 -2163.873779296875 -2157.168212890625 -2149.438720703125 -2139.180419921875 -2128.60205078125 -2119.02880859375 -2111.010009765625 -2103.842529296875 -2097.37890625 -2091.41259765625 -2085.8427734375 -2080.383056640625 -2075.008544921875 -2069.778076171875 -2064.73095703125 -2059.682861328125 -2054.791748046875 -2049.973388671875 -2045.19775390625 -2040.42724609375 -2035.6458740234375 -2030.8719482421875 -2026.0673828125 -2021.253662109375 -2016.4442138671875 -2011.6470947265625 -2006.88232421875 -2002.2044677734375 -1997.6221923828125 -1993.1807861328125 -1988.8817138671875 -1984.734375 -1980.8189697265625 -1977.1492919921875 -1973.7528076171875 -1970.73681640625 -1968.07421875 -1965.88671875 -1964.3072509765625 -1963.756591796875 -1964.1085205078125 -1965.2978515625 -1967.8240966796875 -1972.31298828125 -1979.2843017578125 -1987.1563720703125 -1994.64013671875 -2000.418701171875 -2003.378662109375 -2005.9029541015625 -2009.303466796875 -2013.5626220703125 -2018.29541015625 -2023.468505859375 -2028.4656982421875 -2033.3548583984375 -2038.08740234375 -2042.5604248046875 -2046.763427734375 -2050.695068359375 -2054.28173828125 -2057.583984375 -2060.644287109375 -2063.484619140625 -2066.123779296875 -2068.5966796875 -2071.0498046875 -2073.486328125 -2076.002197265625 -2078.645263671875 -2081.4541015625 -2084.486572265625 -2087.7861328125 -2091.30078125 -2095.02783203125 -99999 -99999 -99999 -99999 -99999 -99999 -99999 -99999 -99999 -99999 -99999 -99999 -99999 -99999 -99999 -99999 -99999 -99999 -99999 -99999
 -99999 -99999 -99999 -99999 -99999 -99999 -99999 -99999 -99999 -99999 -99999 -99999 -99999 -99999 -99999 -99999 -99999 -99999 -99999 -99999 -99999 -99999 -99999 -99999 -99999 -99999 -99999 -99999 -99999 -99999 -99999 -99999 -99999 -99999 -99999 -99999 -99999 -99999 -99999 -99999 -99999 -99999 -99999 -99999 -99999 -99999 -99999 -99999 -99999 -99999 -99999 -99999 -99999 -99999 -99999 -99999 -99999 -99999 -99999 -99999 -99999 -99999 -99999 -99999 -99999 -99999 -99999 -99999 -99999 -99999 -99999 -99999 -99999 -99999 -99999 -99999 -99999 -99999 -99999 -99999 -99999 -99999 -99999 -99999 -99999 -99999 -99999 -99999 -99999 -99999 -99999 -99999 -99999 -99999 -99999 -99999 -99999 -2060.08642578125 -2064.350341796875 -2070.06103515625 -2077.153076171875 -2085.009033203125 -2093.445068359375 -2102.2177734375 -2111.054931640625 -2119.823486328125 -2128.3984375 -2136.615478515625 -2144.5361328125 -2151.920166015625 -2158.951416015625 -2165.383544921875 -2171.300048828125 -2176.7041015625 -2181.549560546875 -2185.878173828125 -2189.621826171875 -2192.783935546875 -2195.435302734375 -2197.52978515625 -2199.033447265625 -2199.966796875 -2200.365478515625 -2200.24169921875 -2199.531005859375 -2198.123291015625 -2196.1669921875 -2193.673828125 -2190.63427734375 -2186.918701171875 -2182.6533203125 -2177.885009765625 -2172.355712890625 -2165.92578125 -2158.001220703125 -2147.66455078125 -2139.669677734375 -2128.792724609375 -2118.8232421875 -2110.183349609375 -2102.515380859375 -2096.143310546875 -2090.42529296875 -2085.216796875 -2080.18017578125 -2075.361572265625 -2070.645263671875 -2065.959228515625 -2061.309326171875 -2056.674560546875 -2052.0322265625 -2047.37451171875 -2042.71533203125 -2038.0897216796875 -2033.4462890625 -2028.767578125 -2024.0545654296875 -2019.3551025390625 -2014.619140625 -2009.88134765625 -2005.189697265625 -2000.548583984375 -1995.96435546875 -1991.4752197265625 -1987.105712890625 -1982.8494873046875 -1978.7169189453125 -1974.765869140625 -1970.9661865234375 -1967.37255859375 -1964.1474609375 -1961.4520263671875 -1959.3292236328125 -1957.826171875 -1957.1014404296875 -1957.4365234375 -1959.1158447265625 -1962.824462890625 -1969.8782958984375 -1978.7725830078125 -1986.04736328125 -1990.556640625 -1993.7039794921875 -1996.4013671875 -2000.88330078125 -2006.4959716796875 -2012.5223388671875 -2018.486572265625 -2024.2962646484375 -2029.79443359375 -2034.7301025390625 -2039.3121337890625 -2043.44921875 -2047.1968994140625 -2050.57177734375 -2053.723388671875 -2056.582275390625 -2059.20166015625 -2061.69677734375 -2064.122314453125 -2066.527099609375 -2068.95068359375 -2071.489501953125 -2074.166015625 -2077.05810546875 -2080.14208984375 -2083.433837890625 -2086.957275390625 -2090.680908203125 -99999 -99999 -99999 -99999 -99999 -99999 -99999 -99999 -99999 -99999 -99999 -99999 -99999 -99999 -99999 -99999 -99999 -99999 -99999 -99999
 -99999 -99999 -99999 -99999 -99999 -99999 -99999 -99999 -99999 -99999 -99999 -99999 -99999 -99999 -99999 -99999 -99999 -99999 -99999 -99999 -99999 -99999 -99999 -99999 -99999 -99999 -99999 -99999 -99999 -99999 -99999 -99999 -99999 -99999 -99999 -99999 -99999 -99999 -99999 -99999 -99999 -99999 -99999 -99999 -99999 -99999 -99999 -99999 -99999 -99999 -99999 -99999 -99999 -99999 -99999 -99999 -99999 -99999 -99999 -99999 -99999 -99999 -99999 -99999 -99999 -99999 -99999 -99999 -99999 -99999 -99999 -99999 -99999 -99999 -99999 -99999 -99999 -99999 -99999 -99999 -99999 -99999 -99999 -99999 -99999 -99999 -99999 -99999 -99999 -99999 -99999 -99999 -99999 -99999 -99999 -2047.5250244140625 -2048.5673828125 -2051.05126953125 -2055.356201171875 -2061.306396484375 -2068.40966796875 -2076.600341796875 -2085.12841796875 -2093.861328125 -2102.767578125 -2111.481689453125 -2119.876708984375 -2127.977294921875 -2135.645751953125 -2142.92822265625 -2149.717041015625 -2156.022216796875 -2161.815185546875 -2167.04931640625 -2171.799560546875 -2175.98388671875 -2179.670654296875 -2182.822021484375 -2185.478759765625 -2187.624267578125 -2189.283447265625 -2190.481201171875 -2191.093994140625 -2191.23583984375 -2190.884033203125 -2190.053955078125 -2188.627685546875 -2186.5234375 -2183.89404296875 -2180.703125 -2176.822998046875 -2172.211669921875 -2166.78662109375 -2160.25146484375 -2151.78857421875 -2140.505126953125 -2128.2958984375 -2117.715576171875 -2108.665771484375 -2100.77880859375 -2094.035888671875 -2088.360107421875 -2083.3017578125 -2078.8701171875 -2074.68896484375 -2070.5712890625 -2066.45849609375 -2062.323486328125 -2058.018310546875 -2053.630615234375 -2049.216796875 -2044.79931640625 -2040.35400390625 -2035.8477783203125 -2031.3043212890625 -2026.7584228515625 -2022.1773681640625 -2017.5556640625 -2012.9376220703125 -2008.321044921875 -2003.692626953125 -1999.0908203125 -1994.537353515625 -1990.0484619140625 -1985.608642578125 -1981.2490234375 -1976.933349609375 -1972.6796875 -1968.589111328125 -1964.6622314453125 -1960.89453125 -1957.3941650390625 -1954.4132080078125 -1952.2764892578125 -1950.9150390625 -1950.4583740234375 -1950.989990234375 -1952.45361328125 -1959.2652587890625 -1968.7952880859375 -1972.9879150390625 -1976.408935546875 -1980.1024169921875 -1985.4534912109375 -1991.8089599609375 -1998.7164306640625 -2006.217529296875 -2013.6712646484375 -2020.5306396484375 -2026.5389404296875 -2031.7877197265625 -2036.43212890625 -2040.4627685546875 -2044.068115234375 -2047.24169921875 -2050.050537109375 -2052.65576171875 -2055.121337890625 -2057.48046875 -2059.771240234375 -2062.088623046875 -2064.497802734375 -2067.043701171875 -2069.7314453125 -2072.643798828125 -2075.783935546875 -2079.1181640625 -2082.6796875 -2086.4150390625 -99999 -99999 -99999 -99999 -99999 -99999 -99999 -99999 -99999 -99999 -99999 -99999 -99999 -99999 -99999 -99999 -99999 -99999 -99999 -99999
 -99999 -99999 -99999 -99999 -99999 -99999 -99999 -99999 -99999 -99999 -99999 -99999 -99999 -99999 -99999 -99999 -99999 -99999 -99999 -99999 -99999 -99999 -99999 -99999 -99999 -99999 -99999 -99999 -99999 -99999 -99999 -99999 -99999 -99999 -99999 -99999 -99999 -99999 -99999 -99999 -99999 -99999 -99999 -99999 -99999 -99999 -99999 -99999 -99999 -99999 -99999 -99999 -99999 -99999 -99999 -99999 -99999 -99999 -99999 -99999 -99999 -99999 -99999 -99999 -99999 -99999 -99999 -99999 -99999 -99999 -99999 -99999 -99999 -99999 -99999 -99999 -99999 -99999 -99999 -99999 -99999 -99999 -99999 -99999 -99999 -99999 -99999 -99999 -99999 -99999 -99999 -99999 -99999 -2042.8865966796875 -2041.560791015625 -2040.9056396484375 -2041.2254638671875 -2043.5518798828125 -2047.7371826171875 -2053.85498046875 -2061.3955078125 -2069.684814453125 -2078.256103515625 -2086.875 -2095.506103515625 -2104.04736328125 -2112.228515625 -2120.139404296875 -2127.580810546875 -2134.59130859375 -2141.078125 -2147.13720703125 -2152.675537109375 -2157.77490234375 -2162.31787109375 -2166.34765625 -2169.958251953125 -2173.025146484375 -2175.6494140625 -2177.799560546875 -2179.530029296875 -2180.840576171875 -2181.727294921875 -2182.1962890625 -2182.142333984375 -2181.6533203125 -2180.6494140625 -2179.11376953125 -2176.951416015625 -2173.973388671875 -2170.271484375 -2165.75341796875 -2160.416259765625 -2153.313232421875 -2143.991455078125 -2132.5556640625 -2119.74658203125 -2108.509521484375 -2098.995849609375 -2091.395263671875 -2085.40234375 -2080.685302734375 -2076.690673828125 -2073.03662109375 -2069.601318359375 -2066.13427734375 -2062.4697265625 -2058.658447265625 -2054.719970703125 -2050.686767578125 -2046.515380859375 -2042.2540283203125 -2037.947021484375 -2033.614013671875 -2029.2513427734375 -2024.81494140625 -2020.3828125 -2015.913818359375 -2011.392578125 -2006.855224609375 -2002.3291015625 -1997.8255615234375 -1993.3314208984375 -1988.855712890625 -1984.40234375 -1979.9708251953125 -1975.5703125 -1971.1861572265625 -1966.7779541015625 -1962.3599853515625 -1958.1346435546875 -1954.139892578125 -1950.4932861328125 -1947.2874755859375 -1945.0458984375 -1944.3138427734375 -1944.6329345703125 -1945.82373046875 -1948.8955078125 -1952.27783203125 -1955.8123779296875 -1959.1298828125 -1964.5423583984375 -1972.834228515625 -1982.040771484375 -1991.5894775390625 -2001.064697265625 -2009.6815185546875 -2017.2664794921875 -2023.887451171875 -2029.3570556640625 -2033.9993896484375 -2037.88916015625 -2041.16357421875 -2044.0333251953125 -2046.621826171875 -2048.986328125 -2051.158935546875 -2053.276611328125 -2055.45751953125 -2057.70068359375 -2060.046875 -2062.566650390625 -2065.29150390625 -2068.2373046875 -2071.394287109375 -2074.804443359375 -2078.408203125 -2082.17919921875 -2086.116455078125 -99999 -99999 -99999 -99999 -99999 -99999 -99999 -99999 -99999 -99999 -99999 -99999 -99999 -99999 -99999 -99999 -99999 -99999 -99999
 -99999 -99999 -99999 -99999 -99999 -99999 -99999 -99999 -99999 -99999 -99999 -99999 -99999 -99999 -99999 -99999 -99999 -99999 -99999 -99999 -99999 -99999 -99999 -99999 -99999 -99999 -99999 -99999 -99999 -99999 -99999 -99999 -99999 -99999 -99999 -99999 -99999 -99999 -99999 -99999 -99999 -99999 -99999 -99999 -99999 -99999 -99999 -99999 -99999 -99999 -99999 -99999 -99999 -99999 -99999 -99999 -99999 -99999 -99999 -99999 -99999 -99999 -99999 -99999 -99999 -99999 -99999 -99999 -99999 -99999 -99999 -99999 -99999 -99999 -99999 -99999 -99999 -99999 -99999 -99999 -99999 -99999 -99999 -99999 -99999 -99999 -99999 -99999 -99999 -99999 -99999 -2042.193115234375 -2040.2784423828125 -2038.580322265625 -2037.15966796875 -2036.23486328125 -2036.1688232421875 -2037.512451171875 -2041.879638671875 -2048.637451171875 -2056.400390625 -2064.5400390625 -2073.01171875 -2081.3564453125 -2089.650390625 -2097.789306640625 -2105.566650390625 -2113.014404296875 -2120.171875 -2126.802734375 -2132.99560546875 -2138.802734375 -2144.12841796875 -2148.8583984375 -2153.140625 -2157.00146484375 -2160.41845703125 -2163.37939453125 -2165.85400390625 -2168.036865234375 -2169.7900390625 -2171.171875 -2172.18408203125 -2172.85693359375 -2173.1640625 -2173.09716796875 -2172.418701171875 -2171.184814453125 -2169.343994140625 -2166.771484375 -2163.224609375 -2158.447509765625 -2152.692626953125 -2144.890380859375 -2135.3857421875 -2124.132568359375 -2112.255615234375 -2100.882080078125 -2090.756591796875 -2082.838134765625 -2077.927978515625 -2073.781005859375 -2070.481689453125 -2067.623779296875 -2064.8193359375 -2061.86181640625 -2058.709228515625 -2055.291259765625 -2051.583251953125 -2047.716552734375 -2043.744140625 -2039.6993408203125 -2035.59326171875 -2031.4093017578125 -2027.191162109375 -2022.9345703125 -2018.62841796875 -2014.2823486328125 -2009.9114990234375 -2005.5341796875 -2001.1185302734375 -1996.6942138671875 -1992.280029296875 -1987.88232421875 -1983.4501953125 -1979.06494140625 -1974.6185302734375 -1970.10888671875 -1965.533203125 -1960.9173583984375 -1956.2686767578125 -1951.522216796875 -1947.0853271484375 -1943.1580810546875 -1940.0325927734375 -1938.466796875 -1939.121337890625 -1940.2838134765625 -1939.7255859375 -1936.5037841796875 -1937.65673828125 -1942.017578125 -1950.2628173828125 -1960.9512939453125 -1973.16552734375 -1985.6092529296875 -1996.8394775390625 -2006.9217529296875 -2015.4095458984375 -2022.0396728515625 -2027.66455078125 -2031.9896240234375 -2035.549072265625 -2038.555908203125 -2041.12060546875 -2043.26513671875 -2045.2760009765625 -2047.2242431640625 -2049.15673828125 -2051.146484375 -2053.234130859375 -2055.54541015625 -2058.056640625 -2060.780029296875 -2063.73828125 -2066.9755859375 -2070.3896484375 -2074.10888671875 -2077.970458984375 -2081.96240234375 -99999 -99999 -99999 -99999 -99999 -99999 -99999 -99999 -99999 -99999 -99999 -99999 -99999 -99999 -99999 -99999 -99999 -99999 -99999
 -99999 -99999 -99999 -99999 -99999 -99999 -99999 -99999 -99999 -99999 -99999 -99999 -99999 -99999 -99999 -99999 -99999 -99999 -99999 -99999 -99999 -99999 -99999 -99999 -99999 -99999 -99999 -99999 -99999 -99999 -99999 -99999 -99999 -99999 -99999 -99999 -99999 -99999 -99999 -99999 -99999 -99999 -99999 -99999 -99999 -99999 -99999 -99999 -99999 -99999 -99999 -99999 -99999 -99999 -99999 -99999 -99999 -99999 -99999 -99999 -99999 -99999 -99999 -99999 -99999 -99999 -99999 -99999 -99999 -99999 -99999 -99999 -99999 -99999 -99999 -99999 -99999 -99999 -99999 -99999 -99999 -99999 -99999 -99999 -99999 -99999 -99999 -99999 -99999 -2042.590576171875 -2040.7454833984375 -2039.0709228515625 -2037.4927978515625 -2036.0765380859375 -2034.8660888671875 -2033.925048828125 -2033.42431640625 -2034.63623046875 -2039.090576171875 -2045.9619140625 -2053.6171875 -2061.46044921875 -2069.203369140625 -2077.197509765625 -2084.915771484375 -2092.47900390625 -2099.835693359375 -2106.858154296875 -2113.439453125 -2119.683349609375 -2125.5673828125 -2130.902587890625 -2135.80615234375 -2140.308837890625 -2144.406982421875 -2147.958984375 -2151.073486328125 -2153.815673828125 -2156.2099609375 -2158.26708984375 -2159.97412109375 -2161.417236328125 -2162.559326171875 -2163.37939453125 -2163.888427734375 -2164.033447265625 -2163.753662109375 -2162.93798828125 -2161.356689453125 -2159.018310546875 -2155.4716796875 -2150.2216796875 -2143.8798828125 -2136.204345703125 -2126.857177734375 -2116.187744140625 -2105.071044921875 -2094.187744140625 -2084.662109375 -2077.200439453125 -2071.70361328125 -2067.8525390625 -2065.088623046875 -2062.859375 -2060.6923828125 -2058.12353515625 -2055.203369140625 -2051.97509765625 -2048.481201171875 -2044.8045654296875 -2040.9771728515625 -2037.0816650390625 -2033.1318359375 -2029.136474609375 -2025.075439453125 -2021.0126953125 -2016.8914794921875 -2012.7103271484375 -2008.4859619140625 -2004.225341796875 -1999.9473876953125 -1995.6754150390625 -1991.38525390625 -1987.0904541015625 -1982.7901611328125 -1978.4544677734375 -1974.0557861328125 -1969.5758056640625 -1964.972900390625 -1960.179931640625 -1955.18896484375 -1950.0989990234375 -1944.973876953125 -1939.9722900390625 -1935.682373046875 -1932.4635009765625 -1932.9337158203125 -1932.998046875 -1930.858642578125 -1927.565185546875 -1925.5238037109375 -1928.7196044921875 -1938.6600341796875 -1952.195556640625 -1967.5364990234375 -1982.3043212890625 -1995.13232421875 -2005.7022705078125 -2014.2264404296875 -2021.32666015625 -2026.607421875 -2030.4537353515625 -2033.6627197265625 -2036.06689453125 -2038.127197265625 -2039.9481201171875 -2041.6258544921875 -2043.238037109375 -2044.9033203125 -2046.7406005859375 -2048.7236328125 -2050.93359375 -2053.37744140625 -2056.15234375 -2059.19580078125 -2062.48681640625 -2066.0048828125 -2069.756103515625 -2073.68896484375 -2077.797607421875 -2081.9814453125 -99999 -99999 -99999 -99999 -99999 -99999 -99999 -99999 -99999 -99999 -99999 -99999 -99999 -99999 -99999 -99999 -99999 -99999
 -99999 -99999 -99999 -99999 -99999 -99999 -99999 -99999 -99999 -99999 -99999 -99999 -99999 -99999 -99999 -99999 -99999 -99999 -99999 -99999 -99999 -99999 -99999 -99999 -99999 -99999 -99999 -99999 -99999 -99999 -99999 -99999 -99999 -99999 -99999 -99999 -99999 -99999 -99999 -99999 -99999 -99999 -99999 -99999 -99999 -99999 -99999 -99999 -99999 -99999 -99999 -99999 -99999 -99999 -99999 -99999 -99999 -99999 -99999 -99999 -99999 -99999 -99999 -99999 -99999 -99999 -99999 -99999 -99999 -99999 -99999 -99999 -99999 -99999 -99999 -99999 -99999 -99999 -99999 -99999 -99999 -99999 -99999 -99999 -99999 -99999 -99999 -2042.8419189453125 -2041.1514892578125 -2039.633056640625 -2038.25732421875 -2037.0399169921875 -2035.998046875 -2035.1590576171875 -2034.614501953125 -2034.365966796875 -2034.6988525390625 -2036.2120361328125 -2040.2550048828125 -2046.5047607421875 -2053.263427734375 -2060.275634765625 -2067.35595703125 -2074.340576171875 -2081.351806640625 -2088.220703125 -2094.892333984375 -2101.294677734375 -2107.4052734375 -2113.213623046875 -2118.51904296875 -2123.5029296875 -2128.08349609375 -2132.16455078125 -2135.808837890625 -2139.06884765625 -2142.006591796875 -2144.51904296875 -2146.650634765625 -2148.491943359375 -2150.09228515625 -2151.478759765625 -2152.66943359375 -2153.599853515625 -2154.288330078125 -2154.6650390625 -2154.63818359375 -2154.051513671875 -2152.611328125 -2150.51171875 -2147.073486328125 -2141.99365234375 -2135.24658203125 -2127.2080078125 -2118.37890625 -2108.43994140625 -2098.288818359375 -2088.53271484375 -2079.604248046875 -2072.276611328125 -2066.745849609375 -2062.411376953125 -2060.59912109375 -2058.912353515625 -2057.010498046875 -2054.7412109375 -2052.028076171875 -2048.816162109375 -2045.3416748046875 -2041.7509765625 -2038.0753173828125 -2034.353515625 -2030.588134765625 -2026.7730712890625 -2022.9395751953125 -2019.0443115234375 -2015.0921630859375 -2011.0885009765625 -2007.0372314453125 -2002.939208984375 -1998.81591796875 -1994.685791015625 -1990.5518798828125 -1986.4169921875 -1982.2532958984375 -1978.0989990234375 -1973.8702392578125 -1969.5101318359375 -1964.958251953125 -1960.2119140625 -1955.190185546875 -1949.814208984375 -1944.1282958984375 -1938.0888671875 -1931.9486083984375 -1927.4149169921875 -1925.760986328125 -1926.345458984375 -1924.767333984375 -1922.5003662109375 -1921.9013671875 -1925.0780029296875 -1933.3377685546875 -1948.4744873046875 -1965.5220947265625 -1982.5147705078125 -1995.606201171875 -2006.822265625 -2015.1666259765625 -2021.2093505859375 -2025.8536376953125 -2029.2066650390625 -2031.6636962890625 -2033.6239013671875 -2035.2103271484375 -2036.5472412109375 -2037.810302734375 -2039.1209716796875 -2040.543701171875 -2042.1351318359375 -2043.9854736328125 -2046.1593017578125 -2048.6201171875 -2051.389892578125 -2054.4443359375 -2057.84423828125 -2061.524658203125 -2065.4111328125 -2069.4384765625 -2073.624267578125 -2077.9326171875 -99999 -99999 -99999 -99999 -99999 -99999 -99999 -99999 -99999 -99999 -99999 -99999 -99999 -99999 -99999 -99999 -99999 -99999
 -99999 -99999 -99999 -99999 -99999 -99999 -99999 -99999 -99999 -99999 -99999 -99999 -99999 -99999 -99999 -99999 -99999 -99999 -99999 -99999 -99999 -99999 -99999 -99999 -99999 -99999 -99999 -99999 -99999 -99999 -99999 -99999 -99999 -99999 -99999 -99999 -99999 -99999 -99999 -99999 -99999 -99999 -99999 -99999 -99999 -99999 -99999 -99999 -99999 -99999 -99999 -99999 -99999 -99999 -99999 -99999 -99999 -99999 -99999 -99999 -99999 -99999 -99999 -99999 -99999 -99999 -99999 -99999 -99999 -99999 -99999 -99999 -99999 -99999 -99999 -99999 -99999 -99999 -99999 -99999 -99999 -99999 -99999 -99999 -99999 -2042.762939453125 -2041.0888671875 -2039.6533203125 -2038.4002685546875 -2037.3458251953125 -2036.510009765625 -2035.8624267578125 -2035.632568359375 -2035.7332763671875 -2036.199462890625 -2037.0584716796875 -2038.308349609375 -2040.8355712890625 -2044.659912109375 -2049.485107421875 -2054.955810546875 -2060.799072265625 -2066.6591796875 -2072.650634765625 -2078.72998046875 -2084.73779296875 -2090.655029296875 -2096.4384765625 -2102.040283203125 -2107.205810546875 -2111.99609375 -2116.5673828125 -2120.6171875 -2124.3427734375 -2127.669677734375 -2130.634765625 -2133.130615234375 -2135.274169921875 -2137.139404296875 -2138.77099609375 -2140.175048828125 -2141.414306640625 -2142.513916015625 -2143.498046875 -2144.35595703125 -2144.92041015625 -2145.0498046875 -2144.531494140625 -2143.150390625 -2140.89892578125 -2137.742919921875 -2132.431884765625 -2125.88232421875 -2118.41259765625 -2109.854736328125 -2100.905029296875 -2091.698974609375 -2082.72216796875 -2074.688232421875 -2068.025390625 -2062.718017578125 -2059.419189453125 -2057.296875 -2055.709228515625 -2054.002197265625 -2051.681640625 -2048.853515625 -2045.5009765625 -2042.0294189453125 -2038.468505859375 -2034.9290771484375 -2031.3916015625 -2027.8511962890625 -2024.2423095703125 -2020.6331787109375 -2016.96240234375 -2013.2054443359375 -2009.3773193359375 -2005.50048828125 -2001.5836181640625 -1997.636962890625 -1993.6607666015625 -1989.7149658203125 -1985.783935546875 -1981.84814453125 -1977.9072265625 -1973.9327392578125 -1969.87744140625 -1965.6566162109375 -1961.1099853515625 -1956.197021484375 -1950.8831787109375 -1945.185791015625 -1939.2252197265625 -1932.58935546875 -1926.2655029296875 -1924.3577880859375 -1923.5667724609375 -1922.832275390625 -1922.393798828125 -1923.1258544921875 -1927.5516357421875 -1936.04296875 -1951.3284912109375 -1968.9957275390625 -1986.0462646484375 -1999.166015625 -2009.4713134765625 -2016.8450927734375 -2022.025390625 -2025.65966796875 -2027.998291015625 -2029.7613525390625 -2031.0811767578125 -2032.05029296875 -2032.9110107421875 -2033.7615966796875 -2034.705810546875 -2035.8873291015625 -2037.320556640625 -2039.05419921875 -2041.113037109375 -2043.5302734375 -2046.3917236328125 -2049.56884765625 -2053.088134765625 -2056.877685546875 -2060.901123046875 -2065.147705078125 -2069.46240234375 -2073.876708984375 -99999 -99999 -99999 -99999 -99999 -99999 -99999 -99999 -99999 -99999 -99999 -99999 -99999 -99999 -99999 -99999 -99999 -99999
 -99999 -99999 -99999 -99999 -99999 -99999 -99999 -99999 -99999 -99999 -99999 -99999 -99999 -99999 -99999 -99999 -99999 -99999 -99999 -99999 -99999 -99999 -99999 -99999 -99999 -99999 -99999 -99999 -99999 -99999 -99999 -99999 -99999 -99999 -99999 -99999 -99999 -99999 -99999 -99999 -99999 -99999 -99999 -99999 -99999 -99999 -99999 -99999 -99999 -99999 -99999 -99999 -99999 -99999 -99999 -99999 -99999 -99999 -99999 -99999 -99999 -99999 -99999 -99999 -99999 -99999 -99999 -99999 -99999 -99999 -99999 -99999 -99999 -99999 -99999 -99999 -99999 -99999 -99999 -99999 -99999 -99999 -2044.4464111328125 -2042.488525390625 -2040.71337890625 -2039.197998046875 -2037.8934326171875 -2036.8134765625 -2035.9415283203125 -2035.342041015625 -2035.1571044921875 -2035.3359375 -2035.931396484375 -2036.89208984375 -2038.44580078125 -2040.7779541015625 -2043.66357421875 -2046.7529296875 -2050.281494140625 -2054.124755859375 -2057.874755859375 -2061.968994140625 -2066.46435546875 -2071.35107421875 -2076.527099609375 -2081.792724609375 -2087.043701171875 -2092.0732421875 -2096.93994140625 -2101.591064453125 -2106.016357421875 -2110.0419921875 -2113.695556640625 -2116.931884765625 -2119.791259765625 -2122.277099609375 -2124.421875 -2126.263427734375 -2127.819580078125 -2129.0625 -2130.154541015625 -2131.151123046875 -2132.109130859375 -2133.037841796875 -2133.882568359375 -2134.606689453125 -2135.08251953125 -2134.778564453125 -2133.28955078125 -2130.673583984375 -2127.123291015625 -2122.489013671875 -2116.404052734375 -2109.278564453125 -2101.541259765625 -2093.18359375 -2084.987060546875 -2077.0556640625 -2069.88671875 -2064.033447265625 -2059.32666015625 -2055.990478515625 -2054.05322265625 -2052.58544921875 -2050.99658203125 -2048.810546875 -2045.5941162109375 -2041.9017333984375 -2038.240478515625 -2034.8062744140625 -2031.480712890625 -2028.1373291015625 -2024.8348388671875 -2021.53271484375 -2018.1143798828125 -2014.67431640625 -2011.1539306640625 -2007.548828125 -2003.851318359375 -2000.0699462890625 -1996.3021240234375 -1992.5433349609375 -1988.809814453125 -1985.0826416015625 -1981.4139404296875 -1977.7879638671875 -1974.08056640625 -1970.380615234375 -1966.59716796875 -1962.608642578125 -1958.11865234375 -1953.0325927734375 -1947.4464111328125 -1941.5584716796875 -1935.3929443359375 -1930.095947265625 -1926.55517578125 -1924.9375 -1924.4466552734375 -1925.1629638671875 -1928.1827392578125 -1933.783203125 -1943.596923828125 -1958.25830078125 -1975.123291015625 -1991.0809326171875 -2004.447509765625 -2013.6370849609375 -2019.561279296875 -2022.7098388671875 -2024.853515625 -2026.4356689453125 -2027.4505615234375 -2028.0953369140625 -2028.5445556640625 -2028.9468994140625 -2029.4034423828125 -2030.0213623046875 -2030.9232177734375 -2032.1307373046875 -2033.765625 -2035.820068359375 -2038.2940673828125 -2041.16943359375 -2044.439208984375 -2048.094970703125 -2052.10986328125 -2056.36865234375 -2060.80322265625 -2065.322509765625 -2069.8056640625 -2074.4287109375 -99999 -99999 -99999 -99999 -99999 -99999 -99999 -99999 -99999 -99999 -99999 -99999 -99999 -99999 -99999 -99999 -99999
 -99999 -99999 -99999 -99999 -99999 -99999 -99999 -99999 -99999 -99999 -99999 -99999 -99999 -99999 -99999 -99999 -99999 -99999 -99999 -99999 -99999 -99999 -99999 -99999 -99999 -99999 -99999 -99999 -99999 -99999 -99999 -99999 -99999 -99999 -99999 -99999 -99999 -99999 -99999 -99999 -99999 -99999 -99999 -99999 -99999 -99999 -99999 -99999 -99999 -99999 -99999 -99999 -99999 -99999 -99999 -99999 -99999 -99999 -99999 -99999 -99999 -99999 -99999 -99999 -99999 -99999 -99999 -99999 -99999 -99999 -99999 -99999 -99999 -99999 -99999 -99999 -99999 -99999 -99999 -99999 -2044.585693359375 -2042.3487548828125 -2040.3431396484375 -2038.6014404296875 -2037.0908203125 -2035.816650390625 -2034.7659912109375 -2034.0345458984375 -2033.6754150390625 -2033.6595458984375 -2034.0030517578125 -2034.727783203125 -2036.098388671875 -2038.205810546875 -2041.0653076171875 -2044.67431640625 -2048.860595703125 -2053.587158203125 -2056.66259765625 -2058.429931640625 -2060.634033203125 -2063.471435546875 -2066.718505859375 -2070.44189453125 -2074.741943359375 -2079.10400390625 -2083.520263671875 -2087.966064453125 -2092.337158203125 -2096.417236328125 -2100.204345703125 -2103.699462890625 -2106.917236328125 -2109.81201171875 -2112.188232421875 -2114.3095703125 -2116.02880859375 -2117.403564453125 -2118.487548828125 -2119.399169921875 -2120.142578125 -2120.81201171875 -2121.487060546875 -2122.243896484375 -2123.039306640625 -2123.802001953125 -2124.37158203125 -2124.252685546875 -2122.92236328125 -2120.2841796875 -2116.70458984375 -2112.1337890625 -2106.439453125 -2099.9482421875 -2092.897705078125 -2085.5771484375 -2078.122314453125 -2071.0087890625 -2064.8056640625 -2059.3779296875 -2055.145751953125 -2052.299560546875 -2050.32861328125 -2049.039306640625 -2047.855712890625 -2045.8128662109375 -2041.619140625 -2037.3076171875 -2033.784423828125 -2030.5675048828125 -2027.5186767578125 -2024.528564453125 -2021.4710693359375 -2018.4619140625 -2015.401123046875 -2012.2459716796875 -2008.904541015625 -2005.4715576171875 -2001.959228515625 -1998.3907470703125 -1994.8011474609375 -1991.195068359375 -1987.6480712890625 -1984.1708984375 -1980.7646484375 -1977.4508056640625 -1974.18505859375 -1970.9681396484375 -1967.6787109375 -1964.2232666015625 -1960.5296630859375 -1955.8531494140625 -1950.42919921875 -1944.6177978515625 -1938.786376953125 -1933.776123046875 -1930.3079833984375 -1928.662109375 -1928.587158203125 -1930.2191162109375 -1933.8145751953125 -1940.6090087890625 -1951.0167236328125 -1964.9422607421875 -1980.9727783203125 -1996.91162109375 -2009.610595703125 -2017.105712890625 -2020.52978515625 -2022.2872314453125 -2023.497802734375 -2024.217529296875 -2024.552001953125 -2024.684814453125 -2024.6148681640625 -2024.5894775390625 -2024.6473388671875 -2024.8590087890625 -2025.5458984375 -2026.60791015625 -2028.1339111328125 -2030.2010498046875 -2032.7080078125 -2035.6553955078125 -2039.1241455078125 -2042.993408203125 -2047.2120361328125 -2051.67626953125 -2056.327392578125 -2061.12060546875 -2065.865478515625 -2070.486328125 -99999 -99999 -99999 -99999 -99999 -99999 -99999 -99999 -99999 -99999 -99999 -99999 -99999 -99999 -99999 -99999 -99999
 -99999 -99999 -99999 -99999 -99999 -99999 -99999 -99999 -99999 -99999 -99999 -99999 -99999 -99999 -99999 -99999 -99999 -99999 -99999 -99999 -99999 -99999 -99999 -99999 -99999 -99999 -99999 -99999 -99999 -99999 -99999 -99999 -99999 -99999 -99999 -99999 -99999 -99999 -99999 -99999 -99999 -99999 -99999 -99999 -99999 -99999 -99999 -99999 -99999 -99999 -99999 -99999 -99999 -99999 -99999 -99999 -99999 -99999 -99999 -99999 -99999 -99999 -99999 -99999 -99999 -99999 -99999 -99999 -99999 -99999 -99999 -99999 -99999 -99999 -99999 -99999 -99999 -99999 -2045.280517578125 -2042.6712646484375 -2040.3126220703125 -2038.21923828125 -2036.37255859375 -2034.7808837890625 -2033.4378662109375 -2032.4273681640625 -2031.7578125 -2031.41015625 -2031.3826904296875 -2031.72265625 -2032.62255859375 -2034.0753173828125 -2036.1085205078125 -2038.8294677734375 -2042.365234375 -2047.202880859375 -2052.86572265625 -2058.427490234375 -2061.17041015625 -2061.8017578125 -2062.39697265625 -2063.803955078125 -2066.197265625 -2069.189208984375 -2072.61767578125 -2076.43408203125 -2080.34326171875 -2084.138916015625 -2087.810302734375 -2091.37548828125 -2094.72216796875 -2097.83154296875 -2100.492919921875 -2102.8310546875 -2104.861328125 -2106.572265625 -2107.943359375 -2108.818115234375 -2109.44091796875 -2109.85986328125 -2110.1845703125 -2110.4365234375 -2110.733154296875 -2111.220703125 -2111.820556640625 -2112.44677734375 -2112.994384765625 -2113.021728515625 -2111.751953125 -2109.255126953125 -2105.83251953125 -2101.534912109375 -2096.380859375 -2090.59033203125 -2084.15478515625 -2077.377197265625 -2070.90234375 -2064.591552734375 -2058.910400390625 -2054.223388671875 -2050.405029296875 -2047.575927734375 -2045.52197265625 -2044.2313232421875 -2043.16064453125 -2041.1204833984375 -2036.03515625 -2031.177490234375 -2028.4342041015625 -2025.9395751953125 -2023.21923828125 -2020.5128173828125 -2017.84521484375 -2015.136474609375 -2012.3358154296875 -2009.441650390625 -2006.4053955078125 -2003.1962890625 -1999.817626953125 -1996.3741455078125 -1992.935546875 -1989.566162109375 -1986.281494140625 -1983.0159912109375 -1979.952880859375 -1976.9427490234375 -1973.9571533203125 -1971.05712890625 -1968.369384765625 -1965.92578125 -1963.03515625 -1959.135009765625 -1953.525390625 -1947.7733154296875 -1942.4869384765625 -1937.9732666015625 -1934.879638671875 -1933.3883056640625 -1933.5867919921875 -1935.7796630859375 -1940.306396484375 -1947.585205078125 -1957.80859375 -1970.3822021484375 -1984.70458984375 -1999.2001953125 -2011.2786865234375 -2017.9071044921875 -2019.83544921875 -2020.365478515625 -2020.581787109375 -2020.8929443359375 -2020.935302734375 -2020.707763671875 -2020.2052001953125 -2019.6373291015625 -2019.2802734375 -2019.360595703125 -2019.8270263671875 -2020.7799072265625 -2022.2607421875 -2024.2882080078125 -2026.7552490234375 -2029.9554443359375 -2033.57177734375 -2037.607421875 -2042.0826416015625 -2046.9178466796875 -2051.907958984375 -2056.921142578125 -2061.856689453125 -2066.651123046875 -2071.367919921875 -99999 -99999 -99999 -99999 -99999 -99999 -99999 -99999 -99999 -99999 -99999 -99999 -99999 -99999 -99999 -99999
 -99999 -99999 -99999 -99999 -99999 -99999 -99999 -99999 -99999 -99999 -99999 -99999 -99999 -99999 -99999 -99999 -99999 -99999 -99999 -99999 -99999 -99999 -99999 -99999 -99999 -99999 -99999 -99999 -99999 -99999 -99999 -99999 -99999 -99999 -99999 -99999 -99999 -99999 -99999 -99999 -99999 -99999 -99999 -99999 -99999 -99999 -99999 -99999 -99999 -99999 -99999 -99999 -99999 -99999 -99999 -99999 -99999 -99999 -99999 -99999 -99999 -99999 -99999 -99999 -99999 -99999 -99999 -99999 -99999 -99999 -99999 -99999 -99999 -99999 -99999 -99999 -2046.8353271484375 -2043.7567138671875 -2040.939697265625 -2038.3883056640625 -2036.1124267578125 -2034.0997314453125 -2032.34716796875 -2030.9364013671875 -2029.848388671875 -2029.0897216796875 -2028.656005859375 -2028.5657958984375 -2028.927490234375 -2029.7357177734375 -2031.0047607421875 -2032.784912109375 -2035.152099609375 -2038.3729248046875 -2042.4091796875 -2047.5538330078125 -2053.431640625 -2059.149658203125 -2061.843505859375 -2061.951171875 -2062.1298828125 -2063.099853515625 -2064.940673828125 -2067.415771484375 -2070.343017578125 -2073.64208984375 -2076.89453125 -2080.2587890625 -2083.531982421875 -2086.66064453125 -2089.41650390625 -2091.957275390625 -2094.248291015625 -2096.242919921875 -2097.892578125 -2099.11328125 -2099.956787109375 -2100.509033203125 -2100.75244140625 -2100.662109375 -2100.326904296875 -2099.96630859375 -2099.924072265625 -2100.129638671875 -2100.5712890625 -2100.8349609375 -2101.22119140625 -2101.147705078125 -2100.0654296875 -2097.942626953125 -2094.9150390625 -2090.928466796875 -2086.15185546875 -2080.79150390625 -2075.060791015625 -2069.061279296875 -2063.17822265625 -2057.682373046875 -2052.62353515625 -2048.231201171875 -2044.6036376953125 -2041.7945556640625 -2039.572021484375 -2037.7825927734375 -2036.004638671875 -2033.216796875 -2027.0799560546875 -2023.9241943359375 -2022.8663330078125 -2020.9964599609375 -2018.537841796875 -2016.033203125 -2013.6107177734375 -2011.3345947265625 -2009.0347900390625 -2006.433837890625 -2003.5731201171875 -2000.5107421875 -1997.2940673828125 -1994.0142822265625 -1990.7308349609375 -1987.5108642578125 -1984.385009765625 -1981.446533203125 -1978.66455078125 -1975.95947265625 -1973.3631591796875 -1970.78076171875 -1968.3792724609375 -1966.3197021484375 -1964.498291015625 -1961.378662109375 -1956.0302734375 -1950.6650390625 -1945.81201171875 -1941.9891357421875 -1939.3927001953125 -1938.19287109375 -1938.7716064453125 -1941.4912109375 -1946.2904052734375 -1953.2274169921875 -1962.735107421875 -1974.13525390625 -1986.3612060546875 -1998.58251953125 -2008.9364013671875 -2014.247314453125 -2015.999755859375 -2015.8975830078125 -2016.135009765625 -2016.6168212890625 -2016.7366943359375 -2016.0709228515625 -2015.1087646484375 -2014.2117919921875 -2013.539794921875 -2013.2913818359375 -2013.584716796875 -2014.5277099609375 -2016.0081787109375 -2018.0283203125 -2020.702880859375 -2023.94970703125 -2027.6485595703125 -2032.0689697265625 -2036.8865966796875 -2042.017333984375 -2047.3485107421875 -2052.7158203125 -2057.9560546875 -2062.873779296875 -2067.629150390625 -99999 -99999 -99999 -99999 -99999 -99999 -99999 -99999 -99999 -99999 -99999 -99999 -99999 -99999 -99999 -99999
 -99999 -99999 -99999 -99999 -99999 -99999 -99999 -99999 -99999 -99999 -99999 -99999 -99999 -99999 -99999 -99999 -99999 -99999 -99999 -99999 -99999 -99999 -99999 -99999 -99999 -99999 -99999 -99999 -99999 -99999 -99999 -99999 -99999 -99999 -99999 -99999 -99999 -99999 -99999 -99999 -99999 -99999 -99999 -99999 -99999 -99999 -99999 -99999 -99999 -99999 -99999 -99999 -99999 -99999 -99999 -99999 -99999 -99999 -99999 -99999 -99999 -99999 -99999 -99999 -99999 -99999 -99999 -99999 -99999 -99999 -99999 -99999 -99999 -99999 -2049.510498046875 -2045.88916015625 -2042.5240478515625 -2039.4385986328125 -2036.6435546875 -2034.1103515625 -2031.846435546875 -2029.929443359375 -2028.2916259765625 -2027.017333984375 -2026.099365234375 -2025.5426025390625 -2025.347900390625 -2025.5325927734375 -2026.162109375 -2027.2447509765625 -2028.8345947265625 -2030.858154296875 -2033.46142578125 -2036.6590576171875 -2040.55615234375 -2045.235107421875 -2050.94287109375 -2056.673095703125 -2059.326904296875 -2059.46435546875 -2059.43359375 -2060.63330078125 -2062.559326171875 -2064.9697265625 -2067.68994140625 -2070.563232421875 -2073.493896484375 -2076.462158203125 -2079.19873046875 -2081.828369140625 -2084.25634765625 -2086.452392578125 -2088.30810546875 -2089.79833984375 -2091.015869140625 -2091.91015625 -2092.4208984375 -2092.593505859375 -2092.29736328125 -2091.66943359375 -2090.8408203125 -2089.8994140625 -2089.024169921875 -2088.9482421875 -2089.439208984375 -2089.720703125 -2089.86083984375 -2089.580078125 -2088.55859375 -2086.566162109375 -2083.74169921875 -2080.16357421875 -2075.9365234375 -2071.076171875 -2065.8447265625 -2060.541259765625 -2055.203857421875 -2050.098876953125 -2045.489013671875 -2041.3807373046875 -2037.9241943359375 -2035.060302734375 -2032.656494140625 -2030.447265625 -2027.9217529296875 -2024.009765625 -2020.1663818359375 -2018.7159423828125 -2017.7701416015625 -2015.885986328125 -2013.3167724609375 -2010.801513671875 -2008.9736328125 -2007.1878662109375 -2005.2442626953125 -2003.0233154296875 -2000.4149169921875 -1997.463623046875 -1994.3245849609375 -1991.12890625 -1987.9510498046875 -1984.9354248046875 -1982.0147705078125 -1979.4036865234375 -1976.9915771484375 -1974.628662109375 -1972.2513427734375 -1969.8460693359375 -1967.4534912109375 -1965.4849853515625 -1963.9000244140625 -1961.1751708984375 -1957.089111328125 -1952.8720703125 -1948.942138671875 -1945.7752685546875 -1943.6885986328125 -1942.8961181640625 -1943.8780517578125 -1946.6600341796875 -1951.4779052734375 -1958.01318359375 -1966.3519287109375 -1975.775634765625 -1986.33642578125 -1996.0152587890625 -2003.726806640625 -2008.3612060546875 -2009.956298828125 -2009.7113037109375 -2010.6175537109375 -2011.962158203125 -2011.979736328125 -2011.066650390625 -2009.556396484375 -2008.0084228515625 -2007.0811767578125 -2006.7471923828125 -2006.9794921875 -2007.822265625 -2009.3572998046875 -2011.559814453125 -2014.3446044921875 -2017.6937255859375 -2021.636474609375 -2026.196044921875 -2031.3736572265625 -2036.9698486328125 -2042.87890625 -2048.634765625 -2054.04833984375 -2059.150390625 -2064.01025390625 -99999 -99999 -99999 -99999 -99999 -99999 -99999 -99999 -99999 -99999 -99999 -99999 -99999 -99999 -99999 -99999
 -99999 -99999 -99999 -99999 -99999 -99999 -99999 -99999 -99999 -99999 -99999 -99999 -99999 -99999 -99999 -99999 -99999 -99999 -99999 -99999 -99999 -99999 -99999 -99999 -99999 -99999 -99999 -99999 -99999 -99999 -99999 -99999 -99999 -99999 -99999 -99999 -99999 -99999 -99999 -99999 -99999 -99999 -99999 -99999 -99999 -99999 -99999 -99999 -99999 -99999 -99999 -99999 -99999 -99999 -99999 -99999 -99999 -99999 -99999 -99999 -99999 -99999 -99999 -99999 -99999 -99999 -99999 -99999 -99999 -99999 -99999 -99999 -2053.585693359375 -2049.339599609375 -2045.342529296875 -2041.67041015625 -2038.26171875 -2035.121337890625 -2032.2589111328125 -2029.7515869140625 -2027.5057373046875 -2025.669677734375 -2024.180908203125 -2023.064453125 -2022.2713623046875 -2021.8353271484375 -2021.8475341796875 -2022.3079833984375 -2023.166748046875 -2024.4444580078125 -2026.1204833984375 -2028.3348388671875 -2030.810546875 -2033.683837890625 -2036.8853759765625 -2040.59423828125 -2045.37060546875 -2050.684326171875 -2053.38525390625 -2053.267333984375 -2054.47802734375 -2056.636474609375 -2059.147216796875 -2061.83642578125 -2064.52783203125 -2067.236328125 -2069.90869140625 -2072.48046875 -2074.931640625 -2077.2119140625 -2079.21728515625 -2080.945556640625 -2082.419189453125 -2083.613525390625 -2084.517578125 -2085.035888671875 -2085.19775390625 -2085.000244140625 -2084.422119140625 -2083.44482421875 -2081.903564453125 -2080.088623046875 -2078.569091796875 -2077.906005859375 -2078.3984375 -2078.8564453125 -2078.816650390625 -2078.363037109375 -2077.281005859375 -2075.46044921875 -2072.877685546875 -2069.49267578125 -2065.5634765625 -2061.0947265625 -2056.365478515625 -2051.47802734375 -2046.655029296875 -2042.007080078125 -2037.7215576171875 -2033.861328125 -2030.47705078125 -2027.5567626953125 -2024.9500732421875 -2022.4097900390625 -2019.7750244140625 -2016.8883056640625 -2014.46533203125 -2013.13525390625 -2012.3323974609375 -2010.3104248046875 -2007.080322265625 -2004.794189453125 -2003.503173828125 -2002.638916015625 -2001.324951171875 -1999.2589111328125 -1996.7393798828125 -1993.8714599609375 -1990.7767333984375 -1987.634765625 -1984.6153564453125 -1981.7042236328125 -1979.121826171875 -1976.7791748046875 -1974.660888671875 -1972.7257080078125 -1970.87353515625 -1968.5208740234375 -1966.1881103515625 -1964.2376708984375 -1962.8111572265625 -1960.710693359375 -1957.70458984375 -1954.399169921875 -1951.2958984375 -1948.7371826171875 -1947.332763671875 -1947.141357421875 -1948.30615234375 -1950.9344482421875 -1955.156005859375 -1961.0736083984375 -1968.3944091796875 -1976.343505859375 -1984.694091796875 -1992.364990234375 -1998.5958251953125 -2002.7838134765625 -2004.3251953125 -2004.751708984375 -2005.9365234375 -2007.3074951171875 -2007.53076171875 -2005.4110107421875 -2003.13232421875 -2001.2877197265625 -2000.0684814453125 -1999.5765380859375 -1999.9119873046875 -2000.927978515625 -2002.57373046875 -2004.7945556640625 -2007.64208984375 -2011.2337646484375 -2015.438720703125 -2020.244140625 -2025.6392822265625 -2031.7857666015625 -2038.1497802734375 -2044.6812744140625 -2050.56298828125 -2055.6357421875 -2060.6201171875 -2065.5576171875 -99999 -99999 -99999 -99999 -99999 -99999 -99999 -99999 -99999 -99999 -99999 -99999 -99999 -99999 -99999
 -99999 -99999 -99999 -99999 -99999 -99999 -99999 -99999 -99999 -99999 -99999 -99999 -99999 -99999 -99999 -99999 -99999 -99999 -99999 -99999 -99999 -99999 -99999 -99999 -99999 -99999 -99999 -99999 -99999 -99999 -99999 -99999 -99999 -99999 -99999 -99999 -99999 -99999 -99999 -99999 -99999 -99999 -99999 -99999 -99999 -99999 -99999 -99999 -99999 -99999 -99999 -99999 -99999 -99999 -99999 -99999 -99999 -99999 -99999 -99999 -99999 -99999 -99999 -99999 -99999 -99999 -99999 -99999 -99999 -99999 -2059.28466796875 -2054.337890625 -2049.70166015625 -2045.34228515625 -2041.2427978515625 -2037.417724609375 -2033.87890625 -2030.7318115234375 -2027.83740234375 -2025.3116455078125 -2023.1826171875 -2021.3853759765625 -2019.9241943359375 -2018.817626953125 -2018.181640625 -2017.955322265625 -2018.1182861328125 -2018.675537109375 -2019.6298828125 -2021.104736328125 -2022.9422607421875 -2025.0716552734375 -2027.497802734375 -2029.9793701171875 -2032.401123046875 -2034.54638671875 -2035.786376953125 -2036.8486328125 -2039.419189453125 -2043.275390625 -2048.07177734375 -2051.906005859375 -2055.232666015625 -2058.24755859375 -2061.03515625 -2063.6689453125 -2066.132080078125 -2068.425537109375 -2070.611328125 -2072.52099609375 -2074.1650390625 -2075.60498046875 -2076.761962890625 -2077.572509765625 -2078.1044921875 -2078.357177734375 -2078.311767578125 -2077.942626953125 -2077.05859375 -2075.7021484375 -2073.877685546875 -2071.4169921875 -2068.893310546875 -2067.572021484375 -2068.06201171875 -2068.425048828125 -2068.28857421875 -2067.649169921875 -2066.434326171875 -2064.586669921875 -2061.99365234375 -2058.788818359375 -2055.12255859375 -2051.018310546875 -2046.6783447265625 -2042.17333984375 -2037.7001953125 -2033.3975830078125 -2029.3392333984375 -2025.6234130859375 -2022.3216552734375 -2019.3060302734375 -2016.6175537109375 -2014.0634765625 -2011.572021484375 -2009.20361328125 -2007.09716796875 -2005.835205078125 -2004.697265625 -2002.1829833984375 -1999.1483154296875 -1996.91455078125 -1997.762939453125 -1997.791748046875 -1996.8919677734375 -1995.0911865234375 -1992.6114501953125 -1989.61474609375 -1986.4898681640625 -1983.3289794921875 -1980.4361572265625 -1977.81640625 -1975.424072265625 -1973.3184814453125 -1971.6475830078125 -1970.3660888671875 -1969.00634765625 -1967.2755126953125 -1964.987548828125 -1963.3917236328125 -1961.802001953125 -1960.006103515625 -1957.8189697265625 -1955.380126953125 -1953.116943359375 -1951.3909912109375 -1950.4122314453125 -1950.363525390625 -1951.5125732421875 -1954.203369140625 -1958.126708984375 -1963.1942138671875 -1969.15625 -1975.8162841796875 -1982.624755859375 -1988.77197265625 -1993.5810546875 -1996.907470703125 -1998.966796875 -2000.251708984375 -2001.5948486328125 -2003.7261962890625 -2002.193603515625 -1998.924560546875 -1995.6136474609375 -1993.486083984375 -1992.4554443359375 -1992.1763916015625 -1992.5977783203125 -1993.6729736328125 -1995.459228515625 -1997.940185546875 -2001.0208740234375 -2004.6641845703125 -2008.901123046875 -2013.903564453125 -2019.69580078125 -2026.068603515625 -2033.38427734375 -2040.6221923828125 -2047.0545654296875 -2052.34814453125 -2057.409912109375 -2062.397705078125 -99999 -99999 -99999 -99999 -99999 -99999 -99999 -99999 -99999 -99999 -99999 -99999 -99999 -99999 -99999
 -99999 -99999 -99999 -99999 -99999 -99999 -99999 -99999 -99999 -99999 -99999 -99999 -99999 -99999 -99999 -99999 -99999 -99999 -99999 -99999 -99999 -99999 -99999 -99999 -99999 -99999 -99999 -99999 -99999 -99999 -99999 -99999 -99999 -99999 -99999 -99999 -99999 -99999 -99999 -99999 -99999 -99999 -99999 -99999 -99999 -99999 -99999 -99999 -99999 -99999 -99999 -99999 -99999 -99999 -99999 -99999 -99999 -99999 -99999 -99999 -99999 -99999 -99999 -99999 -99999 -99999 -99999 -99999 -2066.826904296875 -2061.1923828125 -2055.81494140625 -2050.689697265625 -2045.8370361328125 -2041.2503662109375 -2037.0181884765625 -2033.1185302734375 -2029.4930419921875 -2026.218994140625 -2023.3653564453125 -2020.8050537109375 -2018.6011962890625 -2016.781494140625 -2015.421142578125 -2014.4449462890625 -2013.8551025390625 -2013.65771484375 -2013.9002685546875 -2014.641845703125 -2015.775634765625 -2017.2828369140625 -2019.135986328125 -2021.3193359375 -2023.6895751953125 -2026.07275390625 -2028.0816650390625 -2029.16259765625 -2029.0780029296875 -2026.8961181640625 -2029.1214599609375 -2036.4935302734375 -2042.7320556640625 -2047.6697998046875 -2051.358154296875 -2054.560791015625 -2057.295166015625 -2059.82080078125 -2062.15966796875 -2064.3125 -2066.242431640625 -2067.86865234375 -2069.20068359375 -2070.3310546875 -2071.10791015625 -2071.609619140625 -2071.89208984375 -2071.943359375 -2071.6826171875 -2071.1357421875 -2070.210205078125 -2068.729736328125 -2066.784912109375 -2064.379150390625 -2061.5341796875 -2059.8896484375 -2059.28369140625 -2058.95068359375 -2058.42138671875 -2057.530029296875 -2056.001220703125 -2053.92578125 -2051.384521484375 -2048.348388671875 -2044.829833984375 -2040.8980712890625 -2036.7813720703125 -2032.5687255859375 -2028.3359375 -2024.2493896484375 -2020.3494873046875 -2016.72509765625 -2013.4725341796875 -2010.5107421875 -2007.77880859375 -2005.24365234375 -2002.8643798828125 -2000.709716796875 -1998.886474609375 -1997.180908203125 -1995.3575439453125 -1992.66015625 -1989.5772705078125 -1990.162109375 -1992.3817138671875 -1993.38037109375 -1992.2720947265625 -1990.1865234375 -1987.5408935546875 -1984.469482421875 -1981.17431640625 -1978.1910400390625 -1975.322509765625 -1972.8514404296875 -1970.800048828125 -1969.043212890625 -1967.6517333984375 -1966.77294921875 -1966.790771484375 -1965.4349365234375 -1963.7708740234375 -1962.1953125 -1960.842529296875 -1959.3533935546875 -1957.6529541015625 -1955.930908203125 -1954.33447265625 -1953.0526123046875 -1952.4644775390625 -1952.81640625 -1954.0833740234375 -1956.3236083984375 -1959.5914306640625 -1963.9619140625 -1968.985107421875 -1974.3006591796875 -1979.6424560546875 -1984.4361572265625 -1988.4696044921875 -1991.493408203125 -1993.36083984375 -1994.5426025390625 -1995.463623046875 -1995.59521484375 -1994.141845703125 -1990.0068359375 -1987.0595703125 -1985.2166748046875 -1984.33154296875 -1984.279541015625 -1985.03271484375 -1986.457275390625 -1988.4678955078125 -1991.0316162109375 -1994.171142578125 -1998.0299072265625 -2002.4932861328125 -2007.5509033203125 -2013.2694091796875 -2019.9512939453125 -2027.78125 -2036.10546875 -2042.897705078125 -2048.6748046875 -2054.021240234375 -2059.23974609375 -99999 -99999 -99999 -99999 -99999 -99999 -99999 -99999 -99999 -99999 -99999 -99999 -99999 -99999 -99999
 -99999 -99999 -99999 -99999 -99999 -99999 -99999 -99999 -99999 -99999 -99999 -99999 -99999 -99999 -99999 -99999 -99999 -99999 -99999 -99999 -99999 -99999 -99999 -99999 -99999 -99999 -99999 -99999 -99999 -99999 -99999 -99999 -99999 -99999 -99999 -99999 -99999 -99999 -99999 -99999 -99999 -99999 -99999 -99999 -99999 -99999 -99999 -99999 -99999 -99999 -99999 -99999 -99999 -99999 -99999 -99999 -99999 -99999 -99999 -99999 -99999 -99999 -99999 -99999 -99999 -99999 -2076.5107421875 -2070.084228515625 -2063.911376953125 -2057.97314453125 -2052.29541015625 -2046.92626953125 -2041.9080810546875 -2037.18359375 -2032.7713623046875 -2028.65234375 -2024.9368896484375 -2021.63427734375 -2018.6337890625 -2016.051025390625 -2013.88427734375 -2012.096435546875 -2010.6927490234375 -2009.6988525390625 -2009.1710205078125 -2009.10205078125 -2009.439208984375 -2010.18603515625 -2011.35498046875 -2012.9544677734375 -2014.92626953125 -2017.16455078125 -2019.6026611328125 -2022.079345703125 -2024.342041015625 -2026.396728515625 -2027.442626953125 -2028.666015625 -2031.8409423828125 -2035.938232421875 -2040.825927734375 -2044.73828125 -2047.8590087890625 -2050.720947265625 -2053.369140625 -2055.811279296875 -2058.03564453125 -2060.015380859375 -2061.7431640625 -2063.1865234375 -2064.326416015625 -2065.110107421875 -2065.554443359375 -2065.752685546875 -2065.75048828125 -2065.593994140625 -2065.203857421875 -2064.597412109375 -2063.72802734375 -2062.442138671875 -2060.47119140625 -2057.869140625 -2055.185302734375 -2052.891845703125 -2051.34423828125 -2050.35009765625 -2049.168701171875 -2047.71875 -2045.917236328125 -2043.75439453125 -2041.0792236328125 -2037.936279296875 -2034.4739990234375 -2030.754638671875 -2026.7706298828125 -2022.716552734375 -2018.639404296875 -2014.6622314453125 -2010.9188232421875 -2007.402099609375 -2004.126708984375 -2001.0986328125 -1998.3424072265625 -1995.8851318359375 -1993.6402587890625 -1991.632080078125 -1989.823974609375 -1988.147705078125 -1986.4271240234375 -1984.6175537109375 -1983.6119384765625 -1985.18896484375 -1988.840576171875 -1988.0574951171875 -1986.5206298828125 -1984.4344482421875 -1981.505859375 -1978.2066650390625 -1974.6683349609375 -1971.5545654296875 -1969.058837890625 -1967.0531005859375 -1965.392333984375 -1963.8642578125 -1962.605224609375 -1961.9788818359375 -1962.0865478515625 -1962.2650146484375 -1961.3338623046875 -1960.36669921875 -1959.403076171875 -1958.4119873046875 -1957.2833251953125 -1956.0244140625 -1954.9302978515625 -1954.22119140625 -1953.97265625 -1954.301025390625 -1955.4678955078125 -1957.6241455078125 -1960.396484375 -1963.84130859375 -1967.7840576171875 -1972.2657470703125 -1976.446044921875 -1980.2574462890625 -1983.4591064453125 -1985.6744384765625 -1987.0885009765625 -1987.85546875 -1988.037353515625 -1987.1025390625 -1984.5225830078125 -1980.98193359375 -1978.286865234375 -1976.8140869140625 -1976.2674560546875 -1976.5806884765625 -1977.6385498046875 -1979.276123046875 -1981.4482421875 -1984.208740234375 -1987.6907958984375 -1991.6719970703125 -1996.15966796875 -2001.2332763671875 -2006.9649658203125 -2013.6806640625 -2021.925537109375 -2030.412353515625 -2038.03515625 -2044.750244140625 -2050.599609375 -2056.056396484375 -99999 -99999 -99999 -99999 -99999 -99999 -99999 -99999 -99999 -99999 -99999 -99999 -99999 -99999 -99999
 -99999 -99999 -99999 -99999 -99999 -99999 -99999 -99999 -99999 -99999 -99999 -99999 -99999 -99999 -99999 -99999 -99999 -99999 -99999 -99999 -99999 -99999 -99999 -99999 -99999 -99999 -99999 -99999 -99999 -99999 -99999 -99999 -99999 -99999 -99999 -99999 -99999 -99999 -99999 -99999 -99999 -99999 -99999 -99999 -99999 -99999 -99999 -99999 -99999 -99999 -99999 -99999 -99999 -99999 -99999 -99999 -99999 -99999 -99999 -99999 -99999 -99999 -99999 -99999 -2088.446044921875 -2081.159912109375 -2074.179443359375 -2067.433837890625 -2060.87939453125 -2054.70849609375 -2048.800537109375 -2043.1888427734375 -2037.8856201171875 -2032.940185546875 -2028.37451171875 -2024.13427734375 -2020.3238525390625 -2016.8778076171875 -2013.8353271484375 -2011.174560546875 -2008.910888671875 -2007.10205078125 -2005.72900390625 -2004.77978515625 -2004.258056640625 -2004.1422119140625 -2004.51025390625 -2005.3232421875 -2006.572998046875 -2008.178955078125 -2010.178955078125 -2012.5006103515625 -2015.0902099609375 -2017.9005126953125 -2020.943603515625 -2024.1343994140625 -2028.0955810546875 -2033.8834228515625 -2037.50732421875 -2038.905517578125 -2039.8316650390625 -2041.789794921875 -2044.227294921875 -2046.7452392578125 -2049.184814453125 -2051.5029296875 -2053.65625 -2055.594970703125 -2057.235595703125 -2058.499755859375 -2059.36083984375 -2059.845703125 -2060.013427734375 -2059.949951171875 -2059.620361328125 -2059.183349609375 -2058.68310546875 -2058.091796875 -2057.301025390625 -2056.064208984375 -2053.967529296875 -2051.279296875 -2048.460693359375 -2045.964111328125 -2043.8670654296875 -2041.98681640625 -2040.2244873046875 -2038.4014892578125 -2036.248779296875 -2033.7108154296875 -2030.91015625 -2027.73046875 -2024.2564697265625 -2020.5037841796875 -2016.61083984375 -2012.6322021484375 -2008.682861328125 -2004.802001953125 -2001.055419921875 -1997.514892578125 -1994.24462890625 -1991.258056640625 -1988.5098876953125 -1986.0306396484375 -1983.813232421875 -1981.9439697265625 -1980.3226318359375 -1978.890869140625 -1977.801513671875 -1977.22119140625 -1977.6881103515625 -1980.1688232421875 -1981.8062744140625 -1980.346923828125 -1979.2218017578125 -1977.38330078125 -1974.241455078125 -1970.4598388671875 -1966.6171875 -1963.6136474609375 -1961.566650390625 -1960.160400390625 -1959.113037109375 -1958.10791015625 -1957.3145751953125 -1957.083251953125 -1957.5833740234375 -1958.0511474609375 -1958.2318115234375 -1958.1202392578125 -1957.7216796875 -1957.1119384765625 -1956.457763671875 -1955.791015625 -1955.1781005859375 -1954.7288818359375 -1954.6597900390625 -1955.1798095703125 -1956.246826171875 -1957.8643798828125 -1960.17431640625 -1963.1279296875 -1966.2620849609375 -1969.5076904296875 -1972.6839599609375 -1975.6898193359375 -1978.0732421875 -1979.689697265625 -1980.6552734375 -1980.9346923828125 -1980.3582763671875 -1978.7838134765625 -1976.189208984375 -1973.2708740234375 -1970.4842529296875 -1968.8468017578125 -1968.2900390625 -1969.223876953125 -1970.633544921875 -1972.4288330078125 -1974.7589111328125 -1977.74072265625 -1981.3372802734375 -1985.5509033203125 -1990.413818359375 -1995.7060546875 -2001.4886474609375 -2007.9219970703125 -2016.8121337890625 -2025.7685546875 -2033.7120361328125 -2040.8565673828125 -2047.30908203125 -99999 -99999 -99999 -99999 -99999 -99999 -99999 -99999 -99999 -99999 -99999 -99999 -99999 -99999 -99999 -99999
 -99999 -99999 -99999 -99999 -99999 -99999 -99999 -99999 -99999 -99999 -99999 -99999 -99999 -99999 -99999 -99999 -99999 -99999 -99999 -99999 -99999 -99999 -99999 -99999 -99999 -99999 -99999 -99999 -99999 -99999 -99999 -99999 -99999 -99999 -99999 -99999 -99999 -99999 -99999 -99999 -99999 -99999 -99999 -99999 -99999 -99999 -99999 -99999 -99999 -99999 -99999 -99999 -99999 -99999 -99999 -99999 -99999 -99999 -99999 -99999 -99999 -99999 -2102.8525390625 -2094.759521484375 -2086.9111328125 -2079.2998046875 -2071.91064453125 -2064.771728515625 -2057.93212890625 -2051.368408203125 -2045.1181640625 -2039.305419921875 -2033.8121337890625 -2028.6483154296875 -2023.887939453125 -2019.511962890625 -2015.5242919921875 -2011.9259033203125 -2008.791259765625 -2006.065185546875 -2003.7784423828125 -2001.903076171875 -2000.4447021484375 -1999.49267578125 -1998.9517822265625 -1998.8719482421875 -1999.227294921875 -1999.9964599609375 -2001.25634765625 -2002.88330078125 -2004.92822265625 -2007.320556640625 -2010.059814453125 -2013.1243896484375 -2016.5220947265625 -2020.596923828125 -2025.53662109375 -2033.269775390625 -2037.0535888671875 -2037.1944580078125 -2036.88916015625 -2038.07861328125 -2039.977294921875 -2042.1981201171875 -2044.557861328125 -2046.8702392578125 -2049.048583984375 -2050.9794921875 -2052.5771484375 -2053.762939453125 -2054.462158203125 -2054.74853515625 -2054.50537109375 -2053.971923828125 -2053.33642578125 -2052.709716796875 -2052.051513671875 -2051.3359375 -2050.518798828125 -2049.301513671875 -2047.072021484375 -2044.269775390625 -2041.423095703125 -2038.6663818359375 -2036.174072265625 -2033.9189453125 -2031.6436767578125 -2029.276123046875 -2026.7281494140625 -2023.9434814453125 -2020.87841796875 -2017.546875 -2013.99853515625 -2010.251708984375 -2006.3616943359375 -2002.4075927734375 -1998.4537353515625 -1994.58349609375 -1990.8519287109375 -1987.30810546875 -1983.9814453125 -1980.8922119140625 -1978.100830078125 -1975.672119140625 -1973.529052734375 -1971.6505126953125 -1970.2139892578125 -1969.136474609375 -1968.519287109375 -1968.487060546875 -1969.533447265625 -1971.022705078125 -1971.7725830078125 -1971.142333984375 -1970.592529296875 -1969.367431640625 -1965.530029296875 -1960.5439453125 -1956.502685546875 -1953.4478759765625 -1952.0751953125 -1952.1201171875 -1952.4627685546875 -1951.9168701171875 -1951.509033203125 -1952.0035400390625 -1953.0078125 -1954.131103515625 -1954.8614501953125 -1955.3084716796875 -1955.59814453125 -1955.662841796875 -1955.501220703125 -1955.1605224609375 -1954.8465576171875 -1954.7445068359375 -1954.859375 -1955.30224609375 -1956.2291259765625 -1957.6357421875 -1959.41552734375 -1961.5621337890625 -1963.9527587890625 -1966.541015625 -1968.97900390625 -1970.965087890625 -1972.5419921875 -1973.631591796875 -1974.104248046875 -1973.8446044921875 -1972.7896728515625 -1971.1033935546875 -1968.7244873046875 -1966.001708984375 -1963.6279296875 -1961.860595703125 -1961.3389892578125 -1962.5728759765625 -1964.172607421875 -1966.003662109375 -1968.3424072265625 -1971.4893798828125 -1975.42236328125 -1979.9742431640625 -1985.2724609375 -1990.9349365234375 -1997.3077392578125 -2004.8082275390625 -2013.2298583984375 -2022.0877685546875 -2030.40966796875 -2037.8045654296875 -2044.4410400390625 -99999 -99999 -99999 -99999 -99999 -99999 -99999 -99999 -99999 -99999 -99999 -99999 -99999 -99999 -99999 -99999
 -99999 -99999 -99999 -99999 -99999 -99999 -99999 -99999 -99999 -99999 -99999 -99999 -99999 -99999 -99999 -99999 -99999 -99999 -99999 -99999 -99999 -99999 -99999 -99999 -99999 -99999 -99999 -99999 -99999 -99999 -99999 -99999 -99999 -99999 -99999 -99999 -99999 -99999 -99999 -99999 -99999 -99999 -99999 -99999 -99999 -99999 -99999 -99999 -99999 -99999 -99999 -99999 -99999 -99999 -99999 -99999 -99999 -99999 -99999 -99999 -2119.994140625 -2110.98046875 -2102.2431640625 -2093.686279296875 -2085.315673828125 -2077.21923828125 -2069.46484375 -2061.948974609375 -2054.796875 -2047.9801025390625 -2041.4814453125 -2035.3162841796875 -2029.5269775390625 -2024.1796875 -2019.1961669921875 -2014.6458740234375 -2010.5511474609375 -2006.82421875 -2003.55859375 -2000.7158203125 -1998.34912109375 -1996.4400634765625 -1994.94384765625 -1993.9171142578125 -1993.3232421875 -1993.2130126953125 -1993.538818359375 -1994.2757568359375 -1995.468994140625 -1997.0535888671875 -1999.07958984375 -2001.494873046875 -2004.23486328125 -2007.388916015625 -2010.942626953125 -2015.046630859375 -2019.8045654296875 -2024.6431884765625 -2028.3740234375 -2029.8948974609375 -2031.0916748046875 -2032.6143798828125 -2034.596923828125 -2036.8890380859375 -2039.3199462890625 -2041.7972412109375 -2044.1572265625 -2046.1768798828125 -2047.8450927734375 -2049.06396484375 -2049.623291015625 -2049.5400390625 -2048.952880859375 -2048.061767578125 -2047.0316162109375 -2046.006591796875 -2045.134765625 -2044.2591552734375 -2043.2447509765625 -2041.74755859375 -2039.5841064453125 -2036.9130859375 -2034.055908203125 -2031.212158203125 -2028.4354248046875 -2025.7369384765625 -2023.019287109375 -2020.2230224609375 -2017.283935546875 -2014.22314453125 -2010.9808349609375 -2007.495849609375 -2003.7923583984375 -1999.956298828125 -1996.01708984375 -1992.0323486328125 -1988.0499267578125 -1984.137939453125 -1980.3280029296875 -1976.670166015625 -1973.2855224609375 -1970.1396484375 -1967.298828125 -1964.7830810546875 -1962.6220703125 -1960.8665771484375 -1959.532958984375 -1958.6463623046875 -1958.2730712890625 -1958.5299072265625 -1959.2940673828125 -1960.2508544921875 -1960.76416015625 -1960.778564453125 -1960.8472900390625 -1959.392578125 -1954.5860595703125 -1948.4129638671875 -1943.5701904296875 -1941.3524169921875 -1941.2701416015625 -1942.510986328125 -1943.9996337890625 -1944.804931640625 -1945.31494140625 -1946.4903564453125 -1948.0460205078125 -1949.7105712890625 -1951.335205078125 -1952.6370849609375 -1953.4031982421875 -1953.881591796875 -1954.131591796875 -1954.2547607421875 -1954.271240234375 -1954.2886962890625 -1954.4716796875 -1954.90087890625 -1955.6051025390625 -1956.607666015625 -1958.0384521484375 -1959.6563720703125 -1961.423095703125 -1963.094482421875 -1964.718994140625 -1966.153564453125 -1967.2059326171875 -1967.6805419921875 -1967.560302734375 -1966.905029296875 -1965.6810302734375 -1963.890869140625 -1961.6458740234375 -1959.3924560546875 -1957.3519287109375 -1955.9468994140625 -1955.6923828125 -1956.74951171875 -1958.215576171875 -1959.8681640625 -1962.14013671875 -1965.325439453125 -1969.703125 -1974.9888916015625 -1980.74560546875 -1987.121337890625 -1994.312744140625 -2002.22412109375 -2010.864990234375 -2019.607177734375 -2027.82177734375 -2035.43896484375 -2042.23291015625 -99999 -99999 -99999 -99999 -99999 -99999 -99999 -99999 -99999 -99999 -99999 -99999 -99999 -99999 -99999 -99999
 -99999 -99999 -99999 -99999 -99999 -99999 -99999 -99999 -99999 -99999 -99999 -99999 -99999 -99999 -99999 -99999 -99999 -99999 -99999 -99999 -99999 -99999 -99999 -99999 -99999 -99999 -99999 -99999 -99999 -99999 -99999 -99999 -99999 -99999 -99999 -99999 -99999 -99999 -99999 -99999 -99999 -99999 -99999 -99999 -99999 -99999 -99999 -99999 -99999 -99999 -99999 -99999 -99999 -99999 -99999 -99999 -99999 -99999 -2139.819580078125 -2129.90478515625 -2120.1943359375 -2110.797607421875 -2101.4443359375 -2092.47265625 -2083.738525390625 -2075.234375 -2067.0439453125 -2059.171875 -2051.604736328125 -2044.3798828125 -2037.5821533203125 -2031.2091064453125 -2025.1380615234375 -2019.5614013671875 -2014.39697265625 -2009.6357421875 -2005.3218994140625 -2001.4749755859375 -1998.108154296875 -1995.183837890625 -1992.6822509765625 -1990.6622314453125 -1989.118896484375 -1988.0484619140625 -1987.4000244140625 -1987.177490234375 -1987.4150390625 -1988.110595703125 -1989.23828125 -1990.7523193359375 -1992.6512451171875 -1994.9337158203125 -1997.6197509765625 -2000.68994140625 -2004.031005859375 -2007.6580810546875 -2011.160888671875 -2014.4013671875 -2017.451171875 -2020.350830078125 -2023.1033935546875 -2025.6370849609375 -2028.1923828125 -2030.8492431640625 -2033.552001953125 -2036.2313232421875 -2038.802978515625 -2041.1519775390625 -2043.09619140625 -2044.3145751953125 -2044.820556640625 -2044.613525390625 -2043.6357421875 -2041.989013671875 -2040.467041015625 -2039.1748046875 -2038.109375 -2037.0736083984375 -2035.7642822265625 -2034.077880859375 -2031.8961181640625 -2029.3203125 -2026.48095703125 -2023.475341796875 -2020.44287109375 -2017.3697509765625 -2014.3126220703125 -2011.2137451171875 -2008.0367431640625 -2004.6646728515625 -2001.107421875 -1997.43212890625 -1993.6087646484375 -1989.6748046875 -1985.639404296875 -1981.56201171875 -1977.464599609375 -1973.435546875 -1969.5189208984375 -1965.802001953125 -1962.2913818359375 -1959.0076904296875 -1956.0125732421875 -1953.4368896484375 -1951.2125244140625 -1949.3837890625 -1948.0198974609375 -1947.1793212890625 -1946.895263671875 -1947.0548095703125 -1947.5350341796875 -1948.0592041015625 -1948.272216796875 -1948.1402587890625 -1947.4041748046875 -1945.2091064453125 -1939.625244140625 -1931.5380859375 -1927.220458984375 -1927.331298828125 -1928.643310546875 -1930.775146484375 -1933.4263916015625 -1935.5992431640625 -1937.760498046875 -1940.194580078125 -1942.908447265625 -1945.5159912109375 -1947.7442626953125 -1949.600830078125 -1951.056640625 -1952.119873046875 -1952.7081298828125 -1953.0523681640625 -1953.2586669921875 -1953.4188232421875 -1953.605224609375 -1953.93798828125 -1954.4669189453125 -1955.2083740234375 -1956.1136474609375 -1957.1270751953125 -1958.3546142578125 -1959.5086669921875 -1960.5419921875 -1961.294677734375 -1961.6678466796875 -1961.6903076171875 -1961.2550048828125 -1960.3355712890625 -1958.900390625 -1957.1048583984375 -1955.08154296875 -1953.0753173828125 -1951.2890625 -1950.2562255859375 -1950.0889892578125 -1950.899658203125 -1952.1162109375 -1953.486328125 -1955.8662109375 -1959.4447021484375 -1964.1978759765625 -1969.8963623046875 -1976.374267578125 -1983.515869140625 -1991.5528564453125 -2000.35986328125 -2009.274658203125 -2018.0135498046875 -2026.311767578125 -2033.8231201171875 -2040.5462646484375 -99999 -99999 -99999 -99999 -99999 -99999 -99999 -99999 -99999 -99999 -99999 -99999 -99999 -99999 -99999 -99999
 -99999 -99999 -99999 -99999 -99999 -99999 -99999 -99999 -99999 -99999 -99999 -99999 -99999 -99999 -99999 -99999 -99999 -99999 -99999 -99999 -99999 -99999 -99999 -99999 -99999 -99999 -99999 -99999 -99999 -99999 -99999 -99999 -99999 -99999 -99999 -99999 -99999 -99999 -99999 -99999 -99999 -99999 -99999 -99999 -99999 -99999 -99999 -99999 -99999 -99999 -99999 -99999 -99999 -99999 -99999 -99999 -2162.508056640625 -2151.6376953125 -2141.104248046875 -2130.716796875 -2120.53076171875 -2110.52099609375 -2100.740234375 -2091.227294921875 -2081.923095703125 -2073.056884765625 -2064.416259765625 -2056.112060546875 -2048.2568359375 -2040.76513671875 -2033.59912109375 -2026.8414306640625 -2020.595703125 -2014.7086181640625 -2009.2562255859375 -2004.381103515625 -1999.9654541015625 -1995.92724609375 -1992.361083984375 -1989.30615234375 -1986.8074951171875 -1984.6907958984375 -1982.999755859375 -1981.8240966796875 -1981.0963134765625 -1980.79443359375 -1980.9312744140625 -1981.519775390625 -1982.5166015625 -1983.93017578125 -1985.7152099609375 -1987.8433837890625 -1990.3095703125 -1993.052490234375 -1996.023681640625 -1999.0665283203125 -2001.95947265625 -2004.5284423828125 -2007.1898193359375 -2010.817138671875 -2014.3231201171875 -2017.6456298828125 -2020.810546875 -2023.970458984375 -2027.09619140625 -2030.2127685546875 -2033.178466796875 -2035.835205078125 -2038.0555419921875 -2039.6683349609375 -2040.396240234375 -2039.84375 -2038.3203125 -2036.2069091796875 -2033.8896484375 -2032.03271484375 -2030.9552001953125 -2029.7764892578125 -2028.4014892578125 -2026.567626953125 -2024.2696533203125 -2021.5916748046875 -2018.642333984375 -2015.4840087890625 -2012.2401123046875 -2008.9749755859375 -2005.6529541015625 -2002.2109375 -1998.6824951171875 -1995.06396484375 -1991.330078125 -1987.4710693359375 -1983.470703125 -1979.3740234375 -1975.173828125 -1970.949951171875 -1966.744140625 -1962.617431640625 -1958.57080078125 -1954.6409912109375 -1950.94921875 -1947.531005859375 -1944.4327392578125 -1941.662109375 -1939.267333984375 -1937.37548828125 -1935.9171142578125 -1935.029296875 -1934.64111328125 -1934.627685546875 -1934.845703125 -1934.94189453125 -1934.707763671875 -1933.751220703125 -1931.5545654296875 -1927.4515380859375 -1919.6915283203125 -1912.35302734375 -1910.931884765625 -1912.4976806640625 -1915.1915283203125 -1917.8876953125 -1921.461181640625 -1925.246337890625 -1929.2708740234375 -1933.3863525390625 -1937.511474609375 -1941.103271484375 -1944.3304443359375 -1946.8779296875 -1948.7528076171875 -1950.1373291015625 -1951.092529296875 -1951.692138671875 -1951.997314453125 -1952.1834716796875 -1952.3446044921875 -1952.54248046875 -1952.7989501953125 -1953.2152099609375 -1953.7598876953125 -1954.389404296875 -1955.065673828125 -1955.596435546875 -1956.063232421875 -1956.32470703125 -1956.3077392578125 -1955.9599609375 -1955.124755859375 -1953.9383544921875 -1952.429443359375 -1950.6705322265625 -1948.7786865234375 -1947.013427734375 -1945.574951171875 -1944.6636962890625 -1944.405517578125 -1944.8123779296875 -1945.733642578125 -1947.2838134765625 -1949.6929931640625 -1953.1904296875 -1958.2716064453125 -1964.6533203125 -1972.1009521484375 -1980.31396484375 -1989.6077880859375 -1998.96826171875 -2008.35498046875 -2017.4027099609375 -2025.5247802734375 -2032.9947509765625 -99999 -99999 -99999 -99999 -99999 -99999 -99999 -99999 -99999 -99999 -99999 -99999 -99999 -99999 -99999 -99999 -99999
 -99999 -99999 -99999 -99999 -99999 -99999 -99999 -99999 -99999 -99999 -99999 -99999 -99999 -99999 -99999 -99999 -99999 -99999 -99999 -99999 -99999 -99999 -99999 -99999 -99999 -99999 -99999 -99999 -99999 -99999 -99999 -99999 -99999 -99999 -99999 -99999 -99999 -99999 -99999 -99999 -99999 -99999 -99999 -99999 -99999 -99999 -99999 -99999 -99999 -99999 -99999 -99999 -99999 -99999 -2188.74365234375 -2176.52392578125 -2164.928955078125 -2153.570068359375 -2142.430419921875 -2131.454833984375 -2120.6455078125 -2110.090576171875 -2099.8095703125 -2089.792724609375 -2080.081298828125 -2070.66796875 -2061.67529296875 -2053.005859375 -2044.708740234375 -2036.77197265625 -2029.3533935546875 -2022.2919921875 -2015.759521484375 -2009.7056884765625 -2004.056396484375 -1998.8935546875 -1994.1875 -1990.0841064453125 -1986.4674072265625 -1983.2047119140625 -1980.5452880859375 -1978.385498046875 -1976.62646484375 -1975.2967529296875 -1974.4996337890625 -1974.1412353515625 -1974.1771240234375 -1974.5970458984375 -1975.39013671875 -1976.6552734375 -1978.2462158203125 -1980.1820068359375 -1982.41455078125 -1984.894775390625 -1987.5322265625 -1990.212890625 -1992.693359375 -1995.00830078125 -1997.8406982421875 -2001.3416748046875 -2005.4111328125 -2009.2760009765625 -2012.9288330078125 -2016.5025634765625 -2020.047119140625 -2023.5745849609375 -2027.013427734375 -2030.1942138671875 -2033.03564453125 -2035.0010986328125 -2035.8944091796875 -2035.5159912109375 -2033.755126953125 -2030.5506591796875 -2027.364990234375 -2025.195556640625 -2024.039794921875 -2022.7396240234375 -2021.112548828125 -2019.083984375 -2016.6142578125 -2013.762451171875 -2010.6568603515625 -2007.3892822265625 -2003.973388671875 -2000.4344482421875 -1996.8267822265625 -1993.14599609375 -1989.3961181640625 -1985.5400390625 -1981.59814453125 -1977.50341796875 -1973.3001708984375 -1969.0206298828125 -1964.6883544921875 -1960.33544921875 -1955.9610595703125 -1951.635009765625 -1947.416748046875 -1943.3609619140625 -1939.4156494140625 -1935.775634765625 -1932.4564208984375 -1929.4420166015625 -1926.84130859375 -1924.8187255859375 -1923.2779541015625 -1922.1900634765625 -1921.560791015625 -1921.326904296875 -1921.2940673828125 -1921.0985107421875 -1920.442626953125 -1918.9827880859375 -1915.8385009765625 -1910.5732421875 -1904.12060546875 -1898.40576171875 -1896.135009765625 -1899.040283203125 -1901.6302490234375 -1904.880126953125 -1909.2210693359375 -1914.8399658203125 -1920.962890625 -1926.8353271484375 -1932.2816162109375 -1937.155029296875 -1941.121337890625 -1944.1904296875 -1946.6287841796875 -1948.3148193359375 -1949.38916015625 -1950.07470703125 -1950.4615478515625 -1950.6368408203125 -1950.6741943359375 -1950.6993408203125 -1950.75439453125 -1950.85986328125 -1951.0242919921875 -1951.2138671875 -1951.4117431640625 -1951.5460205078125 -1951.5662841796875 -1951.4041748046875 -1950.936767578125 -1950.1949462890625 -1949.164794921875 -1947.8541259765625 -1946.2791748046875 -1944.5225830078125 -1942.7755126953125 -1941.169921875 -1939.85107421875 -1939.0074462890625 -1938.8125 -1939.0989990234375 -1939.82080078125 -1941.0513916015625 -1942.9290771484375 -1946.78125 -1952.279296875 -1959.0948486328125 -1967.462158203125 -1977.504638671875 -1987.9481201171875 -1998.42138671875 -2008.3441162109375 -2017.365966796875 -2025.597412109375 -2032.6220703125 -99999 -99999 -99999 -99999 -99999 -99999 -99999 -99999 -99999 -99999 -99999 -99999 -99999 -99999 -99999 -99999 -99999
 -99999 -99999 -99999 -99999 -99999 -99999 -99999 -99999 -99999 -99999 -99999 -99999 -99999 -99999 -99999 -99999 -99999 -99999 -99999 -99999 -99999 -99999 -99999 -99999 -99999 -99999 -99999 -99999 -99999 -99999 -99999 -99999 -99999 -99999 -99999 -99999 -99999 -99999 -99999 -99999 -99999 -99999 -99999 -99999 -99999 -99999 -99999 -99999 -99999 -99999 -99999 -99999 -2222.212158203125 -2206.752197265625 -2192.501220703125 -2179.7783203125 -2167.515625 -2155.466796875 -2143.670166015625 -2132.044677734375 -2120.653564453125 -2109.56396484375 -2098.68017578125 -2088.118408203125 -2077.938720703125 -2068.14306640625 -2058.599365234375 -2049.575927734375 -2040.9503173828125 -2032.686767578125 -2024.8480224609375 -2017.5718994140625 -2010.708984375 -2004.2904052734375 -1998.446533203125 -1993.1436767578125 -1988.3218994140625 -1983.9342041015625 -1980.1744384765625 -1976.8690185546875 -1974.02587890625 -1971.68505859375 -1969.89501953125 -1968.5328369140625 -1967.584716796875 -1967.036865234375 -1966.9371337890625 -1967.2716064453125 -1967.95263671875 -1968.9669189453125 -1970.30322265625 -1972.0260009765625 -1974.0390625 -1976.2879638671875 -1978.7247314453125 -1981.235107421875 -1983.6728515625 -1986.023681640625 -1988.4822998046875 -1992.5211181640625 -1996.65087890625 -2000.6944580078125 -2004.6317138671875 -2008.4942626953125 -2012.4027099609375 -2016.3448486328125 -2020.2857666015625 -2024.0811767578125 -2027.5985107421875 -2030.368408203125 -2032.177001953125 -2031.8441162109375 -2029.77587890625 -2025.8741455078125 -2022.1138916015625 -2019.5399169921875 -2017.846923828125 -2016.19580078125 -2014.1572265625 -2011.7034912109375 -2008.9405517578125 -2005.92138671875 -2002.626708984375 -1999.1337890625 -1995.4964599609375 -1991.7606201171875 -1987.949951171875 -1984.058837890625 -1980.0921630859375 -1975.96630859375 -1971.805908203125 -1967.5225830078125 -1963.15576171875 -1958.722412109375 -1954.210693359375 -1949.6866455078125 -1945.1492919921875 -1940.646728515625 -1936.19140625 -1931.900634765625 -1927.718505859375 -1923.7606201171875 -1920.161865234375 -1916.9588623046875 -1914.1300048828125 -1911.7523193359375 -1909.915771484375 -1908.69873046875 -1908.030029296875 -1907.6785888671875 -1907.501708984375 -1907.2935791015625 -1906.4814453125 -1904.6697998046875 -1901.5985107421875 -1897.19384765625 -1891.7972412109375 -1887.3184814453125 -1885.1304931640625 -1887.0145263671875 -1888.5672607421875 -1891.682861328125 -1897.79150390625 -1905.38232421875 -1913.4991455078125 -1921.0076904296875 -1928.0035400390625 -1933.7049560546875 -1938.527587890625 -1942.00732421875 -1944.56689453125 -1946.430419921875 -1947.6739501953125 -1948.3985595703125 -1948.672119140625 -1948.720703125 -1948.6234130859375 -1948.4432373046875 -1948.257080078125 -1948.0672607421875 -1947.8944091796875 -1947.724609375 -1947.5369873046875 -1947.31005859375 -1946.9188232421875 -1946.3642578125 -1945.616943359375 -1944.6534423828125 -1943.421875 -1941.93994140625 -1940.309326171875 -1938.591796875 -1936.9122314453125 -1935.4642333984375 -1934.3148193359375 -1933.6171875 -1933.5645751953125 -1933.947021484375 -1934.6715087890625 -1935.68505859375 -1937.3480224609375 -1941.0074462890625 -1946.54638671875 -1954.0482177734375 -1963.7796630859375 -1975.2779541015625 -1987.3328857421875 -1998.819580078125 -2009.193359375 -2018.4482421875 -2026.0977783203125 -2032.8221435546875 -99999 -99999 -99999 -99999 -99999 -99999 -99999 -99999 -99999 -99999 -99999 -99999 -99999 -99999 -99999 -99999 -99999
 -99999 -99999 -99999 -99999 -99999 -99999 -99999 -99999 -99999 -99999 -99999 -99999 -99999 -99999 -99999 -99999 -99999 -99999 -99999 -99999 -99999 -99999 -99999 -99999 -99999 -99999 -99999 -99999 -99999 -99999 -99999 -99999 -99999 -99999 -99999 -99999 -99999 -99999 -99999 -99999 -99999 -99999 -99999 -99999 -99999 -99999 -99999 -99999 -99999 -99999 -2260.157470703125 -2244.410888671875 -2227.927001953125 -2211.572265625 -2196.750244140625 -2182.995361328125 -2169.895751953125 -2157.276123046875 -2144.64111328125 -2132.36865234375 -2120.409912109375 -2108.602783203125 -2097.352783203125 -2086.3046875 -2075.6220703125 -2065.324951171875 -2055.424072265625 -2045.9163818359375 -2036.800048828125 -2028.1798095703125 -2020.0897216796875 -2012.43115234375 -2005.335693359375 -1998.7396240234375 -1992.6248779296875 -1986.9937744140625 -1981.956298828125 -1977.571533203125 -1973.5367431640625 -1970.1307373046875 -1967.247802734375 -1964.833740234375 -1962.8638916015625 -1961.3572998046875 -1960.3414306640625 -1959.73974609375 -1959.50244140625 -1959.614013671875 -1960.0888671875 -1960.95263671875 -1962.1168212890625 -1963.5450439453125 -1965.26025390625 -1967.3057861328125 -1969.6134033203125 -1972.14404296875 -1974.885986328125 -1977.7076416015625 -1980.7296142578125 -1984.313720703125 -1988.15771484375 -1992.02197265625 -1995.9232177734375 -1999.9971923828125 -2004.202392578125 -2008.4693603515625 -2012.7791748046875 -2017.124267578125 -2021.4072265625 -2025.3104248046875 -2028.291015625 -2029.0045166015625 -2026.847412109375 -2022.490478515625 -2018.173583984375 -2015.0323486328125 -2012.47314453125 -2009.90185546875 -2007.23681640625 -2004.4105224609375 -2001.3463134765625 -1997.9686279296875 -1994.42041015625 -1990.72802734375 -1986.9188232421875 -1983.0074462890625 -1979.00146484375 -1974.862060546875 -1970.679443359375 -1966.401123046875 -1962.0360107421875 -1957.591064453125 -1953.0701904296875 -1948.4625244140625 -1943.794677734375 -1939.0814208984375 -1934.3553466796875 -1929.635986328125 -1924.937255859375 -1920.3699951171875 -1915.966552734375 -1911.75537109375 -1907.76416015625 -1904.1544189453125 -1901.004150390625 -1898.4036865234375 -1896.3590087890625 -1894.880615234375 -1894.0322265625 -1893.6837158203125 -1893.619384765625 -1893.609375 -1893.3076171875 -1892.134521484375 -1889.49609375 -1885.9951171875 -1881.69287109375 -1877.683837890625 -1875.930908203125 -1875.41455078125 -1875.882568359375 -1879.8804931640625 -1888.020263671875 -1897.9617919921875 -1907.5687255859375 -1916.8055419921875 -1924.749755859375 -1931.351806640625 -1936.4864501953125 -1940.105224609375 -1942.9056396484375 -1944.75634765625 -1945.834716796875 -1946.416259765625 -1946.6041259765625 -1946.5003662109375 -1946.219970703125 -1945.796142578125 -1945.33251953125 -1944.85302734375 -1944.3912353515625 -1943.9417724609375 -1943.413330078125 -1942.8236083984375 -1942.1365966796875 -1941.3377685546875 -1940.345703125 -1939.138671875 -1937.7471923828125 -1936.2008056640625 -1934.52880859375 -1932.843505859375 -1931.213134765625 -1929.81494140625 -1928.880615234375 -1928.4859619140625 -1928.6754150390625 -1929.3385009765625 -1930.3961181640625 -1931.9580078125 -1934.30859375 -1937.8631591796875 -1943.3291015625 -1950.599609375 -1960.84912109375 -1974.234619140625 -1988.3648681640625 -2000.5830078125 -2011.1251220703125 -2019.7467041015625 -2027.107177734375 -99999 -99999 -99999 -99999 -99999 -99999 -99999 -99999 -99999 -99999 -99999 -99999 -99999 -99999 -99999 -99999 -99999 -99999
 -99999 -99999 -99999 -99999 -99999 -99999 -99999 -99999 -99999 -99999 -99999 -99999 -99999 -99999 -99999 -99999 -99999 -99999 -99999 -99999 -99999 -99999 -99999 -99999 -99999 -99999 -99999 -99999 -99999 -99999 -99999 -99999 -99999 -99999 -99999 -99999 -99999 -99999 -99999 -99999 -99999 -99999 -99999 -99999 -99999 -99999 -99999 -99999 -99999 -2281.51904296875 -2266.978759765625 -2250.289306640625 -2233.292724609375 -2216.327880859375 -2200.553466796875 -2186.3134765625 -2172.4560546875 -2158.869140625 -2145.564453125 -2132.523681640625 -2119.83740234375 -2107.58349609375 -2095.618408203125 -2084.0390625 -2072.87890625 -2062.1552734375 -2051.880126953125 -2042.0147705078125 -2032.5509033203125 -2023.54736328125 -2015.0889892578125 -2007.1231689453125 -1999.6500244140625 -1992.72705078125 -1986.4193115234375 -1980.634521484375 -1975.4400634765625 -1970.8065185546875 -1966.7283935546875 -1963.179443359375 -1960.093017578125 -1957.6015625 -1955.561767578125 -1954.0167236328125 -1952.861572265625 -1952.091796875 -1951.7537841796875 -1951.762939453125 -1952.0765380859375 -1952.6705322265625 -1953.5675048828125 -1954.779541015625 -1956.2803955078125 -1958.0667724609375 -1960.2197265625 -1962.8321533203125 -1965.848388671875 -1969.382080078125 -1973.2381591796875 -1976.296142578125 -1979.4654541015625 -1982.9072265625 -1986.7593994140625 -1990.932861328125 -1995.2911376953125 -1999.872802734375 -2004.5506591796875 -2009.2769775390625 -2014.0401611328125 -2018.8636474609375 -2023.5970458984375 -2026.1966552734375 -2023.964111328125 -2019.235107421875 -2014.5157470703125 -2010.37353515625 -2006.7896728515625 -2003.5875244140625 -2000.361083984375 -1996.97216796875 -1993.475341796875 -1989.877197265625 -1986.103759765625 -1982.2288818359375 -1978.2239990234375 -1974.0843505859375 -1969.8814697265625 -1965.5982666015625 -1961.2451171875 -1956.820068359375 -1952.314453125 -1947.7030029296875 -1943.0228271484375 -1938.2625732421875 -1933.442626953125 -1928.540283203125 -1923.61572265625 -1918.7117919921875 -1913.8104248046875 -1908.9561767578125 -1904.179443359375 -1899.6322021484375 -1895.345703125 -1891.348388671875 -1887.8389892578125 -1884.8841552734375 -1882.542236328125 -1880.8336181640625 -1879.8868408203125 -1879.61962890625 -1879.836669921875 -1880.38916015625 -1880.94921875 -1880.947509765625 -1879.4581298828125 -1876.859619140625 -1873.4385986328125 -1870.2725830078125 -1868.2349853515625 -1867.577880859375 -1868.2584228515625 -1872.499755859375 -1881.4649658203125 -1892.9747314453125 -1904.258056640625 -1914.4859619140625 -1923.0155029296875 -1929.826416015625 -1934.8472900390625 -1938.658935546875 -1941.1795654296875 -1942.87548828125 -1943.8814697265625 -1944.305419921875 -1944.2825927734375 -1943.909912109375 -1943.3575439453125 -1942.693603515625 -1942.0303955078125 -1941.318115234375 -1940.560302734375 -1939.7877197265625 -1939.004638671875 -1938.167236328125 -1937.2427978515625 -1936.193359375 -1934.99853515625 -1933.6474609375 -1932.15478515625 -1930.5521240234375 -1928.8651123046875 -1927.172607421875 -1925.611328125 -1924.3021240234375 -1923.4195556640625 -1923.243408203125 -1923.87060546875 -1925.25634765625 -1926.8629150390625 -1929.0020751953125 -1931.921630859375 -1936.3018798828125 -1942.4644775390625 -1950.212158203125 -1961.1256103515625 -1975.4500732421875 -1990.568359375 -2003.479248046875 -2013.334716796875 -2021.4669189453125 -2027.833740234375 -99999 -99999 -99999 -99999 -99999 -99999 -99999 -99999 -99999 -99999 -99999 -99999 -99999 -99999 -99999 -99999 -99999 -99999
 -99999 -99999 -99999 -99999 -99999 -99999 -99999 -99999 -99999 -99999 -99999 -99999 -99999 -99999 -99999 -99999 -99999 -99999 -99999 -99999 -99999 -99999 -99999 -99999 -99999 -99999 -99999 -99999 -99999 -99999 -99999 -99999 -99999 -99999 -99999 -99999 -99999 -99999 -99999 -99999 -99999 -99999 -99999 -99999 -99999 -99999 -99999 -99999 -99999 -2286.572998046875 -2271.996826171875 -2255.251953125 -2238.08447265625 -2220.800048828125 -2204.484619140625 -2189.25390625 -2174.432373046875 -2159.986328125 -2145.80322265625 -2132.1787109375 -2118.897705078125 -2105.987548828125 -2093.6181640625 -2081.60888671875 -2070.020263671875 -2058.828369140625 -2048.066162109375 -2037.7147216796875 -2027.8509521484375 -2018.5548095703125 -2009.639892578125 -2001.4078369140625 -1993.69189453125 -1986.552001953125 -1979.9649658203125 -1973.970703125 -1968.5760498046875 -1963.744873046875 -1959.5323486328125 -1955.8798828125 -1952.75830078125 -1950.1536865234375 -1948.011474609375 -1946.3739013671875 -1945.1527099609375 -1944.3358154296875 -1943.85546875 -1943.685302734375 -1943.8531494140625 -1944.280029296875 -1944.94384765625 -1945.8271484375 -1946.9586181640625 -1948.505126953125 -1950.4351806640625 -1952.873779296875 -1956.095703125 -1960.4710693359375 -1964.732421875 -1967.70849609375 -1969.8829345703125 -1973.12255859375 -1977.0748291015625 -1981.387451171875 -1985.9873046875 -1990.6524658203125 -1995.3697509765625 -2000.216064453125 -2005.2816162109375 -2010.655029296875 -2016.1209716796875 -2020.19140625 -2018.7105712890625 -2014.216064453125 -2009.197998046875 -2004.7423095703125 -2000.59912109375 -1996.72509765625 -1992.9554443359375 -1989.2720947265625 -1985.46826171875 -1981.59814453125 -1977.577392578125 -1973.493408203125 -1969.2916259765625 -1965.0303955078125 -1960.692626953125 -1956.292236328125 -1951.8131103515625 -1947.2294921875 -1942.5877685546875 -1937.8624267578125 -1933.0546875 -1928.13671875 -1923.177490234375 -1918.156494140625 -1913.0626220703125 -1907.92138671875 -1902.7652587890625 -1897.6881103515625 -1892.6396484375 -1887.72802734375 -1883.065185546875 -1878.6761474609375 -1874.650390625 -1871.17236328125 -1868.5234375 -1866.6409912109375 -1865.627685546875 -1865.50390625 -1866.1865234375 -1867.3812255859375 -1868.7432861328125 -1870.188720703125 -1870.8057861328125 -1869.154052734375 -1866.3262939453125 -1863.7186279296875 -1862.6544189453125 -1863.02783203125 -1865.177490234375 -1869.880126953125 -1879.72021484375 -1891.4349365234375 -1902.9840087890625 -1913.598388671875 -1922.451904296875 -1929.2066650390625 -1933.9234619140625 -1937.2474365234375 -1939.486083984375 -1940.975830078125 -1941.71044921875 -1941.8114013671875 -1941.4913330078125 -1940.9163818359375 -1940.150634765625 -1939.264892578125 -1938.2730712890625 -1937.295654296875 -1936.317138671875 -1935.3453369140625 -1934.321044921875 -1933.268310546875 -1932.146240234375 -1930.899658203125 -1929.560302734375 -1928.1204833984375 -1926.570068359375 -1924.9224853515625 -1923.23876953125 -1921.5853271484375 -1920.0333251953125 -1918.7330322265625 -1917.9091796875 -1917.9158935546875 -1919.08056640625 -1921.0657958984375 -1923.1661376953125 -1926.1549072265625 -1930.3585205078125 -1935.768798828125 -1942.98779296875 -1952.3411865234375 -1963.6031494140625 -1978.5482177734375 -1994.9827880859375 -2007.3848876953125 -2016.043701171875 -2022.461181640625 -99999 -99999 -99999 -99999 -99999 -99999 -99999 -99999 -99999 -99999 -99999 -99999 -99999 -99999 -99999 -99999 -99999 -99999 -99999
 -99999 -99999 -99999 -99999 -99999 -99999 -99999 -99999 -99999 -99999 -99999 -99999 -99999 -99999 -99999 -99999 -99999 -99999 -99999 -99999 -99999 -99999 -99999 -99999 -99999 -99999 -99999 -99999 -99999 -99999 -99999 -99999 -99999 -99999 -99999 -99999 -99999 -99999 -99999 -99999 -99999 -99999 -99999 -99999 -99999 -99999 -99999 -99999 -2300.183837890625 -2288.994384765625 -2274.61083984375 -2258.6708984375 -2242.155517578125 -2225.220458984375 -2208.59619140625 -2192.38330078125 -2176.367431640625 -2160.821044921875 -2145.880615234375 -2131.4248046875 -2117.524169921875 -2104.132568359375 -2091.181396484375 -2078.72314453125 -2066.65576171875 -2055.000732421875 -2043.86328125 -2033.1837158203125 -2022.9276123046875 -2013.212158203125 -2004.0400390625 -1995.379638671875 -1987.3131103515625 -1979.9017333984375 -1973.1026611328125 -1966.909912109375 -1961.3572998046875 -1956.418701171875 -1952.048583984375 -1948.2696533203125 -1945.1009521484375 -1942.430419921875 -1940.236328125 -1938.482421875 -1937.220458984375 -1936.329833984375 -1935.7728271484375 -1935.5145263671875 -1935.517333984375 -1935.7646484375 -1936.203369140625 -1936.8251953125 -1937.645263671875 -1938.729248046875 -1940.1873779296875 -1942.1317138671875 -1945.028564453125 -1948.85693359375 -1952.810791015625 -1956.28173828125 -1958.7335205078125 -1962.3466796875 -1966.6900634765625 -1971.502197265625 -1976.2940673828125 -1981.0086669921875 -1985.5836181640625 -1990.0843505859375 -1994.8436279296875 -1999.849609375 -2005.3248291015625 -2009.427490234375 -2009.175537109375 -2005.8262939453125 -2001.733154296875 -1997.459716796875 -1993.21044921875 -1989.1536865234375 -1985.145263671875 -1981.1646728515625 -1977.083740234375 -1972.986328125 -1968.8011474609375 -1964.5535888671875 -1960.25146484375 -1955.877685546875 -1951.427001953125 -1946.89111328125 -1942.3128662109375 -1937.646240234375 -1932.903076171875 -1928.060546875 -1923.156494140625 -1918.1732177734375 -1913.0772705078125 -1907.904541015625 -1902.6671142578125 -1897.3929443359375 -1892.0247802734375 -1886.6827392578125 -1881.37255859375 -1876.0943603515625 -1870.923828125 -1866.099853515625 -1861.72802734375 -1857.818359375 -1854.6636962890625 -1852.356201171875 -1851.24609375 -1851.226806640625 -1852.2757568359375 -1854.305908203125 -1856.924072265625 -1859.8243408203125 -1861.6448974609375 -1861.106201171875 -1859.4356689453125 -1858.3968505859375 -1858.37939453125 -1859.8973388671875 -1863.5048828125 -1870.300048828125 -1879.9261474609375 -1891.4384765625 -1903.0733642578125 -1914.158935546875 -1923.0299072265625 -1929.453125 -1932.88037109375 -1935.522216796875 -1937.5328369140625 -1938.690185546875 -1939.10595703125 -1938.9647216796875 -1938.3436279296875 -1937.4481201171875 -1936.380615234375 -1935.2279052734375 -1934.0465087890625 -1932.8465576171875 -1931.694580078125 -1930.5338134765625 -1929.3355712890625 -1928.079345703125 -1926.7886962890625 -1925.44287109375 -1924.01611328125 -1922.490966796875 -1920.8858642578125 -1919.24951171875 -1917.591796875 -1915.97509765625 -1914.4942626953125 -1913.2230224609375 -1912.25 -1912.307373046875 -1913.6484375 -1916.310546875 -1919.5028076171875 -1923.3740234375 -1928.3956298828125 -1934.9246826171875 -1943.5108642578125 -1953.6414794921875 -1966.5096435546875 -1981.5250244140625 -1997.7293701171875 -2009.09423828125 -2016.2222900390625 -99999 -99999 -99999 -99999 -99999 -99999 -99999 -99999 -99999 -99999 -99999 -99999 -99999 -99999 -99999 -99999 -99999 -99999 -99999 -99999
 -99999 -99999 -99999 -99999 -99999 -99999 -99999 -99999 -99999 -99999 -99999 -99999 -99999 -99999 -99999 -99999 -99999 -99999 -99999 -99999 -99999 -99999 -99999 -99999 -99999 -99999 -99999 -99999 -99999 -99999 -99999 -99999 -99999 -99999 -99999 -99999 -99999 -99999 -99999 -99999 -99999 -99999 -99999 -99999 -99999 -99999 -99999 -99999 -2300.183349609375 -2289.004638671875 -2275.811767578125 -2260.676513671875 -2245.040283203125 -2229.205810546875 -2211.992919921875 -2194.2138671875 -2177.1044921875 -2160.6181640625 -2144.974609375 -2130.0126953125 -2115.58154296875 -2101.74365234375 -2088.40380859375 -2075.459716796875 -2063.00439453125 -2050.99609375 -2039.3665771484375 -2028.2327880859375 -2017.625244140625 -2007.4542236328125 -1997.91552734375 -1989.02587890625 -1980.6177978515625 -1972.9598388671875 -1965.940185546875 -1959.529296875 -1953.742431640625 -1948.6566162109375 -1944.28271484375 -1940.3692626953125 -1937.090576171875 -1934.4046630859375 -1932.2171630859375 -1930.472900390625 -1929.1551513671875 -1928.248046875 -1927.6474609375 -1927.3143310546875 -1927.21630859375 -1927.296630859375 -1927.552734375 -1927.9334716796875 -1928.436279296875 -1929.0191650390625 -1929.7908935546875 -1930.978515625 -1932.7542724609375 -1935.1134033203125 -1938.2135009765625 -1941.784423828125 -1945.892578125 -1951.0538330078125 -1956.1893310546875 -1961.4322509765625 -1966.5013427734375 -1971.268798828125 -1975.5947265625 -1979.6259765625 -1983.4581298828125 -1987.661865234375 -1992.4996337890625 -1996.360107421875 -1997.2127685546875 -1995.748779296875 -1992.475830078125 -1988.7105712890625 -1984.794189453125 -1980.768310546875 -1976.62841796875 -1972.4730224609375 -1968.2537841796875 -1964.052490234375 -1959.77783203125 -1955.4307861328125 -1951.0263671875 -1946.5489501953125 -1942.04296875 -1937.44677734375 -1932.7939453125 -1928.05126953125 -1923.2484130859375 -1918.3682861328125 -1913.3829345703125 -1908.3125 -1903.150634765625 -1897.9129638671875 -1892.551025390625 -1887.1273193359375 -1881.63720703125 -1876.0498046875 -1870.4005126953125 -1864.8353271484375 -1859.387939453125 -1854.0567626953125 -1849.0306396484375 -1844.63671875 -1840.954833984375 -1838.2767333984375 -1837.0667724609375 -1837.137451171875 -1838.42041015625 -1840.928955078125 -1844.275634765625 -1847.86572265625 -1850.937255859375 -1852.020263671875 -1852.0968017578125 -1852.6278076171875 -1854.1583251953125 -1857.6038818359375 -1863.0345458984375 -1870.3902587890625 -1880.1904296875 -1891.538330078125 -1903.54931640625 -1915.3602294921875 -1924.8785400390625 -1928.6402587890625 -1931.115966796875 -1933.132568359375 -1934.9786376953125 -1935.973876953125 -1936.1285400390625 -1935.6031494140625 -1934.62939453125 -1933.3739013671875 -1931.991943359375 -1930.6533203125 -1929.317138671875 -1927.9908447265625 -1926.6544189453125 -1925.303955078125 -1923.9669189453125 -1922.60400390625 -1921.2032470703125 -1919.719970703125 -1918.2164306640625 -1916.6632080078125 -1915.060546875 -1913.4283447265625 -1911.8238525390625 -1910.3028564453125 -1908.938720703125 -1907.785888671875 -1906.9085693359375 -1906.80859375 -1908.5648193359375 -1911.5257568359375 -1915.189697265625 -1919.8204345703125 -1925.9732666015625 -1933.4490966796875 -1942.6123046875 -1953.9307861328125 -1966.7938232421875 -1981.0433349609375 -1994.793701171875 -2006.1551513671875 -99999 -99999 -99999 -99999 -99999 -99999 -99999 -99999 -99999 -99999 -99999 -99999 -99999 -99999 -99999 -99999 -99999 -99999 -99999 -99999 -99999
 -99999 -99999 -99999 -99999 -99999 -99999 -99999 -99999 -99999 -99999 -99999 -99999 -99999 -99999 -99999 -99999 -99999 -99999 -99999 -99999 -99999 -99999 -99999 -99999 -99999 -99999 -99999 -99999 -99999 -99999 -99999 -99999 -99999 -99999 -99999 -99999 -99999 -99999 -99999 -99999 -99999 -99999 -99999 -99999 -99999 -99999 -99999 -2308.208740234375 -2299.07080078125 -2288.137939453125 -2275.429443359375 -2261.3388671875 -2246.301513671875 -2230.333251953125 -2213.231689453125 -2194.69482421875 -2176.78955078125 -2159.769775390625 -2143.521484375 -2127.937744140625 -2113.204833984375 -2098.896484375 -2085.085205078125 -2071.861083984375 -2058.93603515625 -2046.5299072265625 -2034.611083984375 -2022.94921875 -2011.9493408203125 -2001.4610595703125 -1991.52392578125 -1982.185546875 -1973.58251953125 -1965.52978515625 -1958.2786865234375 -1951.7535400390625 -1945.900146484375 -1940.6102294921875 -1936.0592041015625 -1932.2193603515625 -1928.87548828125 -1926.1187744140625 -1923.9580078125 -1922.250244140625 -1920.9366455078125 -1919.9808349609375 -1919.3944091796875 -1919.075927734375 -1918.9522705078125 -1918.97265625 -1919.0985107421875 -1919.23828125 -1919.4248046875 -1919.6400146484375 -1919.9071044921875 -1920.2080078125 -1920.3746337890625 -1921.268798828125 -1923.373779296875 -1927.073486328125 -1933.0765380859375 -1939.687744140625 -1945.9010009765625 -1951.952392578125 -1957.0543212890625 -1961.691162109375 -1965.8590087890625 -1969.531005859375 -1972.8021240234375 -1976.5997314453125 -1980.6824951171875 -1983.8751220703125 -1984.8873291015625 -1984.2991943359375 -1982.1767578125 -1978.9835205078125 -1975.3699951171875 -1971.504150390625 -1967.43212890625 -1963.298828125 -1959.087646484375 -1954.80078125 -1950.4505615234375 -1946.0440673828125 -1941.621826171875 -1937.113037109375 -1932.5567626953125 -1927.926025390625 -1923.243896484375 -1918.49365234375 -1913.6610107421875 -1908.7410888671875 -1903.7452392578125 -1898.657958984375 -1893.4490966796875 -1888.156005859375 -1882.76513671875 -1877.2398681640625 -1871.5888671875 -1865.860107421875 -1860.0955810546875 -1854.2694091796875 -1848.3680419921875 -1842.6585693359375 -1837.0712890625 -1832.1060791015625 -1827.900390625 -1824.74072265625 -1822.931396484375 -1822.9046630859375 -1824.8076171875 -1827.854248046875 -1831.5916748046875 -1835.608154296875 -1839.435791015625 -1842.1495361328125 -1844.346923828125 -1846.7550048828125 -1850.14599609375 -1854.9405517578125 -1861.2283935546875 -1869.605224609375 -1879.83349609375 -1891.3780517578125 -1904.0255126953125 -1916.9493408203125 -1924.85888671875 -1926.668212890625 -1926.883056640625 -1929.631103515625 -1931.6572265625 -1932.66748046875 -1932.5899658203125 -1931.5731201171875 -1930.1300048828125 -1928.5970458984375 -1927.043212890625 -1925.5213623046875 -1924.033935546875 -1922.5870361328125 -1921.146240234375 -1919.688232421875 -1918.2138671875 -1916.7420654296875 -1915.2452392578125 -1913.7095947265625 -1912.1495361328125 -1910.5521240234375 -1908.9410400390625 -1907.3509521484375 -1905.8076171875 -1904.360595703125 -1903.0845947265625 -1902.1767578125 -1901.6800537109375 -1901.940673828125 -1903.51123046875 -1906.3914794921875 -1910.6051025390625 -1916.00537109375 -1922.7049560546875 -1930.6439208984375 -1940.457275390625 -1951.7498779296875 -1964.3616943359375 -1977.390869140625 -1990.0283203125 -99999 -99999 -99999 -99999 -99999 -99999 -99999 -99999 -99999 -99999 -99999 -99999 -99999 -99999 -99999 -99999 -99999 -99999 -99999 -99999 -99999 -99999
 -99999 -99999 -99999 -99999 -99999 -99999 -99999 -99999 -99999 -99999 -99999 -99999 -99999 -99999 -99999 -99999 -99999 -99999 -99999 -99999 -99999 -99999 -99999 -99999 -99999 -99999 -99999 -99999 -99999 -99999 -99999 -99999 -99999 -99999 -99999 -99999 -99999 -99999 -99999 -99999 -99999 -99999 -99999 -99999 -99999 -99999 -2314.308349609375 -2306.53515625 -2297.24755859375 -2286.73583984375 -2274.693359375 -2261.053466796875 -2246.3134765625 -2228.876953125 -2211.658447265625 -2193.244873046875 -2175.1513671875 -2157.750732421875 -2141.226318359375 -2125.45703125 -2110.18603515625 -2095.65185546875 -2081.55517578125 -2067.832275390625 -2054.64013671875 -2041.7779541015625 -2029.2916259765625 -2017.3896484375 -2005.86279296875 -1994.8973388671875 -1984.6470947265625 -1974.943603515625 -1966.0709228515625 -1957.8370361328125 -1950.3455810546875 -1943.5318603515625 -1937.4364013671875 -1932.239501953125 -1927.557373046875 -1923.63623046875 -1920.3798828125 -1917.6533203125 -1915.46630859375 -1913.7413330078125 -1912.530517578125 -1911.713623046875 -1911.1622314453125 -1910.8631591796875 -1910.76025390625 -1910.8035888671875 -1910.8861083984375 -1910.9581298828125 -1910.977294921875 -1910.87744140625 -1910.592041015625 -1910.1553955078125 -1909.60205078125 -1909.0548095703125 -1908.65234375 -1913.94580078125 -1921.3343505859375 -1929.3485107421875 -1936.7579345703125 -1943.1534423828125 -1948.5640869140625 -1952.9599609375 -1956.4508056640625 -1959.9578857421875 -1963.323974609375 -1966.619873046875 -1969.884033203125 -1972.17822265625 -1973.126953125 -1972.7225341796875 -1971.128662109375 -1968.5535888671875 -1965.227783203125 -1961.5677490234375 -1957.70361328125 -1953.6370849609375 -1949.448486328125 -1945.169677734375 -1940.85546875 -1936.4732666015625 -1932.02197265625 -1927.5220947265625 -1922.9754638671875 -1918.368408203125 -1913.6927490234375 -1908.94677734375 -1904.134521484375 -1899.2464599609375 -1894.2706298828125 -1889.1800537109375 -1884.0115966796875 -1878.7037353515625 -1873.272705078125 -1867.7364501953125 -1862.096435546875 -1856.323974609375 -1850.368896484375 -1844.3438720703125 -1838.1754150390625 -1832.04736328125 -1826.0682373046875 -1820.436279296875 -1815.4075927734375 -1811.5177001953125 -1809.535888671875 -1809.427490234375 -1811.3646240234375 -1814.8726806640625 -1819.274169921875 -1823.9073486328125 -1828.449462890625 -1832.5599365234375 -1836.642333984375 -1840.8592529296875 -1845.8773193359375 -1851.6627197265625 -1859.1680908203125 -1867.993408203125 -1878.201171875 -1889.28955078125 -1901.2091064453125 -1912.720703125 -1918.534423828125 -1917.3896484375 -1920.2125244140625 -1924.94482421875 -1928.410400390625 -1929.1298828125 -1928.266845703125 -1926.726806640625 -1924.8837890625 -1923.01611328125 -1921.30126953125 -1919.6925048828125 -1918.157470703125 -1916.6671142578125 -1915.1719970703125 -1913.6121826171875 -1912.04052734375 -1910.464599609375 -1908.8753662109375 -1907.2802734375 -1905.6695556640625 -1904.0482177734375 -1902.433837890625 -1900.849365234375 -1899.3377685546875 -1897.96484375 -1896.8494873046875 -1896.0133056640625 -1895.673828125 -1896.1202392578125 -1897.96630859375 -1901.0269775390625 -1905.3453369140625 -1910.8885498046875 -1917.909912109375 -1926.5572509765625 -1936.176513671875 -1947.482177734375 -1959.4696044921875 -1971.5843505859375 -1983.212890625 -99999 -99999 -99999 -99999 -99999 -99999 -99999 -99999 -99999 -99999 -99999 -99999 -99999 -99999 -99999 -99999 -99999 -99999 -99999 -99999 -99999 -99999
 -99999 -99999 -99999 -99999 -99999 -99999 -99999 -99999 -99999 -99999 -99999 -99999 -99999 -99999 -99999 -99999 -99999 -99999 -99999 -99999 -99999 -99999 -99999 -99999 -99999 -99999 -99999 -99999 -99999 -99999 -99999 -99999 -99999 -99999 -99999 -99999 -99999 -99999 -99999 -99999 -99999 -99999 -99999 -99999 -99999 -2318.340087890625 -2311.50146484375 -2303.625732421875 -2294.777099609375 -2284.40478515625 -2273.014892578125 -2260.32861328125 -2246 -2229.933349609375 -2211.62451171875 -2191.380615234375 -2172.81787109375 -2155.34326171875 -2138.379150390625 -2122.217529296875 -2106.791015625 -2091.862548828125 -2077.479248046875 -2063.492431640625 -2049.869873046875 -2036.637451171875 -2023.698486328125 -2011.3582763671875 -1999.44189453125 -1988.075927734375 -1977.3013916015625 -1967.4049072265625 -1958.09521484375 -1949.51708984375 -1941.8050537109375 -1934.8194580078125 -1928.67919921875 -1923.3719482421875 -1918.794189453125 -1914.8055419921875 -1911.4439697265625 -1908.7664794921875 -1906.7373046875 -1905.1741943359375 -1904.0328369140625 -1903.265869140625 -1902.8468017578125 -1902.723876953125 -1902.762939453125 -1902.90869140625 -1903.1019287109375 -1903.2535400390625 -1903.28466796875 -1903.1378173828125 -1902.769775390625 -1902.1492919921875 -1901.22119140625 -1900.4456787109375 -1901.367919921875 -1905.23974609375 -1912.732177734375 -1921.2183837890625 -1929.0247802734375 -1935.9847412109375 -1941.196044921875 -1944.9371337890625 -1948.007080078125 -1950.9539794921875 -1954.25146484375 -1957.0023193359375 -1959.301513671875 -1960.9398193359375 -1961.8323974609375 -1961.333251953125 -1959.7972412109375 -1957.482177734375 -1954.5654296875 -1951.193603515625 -1947.4306640625 -1943.49755859375 -1939.438720703125 -1935.252197265625 -1930.9749755859375 -1926.643798828125 -1922.2659912109375 -1917.8160400390625 -1913.3094482421875 -1908.7528076171875 -1904.1356201171875 -1899.4610595703125 -1894.7073974609375 -1889.85986328125 -1884.953857421875 -1879.9298095703125 -1874.7996826171875 -1869.5765380859375 -1864.2728271484375 -1858.776123046875 -1853.1334228515625 -1847.3760986328125 -1841.426025390625 -1835.3043212890625 -1829.04345703125 -1822.6993408203125 -1816.2877197265625 -1810.1365966796875 -1804.3675537109375 -1799.4013671875 -1796.6041259765625 -1796.2698974609375 -1798.6353759765625 -1802.8134765625 -1807.9056396484375 -1813.195556640625 -1818.568603515625 -1823.868896484375 -1829.2308349609375 -1834.8223876953125 -1840.871826171875 -1847.800048828125 -1855.8861083984375 -1864.989990234375 -1874.9896240234375 -1885.339599609375 -1895.7530517578125 -1903.8065185546875 -1907.876953125 -1909.9813232421875 -1915.2186279296875 -1922.14013671875 -1924.937744140625 -1924.9058837890625 -1923.1708984375 -1920.7886962890625 -1918.4619140625 -1916.4547119140625 -1914.7049560546875 -1913.1671142578125 -1911.733642578125 -1910.236328125 -1908.6624755859375 -1907.027587890625 -1905.3541259765625 -1903.6790771484375 -1902.0166015625 -1900.3609619140625 -1898.70263671875 -1897.034912109375 -1895.3643798828125 -1893.7330322265625 -1892.27197265625 -1890.8919677734375 -1889.6888427734375 -1888.82177734375 -1888.5948486328125 -1889.249755859375 -1891.1949462890625 -1894.2930908203125 -1898.886962890625 -1904.8408203125 -1912.0655517578125 -1920.62353515625 -1930.162109375 -1940.9140625 -1952.5374755859375 -1964.1380615234375 -99999 -99999 -99999 -99999 -99999 -99999 -99999 -99999 -99999 -99999 -99999 -99999 -99999 -99999 -99999 -99999 -99999 -99999 -99999 -99999 -99999 -99999 -99999
 -99999 -99999 -99999 -99999 -99999 -99999 -99999 -99999 -99999 -99999 -99999 -99999 -99999 -99999 -99999 -99999 -99999 -99999 -99999 -99999 -99999 -99999 -99999 -99999 -99999 -99999 -99999 -99999 -99999 -99999 -99999 -99999 -99999 -99999 -99999 -99999 -99999 -99999 -99999 -99999 -99999 -99999 -99999 -99999 -2320.5107421875 -2314.682373046875 -2308.03369140625 -2300.398681640625 -2291.63916015625 -2281.951904296875 -2270.94677734375 -2258.6376953125 -2245.384033203125 -2230.376708984375 -2212.028564453125 -2190.998046875 -2171.203125 -2152.6708984375 -2135.286376953125 -2118.86376953125 -2103.087890625 -2087.90966796875 -2073.178466796875 -2058.908935546875 -2044.871337890625 -2031.1407470703125 -2017.9005126953125 -2004.909912109375 -1992.433349609375 -1980.569580078125 -1969.52197265625 -1959.116943359375 -1949.5831298828125 -1940.8016357421875 -1932.83837890625 -1925.819580078125 -1919.6265869140625 -1914.1297607421875 -1909.3839111328125 -1905.483642578125 -1902.3223876953125 -1899.7469482421875 -1897.7225341796875 -1896.246337890625 -1895.269287109375 -1894.7254638671875 -1894.5323486328125 -1894.6029052734375 -1894.8612060546875 -1895.2344970703125 -1895.6829833984375 -1896.0994873046875 -1896.4267578125 -1896.5662841796875 -1896.3895263671875 -1896.0115966796875 -1895.451416015625 -1894.872314453125 -1895.41064453125 -1899.8980712890625 -1907.110107421875 -1915.205322265625 -1923.1903076171875 -1930.03662109375 -1934.95654296875 -1938.5267333984375 -1940.8184814453125 -1943.095947265625 -1945.3536376953125 -1947.425048828125 -1949.1658935546875 -1950.183349609375 -1950.3782958984375 -1949.796630859375 -1948.44140625 -1946.2841796875 -1943.498046875 -1940.3055419921875 -1936.79052734375 -1932.9954833984375 -1929.0634765625 -1925.023193359375 -1920.8662109375 -1916.6270751953125 -1912.327880859375 -1907.982666015625 -1903.581787109375 -1899.110595703125 -1894.581787109375 -1890.002685546875 -1885.3463134765625 -1880.6209716796875 -1875.802978515625 -1870.916015625 -1865.9384765625 -1860.8131103515625 -1855.596923828125 -1850.2581787109375 -1844.814453125 -1839.1619873046875 -1833.337646484375 -1827.2972412109375 -1821.128173828125 -1814.6900634765625 -1808.159912109375 -1801.542236328125 -1795.1842041015625 -1789.194091796875 -1784.1119384765625 -1783.4066162109375 -1787.335693359375 -1792.3740234375 -1797.9259033203125 -1803.7401123046875 -1809.866455078125 -1816.01708984375 -1822.1614990234375 -1828.7447509765625 -1835.8099365234375 -1843.453857421875 -1851.8338623046875 -1860.9710693359375 -1870.5035400390625 -1880.2318115234375 -1889.4166259765625 -1896.914794921875 -1902.01416015625 -1906.618896484375 -1913.8046875 -1919.5809326171875 -1921.7646484375 -1920.016357421875 -1916.510009765625 -1913.189208984375 -1910.48486328125 -1908.6534423828125 -1907.199951171875 -1906.01611328125 -1904.7498779296875 -1903.3167724609375 -1901.7044677734375 -1899.9560546875 -1898.138916015625 -1896.3209228515625 -1894.5523681640625 -1892.8328857421875 -1891.166748046875 -1889.4329833984375 -1887.6307373046875 -1885.890625 -1884.249755859375 -1882.7091064453125 -1881.3404541015625 -1880.5213623046875 -1880.519287109375 -1881.4315185546875 -1883.3909912109375 -1886.563232421875 -1891.228271484375 -1897.1026611328125 -1904.328369140625 -1912.951416015625 -1922.55615234375 -1932.7847900390625 -1943.7479248046875 -1954.6405029296875 -99999 -99999 -99999 -99999 -99999 -99999 -99999 -99999 -99999 -99999 -99999 -99999 -99999 -99999 -99999 -99999 -99999 -99999 -99999 -99999 -99999 -99999 -99999
 -99999 -99999 -99999 -99999 -99999 -99999 -99999 -99999 -99999 -99999 -99999 -99999 -99999 -99999 -99999 -99999 -99999 -99999 -99999 -99999 -99999 -99999 -99999 -99999 -99999 -99999 -99999 -99999 -99999 -99999 -99999 -99999 -99999 -99999 -99999 -99999 -99999 -99999 -99999 -99999 -99999 -99999 -99999 -2321.2783203125 -2316.19921875 -2310.397705078125 -2303.7275390625 -2296.285888671875 -2287.89892578125 -2278.428955078125 -2268.06298828125 -2256.505615234375 -2243.54736328125 -2229.072509765625 -2211.644287109375 -2191.015380859375 -2170.12939453125 -2150.50146484375 -2131.9658203125 -2115.10302734375 -2099.0166015625 -2083.581787109375 -2068.6435546875 -2053.89599609375 -2039.5390625 -2025.3988037109375 -2011.46435546875 -1998.100341796875 -1985.1661376953125 -1972.816650390625 -1961.30029296875 -1950.52734375 -1940.5185546875 -1931.5263671875 -1923.4913330078125 -1916.1990966796875 -1909.89990234375 -1904.428955078125 -1899.812744140625 -1895.880615234375 -1892.7384033203125 -1890.251220703125 -1888.5260009765625 -1887.2178955078125 -1886.4031982421875 -1886.1199951171875 -1886.1845703125 -1886.5404052734375 -1887.08447265625 -1887.775390625 -1888.5909423828125 -1889.4149169921875 -1890.1934814453125 -1890.7850341796875 -1891.20703125 -1891.5220947265625 -1891.755615234375 -1892.057861328125 -1892.8194580078125 -1896.798583984375 -1903.361572265625 -1910.9769287109375 -1918.2979736328125 -1924.7548828125 -1929.3458251953125 -1932.052001953125 -1933.7308349609375 -1935.1500244140625 -1936.5687255859375 -1937.953857421875 -1938.85498046875 -1939.3070068359375 -1939.1949462890625 -1938.3975830078125 -1936.9404296875 -1934.819091796875 -1932.185546875 -1929.1409912109375 -1925.8160400390625 -1922.248779296875 -1918.453857421875 -1914.5382080078125 -1910.5257568359375 -1906.4432373046875 -1902.2774658203125 -1898.0379638671875 -1893.7679443359375 -1889.4324951171875 -1885.0423583984375 -1880.611328125 -1876.103759765625 -1871.5345458984375 -1866.849853515625 -1862.0987548828125 -1857.27490234375 -1852.3616943359375 -1847.35009765625 -1842.195556640625 -1837.0496826171875 -1831.6090087890625 -1825.982177734375 -1820.268798828125 -1814.3267822265625 -1808.0823974609375 -1801.723388671875 -1795.0279541015625 -1788.3695068359375 -1781.7677001953125 -1776.355712890625 -1775.5782470703125 -1778.9886474609375 -1783.921142578125 -1789.7034912109375 -1795.7935791015625 -1802.2684326171875 -1808.8914794921875 -1815.7841796875 -1822.97998046875 -1830.5107421875 -1838.53173828125 -1847.1162109375 -1856.1541748046875 -1865.456787109375 -1874.4664306640625 -1882.814697265625 -1890.2481689453125 -1896.507080078125 -1902.047607421875 -1908.4674072265625 -1914.2928466796875 -1914.8873291015625 -1911.9185791015625 -1907.2698974609375 -1903.6710205078125 -1901.1285400390625 -1899.8919677734375 -1899.1800537109375 -1898.487060546875 -1897.4666748046875 -1896.0804443359375 -1894.3353271484375 -1892.3551025390625 -1890.33154296875 -1888.3770751953125 -1886.4666748046875 -1884.714599609375 -1882.9652099609375 -1881.0975341796875 -1879.0850830078125 -1877.048828125 -1875.1798095703125 -1873.4464111328125 -1872.0794677734375 -1871.2965087890625 -1871.21826171875 -1872.1707763671875 -1874.3223876953125 -1877.7310791015625 -1882.36328125 -1888.2818603515625 -1895.4222412109375 -1903.7476806640625 -1913.1263427734375 -1923.1856689453125 -1933.51318359375 -99999 -99999 -99999 -99999 -99999 -99999 -99999 -99999 -99999 -99999 -99999 -99999 -99999 -99999 -99999 -99999 -99999 -99999 -99999 -99999 -99999 -99999 -99999 -99999
 -99999 -99999 -99999 -99999 -99999 -99999 -99999 -99999 -99999 -99999 -99999 -99999 -99999 -99999 -99999 -99999 -99999 -99999 -99999 -99999 -99999 -99999 -99999 -99999 -99999 -99999 -99999 -99999 -99999 -99999 -99999 -99999 -99999 -99999 -99999 -99999 -99999 -99999 -99999 -99999 -99999 -99999 -2320.664306640625 -2316.146484375 -2311.020751953125 -2305.285888671875 -2298.8896484375 -2291.616455078125 -2283.576416015625 -2274.509521484375 -2264.4208984375 -2253.218017578125 -2240.78271484375 -2226.583251953125 -2209.56005859375 -2189.98095703125 -2169.5595703125 -2149.06494140625 -2129.710205078125 -2111.647216796875 -2094.933349609375 -2079.203857421875 -2063.886962890625 -2048.858154296875 -2034.00048828125 -2019.35791015625 -2004.867919921875 -1990.779052734375 -1977.2828369140625 -1964.4620361328125 -1952.3592529296875 -1941.2135009765625 -1931.079345703125 -1921.808349609375 -1913.5723876953125 -1906.2227783203125 -1899.8507080078125 -1894.3021240234375 -1889.69970703125 -1885.993408203125 -1882.9412841796875 -1880.6260986328125 -1878.9381103515625 -1877.9306640625 -1877.423583984375 -1877.3643798828125 -1877.66552734375 -1878.3245849609375 -1879.315673828125 -1880.5047607421875 -1881.771484375 -1883.041259765625 -1884.36962890625 -1885.76611328125 -1887.146484375 -1888.33837890625 -1889.4793701171875 -1891.051513671875 -1893.383056640625 -1896.8682861328125 -1900.930419921875 -1906.4979248046875 -1913.3968505859375 -1919.4710693359375 -1922.9908447265625 -1924.6903076171875 -1925.6861572265625 -1926.53564453125 -1927.3795166015625 -1928.0135498046875 -1928.3018798828125 -1928.263671875 -1927.80908203125 -1926.822998046875 -1925.2330322265625 -1923.17822265625 -1920.705078125 -1917.8101806640625 -1914.6214599609375 -1911.1861572265625 -1907.60205078125 -1903.88623046875 -1900.0147705078125 -1896.070068359375 -1892.0992431640625 -1888.0263671875 -1883.9097900390625 -1879.775146484375 -1875.5704345703125 -1871.2821044921875 -1866.9208984375 -1862.521728515625 -1858.0699462890625 -1853.515869140625 -1848.9058837890625 -1844.1917724609375 -1839.4698486328125 -1834.5811767578125 -1829.6373291015625 -1824.63037109375 -1819.54345703125 -1814.2022705078125 -1808.60009765625 -1802.7186279296875 -1796.67919921875 -1790.2606201171875 -1783.874755859375 -1778.0054931640625 -1773.3902587890625 -1771.9732666015625 -1774.1109619140625 -1778.040771484375 -1783.1929931640625 -1789.2327880859375 -1795.7581787109375 -1802.642333984375 -1809.794921875 -1817.30712890625 -1825.23681640625 -1833.5050048828125 -1842.0828857421875 -1850.922119140625 -1859.7613525390625 -1868.417724609375 -1876.468994140625 -1883.499267578125 -1889.7510986328125 -1895.551513671875 -1900.440673828125 -1903.693603515625 -1904.2569580078125 -1900.5906982421875 -1896.1058349609375 -1892.0650634765625 -1890.4088134765625 -1890.395751953125 -1890.8045654296875 -1890.778076171875 -1890.0478515625 -1888.6312255859375 -1886.6241455078125 -1884.2742919921875 -1881.9078369140625 -1879.6881103515625 -1877.6341552734375 -1875.8433837890625 -1874.07080078125 -1871.975341796875 -1869.71484375 -1867.27783203125 -1864.9520263671875 -1862.936767578125 -1861.5311279296875 -1860.698486328125 -1860.7625732421875 -1861.80810546875 -1863.92919921875 -1867.4776611328125 -1872.1015625 -1878.1024169921875 -1885.20849609375 -1893.3587646484375 -1902.5045166015625 -1912.0799560546875 -1922.0673828125 -99999 -99999 -99999 -99999 -99999 -99999 -99999 -99999 -99999 -99999 -99999 -99999 -99999 -99999 -99999 -99999 -99999 -99999 -99999 -99999 -99999 -99999 -99999 -99999
 -99999 -99999 -99999 -99999 -99999 -99999 -99999 -99999 -99999 -99999 -99999 -99999 -99999 -99999 -99999 -99999 -99999 -99999 -99999 -99999 -99999 -99999 -99999 -99999 -99999 -99999 -99999 -99999 -99999 -99999 -99999 -99999 -99999 -99999 -99999 -99999 -99999 -99999 -99999 -99999 -99999 -2318.79638671875 -2314.754638671875 -2310.23388671875 -2305.17236328125 -2299.513916015625 -2293.199951171875 -2286.189453125 -2278.42236328125 -2269.7333984375 -2260.130859375 -2249.396728515625 -2237.375732421875 -2223.548095703125 -2207.333740234375 -2188.78515625 -2168.637939453125 -2147.83740234375 -2127.40869140625 -2108.510498046875 -2090.91162109375 -2074.72607421875 -2058.921142578125 -2043.5098876953125 -2028.2071533203125 -2012.8212890625 -1997.718994140625 -1983.0029296875 -1968.868408203125 -1955.5888671875 -1943.0924072265625 -1931.5816650390625 -1921.047119140625 -1911.5634765625 -1903.156494140625 -1895.6434326171875 -1889.2281494140625 -1883.8629150390625 -1879.3310546875 -1875.63232421875 -1872.751953125 -1870.66015625 -1869.224609375 -1868.4097900390625 -1868.1121826171875 -1868.36181640625 -1869.0859375 -1870.15185546875 -1871.49267578125 -1873.0638427734375 -1874.8477783203125 -1876.875244140625 -1878.93017578125 -1880.9471435546875 -1882.99072265625 -1885.26318359375 -1887.706787109375 -1890.1439208984375 -1893.0570068359375 -1894.8626708984375 -1897.22216796875 -1901.140869140625 -1906.5712890625 -1911.51416015625 -1914.502197265625 -1915.83642578125 -1916.6593017578125 -1917.189208984375 -1917.4755859375 -1917.6114501953125 -1917.5428466796875 -1917.1695556640625 -1916.35693359375 -1915.132080078125 -1913.49755859375 -1911.443115234375 -1909.002197265625 -1906.2396240234375 -1903.2530517578125 -1899.9873046875 -1896.555419921875 -1893.0230712890625 -1889.36962890625 -1885.6031494140625 -1881.8048095703125 -1877.9718017578125 -1874.06005859375 -1870.083984375 -1866.048583984375 -1861.9969482421875 -1857.8980712890625 -1853.6727294921875 -1849.4271240234375 -1845.111328125 -1840.745361328125 -1836.2857666015625 -1831.8134765625 -1827.2928466796875 -1822.7742919921875 -1818.1458740234375 -1813.43798828125 -1808.7259521484375 -1803.692626953125 -1798.5076904296875 -1793.0242919921875 -1787.244384765625 -1781.0313720703125 -1775.4132080078125 -1771.3603515625 -1769.7757568359375 -1770.637451171875 -1773.871826171875 -1778.40625 -1783.906982421875 -1790.184814453125 -1797.063720703125 -1804.3236083984375 -1811.9859619140625 -1820.0179443359375 -1828.3062744140625 -1836.856689453125 -1845.454345703125 -1854.02880859375 -1862.16357421875 -1869.6956787109375 -1876.4742431640625 -1882.3555908203125 -1887.4486083984375 -1891.0616455078125 -1892.8369140625 -1891.986083984375 -1888.373046875 -1883.1142578125 -1878.383056640625 -1879.2960205078125 -1881.0008544921875 -1882.657470703125 -1883.4481201171875 -1882.779541015625 -1880.9815673828125 -1878.5252685546875 -1875.7900390625 -1872.8909912109375 -1870.1011962890625 -1867.8126220703125 -1865.96435546875 -1864.1217041015625 -1861.8397216796875 -1858.942138671875 -1856.2830810546875 -1853.694091796875 -1851.5982666015625 -1850.0076904296875 -1849.13818359375 -1849.14453125 -1850.2037353515625 -1852.482666015625 -1856.082763671875 -1860.7015380859375 -1866.7723388671875 -1873.7900390625 -1881.8486328125 -1890.5672607421875 -1900.0107421875 -99999 -99999 -99999 -99999 -99999 -99999 -99999 -99999 -99999 -99999 -99999 -99999 -99999 -99999 -99999 -99999 -99999 -99999 -99999 -99999 -99999 -99999 -99999 -99999 -99999
 -99999 -99999 -99999 -99999 -99999 -99999 -99999 -99999 -99999 -99999 -99999 -99999 -99999 -99999 -99999 -99999 -99999 -99999 -99999 -99999 -99999 -99999 -99999 -99999 -99999 -99999 -99999 -99999 -99999 -99999 -99999 -99999 -99999 -99999 -99999 -99999 -99999 -99999 -99999 -99999 -2315.871826171875 -2312.195068359375 -2308.1015625 -2303.6298828125 -2298.6787109375 -2293.1416015625 -2286.898681640625 -2280.1083984375 -2272.577880859375 -2264.1103515625 -2254.892578125 -2244.74169921875 -2233.235107421875 -2220.045654296875 -2204.72509765625 -2186.58544921875 -2166.81884765625 -2146.16650390625 -2125.719482421875 -2105.97412109375 -2087.540283203125 -2070.25830078125 -2053.99853515625 -2038.235107421875 -2022.3597412109375 -2006.280517578125 -1990.200927734375 -1974.7646484375 -1959.9947509765625 -1946.005126953125 -1933.0911865234375 -1921.2578125 -1910.4295654296875 -1900.8262939453125 -1892.197998046875 -1884.78466796875 -1878.4052734375 -1872.943603515625 -1868.48193359375 -1864.97314453125 -1862.3350830078125 -1860.3995361328125 -1859.1282958984375 -1858.5806884765625 -1858.649169921875 -1859.228515625 -1860.2371826171875 -1861.6123046875 -1863.464599609375 -1865.6409912109375 -1867.95556640625 -1870.45751953125 -1873.0936279296875 -1876.0172119140625 -1879.051025390625 -1882.056640625 -1885.0872802734375 -1888.101318359375 -1890.2113037109375 -1890.1590576171875 -1890.5213623046875 -1892.817626953125 -1896.9989013671875 -1901.1407470703125 -1903.9324951171875 -1905.563232421875 -1906.4046630859375 -1906.7872314453125 -1906.9140625 -1906.807373046875 -1906.35400390625 -1905.637939453125 -1904.6273193359375 -1903.287109375 -1901.6114501953125 -1899.558837890625 -1897.201904296875 -1894.5496826171875 -1891.6805419921875 -1888.6138916015625 -1885.3580322265625 -1881.9974365234375 -1878.58251953125 -1875.0789794921875 -1871.4761962890625 -1867.829345703125 -1864.12158203125 -1860.4232177734375 -1856.659912109375 -1852.7738037109375 -1848.8935546875 -1844.951416015625 -1840.934326171875 -1836.861328125 -1832.7841796875 -1828.636962890625 -1824.44921875 -1820.262451171875 -1816.043212890625 -1811.9658203125 -1807.841552734375 -1803.73828125 -1799.6158447265625 -1795.0650634765625 -1790.0152587890625 -1784.607421875 -1778.700439453125 -1773.34375 -1769.6629638671875 -1767.9571533203125 -1768.3311767578125 -1770.611328125 -1774.383544921875 -1779.55712890625 -1785.5023193359375 -1792.12353515625 -1799.289306640625 -1806.9051513671875 -1814.8997802734375 -1823.118408203125 -1831.4920654296875 -1839.870361328125 -1848.06884765625 -1855.786865234375 -1862.979736328125 -1869.3748779296875 -1874.54052734375 -1878.573486328125 -1881.17333984375 -1881.981201171875 -1880.5599365234375 -1876.8414306640625 -1871.380615234375 -1867.855224609375 -1869.0147705078125 -1872.683349609375 -1875.978515625 -1876.657958984375 -1875.67822265625 -1873.458251953125 -1870.1463623046875 -1866.4219970703125 -1862.8275146484375 -1859.62060546875 -1856.92529296875 -1854.7935791015625 -1852.8519287109375 -1850.233154296875 -1847.212158203125 -1844.26416015625 -1841.585205078125 -1839.2667236328125 -1837.5162353515625 -1836.534912109375 -1836.61181640625 -1837.7525634765625 -1839.9918212890625 -1843.4835205078125 -1848.3553466796875 -1854.312744140625 -1861.3076171875 -1869.3111572265625 -1877.9156494140625 -1887.0738525390625 -99999 -99999 -99999 -99999 -99999 -99999 -99999 -99999 -99999 -99999 -99999 -99999 -99999 -99999 -99999 -99999 -99999 -99999 -99999 -99999 -99999 -99999 -99999 -99999 -99999
 -99999 -99999 -99999 -99999 -99999 -99999 -99999 -99999 -99999 -99999 -99999 -99999 -99999 -99999 -99999 -99999 -99999 -99999 -99999 -99999 -99999 -99999 -99999 -99999 -99999 -99999 -99999 -99999 -99999 -99999 -99999 -99999 -99999 -99999 -99999 -99999 -99999 -99999 -99999 -99999 -2308.59326171875 -2304.934814453125 -2300.87451171875 -2296.3876953125 -2291.4130859375 -2285.94482421875 -2279.754150390625 -2273.09716796875 -2265.7060546875 -2257.63037109375 -2248.637939453125 -2239.05322265625 -2228.587158203125 -2216.258544921875 -2201.75146484375 -2183.5615234375 -2163.799072265625 -2143.35400390625 -2123.007568359375 -2102.99755859375 -2083.805908203125 -2065.714599609375 -2048.880859375 -2032.7738037109375 -2016.087158203125 -1998.9300537109375 -1981.9791259765625 -1965.732666015625 -1950.4134521484375 -1935.8387451171875 -1922.5609130859375 -1910.4560546875 -1899.3074951171875 -1889.475830078125 -1880.9464111328125 -1873.332763671875 -1866.91650390625 -1861.6824951171875 -1857.443115234375 -1854.0814208984375 -1851.4759521484375 -1849.717041015625 -1848.7645263671875 -1848.4837646484375 -1848.8345947265625 -1849.7064208984375 -1851.1414794921875 -1853.03125 -1855.2645263671875 -1857.7705078125 -1860.570556640625 -1863.7772216796875 -1867.068603515625 -1870.5657958984375 -1874.14794921875 -1877.9525146484375 -1881.7550048828125 -1884.7987060546875 -1886.06298828125 -1884.5533447265625 -1879.828857421875 -1882.4268798828125 -1886.4071044921875 -1890.146484375 -1892.898193359375 -1894.5653076171875 -1895.4564208984375 -1895.83447265625 -1895.7889404296875 -1895.470458984375 -1894.8160400390625 -1893.9403076171875 -1892.7728271484375 -1891.3135986328125 -1889.560546875 -1887.5299072265625 -1885.2327880859375 -1882.684326171875 -1879.958251953125 -1877.0709228515625 -1874.0745849609375 -1870.906982421875 -1867.689697265625 -1864.384765625 -1861.0380859375 -1857.69775390625 -1854.2254638671875 -1850.7528076171875 -1847.242919921875 -1843.6458740234375 -1840.016845703125 -1836.3253173828125 -1832.638671875 -1828.8079833984375 -1824.9580078125 -1821.0853271484375 -1817.2003173828125 -1813.413330078125 -1809.61962890625 -1805.872802734375 -1802.36181640625 -1798.96826171875 -1795.5330810546875 -1791.8043212890625 -1787.105712890625 -1781.6483154296875 -1776.1839599609375 -1771.2647705078125 -1767.64404296875 -1765.884033203125 -1766.1063232421875 -1768.0006103515625 -1771.2861328125 -1775.7506103515625 -1781.2379150390625 -1787.67626953125 -1794.6851806640625 -1802.1099853515625 -1809.9456787109375 -1818.0455322265625 -1826.2296142578125 -1834.3370361328125 -1842.1651611328125 -1849.6204833984375 -1856.267333984375 -1862.020263671875 -1866.70263671875 -1870.2371826171875 -1872.1668701171875 -1872.2249755859375 -1870.5745849609375 -1867.5135498046875 -1863.7801513671875 -1861.7664794921875 -1862.8951416015625 -1866.9014892578125 -1870.282958984375 -1871.1119384765625 -1868.8077392578125 -1865.208740234375 -1861.0521240234375 -1856.666259765625 -1852.173828125 -1848.0355224609375 -1844.67822265625 -1842.235595703125 -1839.9791259765625 -1837.317626953125 -1834.370849609375 -1831.336669921875 -1828.4964599609375 -1826.05126953125 -1824.2294921875 -1823.1689453125 -1823.0301513671875 -1824.0667724609375 -1826.625732421875 -1830.2735595703125 -1835.1202392578125 -1841.074462890625 -1848.031494140625 -1856.03564453125 -1864.42919921875 -99999 -99999 -99999 -99999 -99999 -99999 -99999 -99999 -99999 -99999 -99999 -99999 -99999 -99999 -99999 -99999 -99999 -99999 -99999 -99999 -99999 -99999 -99999 -99999 -99999 -99999
 -99999 -99999 -99999 -99999 -99999 -99999 -99999 -99999 -99999 -99999 -99999 -99999 -99999 -99999 -99999 -99999 -99999 -99999 -99999 -99999 -99999 -99999 -99999 -99999 -99999 -99999 -99999 -99999 -99999 -99999 -99999 -99999 -99999 -99999 -99999 -99999 -99999 -99999 -99999 -2304.152099609375 -2300.765380859375 -2297.0302734375 -2292.97998046875 -2288.474853515625 -2283.465087890625 -2277.987060546875 -2271.984130859375 -2265.40869140625 -2258.013916015625 -2250.0380859375 -2241.43896484375 -2231.987060546875 -2221.587646484375 -2209.989990234375 -2195.47119140625 -2178.259521484375 -2158.739990234375 -2138.8544921875 -2118.7470703125 -2099.00439453125 -2079.796875 -2061.386474609375 -2043.908935546875 -2027.1326904296875 -2009.4432373046875 -1991.0521240234375 -1973.2078857421875 -1956.1663818359375 -1939.9801025390625 -1925.2261962890625 -1911.48876953125 -1898.8673095703125 -1887.6954345703125 -1877.657470703125 -1868.968505859375 -1861.6365966796875 -1855.3409423828125 -1850.0013427734375 -1845.8580322265625 -1842.7628173828125 -1840.4058837890625 -1838.886474609375 -1838.25390625 -1838.2484130859375 -1838.834716796875 -1839.97607421875 -1841.7069091796875 -1843.955810546875 -1846.5794677734375 -1849.581787109375 -1852.9613037109375 -1856.48681640625 -1860.2459716796875 -1864.2449951171875 -1868.4571533203125 -1872.696533203125 -1876.8121337890625 -1880.4351806640625 -1882.0556640625 -1876.78662109375 -1872.469482421875 -1872.5015869140625 -1876.3021240234375 -1879.3194580078125 -1881.5625 -1883.066650390625 -1883.9371337890625 -1884.2684326171875 -1884.121826171875 -1883.63037109375 -1882.8709716796875 -1881.871826171875 -1880.6346435546875 -1879.1046142578125 -1877.31884765625 -1875.321044921875 -1873.125244140625 -1870.7342529296875 -1868.1439208984375 -1865.4412841796875 -1862.606689453125 -1859.6878662109375 -1856.718017578125 -1853.6656494140625 -1850.57275390625 -1847.4736328125 -1844.3101806640625 -1841.11669921875 -1837.8779296875 -1834.5892333984375 -1831.2747802734375 -1827.832763671875 -1824.3641357421875 -1820.845947265625 -1817.29541015625 -1813.7335205078125 -1810.1551513671875 -1806.57177734375 -1803.1246337890625 -1799.786376953125 -1796.6802978515625 -1793.7724609375 -1791.25 -1788.1373291015625 -1783.57666015625 -1778.174072265625 -1772.917724609375 -1768.683837890625 -1765.6549072265625 -1764.0262451171875 -1763.880126953125 -1765.23095703125 -1768.23486328125 -1772.4378662109375 -1777.5897216796875 -1783.54296875 -1790.220703125 -1797.5494384765625 -1805.1712646484375 -1813.06591796875 -1821.0474853515625 -1828.90771484375 -1836.4903564453125 -1843.6226806640625 -1849.863525390625 -1855.2650146484375 -1859.4676513671875 -1862.2049560546875 -1863.5775146484375 -1863.5972900390625 -1862.3487548828125 -1860.2197265625 -1858.214111328125 -1857.631103515625 -1859.2322998046875 -1863.229248046875 -1866.709716796875 -1864.9163818359375 -1861.138427734375 -1856.5440673828125 -1851.396240234375 -1845.9876708984375 -1840.6702880859375 -1835.6844482421875 -1831.7686767578125 -1828.9453125 -1826.4483642578125 -1823.7947998046875 -1820.8756103515625 -1817.8387451171875 -1814.9072265625 -1812.273193359375 -1810.1160888671875 -1808.9178466796875 -1808.8699951171875 -1810.0240478515625 -1812.4227294921875 -1816.04052734375 -1821.2037353515625 -1827.35400390625 -1834.425537109375 -1842.1478271484375 -1850.4765625 -99999 -99999 -99999 -99999 -99999 -99999 -99999 -99999 -99999 -99999 -99999 -99999 -99999 -99999 -99999 -99999 -99999 -99999 -99999 -99999 -99999 -99999 -99999 -99999 -99999 -99999
 -99999 -99999 -99999 -99999 -99999 -99999 -99999 -99999 -99999 -99999 -99999 -99999 -99999 -99999 -99999 -99999 -99999 -99999 -99999 -99999 -99999 -99999 -99999 -99999 -99999 -99999 -99999 -99999 -99999 -99999 -99999 -99999 -99999 -99999 -99999 -99999 -99999 -99999 -2298.869140625 -2295.70361328125 -2292.3212890625 -2288.536865234375 -2284.39306640625 -2279.8759765625 -2274.94775390625 -2269.43896484375 -2263.30126953125 -2256.64892578125 -2249.44189453125 -2241.444580078125 -2232.765869140625 -2223.26318359375 -2212.74853515625 -2200.787841796875 -2186.706787109375 -2169.792724609375 -2151.716064453125 -2132.6298828125 -2112.984130859375 -2093.58935546875 -2074.134765625 -2055.613525390625 -2037.804931640625 -2020.30859375 -2001.5771484375 -1981.9127197265625 -1963.1304931640625 -1945.404296875 -1928.9371337890625 -1913.5894775390625 -1899.662841796875 -1886.9200439453125 -1875.7177734375 -1865.6749267578125 -1856.88671875 -1849.2943115234375 -1843.1290283203125 -1838.1053466796875 -1834.035400390625 -1831.1400146484375 -1829.09765625 -1827.8709716796875 -1827.35400390625 -1827.4940185546875 -1828.4141845703125 -1829.9022216796875 -1831.963134765625 -1834.4759521484375 -1837.4337158203125 -1840.854736328125 -1844.6304931640625 -1848.5035400390625 -1852.6390380859375 -1856.887939453125 -1861.244384765625 -1865.7462158203125 -1870.4888916015625 -1874.5279541015625 -1874.7174072265625 -1871.1585693359375 -1865.8828125 -1865.650634765625 -1867.0670166015625 -1868.77587890625 -1870.446533203125 -1871.6336669921875 -1872.160888671875 -1872.2801513671875 -1872.0479736328125 -1871.5079345703125 -1870.6878662109375 -1869.572265625 -1868.235595703125 -1866.7032470703125 -1864.9744873046875 -1863.0467529296875 -1860.9091796875 -1858.628173828125 -1856.2213134765625 -1853.70361328125 -1851.0823974609375 -1848.385498046875 -1845.673828125 -1842.8873291015625 -1840.0965576171875 -1837.2708740234375 -1834.41845703125 -1831.5155029296875 -1828.584228515625 -1825.582763671875 -1822.5711669921875 -1819.457275390625 -1816.2781982421875 -1813.0391845703125 -1809.7601318359375 -1806.4384765625 -1803.1419677734375 -1799.861328125 -1796.6563720703125 -1793.5184326171875 -1790.6474609375 -1788.0439453125 -1785.4840087890625 -1782.7049560546875 -1778.6285400390625 -1773.89306640625 -1769.513427734375 -1765.787353515625 -1762.958740234375 -1761.42138671875 -1761.4739990234375 -1762.8267822265625 -1765.3863525390625 -1769.0694580078125 -1773.9102783203125 -1779.692138671875 -1786.156494140625 -1793.153564453125 -1800.5750732421875 -1808.296142578125 -1816.0877685546875 -1823.799072265625 -1831.1185302734375 -1837.855712890625 -1843.86865234375 -1848.95068359375 -1852.56494140625 -1855.0985107421875 -1856.3568115234375 -1856.0247802734375 -1854.8663330078125 -1853.3980712890625 -1852.18505859375 -1851.967529296875 -1854.0028076171875 -1857.24609375 -1858.7900390625 -1856.9085693359375 -1851.6026611328125 -1846.60693359375 -1840.58935546875 -1834.317626953125 -1828.4720458984375 -1823.1806640625 -1818.815673828125 -1815.51025390625 -1812.796875 -1810.03564453125 -1807.1474609375 -1804.094482421875 -1801.0103759765625 -1798.152099609375 -1795.6405029296875 -1794.1986083984375 -1794.0029296875 -1795.1475830078125 -1797.6878662109375 -1801.5316162109375 -1806.76806640625 -1813.100341796875 -1820.2545166015625 -1828.0517578125 -99999 -99999 -99999 -99999 -99999 -99999 -99999 -99999 -99999 -99999 -99999 -99999 -99999 -99999 -99999 -99999 -99999 -99999 -99999 -99999 -99999 -99999 -99999 -99999 -99999 -99999 -99999
 -99999 -99999 -99999 -99999 -99999 -99999 -99999 -99999 -99999 -99999 -99999 -99999 -99999 -99999 -99999 -99999 -99999 -99999 -99999 -99999 -99999 -99999 -99999 -99999 -99999 -99999 -99999 -99999 -99999 -99999 -99999 -99999 -99999 -99999 -99999 -99999 -99999 -99999 -2289.959228515625 -2286.73193359375 -2283.23291015625 -2279.45703125 -2275.3271484375 -2270.713134765625 -2265.613525390625 -2260.0556640625 -2254.0185546875 -2247.2470703125 -2239.8779296875 -2231.95263671875 -2223.07666015625 -2213.13232421875 -2202.35400390625 -2189.734375 -2175.593505859375 -2160.14990234375 -2142.96435546875 -2124.902099609375 -2105.99365234375 -2086.7119140625 -2067.431640625 -2048.555419921875 -2029.873291015625 -2011.111572265625 -1991.397705078125 -1971.490966796875 -1952.4068603515625 -1934.1201171875 -1917.280517578125 -1901.7581787109375 -1887.52490234375 -1874.8211669921875 -1863.220703125 -1852.9412841796875 -1844.2548828125 -1836.796875 -1830.5966796875 -1825.7894287109375 -1822.099365234375 -1819.3673095703125 -1817.478271484375 -1816.4151611328125 -1816.213134765625 -1816.675537109375 -1817.74365234375 -1819.388916015625 -1821.6185302734375 -1824.5155029296875 -1827.8546142578125 -1831.56298828125 -1835.5780029296875 -1839.763671875 -1844.1187744140625 -1848.290771484375 -1852.516845703125 -1856.6722412109375 -1860.9720458984375 -1865.1802978515625 -1869.12109375 -1863.930908203125 -1860.14599609375 -1858.1402587890625 -1857.8333740234375 -1858.593505859375 -1859.3028564453125 -1859.8331298828125 -1860.1033935546875 -1860.073486328125 -1859.708984375 -1859.0264892578125 -1858.1240234375 -1857.0145263671875 -1855.6966552734375 -1854.1689453125 -1852.4609375 -1850.60498046875 -1848.6099853515625 -1846.4615478515625 -1844.2115478515625 -1841.89501953125 -1839.4765625 -1837.036865234375 -1834.57666015625 -1832.1024169921875 -1829.601318359375 -1827.040771484375 -1824.4962158203125 -1821.9603271484375 -1819.3951416015625 -1816.731201171875 -1813.9747314453125 -1811.1796875 -1808.2904052734375 -1805.3563232421875 -1802.33447265625 -1799.281494140625 -1796.2618408203125 -1793.1767578125 -1790.1533203125 -1787.154541015625 -1784.3160400390625 -1781.76171875 -1779.3443603515625 -1776.442138671875 -1772.9808349609375 -1769.2025146484375 -1765.4312744140625 -1762.2291259765625 -1759.8592529296875 -1758.6756591796875 -1758.65380859375 -1759.7882080078125 -1762.292724609375 -1765.923583984375 -1770.4644775390625 -1775.840087890625 -1782.024169921875 -1788.9156494140625 -1796.1949462890625 -1803.7401123046875 -1811.398681640625 -1818.913330078125 -1826.154541015625 -1832.8505859375 -1838.6387939453125 -1843.292724609375 -1846.94091796875 -1849.0321044921875 -1849.706298828125 -1849.2822265625 -1848.0360107421875 -1846.48583984375 -1845.320068359375 -1844.97265625 -1845.99560546875 -1847.1273193359375 -1847.527587890625 -1844.3343505859375 -1840.1590576171875 -1835.7763671875 -1828.6549072265625 -1821.4468994140625 -1814.92041015625 -1809.48876953125 -1805.3125 -1801.955078125 -1799.1297607421875 -1796.4080810546875 -1793.5634765625 -1790.4591064453125 -1787.15283203125 -1783.9312744140625 -1781.2265625 -1779.3232421875 -1778.6849365234375 -1779.767333984375 -1782.760498046875 -1787.0196533203125 -1792.473388671875 -1798.803466796875 -1805.997314453125 -1813.853759765625 -99999 -99999 -99999 -99999 -99999 -99999 -99999 -99999 -99999 -99999 -99999 -99999 -99999 -99999 -99999 -99999 -99999 -99999 -99999 -99999 -99999 -99999 -99999 -99999 -99999 -99999 -99999
 -99999 -99999 -99999 -99999 -99999 -99999 -99999 -99999 -99999 -99999 -99999 -99999 -99999 -99999 -99999 -99999 -99999 -99999 -99999 -99999 -99999 -99999 -99999 -99999 -99999 -99999 -99999 -99999 -99999 -99999 -99999 -99999 -99999 -99999 -99999 -99999 -99999 -2283.478759765625 -2280.4619140625 -2277.2392578125 -2273.71826171875 -2269.825439453125 -2265.548095703125 -2260.907470703125 -2255.8056640625 -2250.17919921875 -2243.9921875 -2237.1923828125 -2229.705078125 -2221.467041015625 -2212.422119140625 -2202.408935546875 -2191.054443359375 -2178.608642578125 -2164.745849609375 -2149.684326171875 -2133.5263671875 -2115.951171875 -2097.626708984375 -2078.6318359375 -2059.48291015625 -2040.0830078125 -2020.686767578125 -2000.98486328125 -1980.83837890625 -1960.6588134765625 -1940.9476318359375 -1922.4046630859375 -1905.037353515625 -1889.391845703125 -1875.234130859375 -1862.1944580078125 -1850.440185546875 -1840.1656494140625 -1831.317138671875 -1824.0179443359375 -1818.1597900390625 -1813.427001953125 -1809.849853515625 -1807.34765625 -1805.7078857421875 -1804.9293212890625 -1804.85595703125 -1805.4459228515625 -1806.677734375 -1808.5482177734375 -1811.06298828125 -1814.056396484375 -1817.5775146484375 -1821.541015625 -1825.896484375 -1830.3590087890625 -1834.7327880859375 -1838.8272705078125 -1842.607666015625 -1845.8463134765625 -1849.1556396484375 -1852.5379638671875 -1854.1822509765625 -1853.3944091796875 -1850.3489990234375 -1848.554931640625 -1847.83984375 -1847.664794921875 -1847.766357421875 -1847.88037109375 -1847.8677978515625 -1847.618896484375 -1847.1083984375 -1846.36181640625 -1845.4173583984375 -1844.2662353515625 -1842.9649658203125 -1841.4713134765625 -1839.8212890625 -1838.0582275390625 -1836.1942138671875 -1834.20263671875 -1832.106689453125 -1830.0025634765625 -1827.8431396484375 -1825.6552734375 -1823.4368896484375 -1821.1871337890625 -1819.026611328125 -1816.850830078125 -1814.676513671875 -1812.423583984375 -1810.163330078125 -1807.871337890625 -1805.512451171875 -1803.0382080078125 -1800.4378662109375 -1797.8214111328125 -1795.037109375 -1792.1976318359375 -1789.4041748046875 -1786.6141357421875 -1783.8233642578125 -1780.819580078125 -1777.981689453125 -1775.6019287109375 -1773.191162109375 -1770.576416015625 -1767.494384765625 -1764.2254638671875 -1761.1512451171875 -1758.50537109375 -1756.587158203125 -1755.6412353515625 -1755.64404296875 -1756.8056640625 -1759.0626220703125 -1762.4599609375 -1766.856201171875 -1772.139404296875 -1778.1341552734375 -1784.77001953125 -1791.87646484375 -1799.3524169921875 -1806.945556640625 -1814.4613037109375 -1821.61767578125 -1828.19921875 -1833.94775390625 -1838.646240234375 -1841.9442138671875 -1843.715087890625 -1844.018310546875 -1843.1207275390625 -1841.3323974609375 -1839.3082275390625 -1837.417236328125 -1836.15380859375 -1835.5579833984375 -1835.4915771484375 -1834.6187744140625 -1831.8790283203125 -1828.9984130859375 -1824.173828125 -1814.4383544921875 -1806.542724609375 -1800.1455078125 -1795.193115234375 -1791.3284912109375 -1788.191162109375 -1785.546875 -1783.0494384765625 -1780.3038330078125 -1777.2218017578125 -1773.6510009765625 -1769.9674072265625 -1766.58251953125 -1764.237548828125 -1763.458740234375 -1764.6204833984375 -1767.7830810546875 -1772.396484375 -1778.169189453125 -1784.8226318359375 -1792.0928955078125 -1799.8463134765625 -99999 -99999 -99999 -99999 -99999 -99999 -99999 -99999 -99999 -99999 -99999 -99999 -99999 -99999 -99999 -99999 -99999 -99999 -99999 -99999 -99999 -99999 -99999 -99999 -99999 -99999 -99999
 -99999 -99999 -99999 -99999 -99999 -99999 -99999 -99999 -99999 -99999 -99999 -99999 -99999 -99999 -99999 -99999 -99999 -99999 -99999 -99999 -99999 -99999 -99999 -99999 -99999 -99999 -99999 -99999 -99999 -99999 -99999 -99999 -99999 -99999 -99999 -99999 -2276.46875 -2273.606689453125 -2270.5419921875 -2267.196533203125 -2263.568603515625 -2259.665283203125 -2255.337646484375 -2250.63134765625 -2245.403076171875 -2239.68505859375 -2233.400146484375 -2226.47021484375 -2218.8466796875 -2210.537841796875 -2201.300048828125 -2191.050048828125 -2179.7138671875 -2167.142578125 -2153.572509765625 -2138.93994140625 -2123.155517578125 -2106.2109375 -2088.27978515625 -2069.69677734375 -2050.44482421875 -2030.8626708984375 -2010.93115234375 -1990.6910400390625 -1970.1693115234375 -1949.7305908203125 -1929.6614990234375 -1910.4713134765625 -1892.929443359375 -1877.3228759765625 -1862.9884033203125 -1849.5706787109375 -1837.726806640625 -1827.3134765625 -1818.41552734375 -1811.0133056640625 -1805.2901611328125 -1800.8968505859375 -1797.756103515625 -1795.4635009765625 -1794.105224609375 -1793.49072265625 -1793.504638671875 -1794.1956787109375 -1795.48876953125 -1797.4625244140625 -1799.919677734375 -1803.026123046875 -1806.712890625 -1810.96044921875 -1815.5069580078125 -1820.14404296875 -1824.7095947265625 -1828.654052734375 -1831.7889404296875 -1834.2308349609375 -1836.5029296875 -1838.6856689453125 -1839.7369384765625 -1839.50439453125 -1838.187744140625 -1836.962646484375 -1836.3345947265625 -1835.9241943359375 -1835.679443359375 -1835.5301513671875 -1835.287353515625 -1834.83740234375 -1834.2333984375 -1833.4635009765625 -1832.50048828125 -1831.3721923828125 -1830.08203125 -1828.6673583984375 -1827.12744140625 -1825.4503173828125 -1823.6837158203125 -1821.862060546875 -1819.9954833984375 -1818.0771484375 -1816.10546875 -1814.157470703125 -1812.2532958984375 -1810.345458984375 -1808.4666748046875 -1806.6029052734375 -1804.7474365234375 -1802.92529296875 -1801.048583984375 -1799.142333984375 -1797.17578125 -1795.08203125 -1792.7640380859375 -1790.3363037109375 -1787.8236083984375 -1785.2420654296875 -1782.6468505859375 -1780.075927734375 -1777.5750732421875 -1774.9488525390625 -1772.1650390625 -1769.7681884765625 -1767.4058837890625 -1764.849609375 -1762.129150390625 -1759.35302734375 -1756.7291259765625 -1754.563720703125 -1752.9547119140625 -1752.173095703125 -1752.372802734375 -1753.6424560546875 -1755.8458251953125 -1759.0718994140625 -1763.32958984375 -1768.3172607421875 -1774.19189453125 -1780.6865234375 -1787.76123046875 -1795.135009765625 -1802.731689453125 -1810.281982421875 -1817.587158203125 -1824.265380859375 -1830.1258544921875 -1834.7039794921875 -1837.8680419921875 -1839.4580078125 -1839.329345703125 -1837.91357421875 -1835.1441650390625 -1831.8558349609375 -1828.590087890625 -1826.273193359375 -1824.626220703125 -1823.1787109375 -1821.6707763671875 -1819.15869140625 -1815.386962890625 -1808.292236328125 -1799.0087890625 -1790.48681640625 -1785.1365966796875 -1780.984130859375 -1777.3447265625 -1774.4779052734375 -1772.09375 -1769.9952392578125 -1767.5889892578125 -1764.5618896484375 -1760.7476806640625 -1756.481201171875 -1752.407470703125 -1749.4539794921875 -1748.374755859375 -1749.5831298828125 -1753.171142578125 -1758.3309326171875 -1764.47265625 -1771.149658203125 -1778.41943359375 -1786.20458984375 -99999 -99999 -99999 -99999 -99999 -99999 -99999 -99999 -99999 -99999 -99999 -99999 -99999 -99999 -99999 -99999 -99999 -99999 -99999 -99999 -99999 -99999 -99999 -99999 -99999 -99999 -99999
 -99999 -99999 -99999 -99999 -99999 -99999 -99999 -99999 -99999 -99999 -99999 -99999 -99999 -99999 -99999 -99999 -99999 -99999 -99999 -99999 -99999 -99999 -99999 -99999 -99999 -99999 -99999 -99999 -99999 -99999 -99999 -99999 -99999 -99999 -99999 -2268.937744140625 -2266.1708984375 -2263.212646484375 -2260.053955078125 -2256.68896484375 -2253.024658203125 -2249.051025390625 -2244.623046875 -2239.830322265625 -2234.53125 -2228.749267578125 -2222.35205078125 -2215.292724609375 -2207.58251953125 -2199.055419921875 -2189.718017578125 -2179.37060546875 -2168.021728515625 -2155.622802734375 -2142.199462890625 -2127.997314453125 -2112.550537109375 -2096.01171875 -2078.44482421875 -2059.947265625 -2040.7430419921875 -2020.933349609375 -2000.7080078125 -1980.2056884765625 -1959.4503173828125 -1938.81005859375 -1918.5184326171875 -1899.1070556640625 -1881.5478515625 -1865.693115234375 -1851.02783203125 -1837.4072265625 -1824.895751953125 -1814.2130126953125 -1805.2232666015625 -1798.138916015625 -1792.7490234375 -1788.5914306640625 -1785.7005615234375 -1783.7196044921875 -1782.5252685546875 -1782.0068359375 -1782.0887451171875 -1782.7974853515625 -1784.0750732421875 -1785.9862060546875 -1788.4949951171875 -1791.5625 -1795.297119140625 -1799.5709228515625 -1804.320068359375 -1809.414794921875 -1814.1390380859375 -1817.923583984375 -1820.833251953125 -1822.580078125 -1823.9412841796875 -1825.1192626953125 -1825.62939453125 -1825.1683349609375 -1824.828369140625 -1824.4609375 -1823.9576416015625 -1823.5435791015625 -1823.2078857421875 -1822.841796875 -1822.414306640625 -1821.890380859375 -1821.2293701171875 -1820.4146728515625 -1819.44775390625 -1818.359375 -1817.1141357421875 -1815.75146484375 -1814.3037109375 -1812.7735595703125 -1811.1707763671875 -1809.493896484375 -1807.787353515625 -1806.0699462890625 -1804.357421875 -1802.676025390625 -1801.0361328125 -1799.437744140625 -1797.907958984375 -1796.3724365234375 -1794.89404296875 -1793.512939453125 -1792.116455078125 -1790.5653076171875 -1788.919921875 -1787.15966796875 -1785.24755859375 -1783.10498046875 -1780.7469482421875 -1778.31689453125 -1775.902587890625 -1773.6136474609375 -1771.4327392578125 -1769.1104736328125 -1766.5799560546875 -1764.2254638671875 -1761.8697509765625 -1759.4793701171875 -1757.0159912109375 -1754.5762939453125 -1752.30810546875 -1750.4019775390625 -1749.119140625 -1748.625244140625 -1748.9422607421875 -1750.238037109375 -1752.44677734375 -1755.60791015625 -1759.6512451171875 -1764.6368408203125 -1770.3355712890625 -1776.681884765625 -1783.6934814453125 -1791.105224609375 -1798.7315673828125 -1806.4666748046875 -1813.896484375 -1820.8502197265625 -1827.00146484375 -1831.779052734375 -1834.9586181640625 -1836.44189453125 -1835.7005615234375 -1833.1160888671875 -1829.22705078125 -1824.760986328125 -1820.1212158203125 -1815.732177734375 -1812.537109375 -1810.592041015625 -1808.9688720703125 -1806.57275390625 -1801.7772216796875 -1794.348388671875 -1784.924560546875 -1776.603271484375 -1771.8946533203125 -1767.816162109375 -1763.9786376953125 -1760.9434814453125 -1759.0093994140625 -1757.477783203125 -1755.5777587890625 -1752.46826171875 -1748.3258056640625 -1743.635498046875 -1738.7052001953125 -1734.89208984375 -1733.4625244140625 -1734.6591796875 -1738.5531005859375 -1745.1785888671875 -1751.352783203125 -1757.9927978515625 -1765.2186279296875 -1772.9512939453125 -99999 -99999 -99999 -99999 -99999 -99999 -99999 -99999 -99999 -99999 -99999 -99999 -99999 -99999 -99999 -99999 -99999 -99999 -99999 -99999 -99999 -99999 -99999 -99999 -99999 -99999 -99999
 -99999 -99999 -99999 -99999 -99999 -99999 -99999 -99999 -99999 -99999 -99999 -99999 -99999 -99999 -99999 -99999 -99999 -99999 -99999 -99999 -99999 -99999 -99999 -99999 -99999 -99999 -99999 -99999 -99999 -99999 -99999 -99999 -99999 -99999 -2260.9443359375 -2258.22705078125 -2255.408203125 -2252.373291015625 -2249.2099609375 -2245.781494140625 -2242.017578125 -2237.9677734375 -2233.493408203125 -2228.647705078125 -2223.267333984375 -2217.382080078125 -2210.9560546875 -2203.869873046875 -2195.9697265625 -2187.3447265625 -2177.930419921875 -2167.52099609375 -2156.340576171875 -2144.02685546875 -2130.78076171875 -2116.810546875 -2101.627197265625 -2085.340576171875 -2068.031005859375 -2049.665283203125 -2030.557373046875 -2010.68798828125 -1990.3641357421875 -1969.6575927734375 -1948.7874755859375 -1928.0406494140625 -1907.8067626953125 -1888.5281982421875 -1870.7532958984375 -1854.42041015625 -1839.348388671875 -1825.273193359375 -1812.244140625 -1800.973388671875 -1792.2593994140625 -1785.1982421875 -1780.24853515625 -1776.6153564453125 -1774.0401611328125 -1772.2506103515625 -1771.1466064453125 -1770.7001953125 -1770.7811279296875 -1771.43408203125 -1772.613037109375 -1774.343017578125 -1776.6690673828125 -1779.6458740234375 -1783.236328125 -1787.4193115234375 -1792.224609375 -1797.6644287109375 -1803.0123291015625 -1807.0023193359375 -1809.2314453125 -1810.56591796875 -1811.4443359375 -1811.94873046875 -1811.8209228515625 -1811.4984130859375 -1811.3291015625 -1811.16650390625 -1810.9273681640625 -1810.6192626953125 -1810.24072265625 -1809.8189697265625 -1809.3311767578125 -1808.7510986328125 -1808.06591796875 -1807.2364501953125 -1806.29931640625 -1805.246826171875 -1804.0859375 -1802.810546875 -1801.464111328125 -1800.0552978515625 -1798.5943603515625 -1797.0791015625 -1795.567138671875 -1794.0596923828125 -1792.611572265625 -1791.21044921875 -1789.8131103515625 -1788.474853515625 -1787.2698974609375 -1786.193603515625 -1785.125 -1784.070068359375 -1783.0269775390625 -1781.9970703125 -1780.9066162109375 -1779.51416015625 -1777.8604736328125 -1775.9757080078125 -1773.846923828125 -1771.581298828125 -1769.319091796875 -1767.1937255859375 -1765.2119140625 -1763.1953125 -1761.0430908203125 -1758.834716796875 -1756.6162109375 -1754.3447265625 -1752.0711669921875 -1749.8515625 -1747.8779296875 -1746.3106689453125 -1745.2967529296875 -1744.957763671875 -1745.3759765625 -1746.7318115234375 -1748.9620361328125 -1752.1531982421875 -1756.092529296875 -1760.9112548828125 -1766.5604248046875 -1772.8389892578125 -1779.743408203125 -1787.18798828125 -1794.9788818359375 -1802.8685302734375 -1810.7056884765625 -1817.9864501953125 -1824.487060546875 -1829.7091064453125 -1833.32080078125 -1834.45166015625 -1833.179931640625 -1829.86181640625 -1824.5089111328125 -1817.6805419921875 -1811.1502685546875 -1805.09521484375 -1800.33056640625 -1797.7779541015625 -1796.542236328125 -1795.091796875 -1791.16796875 -1784.5831298828125 -1775.96044921875 -1767.9342041015625 -1761.9012451171875 -1756.1214599609375 -1751.16748046875 -1747.781982421875 -1746.1580810546875 -1745.37841796875 -1743.93115234375 -1741.156982421875 -1736.2978515625 -1731.02783203125 -1725.847412109375 -1721.8280029296875 -1720.1317138671875 -1721.6859130859375 -1726.0279541015625 -1732.366943359375 -1738.7078857421875 -1745.483642578125 -1752.666015625 -1760.2525634765625 -99999 -99999 -99999 -99999 -99999 -99999 -99999 -99999 -99999 -99999 -99999 -99999 -99999 -99999 -99999 -99999 -99999 -99999 -99999 -99999 -99999 -99999 -99999 -99999 -99999 -99999 -99999
 -99999 -99999 -99999 -99999 -99999 -99999 -99999 -99999 -99999 -99999 -99999 -99999 -99999 -99999 -99999 -99999 -99999 -99999 -99999 -99999 -99999 -99999 -99999 -99999 -99999 -99999 -99999 -99999 -99999 -99999 -99999 -99999 -99999 -2252.554931640625 -2249.893310546875 -2247.117431640625 -2244.228759765625 -2241.1435546875 -2237.890625 -2234.396484375 -2230.631591796875 -2226.4970703125 -2221.972412109375 -2217.0634765625 -2211.71630859375 -2205.777099609375 -2199.19677734375 -2192.017822265625 -2184.10107421875 -2175.361328125 -2165.97021484375 -2155.676025390625 -2144.3974609375 -2132.31689453125 -2119.5009765625 -2105.48095703125 -2090.605224609375 -2074.6572265625 -2057.40283203125 -2039.2655029296875 -2020.1751708984375 -2000.3486328125 -1979.953369140625 -1959.1434326171875 -1938.2142333984375 -1917.4820556640625 -1897.210205078125 -1878.0428466796875 -1859.922119140625 -1843.217529296875 -1827.668701171875 -1813.012939453125 -1799.508544921875 -1787.83349609375 -1778.9854736328125 -1772.943359375 -1768.371826171875 -1765.0411376953125 -1762.6646728515625 -1761.0576171875 -1760.1263427734375 -1759.6387939453125 -1759.568603515625 -1760.0323486328125 -1761.0035400390625 -1762.5435791015625 -1764.701904296875 -1767.3369140625 -1770.5377197265625 -1774.3634033203125 -1779.1688232421875 -1784.6912841796875 -1790.549072265625 -1795.4466552734375 -1796.8731689453125 -1797.744384765625 -1798.2562255859375 -1798.4140625 -1798.15673828125 -1797.7911376953125 -1797.7156982421875 -1797.7061767578125 -1797.5865478515625 -1797.3319091796875 -1796.9794921875 -1796.54541015625 -1796.0380859375 -1795.4447021484375 -1794.7589111328125 -1793.9576416015625 -1793.062255859375 -1792.07275390625 -1790.9954833984375 -1789.845458984375 -1788.6072998046875 -1787.3160400390625 -1785.99267578125 -1784.6778564453125 -1783.3677978515625 -1782.0672607421875 -1780.816650390625 -1779.635986328125 -1778.5496826171875 -1777.5860595703125 -1776.6966552734375 -1775.9053955078125 -1775.2076416015625 -1774.668701171875 -1774.1485595703125 -1773.5469970703125 -1772.85107421875 -1771.9539794921875 -1770.80810546875 -1769.1357421875 -1767.134765625 -1764.9915771484375 -1762.8934326171875 -1761.0333251953125 -1759.3170166015625 -1757.5557861328125 -1755.642333984375 -1753.6446533203125 -1751.5865478515625 -1749.482421875 -1747.4036865234375 -1745.419677734375 -1743.6658935546875 -1742.27587890625 -1741.3707275390625 -1741.2156982421875 -1741.8759765625 -1743.336669921875 -1745.5909423828125 -1748.640869140625 -1752.56787109375 -1757.2857666015625 -1762.8115234375 -1769.046142578125 -1776.0076904296875 -1783.4261474609375 -1791.304443359375 -1799.5107421875 -1807.6595458984375 -1815.5352783203125 -1822.7357177734375 -1828.5933837890625 -1832.482177734375 -1834.060302734375 -1832.58203125 -1827.6295166015625 -1820.2724609375 -1812.006103515625 -1802.87744140625 -1794.8507080078125 -1788.4207763671875 -1784.0224609375 -1785.044189453125 -1785.0191650390625 -1782.65234375 -1777.64453125 -1770.3123779296875 -1761.588623046875 -1753.196044921875 -1744.8486328125 -1738.8211669921875 -1735.0562744140625 -1733.202392578125 -1733.010498046875 -1732.8681640625 -1728.673095703125 -1723.5654296875 -1718.3648681640625 -1713.553955078125 -1710.27734375 -1709.1990966796875 -1710.930419921875 -1714.9466552734375 -1720.5478515625 -1726.89501953125 -1733.6219482421875 -1740.7257080078125 -1748.1639404296875 -99999 -99999 -99999 -99999 -99999 -99999 -99999 -99999 -99999 -99999 -99999 -99999 -99999 -99999 -99999 -99999 -99999 -99999 -99999 -99999 -99999 -99999 -99999 -99999 -99999 -99999 -99999
 -99999 -99999 -99999 -99999 -99999 -99999 -99999 -99999 -99999 -99999 -99999 -99999 -99999 -99999 -99999 -99999 -99999 -99999 -99999 -99999 -99999 -99999 -99999 -99999 -99999 -99999 -99999 -99999 -99999 -99999 -99999 -99999 -2243.896240234375 -2241.1982421875 -2238.4375 -2235.576904296875 -2232.609375 -2229.5146484375 -2226.19970703125 -2222.629638671875 -2218.796630859375 -2214.658203125 -2210.191162109375 -2205.205810546875 -2199.78173828125 -2193.8251953125 -2187.20458984375 -2179.9697265625 -2172.061767578125 -2163.41015625 -2153.86083984375 -2143.692138671875 -2132.62548828125 -2120.61083984375 -2107.87646484375 -2094.1259765625 -2079.340576171875 -2063.676513671875 -2046.6124267578125 -2028.6923828125 -2009.683349609375 -1989.8333740234375 -1969.474365234375 -1948.667724609375 -1927.781005859375 -1907.0634765625 -1886.73291015625 -1867.3458251953125 -1848.98046875 -1831.7236328125 -1815.8035888671875 -1800.5953369140625 -1786.4627685546875 -1774.98974609375 -1766.3970947265625 -1760.899169921875 -1757.0797119140625 -1754.250244140625 -1752.13525390625 -1750.682861328125 -1749.688720703125 -1749.060546875 -1748.80029296875 -1748.9244384765625 -1749.5806884765625 -1750.7955322265625 -1752.5301513671875 -1754.77392578125 -1757.5396728515625 -1760.73291015625 -1764.6348876953125 -1769.42138671875 -1775.7247314453125 -1780.2122802734375 -1782.7142333984375 -1783.7884521484375 -1784.4095458984375 -1784.5694580078125 -1784.4127197265625 -1784.1629638671875 -1784.1405029296875 -1784.1951904296875 -1784.0870361328125 -1783.85498046875 -1783.5216064453125 -1783.1053466796875 -1782.6015625 -1782.0213623046875 -1781.3653564453125 -1780.6309814453125 -1779.814453125 -1778.8927001953125 -1777.9100341796875 -1776.8587646484375 -1775.7470703125 -1774.617431640625 -1773.4534912109375 -1772.291748046875 -1771.15380859375 -1770.052978515625 -1769.0589599609375 -1768.1328125 -1767.3094482421875 -1766.601318359375 -1766.0181884765625 -1765.656982421875 -1765.3878173828125 -1765.222900390625 -1765.1300048828125 -1765.0740966796875 -1765.0084228515625 -1764.6175537109375 -1763.828857421875 -1762.537109375 -1760.682861328125 -1758.676025390625 -1756.8880615234375 -1755.2867431640625 -1753.7420654296875 -1752.158935546875 -1750.4996337890625 -1748.7510986328125 -1746.9154052734375 -1744.9903564453125 -1743.071044921875 -1741.2447509765625 -1739.621337890625 -1738.38623046875 -1737.7418212890625 -1737.7337646484375 -1738.4102783203125 -1739.8782958984375 -1742.2979736328125 -1745.4771728515625 -1749.368408203125 -1753.9302978515625 -1759.2930908203125 -1765.5009765625 -1772.2630615234375 -1779.82666015625 -1787.88037109375 -1796.270751953125 -1804.8304443359375 -1813.24560546875 -1821.1724853515625 -1828.133056640625 -1833.4029541015625 -1834.914306640625 -1832.5894775390625 -1827.052001953125 -1818.1673583984375 -1806.9293212890625 -1795.478515625 -1784.8656005859375 -1777.553466796875 -1773.8846435546875 -1774.192138671875 -1776.5423583984375 -1777.08154296875 -1772.8492431640625 -1765.68115234375 -1755.8406982421875 -1744.671142578125 -1734.9736328125 -1727.81494140625 -1723.8656005859375 -1721.217529296875 -1719.502197265625 -1717.6839599609375 -1714.01953125 -1709.494384765625 -1705.27978515625 -1701.6541748046875 -1699.734375 -1699.704345703125 -1701.58740234375 -1705.1595458984375 -1710.1322021484375 -1716.0845947265625 -1722.593994140625 -1729.4161376953125 -1736.66796875 -99999 -99999 -99999 -99999 -99999 -99999 -99999 -99999 -99999 -99999 -99999 -99999 -99999 -99999 -99999 -99999 -99999 -99999 -99999 -99999 -99999 -99999 -99999 -99999 -99999 -99999 -99999
 -99999 -99999 -99999 -99999 -99999 -99999 -99999 -99999 -99999 -99999 -99999 -99999 -99999 -99999 -99999 -99999 -99999 -99999 -99999 -99999 -99999 -99999 -99999 -99999 -99999 -99999 -99999 -99999 -99999 -99999 -99999 -2234.9697265625 -2232.194091796875 -2229.4091796875 -2226.582763671875 -2223.641845703125 -2220.613037109375 -2217.4306640625 -2214.067138671875 -2210.50537109375 -2206.6708984375 -2202.486328125 -2198.00244140625 -2193.024169921875 -2187.549072265625 -2181.599853515625 -2175.067626953125 -2167.942138671875 -2160.01025390625 -2151.407958984375 -2141.93896484375 -2131.64501953125 -2120.65380859375 -2108.8056640625 -2096.008544921875 -2082.531982421875 -2068.25244140625 -2052.552490234375 -2035.8961181640625 -2018.001953125 -1999.1439208984375 -1979.44873046875 -1959.0506591796875 -1938.3212890625 -1917.464111328125 -1896.7454833984375 -1876.5233154296875 -1856.9608154296875 -1838.3494873046875 -1820.822265625 -1804.21142578125 -1788.6676025390625 -1774.2835693359375 -1761.88720703125 -1754.8677978515625 -1750.418701171875 -1746.8597412109375 -1744.3609619140625 -1742.4527587890625 -1740.949951171875 -1739.775634765625 -1738.8182373046875 -1738.259521484375 -1738.064208984375 -1738.2939453125 -1739.0084228515625 -1740.301513671875 -1742.2783203125 -1744.673095703125 -1747.236328125 -1749.91650390625 -1753.243896484375 -1759.1539306640625 -1764.04150390625 -1766.9736328125 -1768.8421630859375 -1769.961181640625 -1770.56884765625 -1770.779296875 -1770.757568359375 -1770.76904296875 -1770.735107421875 -1770.583984375 -1770.3153076171875 -1769.9608154296875 -1769.549072265625 -1769.0828857421875 -1768.561767578125 -1767.9698486328125 -1767.2979736328125 -1766.556396484375 -1765.7410888671875 -1764.8712158203125 -1763.919189453125 -1762.9390869140625 -1761.9395751953125 -1760.9361572265625 -1759.9429931640625 -1758.9669189453125 -1758.0838623046875 -1757.299072265625 -1756.613525390625 -1756.0528564453125 -1755.6314697265625 -1755.3619384765625 -1755.328125 -1755.4495849609375 -1755.7174072265625 -1756.1015625 -1756.5755615234375 -1757.0765380859375 -1757.3232421875 -1757.1124267578125 -1756.241455078125 -1754.604248046875 -1752.739501953125 -1751.140869140625 -1749.711669921875 -1748.38134765625 -1747.07421875 -1745.69970703125 -1744.2171630859375 -1742.6195068359375 -1740.916748046875 -1739.175537109375 -1737.440185546875 -1735.95947265625 -1734.826904296875 -1734.1868896484375 -1734.251220703125 -1735.2431640625 -1736.935302734375 -1739.4256591796875 -1742.481689453125 -1746.341796875 -1750.952392578125 -1756.1656494140625 -1762.1385498046875 -1768.9910888671875 -1776.455322265625 -1784.5401611328125 -1793.123779296875 -1801.9779052734375 -1810.9124755859375 -1819.7244873046875 -1827.9310302734375 -1834.155029296875 -1837.2584228515625 -1835.9444580078125 -1828.029052734375 -1816.2484130859375 -1802.7843017578125 -1788.4638671875 -1777.2412109375 -1770.0008544921875 -1766.5482177734375 -1767.699462890625 -1770.3824462890625 -1771.197021484375 -1768.60302734375 -1761.2330322265625 -1750.0782470703125 -1737.6417236328125 -1726.9659423828125 -1720.225341796875 -1715.1610107421875 -1710.4658203125 -1706.0982666015625 -1702.24072265625 -1698.5709228515625 -1694.9237060546875 -1692.041015625 -1690.28857421875 -1689.6734619140625 -1690.295654296875 -1692.3348388671875 -1696.0513916015625 -1700.811767578125 -1706.237548828125 -1712.33203125 -1718.9149169921875 -99999 -99999 -99999 -99999 -99999 -99999 -99999 -99999 -99999 -99999 -99999 -99999 -99999 -99999 -99999 -99999 -99999 -99999 -99999 -99999 -99999 -99999 -99999 -99999 -99999 -99999 -99999 -99999
 -99999 -99999 -99999 -99999 -99999 -99999 -99999 -99999 -99999 -99999 -99999 -99999 -99999 -99999 -99999 -99999 -99999 -99999 -99999 -99999 -99999 -99999 -99999 -99999 -99999 -99999 -99999 -99999 -99999 -99999 -2225.84912109375 -2222.94970703125 -2220.066650390625 -2217.213623046875 -2214.274658203125 -2211.280029296875 -2208.196044921875 -2204.9755859375 -2201.571044921875 -2198.015380859375 -2194.16943359375 -2190.002197265625 -2185.47802734375 -2180.582275390625 -2175.2412109375 -2169.323486328125 -2162.8310546875 -2155.7431640625 -2147.865478515625 -2139.28857421875 -2129.940673828125 -2119.9150390625 -2108.852294921875 -2097.1337890625 -2084.590576171875 -2071.380615234375 -2057.198974609375 -2041.857177734375 -2025.317626953125 -2007.5772705078125 -1988.7750244140625 -1969.07177734375 -1948.751220703125 -1928.08349609375 -1907.2490234375 -1886.5794677734375 -1866.2784423828125 -1846.74267578125 -1828 -1810.2904052734375 -1793.611328125 -1778.100341796875 -1764.0911865234375 -1753.172119140625 -1746.172119140625 -1741.64697265625 -1738.1094970703125 -1735.504638671875 -1733.5672607421875 -1731.942138671875 -1730.501708984375 -1729.205078125 -1728.1258544921875 -1727.3707275390625 -1727.1724853515625 -1727.4788818359375 -1728.3643798828125 -1729.8729248046875 -1732.0582275390625 -1734.4593505859375 -1736.7099609375 -1739.77490234375 -1743.84716796875 -1748.386962890625 -1751.4857177734375 -1753.744140625 -1755.3306884765625 -1756.390625 -1757.047607421875 -1757.384765625 -1757.4278564453125 -1757.2767333984375 -1757.0233154296875 -1756.702880859375 -1756.3416748046875 -1755.9549560546875 -1755.539306640625 -1755.088134765625 -1754.57666015625 -1753.999755859375 -1753.360107421875 -1752.6617431640625 -1751.9215087890625 -1751.084228515625 -1750.2359619140625 -1749.3770751953125 -1748.5245361328125 -1747.688232421875 -1746.89892578125 -1746.216796875 -1745.635009765625 -1745.171142578125 -1744.8319091796875 -1744.6849365234375 -1744.755615234375 -1745.022216796875 -1745.488037109375 -1746.120361328125 -1746.9761962890625 -1747.9534912109375 -1748.9805908203125 -1749.9703369140625 -1750.515380859375 -1749.9666748046875 -1748.45947265625 -1746.77294921875 -1745.3309326171875 -1744.125 -1743.168212890625 -1742.254638671875 -1741.2930908203125 -1740.2020263671875 -1738.870361328125 -1737.3837890625 -1735.8011474609375 -1734.1929931640625 -1732.6881103515625 -1731.5855712890625 -1731.0950927734375 -1731.32958984375 -1732.3619384765625 -1734.206298828125 -1736.889404296875 -1740.2392578125 -1744.0606689453125 -1748.4232177734375 -1753.4739990234375 -1759.2303466796875 -1765.918212890625 -1773.3736572265625 -1781.5528564453125 -1790.22509765625 -1799.090576171875 -1808.1435546875 -1817.5325927734375 -1827.313232421875 -1835.7886962890625 -1840.35986328125 -1837.9866943359375 -1829.48583984375 -1815.1488037109375 -1799.255859375 -1783.1075439453125 -1769.4410400390625 -1764.085693359375 -1761.6217041015625 -1761.8916015625 -1763.89306640625 -1765.4488525390625 -1761.543701171875 -1753.77197265625 -1742.812255859375 -1731.1358642578125 -1720.4678955078125 -1711.9774169921875 -1705.14208984375 -1698.685546875 -1692.4801025390625 -1687.6773681640625 -1683.6243896484375 -1680.8729248046875 -1679.5084228515625 -1679.185302734375 -1679.86083984375 -1681.6513671875 -1684.236083984375 -1687.653564453125 -1691.9437255859375 -1697.17919921875 -1702.978515625 -1709.1248779296875 -99999 -99999 -99999 -99999 -99999 -99999 -99999 -99999 -99999 -99999 -99999 -99999 -99999 -99999 -99999 -99999 -99999 -99999 -99999 -99999 -99999 -99999 -99999 -99999 -99999 -99999 -99999 -99999
 -99999 -99999 -99999 -99999 -99999 -99999 -99999 -99999 -99999 -99999 -99999 -99999 -99999 -99999 -99999 -99999 -99999 -99999 -99999 -99999 -99999 -99999 -99999 -99999 -99999 -99999 -99999 -99999 -99999 -2216.6240234375 -2213.584716796875 -2210.595703125 -2207.603515625 -2204.609375 -2201.586181640625 -2198.55078125 -2195.40673828125 -2192.155029296875 -2188.76611328125 -2185.157470703125 -2181.321044921875 -2177.22021484375 -2172.76220703125 -2167.906494140625 -2162.637939453125 -2156.797607421875 -2150.4208984375 -2143.3955078125 -2135.791015625 -2127.403076171875 -2118.1884765625 -2108.26171875 -2097.392578125 -2085.702880859375 -2073.302490234375 -2060.260498046875 -2046.25439453125 -2031.169189453125 -2014.7115478515625 -1997.0550537109375 -1978.4249267578125 -1958.7705078125 -1938.570068359375 -1917.9288330078125 -1897.1728515625 -1876.567626953125 -1856.366943359375 -1836.8543701171875 -1818.242919921875 -1800.47998046875 -1784.0892333984375 -1769.2855224609375 -1756.1640625 -1746.26953125 -1738.96435546875 -1733.802734375 -1730.0128173828125 -1727.4805908203125 -1725.498046875 -1723.630615234375 -1721.7672119140625 -1719.979248046875 -1718.34326171875 -1717.0601806640625 -1716.203125 -1716.0150146484375 -1716.4287109375 -1717.5887451171875 -1719.638916015625 -1722.1224365234375 -1724.3836669921875 -1726.97314453125 -1730.2318115234375 -1733.526611328125 -1736.50927734375 -1738.9913330078125 -1740.764892578125 -1742.08984375 -1743.1072998046875 -1743.7431640625 -1743.8961181640625 -1743.7237548828125 -1743.383544921875 -1743.025634765625 -1742.6868896484375 -1742.3529052734375 -1742.0103759765625 -1741.6624755859375 -1741.2738037109375 -1740.831298828125 -1740.2957763671875 -1739.697998046875 -1739.0478515625 -1738.360107421875 -1737.6456298828125 -1736.89990234375 -1736.1865234375 -1735.52734375 -1734.9359130859375 -1734.4312744140625 -1734.0074462890625 -1733.7711181640625 -1733.712646484375 -1733.83203125 -1734.1373291015625 -1734.6300048828125 -1735.45361328125 -1736.5028076171875 -1737.7381591796875 -1739.1168212890625 -1740.5089111328125 -1741.9127197265625 -1742.8663330078125 -1742.84814453125 -1741.5489501953125 -1740.1981201171875 -1739.239013671875 -1738.5859375 -1738.093505859375 -1737.6876220703125 -1737.2073974609375 -1736.584716796875 -1735.7176513671875 -1734.5616455078125 -1733.111572265625 -1731.5767822265625 -1730.10888671875 -1728.926025390625 -1728.2943115234375 -1728.599609375 -1729.95703125 -1732.2813720703125 -1735.2899169921875 -1738.718994140625 -1742.52001953125 -1746.79541015625 -1751.6470947265625 -1757.202392578125 -1763.693115234375 -1770.9910888671875 -1778.996826171875 -1787.660888671875 -1796.4625244140625 -1804.91943359375 -1813.8699951171875 -1824.412841796875 -1835.118896484375 -1842.7801513671875 -1841.2757568359375 -1829.5958251953125 -1810.7532958984375 -1794.0128173828125 -1777.911376953125 -1767.3154296875 -1760.429443359375 -1757.5867919921875 -1756.6500244140625 -1756.85888671875 -1756.269775390625 -1751.966552734375 -1744.338134765625 -1734.6600341796875 -1723.5440673828125 -1712.814697265625 -1703.3690185546875 -1695.14501953125 -1687.2529296875 -1680.087158203125 -1674.0098876953125 -1669.61328125 -1667.453369140625 -1667.899169921875 -1669.284423828125 -1671.4893798828125 -1673.8861083984375 -1676.654296875 -1680.1300048828125 -1684.2119140625 -1688.8389892578125 -1694.127197265625 -1700.0535888671875 -99999 -99999 -99999 -99999 -99999 -99999 -99999 -99999 -99999 -99999 -99999 -99999 -99999 -99999 -99999 -99999 -99999 -99999 -99999 -99999 -99999 -99999 -99999 -99999 -99999 -99999 -99999 -99999
 -99999 -99999 -99999 -99999 -99999 -99999 -99999 -99999 -99999 -99999 -99999 -99999 -99999 -99999 -99999 -99999 -99999 -99999 -99999 -99999 -99999 -99999 -99999 -99999 -99999 -99999 -99999 -99999 -2207.4140625 -2204.170166015625 -2200.987060546875 -2197.87158203125 -2194.7421875 -2191.640625 -2188.5546875 -2185.439697265625 -2182.256591796875 -2178.9658203125 -2175.550048828125 -2171.98095703125 -2168.195068359375 -2164.15625 -2159.80859375 -2155.03076171875 -2149.834716796875 -2144.197021484375 -2138.05078125 -2131.15380859375 -2123.68603515625 -2115.575927734375 -2106.560546875 -2096.763671875 -2086.1982421875 -2074.748291015625 -2062.458740234375 -2049.571044921875 -2035.8206787109375 -2020.8218994140625 -2004.4212646484375 -1986.8798828125 -1968.1964111328125 -1948.6845703125 -1928.459716796875 -1907.9022216796875 -1887.21728515625 -1866.693115234375 -1846.550537109375 -1827.2188720703125 -1808.674560546875 -1791.32080078125 -1775.31982421875 -1760.8740234375 -1748.8023681640625 -1738.78759765625 -1731.5338134765625 -1726.218505859375 -1722.521484375 -1719.9071044921875 -1717.9512939453125 -1715.933837890625 -1713.5308837890625 -1711.041259765625 -1708.7989501953125 -1707.0025634765625 -1705.69580078125 -1704.9656982421875 -1704.884521484375 -1705.4827880859375 -1707.153564453125 -1709.4658203125 -1711.7337646484375 -1714.07861328125 -1716.7576904296875 -1719.5777587890625 -1722.1639404296875 -1724.3443603515625 -1726.2362060546875 -1727.830810546875 -1729.0999755859375 -1729.956298828125 -1730.236328125 -1729.9971923828125 -1729.624755859375 -1729.2666015625 -1728.9765625 -1728.7708740234375 -1728.589599609375 -1728.3695068359375 -1728.0899658203125 -1727.7691650390625 -1727.3778076171875 -1726.9263916015625 -1726.3802490234375 -1725.7940673828125 -1725.1981201171875 -1724.6124267578125 -1724.0533447265625 -1723.52734375 -1723.0726318359375 -1722.7607421875 -1722.587646484375 -1722.56201171875 -1722.690185546875 -1723.0023193359375 -1723.6015625 -1724.42822265625 -1725.503662109375 -1726.7896728515625 -1728.3233642578125 -1730.0684814453125 -1731.8133544921875 -1733.1800537109375 -1734.31640625 -1734.3702392578125 -1733.869384765625 -1733.28076171875 -1732.8603515625 -1732.7640380859375 -1732.9686279296875 -1733.415283203125 -1733.755615234375 -1733.686767578125 -1733.195068359375 -1732.3817138671875 -1731.2362060546875 -1729.7877197265625 -1728.1949462890625 -1726.8602294921875 -1726.1573486328125 -1726.52880859375 -1728.1884765625 -1731.0087890625 -1734.5135498046875 -1738.4215087890625 -1742.2049560546875 -1746.079345703125 -1750.6903076171875 -1756.0517578125 -1762.2235107421875 -1769.3834228515625 -1777.3438720703125 -1786.0048828125 -1794.6492919921875 -1801.6744384765625 -1809.0579833984375 -1818.95068359375 -1831.1256103515625 -1839.6993408203125 -1835.4910888671875 -1820.89013671875 -1800.2696533203125 -1785.962158203125 -1774.4547119140625 -1764.109375 -1758.00341796875 -1754.18115234375 -1752.2442626953125 -1750.5494384765625 -1747.63623046875 -1742.9383544921875 -1735.62060546875 -1726.1959228515625 -1715.7962646484375 -1705.354248046875 -1695.414306640625 -1686.0418701171875 -1677.2384033203125 -1669.39599609375 -1662.383544921875 -1656.507568359375 -1655.3912353515625 -1657.8133544921875 -1661.6158447265625 -1664.7669677734375 -1667.3759765625 -1670.094970703125 -1673.1971435546875 -1676.870361328125 -1681.2275390625 -1686.13818359375 -1691.53662109375 -99999 -99999 -99999 -99999 -99999 -99999 -99999 -99999 -99999 -99999 -99999 -99999 -99999 -99999 -99999 -99999 -99999 -99999 -99999 -99999 -99999 -99999 -99999 -99999 -99999 -99999 -99999 -99999
 -99999 -99999 -99999 -99999 -99999 -99999 -99999 -99999 -99999 -99999 -99999 -99999 -99999 -99999 -99999 -99999 -99999 -99999 -99999 -99999 -99999 -99999 -99999 -99999 -99999 -99999 -99999 -2198.28857421875 -2194.818359375 -2191.397216796875 -2188.045654296875 -2184.749267578125 -2181.525634765625 -2178.345947265625 -2175.144287109375 -2171.94970703125 -2168.713623046875 -2165.398681640625 -2162.02294921875 -2158.49462890625 -2154.71240234375 -2150.771728515625 -2146.49853515625 -2141.9521484375 -2136.925048828125 -2131.41748046875 -2125.435546875 -2118.946044921875 -2111.59716796875 -2103.70556640625 -2095.05224609375 -2085.620849609375 -2075.359619140625 -2064.23974609375 -2052.27197265625 -2039.472412109375 -2025.6676025390625 -2010.519775390625 -1994.20947265625 -1976.718017578125 -1958.075439453125 -1938.5882568359375 -1918.4241943359375 -1897.903564453125 -1877.306396484375 -1856.8603515625 -1836.89453125 -1817.6549072265625 -1799.3389892578125 -1782.30908203125 -1766.679931640625 -1752.799072265625 -1741.0675048828125 -1731.4207763671875 -1724.0045166015625 -1718.4697265625 -1714.73291015625 -1712.3428955078125 -1710.6463623046875 -1708.4896240234375 -1705.554443359375 -1701.9957275390625 -1699.0684814453125 -1696.9599609375 -1695.4327392578125 -1694.39111328125 -1693.815673828125 -1693.7431640625 -1695.092041015625 -1697.19189453125 -1699.3238525390625 -1701.4642333984375 -1703.6820068359375 -1705.9803466796875 -1708.1278076171875 -1710.093017578125 -1711.8408203125 -1713.4630126953125 -1714.9967041015625 -1716.218017578125 -1716.5013427734375 -1716.1099853515625 -1715.6937255859375 -1715.4161376953125 -1715.2955322265625 -1715.2620849609375 -1715.22705078125 -1715.168212890625 -1715.0731201171875 -1714.919677734375 -1714.6806640625 -1714.3165283203125 -1713.8865966796875 -1713.4305419921875 -1712.970703125 -1712.5059814453125 -1712.04931640625 -1711.658447265625 -1711.39501953125 -1711.2762451171875 -1711.28759765625 -1711.4459228515625 -1711.7874755859375 -1712.3931884765625 -1713.236328125 -1714.2880859375 -1715.564208984375 -1717.1141357421875 -1719.03173828125 -1721.024658203125 -1722.9639892578125 -1724.503173828125 -1725.4837646484375 -1725.9805908203125 -1725.9183349609375 -1725.7890625 -1726.064697265625 -1726.9295654296875 -1728.216064453125 -1729.452392578125 -1730.5478515625 -1731.338623046875 -1731.54833984375 -1731.171630859375 -1730.27685546875 -1729.0162353515625 -1727.333740234375 -1725.52294921875 -1724.5152587890625 -1724.880859375 -1726.7509765625 -1730.6396484375 -1735.4998779296875 -1739.7498779296875 -1743.419189453125 -1746.9190673828125 -1751.0474853515625 -1756.2869873046875 -1762.2413330078125 -1769.1949462890625 -1776.7974853515625 -1785.6158447265625 -1794.5703125 -1800.4798583984375 -1805.85595703125 -1814.4324951171875 -1823.1396484375 -1827.695068359375 -1821.67919921875 -1804.9822998046875 -1789.8897705078125 -1778.5269775390625 -1769.762451171875 -1762.2158203125 -1756.1484375 -1751.6268310546875 -1747.8782958984375 -1744.4708251953125 -1740.626220703125 -1734.9892578125 -1727.451904296875 -1718.5264892578125 -1708.5601806640625 -1698.2857666015625 -1688.133544921875 -1678.474365234375 -1669.50537109375 -1661.139404296875 -1653.442626953125 -1646.797119140625 -1646.764892578125 -1651.7108154296875 -1656.5169677734375 -1660.1239013671875 -1662.5657958984375 -1664.61181640625 -1667.040283203125 -1670.1256103515625 -1674.0152587890625 -1678.552001953125 -1683.72509765625 -99999 -99999 -99999 -99999 -99999 -99999 -99999 -99999 -99999 -99999 -99999 -99999 -99999 -99999 -99999 -99999 -99999 -99999 -99999 -99999 -99999 -99999 -99999 -99999 -99999 -99999 -99999 -99999
 -99999 -99999 -99999 -99999 -99999 -99999 -99999 -99999 -99999 -99999 -99999 -99999 -99999 -99999 -99999 -99999 -99999 -99999 -99999 -99999 -99999 -99999 -99999 -99999 -99999 -99999 -2189.369873046875 -2185.58935546875 -2181.85693359375 -2178.26025390625 -2174.762939453125 -2171.32861328125 -2167.96826171875 -2164.624267578125 -2161.361572265625 -2158.099853515625 -2154.835693359375 -2151.4990234375 -2148.12353515625 -2144.617919921875 -2140.974853515625 -2137.119873046875 -2132.9697265625 -2128.523681640625 -2123.758544921875 -2118.550537109375 -2112.754150390625 -2106.5048828125 -2099.6455078125 -2091.984375 -2083.60791015625 -2074.5068359375 -2064.56396484375 -2053.8427734375 -2042.24267578125 -2029.5758056640625 -2015.63623046875 -2000.4853515625 -1984.224853515625 -1966.642333984375 -1948.0517578125 -1928.542236328125 -1908.4183349609375 -1887.943603515625 -1867.4005126953125 -1847.043701171875 -1827.2000732421875 -1808.1080322265625 -1790.123779296875 -1773.3616943359375 -1758.011962890625 -1744.6558837890625 -1732.99951171875 -1723.5538330078125 -1715.9918212890625 -1710.5047607421875 -1706.688232421875 -1704.18994140625 -1702.620849609375 -1700.881591796875 -1696.8265380859375 -1692.673583984375 -1689.1873779296875 -1686.89599609375 -1685.39013671875 -1684.32763671875 -1683.7103271484375 -1683.5435791015625 -1684.283935546875 -1685.67138671875 -1687.437744140625 -1689.2706298828125 -1691.1260986328125 -1692.8319091796875 -1694.4755859375 -1696.0799560546875 -1697.5970458984375 -1699.05517578125 -1700.517578125 -1701.92724609375 -1702.2083740234375 -1701.8646240234375 -1701.6044921875 -1701.615478515625 -1701.7559814453125 -1701.921142578125 -1702.10302734375 -1702.2857666015625 -1702.37841796875 -1702.357666015625 -1702.24462890625 -1702.027587890625 -1701.7340087890625 -1701.391845703125 -1701.0120849609375 -1700.639892578125 -1700.3101806640625 -1700.101806640625 -1700.0181884765625 -1700.0546875 -1700.2421875 -1700.6063232421875 -1701.2344970703125 -1702.10302734375 -1703.1702880859375 -1704.4561767578125 -1705.962890625 -1707.792236328125 -1709.8934326171875 -1712.1446533203125 -1714.358154296875 -1716.0810546875 -1717.1807861328125 -1717.68359375 -1717.9293212890625 -1718.3348388671875 -1719.274169921875 -1720.90576171875 -1723.0452880859375 -1725.9464111328125 -1728.4281005859375 -1729.820068359375 -1730.5318603515625 -1730.6361083984375 -1730.443115234375 -1729.6038818359375 -1727.639404296875 -1725.419677734375 -1723.64111328125 -1723.6673583984375 -1726.240234375 -1731.4083251953125 -1737.591796875 -1743.3345947265625 -1746.3768310546875 -1749.1551513671875 -1753.141357421875 -1758.4383544921875 -1764.5179443359375 -1771.317138671875 -1778.9805908203125 -1787.3587646484375 -1795.7532958984375 -1801.671875 -1806.423095703125 -1811.948974609375 -1817.105712890625 -1817.150634765625 -1807.471923828125 -1794.4971923828125 -1783.5472412109375 -1775.209716796875 -1767.7484130859375 -1760.727783203125 -1754.4986572265625 -1749.241943359375 -1744.5777587890625 -1739.835205078125 -1734.5484619140625 -1728.181640625 -1720.533447265625 -1711.7877197265625 -1702.088134765625 -1692.0499267578125 -1682.0966796875 -1672.5389404296875 -1663.7713623046875 -1655.5697021484375 -1648.7628173828125 -1644.671630859375 -1644.955810546875 -1649.8746337890625 -1655.1292724609375 -1657.364501953125 -1658.5899658203125 -1659.8404541015625 -1661.53759765625 -1663.9559326171875 -1667.3311767578125 -1671.4229736328125 -1676.3095703125 -99999 -99999 -99999 -99999 -99999 -99999 -99999 -99999 -99999 -99999 -99999 -99999 -99999 -99999 -99999 -99999 -99999 -99999 -99999 -99999 -99999 -99999 -99999 -99999 -99999 -99999 -99999 -99999
 -99999 -99999 -99999 -99999 -99999 -99999 -99999 -99999 -99999 -99999 -99999 -99999 -99999 -99999 -99999 -99999 -99999 -99999 -99999 -99999 -99999 -99999 -99999 -99999 -99999 -2180.671630859375 -2176.539794921875 -2172.548095703125 -2168.66162109375 -2164.855224609375 -2161.130126953125 -2157.552978515625 -2154.037353515625 -2150.59228515625 -2147.21630859375 -2143.88671875 -2140.585693359375 -2137.2578125 -2133.88720703125 -2130.43115234375 -2126.845947265625 -2123.1181640625 -2119.142822265625 -2114.942138671875 -2110.3701171875 -2105.457763671875 -2099.9892578125 -2094.00146484375 -2087.441162109375 -2080.25732421875 -2072.330322265625 -2063.565185546875 -2054.049072265625 -2043.544189453125 -2032.1763916015625 -2019.576171875 -2005.5828857421875 -1990.497802734375 -1974.2039794921875 -1956.616455078125 -1938.0487060546875 -1918.4654541015625 -1898.3924560546875 -1877.94775390625 -1857.451904296875 -1837.1934814453125 -1817.508544921875 -1798.615966796875 -1780.844970703125 -1764.156005859375 -1749.293212890625 -1736.0762939453125 -1724.594970703125 -1715.0433349609375 -1707.6099853515625 -1701.680908203125 -1697.43798828125 -1694.64404296875 -1692.7381591796875 -1690.3690185546875 -1686.3101806640625 -1681.6910400390625 -1678.6986083984375 -1676.829345703125 -1675.6221923828125 -1674.6683349609375 -1673.994140625 -1673.854248046875 -1674.25927734375 -1675.1492919921875 -1676.3497314453125 -1677.6522216796875 -1678.97412109375 -1680.27734375 -1681.4874267578125 -1682.5679931640625 -1683.51123046875 -1684.564697265625 -1685.711669921875 -1686.8131103515625 -1687.238037109375 -1687.3148193359375 -1687.4871826171875 -1687.8404541015625 -1688.3076171875 -1688.8548583984375 -1689.350830078125 -1689.715087890625 -1689.968017578125 -1690.1134033203125 -1690.135009765625 -1690.024658203125 -1689.806640625 -1689.5382080078125 -1689.2469482421875 -1688.999755859375 -1688.8162841796875 -1688.730712890625 -1688.771484375 -1688.97119140625 -1689.4124755859375 -1690.0435791015625 -1690.9005126953125 -1692.0089111328125 -1693.33154296875 -1694.99267578125 -1696.848876953125 -1698.8868408203125 -1701.240478515625 -1703.9456787109375 -1706.4273681640625 -1708.190673828125 -1709.3455810546875 -1709.9554443359375 -1710.2216796875 -1710.6654052734375 -1712.0400390625 -1714.5689697265625 -1718.586181640625 -1722.8494873046875 -1726.5943603515625 -1729.236083984375 -1730.4368896484375 -1730.95166015625 -1731.508056640625 -1731.59326171875 -1730.1890869140625 -1726.0889892578125 -1723.834716796875 -1723.6058349609375 -1726.040771484375 -1732.4722900390625 -1742.4798583984375 -1748.3082275390625 -1751.5050048828125 -1753.83984375 -1757.501708984375 -1763.282958984375 -1769.488525390625 -1776.4810791015625 -1784.0355224609375 -1791.7725830078125 -1799.0791015625 -1804.5760498046875 -1808.89013671875 -1812.666748046875 -1813.6412353515625 -1810.390869140625 -1802.4932861328125 -1791.886962890625 -1782.36962890625 -1774.3629150390625 -1766.9649658203125 -1760.006591796875 -1753.5433349609375 -1747.516845703125 -1741.61083984375 -1735.9456787109375 -1729.7393798828125 -1722.821533203125 -1714.880126953125 -1706.0386962890625 -1696.6597900390625 -1686.9808349609375 -1677.47119140625 -1668.3050537109375 -1660.014404296875 -1652.9403076171875 -1647.36328125 -1644.39697265625 -1645.840576171875 -1650.8082275390625 -1654.7723388671875 -1656.0245361328125 -1655.315673828125 -1654.88720703125 -1655.89794921875 -1658.034912109375 -1661.09619140625 -1664.9005126953125 -1669.452880859375 -99999 -99999 -99999 -99999 -99999 -99999 -99999 -99999 -99999 -99999 -99999 -99999 -99999 -99999 -99999 -99999 -99999 -99999 -99999 -99999 -99999 -99999 -99999 -99999 -99999 -99999 -99999 -99999
 -99999 -99999 -99999 -99999 -99999 -99999 -99999 -99999 -99999 -99999 -99999 -99999 -99999 -99999 -99999 -99999 -99999 -99999 -99999 -99999 -99999 -99999 -99999 -99999 -2172.347412109375 -2167.90625 -2163.500732421875 -2159.24365234375 -2155.14599609375 -2151.130859375 -2147.183837890625 -2143.431640625 -2139.789306640625 -2136.22314453125 -2132.7236328125 -2129.303466796875 -2125.941650390625 -2122.61083984375 -2119.24169921875 -2115.86962890625 -2112.398681640625 -2108.8125 -2105.064208984375 -2101.04833984375 -2096.7109375 -2092.05810546875 -2086.986083984375 -2081.459228515625 -2075.216064453125 -2068.45068359375 -2060.939208984375 -2052.4921875 -2043.2432861328125 -2033.1512451171875 -2021.841064453125 -2009.35009765625 -1995.573974609375 -1980.755615234375 -1964.333740234375 -1946.7701416015625 -1928.0614013671875 -1908.499267578125 -1888.3302001953125 -1867.8641357421875 -1847.3450927734375 -1827.17724609375 -1807.5225830078125 -1788.8980712890625 -1771.163330078125 -1754.814453125 -1740.01416015625 -1726.7802734375 -1715.4014892578125 -1705.968505859375 -1698.2755126953125 -1692.1405029296875 -1687.5093994140625 -1683.9072265625 -1681.0350341796875 -1677.878662109375 -1673.894775390625 -1669.7347412109375 -1667.7105712890625 -1666.835693359375 -1666.271240234375 -1665.5404052734375 -1664.782470703125 -1664.5042724609375 -1664.6552734375 -1665.16552734375 -1665.9197998046875 -1666.7198486328125 -1667.5064697265625 -1668.2635498046875 -1668.939453125 -1669.5091552734375 -1669.953125 -1670.363525390625 -1670.7857666015625 -1671.244384765625 -1671.776123046875 -1672.5947265625 -1673.4757080078125 -1674.4312744140625 -1675.3409423828125 -1676.182861328125 -1676.95703125 -1677.6138916015625 -1678.0831298828125 -1678.340087890625 -1678.443359375 -1678.4111328125 -1678.277587890625 -1678.0775146484375 -1677.86279296875 -1677.6905517578125 -1677.5965576171875 -1677.630859375 -1677.869873046875 -1678.28955078125 -1678.9102783203125 -1679.7496337890625 -1680.8675537109375 -1682.3304443359375 -1684.0631103515625 -1686.03564453125 -1688.2010498046875 -1690.564453125 -1693.6505126953125 -1696.6173095703125 -1699.2630615234375 -1701.3358154296875 -1702.5557861328125 -1702.9031982421875 -1702.97216796875 -1703.2877197265625 -1704.448486328125 -1707.9091796875 -1714.109375 -1720.6451416015625 -1726.308837890625 -1729.39794921875 -1730.8153076171875 -1731.392578125 -1732.6439208984375 -1736.1812744140625 -1734.0631103515625 -1729.4765625 -1725.22119140625 -1725.0169677734375 -1727.49267578125 -1735.2265625 -1745.287353515625 -1753.763427734375 -1757.4573974609375 -1760.7269287109375 -1765.0955810546875 -1770.822265625 -1777.1561279296875 -1783.986083984375 -1791.1552734375 -1798.0330810546875 -1804.2867431640625 -1808.9454345703125 -1811.9774169921875 -1813.475341796875 -1812.6156005859375 -1808.6326904296875 -1800.875 -1791.8514404296875 -1782.9501953125 -1774.847900390625 -1767.2569580078125 -1759.900146484375 -1752.896484375 -1746.2244873046875 -1739.6533203125 -1733.007568359375 -1726.020751953125 -1718.5606689453125 -1710.3536376953125 -1701.491455078125 -1692.27001953125 -1683.0037841796875 -1673.8935546875 -1665.366943359375 -1657.6590576171875 -1651.0762939453125 -1646.72119140625 -1645.112548828125 -1646.1910400390625 -1649.4036865234375 -1652.894287109375 -1652.5428466796875 -1650.7769775390625 -1649.8262939453125 -1650.119873046875 -1651.9259033203125 -1655.02685546875 -1658.87939453125 -1663.241943359375 -99999 -99999 -99999 -99999 -99999 -99999 -99999 -99999 -99999 -99999 -99999 -99999 -99999 -99999 -99999 -99999 -99999 -99999 -99999 -99999 -99999 -99999 -99999 -99999 -99999 -99999 -99999 -99999
 -99999 -99999 -99999 -99999 -99999 -99999 -99999 -99999 -99999 -99999 -99999 -99999 -99999 -99999 -99999 -99999 -99999 -99999 -99999 -99999 -99999 -99999 -99999 -2164.46533203125 -2159.58837890625 -2154.896484375 -2150.251953125 -2145.733154296875 -2141.3525390625 -2137.1240234375 -2133.00390625 -2129.029296875 -2125.171142578125 -2121.46044921875 -2117.823486328125 -2114.34521484375 -2110.945068359375 -2107.599365234375 -2104.269775390625 -2100.93115234375 -2097.586669921875 -2094.14306640625 -2090.551513671875 -2086.78857421875 -2082.794677734375 -2078.472900390625 -2073.699951171875 -2068.6201171875 -2062.83935546875 -2056.426025390625 -2049.385986328125 -2041.4974365234375 -2032.65185546875 -2022.6536865234375 -2011.4862060546875 -1999.2628173828125 -1985.7078857421875 -1970.77099609375 -1954.352783203125 -1936.8594970703125 -1918.0186767578125 -1898.3857421875 -1878.12353515625 -1857.5679931640625 -1837.077880859375 -1816.9381103515625 -1797.2669677734375 -1778.6925048828125 -1761.0758056640625 -1745.0404052734375 -1730.4483642578125 -1717.167236328125 -1705.9571533203125 -1696.479248046875 -1688.47314453125 -1681.8837890625 -1676.606689453125 -1672.53466796875 -1668.999755859375 -1665.554931640625 -1661.951171875 -1659.09033203125 -1657.4793701171875 -1657.455322265625 -1657.2161865234375 -1656.579345703125 -1655.9329833984375 -1655.5025634765625 -1655.4287109375 -1655.7249755859375 -1656.1103515625 -1656.488525390625 -1656.798095703125 -1657.0184326171875 -1657.1187744140625 -1657.17138671875 -1657.177490234375 -1657.1092529296875 -1656.8682861328125 -1656.1629638671875 -1657.103271484375 -1658.8399658203125 -1660.5107421875 -1661.8935546875 -1663.1324462890625 -1664.2513427734375 -1665.2098388671875 -1665.997314453125 -1666.6004638671875 -1666.9598388671875 -1667.1419677734375 -1667.1710205078125 -1667.084228515625 -1666.909423828125 -1666.7427978515625 -1666.638427734375 -1666.638916015625 -1666.8089599609375 -1667.202392578125 -1667.8250732421875 -1668.672119140625 -1669.763427734375 -1671.18359375 -1672.96484375 -1675.0789794921875 -1677.6556396484375 -1680.4921875 -1683.5911865234375 -1686.8995361328125 -1690.3515625 -1693.3468017578125 -1695.4281005859375 -1696.6322021484375 -1696.935791015625 -1696.496337890625 -1695.9608154296875 -1696.8963623046875 -1700.925537109375 -1708.53125 -1718.897705078125 -1727.001953125 -1731.385986328125 -1731.8778076171875 -1731.7216796875 -1733.65185546875 -1738.0926513671875 -1744.01611328125 -1733.15380859375 -1730.5623779296875 -1731.1129150390625 -1734.4378662109375 -1741.3475341796875 -1750.67626953125 -1758.9031982421875 -1764.044921875 -1768.916015625 -1774.1197509765625 -1779.819091796875 -1786.1263427734375 -1792.7479248046875 -1799.3232421875 -1805.4364013671875 -1810.4404296875 -1813.8585205078125 -1815.7529296875 -1815.8475341796875 -1813.6082763671875 -1808.504638671875 -1801.4576416015625 -1793.00390625 -1784.481689453125 -1776.1822509765625 -1768.146240234375 -1760.3958740234375 -1752.85498046875 -1745.4591064453125 -1738.15966796875 -1730.778564453125 -1723.1654052734375 -1715.2647705078125 -1706.79248046875 -1697.9832763671875 -1689.0072021484375 -1680.00537109375 -1671.2064208984375 -1663.186279296875 -1656.159912109375 -1650.50927734375 -1646.5738525390625 -1644.4278564453125 -1644.365234375 -1646.0296630859375 -1646.9798583984375 -1646.62158203125 -1644.9920654296875 -1643.421142578125 -1644.1055908203125 -1646.2431640625 -1649.4276123046875 -1653.2740478515625 -1657.5419921875 -99999 -99999 -99999 -99999 -99999 -99999 -99999 -99999 -99999 -99999 -99999 -99999 -99999 -99999 -99999 -99999 -99999 -99999 -99999 -99999 -99999 -99999 -99999 -99999 -99999 -99999 -99999 -99999
 -99999 -99999 -99999 -99999 -99999 -99999 -99999 -99999 -99999 -99999 -99999 -99999 -99999 -99999 -99999 -99999 -99999 -99999 -99999 -99999 -99999 -2162.391845703125 -2157.06396484375 -2151.866455078125 -2146.68359375 -2141.642333984375 -2136.74853515625 -2131.943603515625 -2127.2822265625 -2122.783203125 -2118.427978515625 -2114.205322265625 -2110.231201171875 -2106.346923828125 -2102.6240234375 -2099.023193359375 -2095.55029296875 -2092.1650390625 -2088.83837890625 -2085.587646484375 -2082.334228515625 -2079.043701171875 -2075.665283203125 -2072.139404296875 -2068.4306640625 -2064.503173828125 -2060.146484375 -2055.43994140625 -2050.22412109375 -2044.4166259765625 -2037.77880859375 -2030.3118896484375 -2021.910400390625 -2011.9873046875 -2001.1654052734375 -1989.1937255859375 -1975.9532470703125 -1960.874267578125 -1944.532470703125 -1926.7484130859375 -1907.863037109375 -1888.0286865234375 -1867.651123046875 -1847.02490234375 -1826.5362548828125 -1806.35888671875 -1786.8953857421875 -1768.300537109375 -1750.93701171875 -1734.9091796875 -1720.173583984375 -1707.3155517578125 -1695.927978515625 -1686.1678466796875 -1677.9437255859375 -1671.1470947265625 -1665.6607666015625 -1661.2509765625 -1657.4163818359375 -1654.0408935546875 -1651.0322265625 -1648.698974609375 -1648.505859375 -1648.5638427734375 -1648.4281005859375 -1647.92626953125 -1647.2105712890625 -1646.818359375 -1646.773681640625 -1646.8953857421875 -1647.0208740234375 -1647.0582275390625 -1646.8521728515625 -1646.5166015625 -1646.1201171875 -1645.7423095703125 -1645.470703125 -1645.2332763671875 -1645.0556640625 -1645.1282958984375 -1645.6524658203125 -1647.272216796875 -1648.803955078125 -1650.310546875 -1651.723388671875 -1653.0477294921875 -1654.1676025390625 -1655.0784912109375 -1655.7650146484375 -1656.22265625 -1656.4493408203125 -1656.4652099609375 -1656.3602294921875 -1656.2001953125 -1656.0416259765625 -1655.9586181640625 -1656.058837890625 -1656.375732421875 -1656.9332275390625 -1657.7459716796875 -1658.8028564453125 -1660.19775390625 -1661.8701171875 -1663.9124755859375 -1666.4373779296875 -1669.6533203125 -1673.3236083984375 -1676.9803466796875 -1680.8883056640625 -1684.7305908203125 -1688.2281494140625 -1691.1302490234375 -1692.494873046875 -1692.4110107421875 -1691.5465087890625 -1690.2740478515625 -1689.0548095703125 -1691.3612060546875 -1702.83056640625 -1718.008056640625 -1729.839599609375 -1733.2939453125 -1733.576904296875 -1733.781005859375 -1735.0206298828125 -1741.6256103515625 -1742.9735107421875 -1741.024169921875 -1738.4183349609375 -1739.572021484375 -1744.0018310546875 -1750.4736328125 -1758.0087890625 -1765.37255859375 -1771.880859375 -1777.748291015625 -1783.453369140625 -1789.4808349609375 -1795.712158203125 -1802.00439453125 -1808.0716552734375 -1813.3369140625 -1817.4405517578125 -1819.9827880859375 -1820.4761962890625 -1818.650390625 -1815.024658203125 -1809.746337890625 -1802.69287109375 -1794.635498046875 -1786.18896484375 -1777.7022705078125 -1769.3720703125 -1761.1844482421875 -1753.1339111328125 -1745.1697998046875 -1737.2491455078125 -1729.3001708984375 -1721.2744140625 -1712.875732421875 -1704.3087158203125 -1695.4788818359375 -1686.6435546875 -1677.976318359375 -1669.6212158203125 -1662.0296630859375 -1655.3177490234375 -1649.665283203125 -1645.671630859375 -1643.4110107421875 -1642.345458984375 -1642.0008544921875 -1641.808349609375 -1640.693359375 -1638.7642822265625 -1637.6414794921875 -1638.199951171875 -1640.8548583984375 -1644.655029296875 -1648.6217041015625 -1652.7022705078125 -99999 -99999 -99999 -99999 -99999 -99999 -99999 -99999 -99999 -99999 -99999 -99999 -99999 -99999 -99999 -99999 -99999 -99999 -99999 -99999 -99999 -99999 -99999 -99999 -99999 -99999 -99999 -99999
 -99999 -99999 -99999 -99999 -99999 -99999 -99999 -99999 -99999 -99999 -99999 -99999 -99999 -99999 -99999 -99999 -99999 -99999 -99999 -99999 -2155.98095703125 -2150.300537109375 -2144.62060546875 -2139.123779296875 -2133.65673828125 -2128.259765625 -2123.000244140625 -2117.91015625 -2112.940673828125 -2108.212158203125 -2103.611572265625 -2099.197998046875 -2094.960205078125 -2090.89404296875 -2086.99267578125 -2083.248779296875 -2079.734130859375 -2076.3134765625 -2073.00927734375 -2069.781982421875 -2066.62939453125 -2063.515625 -2060.3251953125 -2057.056396484375 -2053.68701171875 -2050.09765625 -2046.257080078125 -2041.90478515625 -2037.193359375 -2031.8902587890625 -2025.84375 -2018.896240234375 -2010.9473876953125 -2001.858642578125 -1991.33984375 -1979.5399169921875 -1966.2110595703125 -1951.1802978515625 -1934.670166015625 -1916.65869140625 -1897.474853515625 -1877.435791015625 -1856.9041748046875 -1836.1512451171875 -1815.5355224609375 -1795.4197998046875 -1775.9056396484375 -1757.368896484375 -1740.093505859375 -1724.052978515625 -1709.640625 -1696.7025146484375 -1685.304443359375 -1675.705810546875 -1667.3397216796875 -1660.511474609375 -1654.863037109375 -1650.1265869140625 -1646.2518310546875 -1643.0748291015625 -1640.6107177734375 -1639.05859375 -1638.6112060546875 -1639.2401123046875 -1639.5255126953125 -1639.28271484375 -1638.680908203125 -1638.41748046875 -1638.552978515625 -1638.77978515625 -1638.750244140625 -1638.3687744140625 -1637.68212890625 -1636.878662109375 -1636.0174560546875 -1635.2415771484375 -1634.7603759765625 -1634.6279296875 -1634.8638916015625 -1635.6146240234375 -1636.569091796875 -1637.4371337890625 -1638.544189453125 -1639.9127197265625 -1641.3656005859375 -1642.7060546875 -1643.8907470703125 -1644.863525390625 -1645.5694580078125 -1645.98583984375 -1646.1722412109375 -1646.179443359375 -1646.046630859375 -1645.8502197265625 -1645.67626953125 -1645.624267578125 -1645.7657470703125 -1646.18017578125 -1646.890625 -1647.9820556640625 -1649.3360595703125 -1650.9541015625 -1652.784912109375 -1654.960205078125 -1657.9801025390625 -1662.013427734375 -1666.4189453125 -1670.763671875 -1675.224853515625 -1679.6842041015625 -1683.838134765625 -1687.4049072265625 -1689.3319091796875 -1689.3660888671875 -1688.263916015625 -1686.4464111328125 -1684.5462646484375 -1686.30322265625 -1696.030029296875 -1714.9410400390625 -1727.7581787109375 -1733.835693359375 -1734.9091796875 -1736.809326171875 -1739.738525390625 -1743.4495849609375 -1746.8814697265625 -1746.6510009765625 -1747.4898681640625 -1749.910888671875 -1754.0567626953125 -1760.1629638671875 -1767.1126708984375 -1774.2281494140625 -1780.8477783203125 -1787.1273193359375 -1793.213623046875 -1799.23486328125 -1805.2376708984375 -1811.1165771484375 -1816.6029052734375 -1821.67626953125 -1824.826171875 -1825.6492919921875 -1824.5257568359375 -1821.8369140625 -1817.5137939453125 -1811.4677734375 -1804.4461669921875 -1796.4049072265625 -1787.9248046875 -1779.29443359375 -1770.6265869140625 -1762.0848388671875 -1753.57275390625 -1745.1427001953125 -1736.806396484375 -1728.389892578125 -1719.9468994140625 -1711.3372802734375 -1702.5286865234375 -1693.7366943359375 -1685.017822265625 -1676.5064697265625 -1668.466064453125 -1661.048828125 -1654.539794921875 -1649.21044921875 -1645.066162109375 -1641.9417724609375 -1640.1021728515625 -1638.8636474609375 -1637.5538330078125 -1636.0604248046875 -1634.41552734375 -1633.09228515625 -1634.02490234375 -1637.0535888671875 -1641.111328125 -1644.898193359375 -1648.54638671875 -99999 -99999 -99999 -99999 -99999 -99999 -99999 -99999 -99999 -99999 -99999 -99999 -99999 -99999 -99999 -99999 -99999 -99999 -99999 -99999 -99999 -99999 -99999 -99999 -99999 -99999 -99999 -99999
 -99999 -99999 -99999 -99999 -99999 -99999 -99999 -99999 -99999 -99999 -99999 -99999 -99999 -99999 -99999 -99999 -99999 -99999 -99999 -2150.19921875 -2144.156494140625 -2138.16748046875 -2132.1669921875 -2126.214599609375 -2120.381103515625 -2114.70849609375 -2109.11474609375 -2103.70068359375 -2098.496826171875 -2093.4306640625 -2088.529052734375 -2083.8056640625 -2079.330810546875 -2075.095947265625 -2071.03466796875 -2067.192626953125 -2063.548828125 -2060.072265625 -2056.7431640625 -2053.573486328125 -2050.498779296875 -2047.495361328125 -2044.5208740234375 -2041.558349609375 -2038.4490966796875 -2035.195068359375 -2031.7489013671875 -2028.00732421875 -2023.703369140625 -2018.9356689453125 -2013.60791015625 -2007.4365234375 -1999.9683837890625 -1991.33447265625 -1981.3656005859375 -1969.775390625 -1956.291259765625 -1941.1783447265625 -1924.2657470703125 -1905.961181640625 -1886.65185546875 -1866.3997802734375 -1845.763916015625 -1824.94287109375 -1804.281494140625 -1784.094970703125 -1764.6392822265625 -1746.2672119140625 -1729.06787109375 -1713.0916748046875 -1698.8392333984375 -1686.019775390625 -1674.61474609375 -1664.9415283203125 -1656.8271484375 -1649.7794189453125 -1644.109375 -1639.4554443359375 -1635.8360595703125 -1632.946533203125 -1630.8209228515625 -1629.5849609375 -1629.4151611328125 -1629.903564453125 -1630.4346923828125 -1630.549560546875 -1629.98046875 -1630.2691650390625 -1630.9783935546875 -1631.4061279296875 -1631.2491455078125 -1630.5986328125 -1629.3074951171875 -1627.79248046875 -1626.421875 -1625.4248046875 -1624.807861328125 -1624.7135009765625 -1625.3450927734375 -1626.64501953125 -1627.7890625 -1628.3011474609375 -1629.0947265625 -1630.299072265625 -1631.7413330078125 -1633.095703125 -1634.3115234375 -1635.284912109375 -1635.94970703125 -1636.3447265625 -1636.4803466796875 -1636.40673828125 -1636.1796875 -1635.9100341796875 -1635.663330078125 -1635.593017578125 -1635.7659912109375 -1636.32958984375 -1637.251708984375 -1638.5360107421875 -1640.1180419921875 -1642.0042724609375 -1644.02099609375 -1646.100830078125 -1649.5025634765625 -1654.34521484375 -1659.8153076171875 -1664.756103515625 -1669.628662109375 -1674.598876953125 -1679.5716552734375 -1684.6253662109375 -1687.0478515625 -1686.85107421875 -1685.9735107421875 -1684.9146728515625 -1684.1065673828125 -1685.260498046875 -1696.36865234375 -1710.647216796875 -1723.431640625 -1730.8436279296875 -1735.9691162109375 -1739.798095703125 -1743.2886962890625 -1747.3431396484375 -1750.7335205078125 -1753.5601806640625 -1756.0306396484375 -1759.563232421875 -1764.4903564453125 -1770.5289306640625 -1777.20947265625 -1783.9779052734375 -1790.5260009765625 -1796.8572998046875 -1802.8936767578125 -1808.76416015625 -1814.302734375 -1819.7889404296875 -1824.6263427734375 -1828.71875 -1831.011474609375 -1830.685302734375 -1828.526611328125 -1824.716796875 -1819.6390380859375 -1813.435791015625 -1806.2291259765625 -1798.109619140625 -1789.593994140625 -1780.82275390625 -1771.9556884765625 -1763.065673828125 -1754.239990234375 -1745.4091796875 -1736.610107421875 -1727.8275146484375 -1719.089111328125 -1710.25244140625 -1701.396240234375 -1692.5836181640625 -1683.97412109375 -1675.637939453125 -1667.75634765625 -1660.5926513671875 -1654.1544189453125 -1648.6728515625 -1644.2821044921875 -1640.8916015625 -1638.2584228515625 -1636.1600341796875 -1634.4638671875 -1632.8182373046875 -1631.4461669921875 -1630.9447021484375 -1631.8154296875 -1634.958984375 -1639.3074951171875 -1642.277099609375 -1644.912841796875 -99999 -99999 -99999 -99999 -99999 -99999 -99999 -99999 -99999 -99999 -99999 -99999 -99999 -99999 -99999 -99999 -99999 -99999 -99999 -99999 -99999 -99999 -99999 -99999 -99999 -99999 -99999 -99999
 -99999 -99999 -99999 -99999 -99999 -99999 -99999 -99999 -99999 -99999 -99999 -99999 -99999 -99999 -99999 -99999 -99999 -99999 -2145.167724609375 -2138.7734375 -2132.31982421875 -2125.8671875 -2119.542724609375 -2113.28857421875 -2107.0634765625 -2101.05322265625 -2095.1591796875 -2089.37451171875 -2083.740234375 -2078.306396484375 -2073.16796875 -2068.198974609375 -2063.480712890625 -2059.021728515625 -2054.768798828125 -2050.72802734375 -2046.925537109375 -2043.4193115234375 -2040.0650634765625 -2036.8841552734375 -2033.8817138671875 -2031.00830078125 -2028.197998046875 -2025.4488525390625 -2022.694091796875 -2019.7127685546875 -2016.6619873046875 -2013.39111328125 -2009.796875 -2005.560302734375 -2000.6800537109375 -1995.0482177734375 -1988.493896484375 -1980.61083984375 -1971.1832275390625 -1959.79931640625 -1946.12158203125 -1930.57275390625 -1913.364013671875 -1894.8948974609375 -1875.2635498046875 -1854.8876953125 -1834.1495361328125 -1813.254638671875 -1792.5855712890625 -1772.4075927734375 -1753.0394287109375 -1734.7901611328125 -1717.552978515625 -1701.92578125 -1687.6802978515625 -1674.9146728515625 -1663.887939453125 -1654.414306640625 -1646.3067626953125 -1639.485107421875 -1633.921875 -1629.369140625 -1625.9921875 -1623.49462890625 -1621.796142578125 -1621.0224609375 -1620.9429931640625 -1621.333984375 -1621.7860107421875 -1622.0447998046875 -1622.0657958984375 -1623.1190185546875 -1624.4017333984375 -1624.98779296875 -1624.6815185546875 -1623.5927734375 -1621.73974609375 -1619.5975341796875 -1617.650146484375 -1616.3511962890625 -1615.6458740234375 -1615.698486328125 -1616.54443359375 -1617.82177734375 -1618.9462890625 -1619.6549072265625 -1620.5526123046875 -1621.68212890625 -1622.99365234375 -1624.220703125 -1625.4171142578125 -1626.3424072265625 -1626.8978271484375 -1627.1263427734375 -1627.115234375 -1626.953369140625 -1626.6748046875 -1626.298828125 -1625.9530029296875 -1625.79345703125 -1626.031494140625 -1626.6805419921875 -1627.7752685546875 -1629.275146484375 -1631.2017822265625 -1633.1322021484375 -1634.9339599609375 -1636.707275390625 -1640.2020263671875 -1647.9091796875 -1653.789306640625 -1658.879638671875 -1663.9320068359375 -1669.37255859375 -1674.757568359375 -1680.1434326171875 -1683.2724609375 -1684.1990966796875 -1684.04736328125 -1683.91943359375 -1685.0531005859375 -1689.28076171875 -1697.1971435546875 -1709.5135498046875 -1720.8145751953125 -1729.5657958984375 -1736.118408203125 -1741.69140625 -1746.9072265625 -1751.84814453125 -1756.2589111328125 -1760.3131103515625 -1764.56787109375 -1769.380615234375 -1774.9219970703125 -1781.1285400390625 -1787.6038818359375 -1794.14990234375 -1800.52099609375 -1806.5596923828125 -1812.266845703125 -1817.826171875 -1822.884765625 -1827.4041748046875 -1831.0999755859375 -1834.1798095703125 -1835.5020751953125 -1834.269775390625 -1831.4439697265625 -1827.2474365234375 -1821.7952880859375 -1815.2926025390625 -1807.8612060546875 -1799.720458984375 -1791.0909423828125 -1782.1846923828125 -1773.0980224609375 -1764.0118408203125 -1754.845458984375 -1745.7567138671875 -1736.69970703125 -1727.66650390625 -1718.6295166015625 -1709.66796875 -1700.7255859375 -1691.92333984375 -1683.384033203125 -1675.1439208984375 -1667.4056396484375 -1660.2950439453125 -1653.8759765625 -1648.3563232421875 -1643.6981201171875 -1639.8140869140625 -1636.80078125 -1634.31640625 -1632.228759765625 -1630.59033203125 -1629.534912109375 -1629.362548828125 -1630.6148681640625 -1633.7928466796875 -1637.2711181640625 -1639.37109375 -1641.3642578125 -99999 -99999 -99999 -99999 -99999 -99999 -99999 -99999 -99999 -99999 -99999 -99999 -99999 -99999 -99999 -99999 -99999 -99999 -99999 -99999 -99999 -99999 -99999 -99999 -99999 -99999 -99999 -99999
 -99999 -99999 -99999 -99999 -99999 -99999 -99999 -99999 -99999 -99999 -99999 -99999 -99999 -99999 -99999 -99999 -99999 -2140.7919921875 -2134.018798828125 -2127.209228515625 -2120.447509765625 -2113.677001953125 -2106.945068359375 -2100.329833984375 -2093.78125 -2087.2939453125 -2080.939697265625 -2074.794189453125 -2068.863525390625 -2063.10888671875 -2057.630126953125 -2052.381103515625 -2047.3409423828125 -2042.5689697265625 -2038.12841796875 -2033.8758544921875 -2029.973388671875 -2026.309814453125 -2022.913330078125 -2019.731689453125 -2016.7515869140625 -2014.00634765625 -2011.361572265625 -2008.772216796875 -2006.2515869140625 -2003.737060546875 -2001.0718994140625 -1998.1151123046875 -1994.8675537109375 -1991.328857421875 -1987.119140625 -1982.1611328125 -1976.3511962890625 -1969.447509765625 -1960.45751953125 -1949.35986328125 -1935.2391357421875 -1919.1514892578125 -1901.7113037109375 -1883.028076171875 -1863.2607421875 -1842.8375244140625 -1822.0216064453125 -1801.111328125 -1780.508544921875 -1760.3905029296875 -1741.2314453125 -1722.99267578125 -1706.0076904296875 -1690.5343017578125 -1676.4300537109375 -1664.0435791015625 -1653.2325439453125 -1643.9404296875 -1636.295166015625 -1629.6712646484375 -1624.32666015625 -1619.9903564453125 -1617.0498046875 -1614.9825439453125 -1613.644287109375 -1613.1385498046875 -1613.15673828125 -1613.56201171875 -1614.0980224609375 -1614.6204833984375 -1615.5550537109375 -1616.9486083984375 -1618.458740234375 -1619.3756103515625 -1619.1756591796875 -1617.3582763671875 -1614.719482421875 -1611.989501953125 -1609.51708984375 -1607.7418212890625 -1606.939697265625 -1607.19140625 -1608.145751953125 -1609.5201416015625 -1610.8011474609375 -1611.74755859375 -1612.6917724609375 -1613.838134765625 -1615.111572265625 -1616.2972412109375 -1617.2506103515625 -1617.9000244140625 -1618.298095703125 -1618.4100341796875 -1618.2423095703125 -1617.9149169921875 -1617.4974365234375 -1617.059814453125 -1616.69482421875 -1616.4368896484375 -1616.6029052734375 -1617.3565673828125 -1618.6170654296875 -1620.3424072265625 -1622.392822265625 -1624.1748046875 -1625.666748046875 -1627.2117919921875 -1631.1927490234375 -1639.5699462890625 -1647.389892578125 -1652.87255859375 -1658.45068359375 -1664.124267578125 -1669.7093505859375 -1674.7657470703125 -1678.460205078125 -1680.56201171875 -1682.2674560546875 -1684.243896484375 -1687.1484375 -1692.058837890625 -1700.072509765625 -1709.9326171875 -1720.2930908203125 -1729.274658203125 -1737.3157958984375 -1744.225830078125 -1750.4014892578125 -1756.22802734375 -1761.8690185546875 -1767.423828125 -1772.954833984375 -1778.979248046875 -1785.143798828125 -1791.5330810546875 -1798.0377197265625 -1804.361083984375 -1810.3299560546875 -1815.9451904296875 -1821.048583984375 -1825.967041015625 -1830.4444580078125 -1834.265380859375 -1837.064208984375 -1838.4368896484375 -1838.5579833984375 -1836.973876953125 -1833.855224609375 -1829.3580322265625 -1823.5369873046875 -1816.791748046875 -1809.234375 -1801.0345458984375 -1792.3458251953125 -1783.357177734375 -1774.168212890625 -1764.8565673828125 -1755.5428466796875 -1746.211669921875 -1736.8980712890625 -1727.661865234375 -1718.4996337890625 -1709.3984375 -1700.4398193359375 -1691.6427001953125 -1683.1160888671875 -1674.978515625 -1667.2908935546875 -1660.2333984375 -1653.78173828125 -1648.1722412109375 -1643.34375 -1639.1785888671875 -1635.725341796875 -1632.8856201171875 -1630.6866455078125 -1629.0089111328125 -1628.012939453125 -1628.029052734375 -1629.123779296875 -1631.475830078125 -1634.13720703125 -1635.6663818359375 -1637.687744140625 -99999 -99999 -99999 -99999 -99999 -99999 -99999 -99999 -99999 -99999 -99999 -99999 -99999 -99999 -99999 -99999 -99999 -99999 -99999 -99999 -99999 -99999 -99999 -99999 -99999 -99999 -99999 -99999
 -99999 -99999 -99999 -99999 -99999 -99999 -99999 -99999 -99999 -99999 -99999 -99999 -99999 -99999 -99999 -99999 -2137.054443359375 -2130.0400390625 -2122.9794921875 -2115.819580078125 -2108.6708984375 -2101.530517578125 -2094.40966796875 -2087.281005859375 -2080.318603515625 -2073.43212890625 -2066.703857421875 -2060.193603515625 -2053.89990234375 -2047.7757568359375 -2041.8514404296875 -2036.2618408203125 -2030.856201171875 -2025.877197265625 -2021.1617431640625 -2016.7772216796875 -2012.6668701171875 -2008.847412109375 -2005.34033203125 -2002.1318359375 -1999.17529296875 -1996.4185791015625 -1993.9212646484375 -1991.5640869140625 -1989.262451171875 -1986.9251708984375 -1984.6802978515625 -1982.1849365234375 -1979.4049072265625 -1976.25634765625 -1972.5977783203125 -1968.0650634765625 -1962.7198486328125 -1956.4013671875 -1948.47021484375 -1937.2584228515625 -1922.6746826171875 -1906.52197265625 -1889.0201416015625 -1870.3284912109375 -1850.6181640625 -1830.1558837890625 -1809.3709716796875 -1788.5426025390625 -1768.002197265625 -1748.1673583984375 -1729.0621337890625 -1710.9742431640625 -1694.244384765625 -1679.0228271484375 -1665.218994140625 -1653.21923828125 -1642.8616943359375 -1634.0382080078125 -1626.679931640625 -1620.6463623046875 -1615.7803955078125 -1611.6939697265625 -1608.7545166015625 -1607.36083984375 -1606.42578125 -1606.0462646484375 -1606.12255859375 -1606.5550537109375 -1607.2425537109375 -1608.0938720703125 -1609.275634765625 -1610.8729248046875 -1612.7515869140625 -1614.385498046875 -1613.9013671875 -1611.7734375 -1608.4942626953125 -1604.76904296875 -1601.6690673828125 -1599.769775390625 -1598.9698486328125 -1599.234130859375 -1600.4959716796875 -1602.3038330078125 -1603.6796875 -1604.6749267578125 -1605.5509033203125 -1606.6962890625 -1607.84033203125 -1608.81689453125 -1609.540771484375 -1609.95751953125 -1610.0009765625 -1609.8621826171875 -1609.5506591796875 -1609.1146240234375 -1608.559326171875 -1608.0447998046875 -1607.6317138671875 -1607.2572021484375 -1607.2235107421875 -1608.171875 -1609.7213134765625 -1611.538818359375 -1613.4991455078125 -1615.3260498046875 -1617.2784423828125 -1619.9310302734375 -1624.250732421875 -1631.912109375 -1640.061279296875 -1646.6142578125 -1652.7496337890625 -1658.849853515625 -1664.676513671875 -1670.037841796875 -1674.3050537109375 -1677.8359375 -1680.864501953125 -1684.1488037109375 -1688.410888671875 -1694.4874267578125 -1702.3319091796875 -1711.445068359375 -1721.076904296875 -1730.324462890625 -1738.8917236328125 -1746.7100830078125 -1754.1922607421875 -1761.0228271484375 -1767.84619140625 -1774.7347412109375 -1781.3023681640625 -1788.0394287109375 -1794.7957763671875 -1801.655029296875 -1808.1358642578125 -1814.22021484375 -1819.4930419921875 -1824.5223388671875 -1829.096435546875 -1833.331298828125 -1837.093017578125 -1839.81982421875 -1841.4937744140625 -1842.0767822265625 -1841.439208984375 -1839.2886962890625 -1835.6837158203125 -1830.7501220703125 -1824.873779296875 -1818.046875 -1810.380126953125 -1802.18505859375 -1793.37060546875 -1784.28662109375 -1774.9794921875 -1765.5521240234375 -1756.0980224609375 -1746.646728515625 -1737.214599609375 -1727.8404541015625 -1718.54443359375 -1709.3931884765625 -1700.3804931640625 -1691.5972900390625 -1683.1644287109375 -1675.0455322265625 -1667.423095703125 -1660.39990234375 -1653.935791015625 -1648.1239013671875 -1643.06201171875 -1638.7535400390625 -1635.100341796875 -1632.0364990234375 -1629.5733642578125 -1627.79443359375 -1626.91162109375 -1626.8154296875 -1627.50830078125 -1628.9349365234375 -1630.61376953125 -1632.324462890625 -1634.3564453125 -99999 -99999 -99999 -99999 -99999 -99999 -99999 -99999 -99999 -99999 -99999 -99999 -99999 -99999 -99999 -99999 -99999 -99999 -99999 -99999 -99999 -99999 -99999 -99999 -99999 -99999 -99999 -99999
 -99999 -99999 -99999 -99999 -99999 -99999 -99999 -99999 -99999 -99999 -99999 -99999 -99999 -99999 -99999 -2134.09326171875 -2126.85205078125 -2119.465087890625 -2112.002197265625 -2104.51513671875 -2096.961669921875 -2089.34326171875 -2081.8076171875 -2074.296630859375 -2066.88134765625 -2059.6171875 -2052.466064453125 -2045.483154296875 -2038.68408203125 -2032.2105712890625 -2025.9251708984375 -2019.9638671875 -2014.319091796875 -2008.999267578125 -2003.9744873046875 -1999.2435302734375 -1994.9556884765625 -1991.03369140625 -1987.3834228515625 -1984.02734375 -1981.0517578125 -1978.32958984375 -1975.8699951171875 -1973.650390625 -1971.546142578125 -1969.4674072265625 -1967.430419921875 -1965.3602294921875 -1963.0076904296875 -1960.1697998046875 -1956.823486328125 -1952.7244873046875 -1947.6978759765625 -1941.3590087890625 -1933.0213623046875 -1921.901611328125 -1907.902099609375 -1892.4893798828125 -1875.2188720703125 -1856.610595703125 -1837.14306640625 -1816.823974609375 -1796.2362060546875 -1775.62451171875 -1755.2928466796875 -1735.7003173828125 -1716.7852783203125 -1699.095703125 -1682.716064453125 -1667.65576171875 -1654.395263671875 -1642.8284912109375 -1632.78466796875 -1624.5179443359375 -1617.987548828125 -1612.5025634765625 -1608.255615234375 -1604.68310546875 -1602.208740234375 -1600.7489013671875 -1599.993408203125 -1599.738525390625 -1599.8795166015625 -1600.29541015625 -1600.949951171875 -1601.827880859375 -1603.03369140625 -1604.616455078125 -1606.429443359375 -1608.0653076171875 -1608.8245849609375 -1606.1800537109375 -1602.2467041015625 -1598.110595703125 -1594.5623779296875 -1592.19091796875 -1591.6427001953125 -1592.3389892578125 -1593.701171875 -1595.421875 -1596.993896484375 -1598.0224609375 -1599.0570068359375 -1600.1285400390625 -1601.1123046875 -1601.79443359375 -1602.0404052734375 -1602.0009765625 -1601.7486572265625 -1601.34326171875 -1600.8411865234375 -1600.2744140625 -1599.5831298828125 -1599.0335693359375 -1598.7061767578125 -1598.1693115234375 -1598.029296875 -1599.192138671875 -1601.0379638671875 -1603.10791015625 -1605.0819091796875 -1607.418701171875 -1610.1719970703125 -1613.78125 -1618.7451171875 -1625.8245849609375 -1633.2952880859375 -1640.4617919921875 -1647.1829833984375 -1653.60693359375 -1659.727294921875 -1665.4599609375 -1670.625732421875 -1675.08544921875 -1679.5052490234375 -1684.322998046875 -1689.84765625 -1696.5322265625 -1704.3433837890625 -1713.2379150390625 -1722.656982421875 -1732.023681640625 -1741.1055908203125 -1749.6800537109375 -1757.9208984375 -1765.8634033203125 -1773.6768798828125 -1781.2928466796875 -1788.907958984375 -1796.5767822265625 -1803.9398193359375 -1811.16796875 -1817.71923828125 -1823.3743896484375 -1828.22412109375 -1832.424560546875 -1836.086669921875 -1839.5213623046875 -1842.36669921875 -1844.3822021484375 -1845.39501953125 -1845.1268310546875 -1843.5838623046875 -1840.854248046875 -1836.9715576171875 -1831.9970703125 -1825.9051513671875 -1818.8062744140625 -1811.0916748046875 -1802.836181640625 -1794.02197265625 -1784.9437255859375 -1775.6168212890625 -1766.1358642578125 -1756.6397705078125 -1747.051025390625 -1737.5184326171875 -1728.0814208984375 -1718.7398681640625 -1709.5416259765625 -1700.5638427734375 -1691.7879638671875 -1683.32666015625 -1675.286865234375 -1667.6927490234375 -1660.6097412109375 -1654.1534423828125 -1648.3385009765625 -1643.1876220703125 -1638.5810546875 -1634.6524658203125 -1631.47412109375 -1628.9339599609375 -1627.0452880859375 -1625.824951171875 -1625.5029296875 -1625.77880859375 -1626.7386474609375 -1627.9703369140625 -1629.4697265625 -1631.3416748046875 -99999 -99999 -99999 -99999 -99999 -99999 -99999 -99999 -99999 -99999 -99999 -99999 -99999 -99999 -99999 -99999 -99999 -99999 -99999 -99999 -99999 -99999 -99999 -99999 -99999 -99999 -99999 -99999
 -99999 -99999 -99999 -99999 -99999 -99999 -99999 -99999 -99999 -99999 -99999 -99999 -99999 -99999 -2131.747802734375 -2124.38720703125 -2116.76025390625 -2109.05322265625 -2101.195068359375 -2093.2919921875 -2085.319580078125 -2077.3466796875 -2069.32958984375 -2061.37939453125 -2053.51416015625 -2045.730224609375 -2038.142822265625 -2030.7247314453125 -2023.4931640625 -2016.5557861328125 -2009.9097900390625 -2003.5443115234375 -1997.457763671875 -1991.78857421875 -1986.5274658203125 -1981.470458984375 -1976.9337158203125 -1972.8121337890625 -1968.981201171875 -1965.506103515625 -1962.4346923828125 -1959.74560546875 -1957.3228759765625 -1955.1041259765625 -1953.1182861328125 -1951.3238525390625 -1949.5274658203125 -1947.6436767578125 -1945.5692138671875 -1943.2337646484375 -1940.145751953125 -1936.286865234375 -1931.345947265625 -1924.54052734375 -1915.817138671875 -1904.9881591796875 -1892.3955078125 -1877.1944580078125 -1860.5556640625 -1842.2972412109375 -1823.034912109375 -1803.04541015625 -1782.718994140625 -1762.37646484375 -1742.46826171875 -1723.153076171875 -1704.7049560546875 -1687.37646484375 -1671.2645263671875 -1656.8746337890625 -1643.8095703125 -1632.42236328125 -1623.0982666015625 -1615.6871337890625 -1609.7852783203125 -1605.2930908203125 -1601.654052734375 -1598.755126953125 -1596.5771484375 -1595.333740234375 -1594.6842041015625 -1594.4100341796875 -1594.4295654296875 -1594.685546875 -1595.189697265625 -1595.919189453125 -1596.857177734375 -1597.9888916015625 -1599.2708740234375 -1600.402099609375 -1600.5872802734375 -1599.2164306640625 -1596.1500244140625 -1591.6473388671875 -1587.9337158203125 -1585.881103515625 -1585.4053955078125 -1586.217041015625 -1587.764892578125 -1589.1663818359375 -1590.49267578125 -1591.77685546875 -1593.045166015625 -1594.02099609375 -1594.5771484375 -1594.718505859375 -1594.453857421875 -1593.849365234375 -1593.1490478515625 -1592.408935546875 -1591.7109375 -1591.0120849609375 -1590.225830078125 -1589.45947265625 -1589.189453125 -1588.9822998046875 -1589.14794921875 -1590.3192138671875 -1592.4244384765625 -1594.726806640625 -1597.2572021484375 -1600.140869140625 -1603.56005859375 -1608.0714111328125 -1613.6864013671875 -1620.223876953125 -1627.4552001953125 -1634.666748046875 -1641.7606201171875 -1648.65478515625 -1655.1922607421875 -1661.36376953125 -1667.3389892578125 -1672.858154296875 -1678.400634765625 -1684.2896728515625 -1690.65478515625 -1697.97412109375 -1706.273681640625 -1715.1231689453125 -1724.5780029296875 -1734.1123046875 -1743.495849609375 -1752.7158203125 -1761.6719970703125 -1770.397216796875 -1779.049560546875 -1787.5198974609375 -1795.9010009765625 -1804.1549072265625 -1812.2406005859375 -1819.7872314453125 -1826.5751953125 -1832.0594482421875 -1836.17236328125 -1839.2530517578125 -1842.14404296875 -1844.8494873046875 -1847.001220703125 -1848.200439453125 -1848.3416748046875 -1847.2374267578125 -1845.2938232421875 -1842.254150390625 -1837.89794921875 -1832.47119140625 -1826.303955078125 -1819.2738037109375 -1811.5596923828125 -1803.2978515625 -1794.4400634765625 -1785.328369140625 -1775.992431640625 -1766.5052490234375 -1756.9443359375 -1747.3697509765625 -1737.820556640625 -1728.3345947265625 -1718.971923828125 -1709.7879638671875 -1700.7789306640625 -1692.065185546875 -1683.7305908203125 -1675.67333984375 -1668.107666015625 -1661.102783203125 -1654.5787353515625 -1648.559814453125 -1643.280517578125 -1638.6734619140625 -1634.6566162109375 -1631.2362060546875 -1628.4228515625 -1626.4091796875 -1625.011474609375 -1624.281494140625 -1624.312255859375 -1624.842529296875 -1625.794677734375 -1627.1494140625 -1628.8394775390625 -99999 -99999 -99999 -99999 -99999 -99999 -99999 -99999 -99999 -99999 -99999 -99999 -99999 -99999 -99999 -99999 -99999 -99999 -99999 -99999 -99999 -99999 -99999 -99999 -99999 -99999 -99999 -99999
 -99999 -99999 -99999 -99999 -99999 -99999 -99999 -99999 -99999 -99999 -99999 -99999 -99999 -2130.134033203125 -2122.576171875 -2114.8095703125 -2106.95556640625 -2098.8193359375 -2090.60595703125 -2082.291259765625 -2073.8876953125 -2065.429443359375 -2056.9580078125 -2048.55810546875 -2040.20263671875 -2031.9339599609375 -2023.8304443359375 -2015.9644775390625 -2008.27783203125 -2000.8388671875 -1993.7415771484375 -1986.9686279296875 -1980.4627685546875 -1974.4591064453125 -1968.81298828125 -1963.53076171875 -1958.6448974609375 -1954.1522216796875 -1950.1529541015625 -1946.5877685546875 -1943.3892822265625 -1940.519287109375 -1938.0399169921875 -1935.8597412109375 -1934.0810546875 -1932.40380859375 -1930.8131103515625 -1929.1815185546875 -1927.370849609375 -1925.2552490234375 -1922.457763671875 -1918.6815185546875 -1913.7811279296875 -1907.38671875 -1899.1519775390625 -1888.52099609375 -1876.2156982421875 -1861.738037109375 -1845.3447265625 -1827.545654296875 -1808.4578857421875 -1788.8653564453125 -1768.8780517578125 -1748.9755859375 -1729.5155029296875 -1710.622314453125 -1692.6790771484375 -1675.81591796875 -1660.4151611328125 -1646.0665283203125 -1633.8143310546875 -1622.8583984375 -1614.2379150390625 -1607.8199462890625 -1602.73779296875 -1599.0986328125 -1595.9156494140625 -1593.701416015625 -1592.084716796875 -1590.9541015625 -1590.2320556640625 -1589.8585205078125 -1589.7353515625 -1589.7703857421875 -1589.9561767578125 -1590.2845458984375 -1590.805908203125 -1591.35888671875 -1591.8302001953125 -1592.064697265625 -1591.9049072265625 -1590.995849609375 -1588.931640625 -1585.42724609375 -1581.9814453125 -1580.245849609375 -1580.1973876953125 -1581.349609375 -1582.93798828125 -1583.8385009765625 -1584.43798828125 -1585.92333984375 -1587.0941162109375 -1587.60546875 -1587.5552978515625 -1587.0504150390625 -1585.9862060546875 -1584.7381591796875 -1583.6033935546875 -1582.59326171875 -1581.6380615234375 -1580.83447265625 -1580.058837890625 -1579.428466796875 -1579.2052001953125 -1579.394287109375 -1580.068359375 -1581.68994140625 -1584.01708984375 -1586.710693359375 -1589.7557373046875 -1593.3804931640625 -1597.638671875 -1602.5262451171875 -1608.2689208984375 -1614.929443359375 -1622.123291015625 -1629.447509765625 -1636.7552490234375 -1643.9376220703125 -1650.9443359375 -1657.76220703125 -1664.25634765625 -1670.6973876953125 -1677.221435546875 -1683.9591064453125 -1691.3016357421875 -1699.2923583984375 -1707.788330078125 -1716.979248046875 -1726.5494384765625 -1736.3009033203125 -1746.0054931640625 -1755.565185546875 -1765.089111328125 -1774.430419921875 -1783.6827392578125 -1792.815185546875 -1801.85888671875 -1810.736572265625 -1819.401123046875 -1827.6092529296875 -1834.6837158203125 -1839.9832763671875 -1843.422607421875 -1845.58984375 -1847.642333984375 -1849.5936279296875 -1850.785888671875 -1851.2186279296875 -1850.531982421875 -1849.0174560546875 -1846.4150390625 -1842.780517578125 -1838.233642578125 -1832.8140869140625 -1826.4984130859375 -1819.2579345703125 -1811.47900390625 -1803.220703125 -1794.4453125 -1785.4112548828125 -1776.1195068359375 -1766.654296875 -1757.1558837890625 -1747.5518798828125 -1738.011474609375 -1728.5640869140625 -1719.232421875 -1710.0650634765625 -1701.153076171875 -1692.463134765625 -1684.0877685546875 -1676.1173095703125 -1668.5201416015625 -1661.5057373046875 -1655.0106201171875 -1649.0679931640625 -1643.7100830078125 -1638.861328125 -1634.6629638671875 -1631.1951904296875 -1628.327880859375 -1625.9820556640625 -1624.451171875 -1623.513916015625 -1623.11962890625 -1623.2689208984375 -1623.9990234375 -99999 -99999 -99999 -99999 -99999 -99999 -99999 -99999 -99999 -99999 -99999 -99999 -99999 -99999 -99999 -99999 -99999 -99999 -99999 -99999 -99999 -99999 -99999 -99999 -99999 -99999 -99999 -99999 -99999 -99999
 -99999 -99999 -99999 -99999 -99999 -99999 -99999 -99999 -99999 -99999 -99999 -99999 -2129.0029296875 -2121.402099609375 -2113.594970703125 -2105.554931640625 -2097.299560546875 -2088.8349609375 -2080.29150390625 -2071.478271484375 -2062.640380859375 -2053.73876953125 -2044.7938232421875 -2035.8443603515625 -2026.980224609375 -2018.242919921875 -2009.602783203125 -2001.15869140625 -1993.0765380859375 -1985.1419677734375 -1977.54638671875 -1970.3662109375 -1963.4906005859375 -1956.9932861328125 -1950.8524169921875 -1945.282958984375 -1940.0830078125 -1935.30712890625 -1931.0877685546875 -1927.3111572265625 -1923.90625 -1920.892578125 -1918.34619140625 -1916.196533203125 -1914.3544921875 -1912.7423095703125 -1911.2967529296875 -1909.865966796875 -1908.29248046875 -1906.368408203125 -1904.0345458984375 -1900.780029296875 -1896.1671142578125 -1889.9696044921875 -1881.836181640625 -1871.67529296875 -1859.5645751953125 -1845.7022705078125 -1829.64111328125 -1812.1337890625 -1793.57861328125 -1774.350341796875 -1754.8824462890625 -1735.559814453125 -1716.6656494140625 -1698.490966796875 -1681.2015380859375 -1665.014404296875 -1650.162109375 -1636.572021484375 -1624.477294921875 -1614.3687744140625 -1606.21875 -1600.49658203125 -1596.2835693359375 -1593.610595703125 -1591.4696044921875 -1589.7418212890625 -1588.3773193359375 -1587.3914794921875 -1586.6812744140625 -1586.1136474609375 -1585.6622314453125 -1585.3492431640625 -1585.19921875 -1585.1085205078125 -1585.086669921875 -1585.031494140625 -1584.955078125 -1584.5355224609375 -1583.73974609375 -1582.6214599609375 -1581.0994873046875 -1578.868408203125 -1577.5142822265625 -1576.49072265625 -1576.6927490234375 -1577.865966796875 -1578.5916748046875 -1578.55126953125 -1577.63671875 -1579.2467041015625 -1579.704833984375 -1579.28076171875 -1578.5819091796875 -1577.2613525390625 -1575.71044921875 -1574.1383056640625 -1572.83251953125 -1571.7672119140625 -1570.8133544921875 -1570.02392578125 -1569.4046630859375 -1569.0472412109375 -1569.078857421875 -1569.571533203125 -1570.9671630859375 -1573.1656494140625 -1575.9200439453125 -1579.0693359375 -1582.7679443359375 -1586.934326171875 -1591.5968017578125 -1596.999755859375 -1603.158935546875 -1609.9462890625 -1617.0965576171875 -1624.5740966796875 -1632.119384765625 -1639.642822265625 -1646.999267578125 -1654.29296875 -1661.5528564453125 -1668.767822265625 -1676.0330810546875 -1683.6661376953125 -1691.5948486328125 -1699.99609375 -1709.040771484375 -1718.5106201171875 -1728.3135986328125 -1738.30517578125 -1748.304443359375 -1758.25732421875 -1768.087890625 -1777.866943359375 -1787.5340576171875 -1797.039306640625 -1806.643310546875 -1815.8802490234375 -1824.9942626953125 -1833.5572509765625 -1841.2222900390625 -1847.463134765625 -1850.36279296875 -1851.48974609375 -1852.5614013671875 -1853.5076904296875 -1853.7452392578125 -1853.3048095703125 -1852.1043701171875 -1850.0758056640625 -1846.9715576171875 -1843.052001953125 -1838.2333984375 -1832.451904296875 -1826.0333251953125 -1818.9049072265625 -1811.143798828125 -1802.948974609375 -1794.210693359375 -1785.1917724609375 -1775.9544677734375 -1766.5621337890625 -1757.0938720703125 -1747.5853271484375 -1738.1134033203125 -1728.7017822265625 -1719.410888671875 -1710.3228759765625 -1701.4385986328125 -1692.81396484375 -1684.5716552734375 -1676.64990234375 -1669.11572265625 -1662.1331787109375 -1655.580810546875 -1649.531982421875 -1644.0789794921875 -1639.2666015625 -1635.0140380859375 -1631.322021484375 -1628.2369384765625 -1625.7545166015625 -1624.0084228515625 -99999 -99999 -99999 -99999 -99999 -99999 -99999 -99999 -99999 -99999 -99999 -99999 -99999 -99999 -99999 -99999 -99999 -99999 -99999 -99999 -99999 -99999 -99999 -99999 -99999 -99999 -99999 -99999 -99999 -99999 -99999 -99999 -99999 -99999
 -99999 -99999 -99999 -99999 -99999 -99999 -99999 -99999 -99999 -99999 -99999 -2128.332275390625 -2120.790283203125 -2113.02734375 -2104.88916015625 -2096.564208984375 -2087.9921875 -2079.18603515625 -2070.12939453125 -2061.022705078125 -2051.642333984375 -2042.205322265625 -2032.74951171875 -2023.3134765625 -2013.8814697265625 -2004.66162109375 -1995.56689453125 -1986.53173828125 -1977.8994140625 -1969.5289306640625 -1961.40478515625 -1953.6324462890625 -1946.2808837890625 -1939.427734375 -1932.9024658203125 -1926.9713134765625 -1921.4586181640625 -1916.36572265625 -1911.7637939453125 -1907.647216796875 -1904.033447265625 -1900.8670654296875 -1898.1810302734375 -1895.9052734375 -1894.012939453125 -1892.4151611328125 -1891.061767578125 -1889.8421630859375 -1888.5355224609375 -1886.938232421875 -1884.887451171875 -1882.1044921875 -1877.9014892578125 -1872.0755615234375 -1864.5367431640625 -1855.199462890625 -1843.4881591796875 -1829.4552001953125 -1813.9368896484375 -1796.73291015625 -1778.5076904296875 -1759.727783203125 -1740.8935546875 -1722.2720947265625 -1704.1514892578125 -1686.877685546875 -1670.3499755859375 -1655.1558837890625 -1641.02001953125 -1628.0657958984375 -1616.6639404296875 -1606.35400390625 -1598.8826904296875 -1594.5577392578125 -1591.748779296875 -1589.7293701171875 -1588.0924072265625 -1586.7825927734375 -1585.703369140625 -1584.7158203125 -1583.787841796875 -1583.0125732421875 -1582.220947265625 -1581.4674072265625 -1580.7708740234375 -1580.2718505859375 -1579.8636474609375 -1579.3585205078125 -1578.744384765625 -1577.8946533203125 -1576.8570556640625 -1575.8016357421875 -1574.6663818359375 -1573.3948974609375 -1573.158203125 -1573.567626953125 -1574.08251953125 -1574.1756591796875 -1573.9468994140625 -1572.0205078125 -1568.94482421875 -1568.07275390625 -1568.2984619140625 -1567.14013671875 -1565.7630615234375 -1564.505615234375 -1563.3258056640625 -1562.134765625 -1561.084228515625 -1560.26318359375 -1559.5599365234375 -1559.0076904296875 -1558.631591796875 -1558.517333984375 -1559.047607421875 -1560.23828125 -1562.2293701171875 -1564.86279296875 -1568.00146484375 -1571.78369140625 -1576.024169921875 -1580.68212890625 -1585.9212646484375 -1591.7088623046875 -1598.0533447265625 -1604.9755859375 -1612.33642578125 -1619.9844970703125 -1627.7247314453125 -1635.53955078125 -1643.3817138671875 -1651.188232421875 -1658.9140625 -1666.80908203125 -1674.7738037109375 -1682.918212890625 -1691.620361328125 -1700.654052734375 -1710.0150146484375 -1719.794189453125 -1729.8612060546875 -1740.0509033203125 -1750.225341796875 -1760.4642333984375 -1770.488525390625 -1780.4876708984375 -1790.3675537109375 -1800.23193359375 -1809.8841552734375 -1819.4039306640625 -1828.6568603515625 -1837.47802734375 -1845.5802001953125 -1852.22900390625 -1854.8963623046875 -1855.72314453125 -1856.0867919921875 -1856.1226806640625 -1855.7467041015625 -1854.7698974609375 -1852.8829345703125 -1850.3199462890625 -1846.917236328125 -1842.59326171875 -1837.5731201171875 -1831.80908203125 -1825.29736328125 -1818.085693359375 -1810.3453369140625 -1802.1954345703125 -1793.555908203125 -1784.6861572265625 -1775.558837890625 -1766.248779296875 -1756.8963623046875 -1747.4490966796875 -1738.0452880859375 -1728.732666015625 -1719.5513916015625 -1710.5179443359375 -1701.7537841796875 -1693.212158203125 -1684.9837646484375 -1677.1219482421875 -1669.653076171875 -1662.6727294921875 -1656.129638671875 -1650.1419677734375 -1644.668701171875 -1639.67919921875 -1635.3529052734375 -99999 -99999 -99999 -99999 -99999 -99999 -99999 -99999 -99999 -99999 -99999 -99999 -99999 -99999 -99999 -99999 -99999 -99999 -99999 -99999 -99999 -99999 -99999 -99999 -99999 -99999 -99999 -99999 -99999 -99999 -99999 -99999 -99999 -99999 -99999 -99999 -99999 -99999
 -99999 -99999 -99999 -99999 -99999 -99999 -99999 -99999 -99999 -99999 -2128.103271484375 -2120.72021484375 -2112.91162109375 -2104.9189453125 -2096.573974609375 -2087.92578125 -2078.93798828125 -2069.79345703125 -2060.2958984375 -2050.651611328125 -2040.861083984375 -2031.0443115234375 -2020.992919921875 -2011.0732421875 -2001.1634521484375 -1991.258544921875 -1981.5960693359375 -1972.0987548828125 -1962.82958984375 -1953.8541259765625 -1945.258544921875 -1937.056884765625 -1929.286376953125 -1921.9732666015625 -1915.0504150390625 -1908.60009765625 -1902.605224609375 -1897.2041015625 -1892.2779541015625 -1887.8271484375 -1884.0333251953125 -1880.6475830078125 -1877.74560546875 -1875.275634765625 -1873.2794189453125 -1871.639892578125 -1870.296875 -1869.1568603515625 -1868.114990234375 -1866.87890625 -1865.2120361328125 -1862.851318359375 -1859.44921875 -1854.652587890625 -1847.8658447265625 -1838.7164306640625 -1827.1751708984375 -1813.490966796875 -1797.9654541015625 -1780.95263671875 -1763.1478271484375 -1745.092041015625 -1726.912841796875 -1709.125 -1691.990234375 -1675.5328369140625 -1660.3177490234375 -1645.8426513671875 -1632.887451171875 -1620.9666748046875 -1610.2294921875 -1600.9052734375 -1593.9200439453125 -1590.5654296875 -1588.6715087890625 -1587.276123046875 -1586.103515625 -1584.980224609375 -1583.8818359375 -1582.8125 -1581.68701171875 -1580.4849853515625 -1579.2464599609375 -1577.9730224609375 -1576.68798828125 -1575.746337890625 -1575.0543212890625 -1574.384033203125 -1573.4451904296875 -1572.2081298828125 -1571.2672119140625 -1570.384521484375 -1569.45947265625 -1568.6998291015625 -1568.40283203125 -1569.6484375 -1570.3990478515625 -1569.3812255859375 -1565.6103515625 -1561.6025390625 -1557.0750732421875 -1555.2718505859375 -1553.3056640625 -1552.052001953125 -1551.1212158203125 -1550.323486328125 -1549.59912109375 -1549.1708984375 -1548.835693359375 -1548.493896484375 -1548.0933837890625 -1547.8592529296875 -1547.98046875 -1548.4744873046875 -1549.53271484375 -1551.2646484375 -1553.776123046875 -1556.984130859375 -1560.69189453125 -1564.8572998046875 -1569.457275390625 -1574.6041259765625 -1580.251953125 -1586.3958740234375 -1593.09765625 -1600.2645263671875 -1607.7916259765625 -1615.576904296875 -1623.57080078125 -1631.729248046875 -1639.8448486328125 -1648.0919189453125 -1656.4368896484375 -1664.8858642578125 -1673.40234375 -1682.2664794921875 -1691.3419189453125 -1700.7667236328125 -1710.528564453125 -1720.6671142578125 -1730.9281005859375 -1741.350830078125 -1751.72265625 -1762.00732421875 -1772.2159423828125 -1782.2806396484375 -1792.1646728515625 -1801.9039306640625 -1811.737548828125 -1821.3218994140625 -1830.4840087890625 -1838.9815673828125 -1846.7606201171875 -1852.889404296875 -1856.28515625 -1857.521728515625 -1857.733154296875 -1857.4986572265625 -1856.55419921875 -1854.9825439453125 -1852.7581787109375 -1849.8802490234375 -1846.1375732421875 -1841.66259765625 -1836.5146484375 -1830.5963134765625 -1824.052001953125 -1816.9234619140625 -1809.2506103515625 -1801.1824951171875 -1792.641845703125 -1783.8529052734375 -1774.82177734375 -1765.6702880859375 -1756.3865966796875 -1747.1099853515625 -1737.851318359375 -1728.6451416015625 -1719.5498046875 -1710.646484375 -1701.9664306640625 -1693.506591796875 -1685.391845703125 -1677.620361328125 -1670.2064208984375 -1663.274169921875 -1656.7515869140625 -99999 -99999 -99999 -99999 -99999 -99999 -99999 -99999 -99999 -99999 -99999 -99999 -99999 -99999 -99999 -99999 -99999 -99999 -99999 -99999 -99999 -99999 -99999 -99999 -99999 -99999 -99999 -99999 -99999 -99999 -99999 -99999 -99999 -99999 -99999 -99999 -99999 -99999 -99999 -99999 -99999 -99999
 -99999 -99999 -99999 -99999 -99999 -99999 -99999 -99999 -99999 -2128.13623046875 -2120.924560546875 -2113.301025390625 -2105.47998046875 -2097.153564453125 -2088.532958984375 -2079.5751953125 -2070.333740234375 -2060.6689453125 -2050.900634765625 -2040.8548583984375 -2030.527099609375 -2020.1241455078125 -2009.57763671875 -1998.997314453125 -1988.4461669921875 -1978.08642578125 -1967.7310791015625 -1957.7330322265625 -1947.98828125 -1938.509521484375 -1929.3885498046875 -1920.70263671875 -1912.3614501953125 -1904.4466552734375 -1897.085693359375 -1890.2681884765625 -1883.858642578125 -1878.1397705078125 -1872.8890380859375 -1868.09912109375 -1863.8519287109375 -1860.1859130859375 -1856.978759765625 -1854.324951171875 -1852.106201171875 -1850.373779296875 -1849.0283203125 -1847.9483642578125 -1847.0433349609375 -1846.1529541015625 -1844.992919921875 -1843.30810546875 -1840.681884765625 -1836.638916015625 -1830.580322265625 -1822.0775146484375 -1810.804931640625 -1797.092041015625 -1781.7279052734375 -1765.0064697265625 -1747.6767578125 -1730.1942138671875 -1712.905029296875 -1696.264892578125 -1680.4527587890625 -1665.0135498046875 -1650.8416748046875 -1638.097900390625 -1626.11083984375 -1615.4951171875 -1606.4658203125 -1598.7769775390625 -1592.567138671875 -1589.5006103515625 -1587.7314453125 -1586.4429931640625 -1585.2740478515625 -1584.11767578125 -1582.8577880859375 -1581.4681396484375 -1580.0064697265625 -1578.28125 -1576.4754638671875 -1574.65625 -1572.8734130859375 -1571.28369140625 -1570.4395751953125 -1569.688232421875 -1568.5634765625 -1567.130859375 -1565.88232421875 -1565.44482421875 -1564.62255859375 -1563.7669677734375 -1563.2852783203125 -1563.6883544921875 -1562.873046875 -1559.3125 -1553.8804931640625 -1548.078125 -1543.2275390625 -1539.1923828125 -1536.868896484375 -1535.8026123046875 -1535.4906005859375 -1535.5577392578125 -1535.79150390625 -1536.109375 -1536.3922119140625 -1536.6220703125 -1536.8026123046875 -1537.121826171875 -1537.7174072265625 -1538.7708740234375 -1540.438232421875 -1542.88232421875 -1545.946533203125 -1549.502685546875 -1553.55517578125 -1558.12841796875 -1563.248779296875 -1568.827880859375 -1574.8326416015625 -1581.32373046875 -1588.2811279296875 -1595.61181640625 -1603.321044921875 -1611.3663330078125 -1619.6378173828125 -1628.0531005859375 -1636.5599365234375 -1645.1766357421875 -1653.9031982421875 -1662.73876953125 -1671.850341796875 -1681.158935546875 -1690.7733154296875 -1700.6641845703125 -1710.76318359375 -1721.1195068359375 -1731.6536865234375 -1742.192626953125 -1752.6929931640625 -1763.048095703125 -1773.1884765625 -1783.171142578125 -1792.8775634765625 -1802.40087890625 -1812.198974609375 -1821.7064208984375 -1830.378173828125 -1838.60791015625 -1846.081787109375 -1851.66845703125 -1855.204345703125 -1857.02685546875 -1857.5740966796875 -1857.2110595703125 -1856.069580078125 -1854.2991943359375 -1851.8343505859375 -1848.8365478515625 -1844.742919921875 -1840.1417236328125 -1834.8892822265625 -1828.961181640625 -1822.38916015625 -1815.308349609375 -1807.72216796875 -1799.711181640625 -1791.3651123046875 -1782.7542724609375 -1773.8804931640625 -1764.8494873046875 -1755.737548828125 -1746.586669921875 -1737.4476318359375 -1728.3646240234375 -1719.4359130859375 -1710.6209716796875 -1702.0816650390625 -1693.7581787109375 -1685.741943359375 -1678.0474853515625 -99999 -99999 -99999 -99999 -99999 -99999 -99999 -99999 -99999 -99999 -99999 -99999 -99999 -99999 -99999 -99999 -99999 -99999 -99999 -99999 -99999 -99999 -99999 -99999 -99999 -99999 -99999 -99999 -99999 -99999 -99999 -99999 -99999 -99999 -99999 -99999 -99999 -99999 -99999 -99999 -99999 -99999 -99999 -99999 -99999
 -99999 -99999 -99999 -99999 -99999 -99999 -99999 -99999 -2128.306884765625 -2121.26708984375 -2114.01123046875 -2106.32275390625 -2098.229248046875 -2089.76220703125 -2080.952880859375 -2071.64599609375 -2062.066650390625 -2052.12255859375 -2041.8212890625 -2031.218505859375 -2020.5306396484375 -2009.4547119140625 -1998.420654296875 -1987.34912109375 -1976.0850830078125 -1965.2049560546875 -1954.3685302734375 -1943.696533203125 -1933.2686767578125 -1923.3333740234375 -1913.6474609375 -1904.369384765625 -1895.532958984375 -1887.225341796875 -1879.45068359375 -1872.1885986328125 -1865.4144287109375 -1859.1298828125 -1853.377685546875 -1848.3033447265625 -1843.725830078125 -1839.653564453125 -1836.31494140625 -1833.368896484375 -1830.9168701171875 -1828.9276123046875 -1827.4715576171875 -1826.3648681640625 -1825.511474609375 -1824.8421630859375 -1824.2181396484375 -1823.181640625 -1821.2884521484375 -1818.1357421875 -1813.221435546875 -1805.3551025390625 -1794.28564453125 -1780.5618896484375 -1765.17333984375 -1748.857421875 -1732.19287109375 -1715.5343017578125 -1699.49609375 -1683.999267578125 -1669.2933349609375 -1655.4515380859375 -1642.659423828125 -1630.905517578125 -1620.635009765625 -1611.68017578125 -1603.656494140625 -1597.9801025390625 -1593.4989013671875 -1590.4117431640625 -1588.3619384765625 -1586.78759765625 -1585.3233642578125 -1583.8123779296875 -1582.270263671875 -1580.4217529296875 -1578.3944091796875 -1576.2373046875 -1573.965576171875 -1571.5701904296875 -1568.6552734375 -1566.692138671875 -1565.5657958984375 -1564.735107421875 -1563.361328125 -1561.69140625 -1560.3748779296875 -1559.6219482421875 -1558.751953125 -1557.79638671875 -1556.6107177734375 -1555.0281982421875 -1552.0892333984375 -1546.4744873046875 -1539.01953125 -1530.9639892578125 -1524.8211669921875 -1522.0701904296875 -1520.2802734375 -1519.684814453125 -1519.970947265625 -1521.03125 -1522.2978515625 -1523.271484375 -1524.2392578125 -1525.1104736328125 -1525.9801025390625 -1526.8321533203125 -1528.0150146484375 -1529.6705322265625 -1531.90966796875 -1534.8333740234375 -1538.3175048828125 -1542.3109130859375 -1546.8572998046875 -1551.834716796875 -1557.2652587890625 -1563.1162109375 -1569.5013427734375 -1576.3353271484375 -1583.5113525390625 -1591.120849609375 -1599.0711669921875 -1607.2890625 -1615.741943359375 -1624.4246826171875 -1633.245361328125 -1642.1932373046875 -1651.36962890625 -1660.7154541015625 -1670.2305908203125 -1679.943359375 -1689.90625 -1700.099609375 -1710.478515625 -1721.134765625 -1731.79443359375 -1742.5140380859375 -1753.0804443359375 -1763.442138671875 -1773.503173828125 -1783.15966796875 -1792.5030517578125 -1801.826904296875 -1811.2799072265625 -1820.73193359375 -1829.503173828125 -1837.15869140625 -1843.897216796875 -1849.51123046875 -1853.0341796875 -1855.05224609375 -1855.790283203125 -1855.5738525390625 -1854.4959716796875 -1852.59814453125 -1850.08251953125 -1846.719970703125 -1842.6654052734375 -1837.99560546875 -1832.7144775390625 -1826.861572265625 -1820.353515625 -1813.304443359375 -1805.8763427734375 -1798.0045166015625 -1789.7711181640625 -1781.3046875 -1772.5924072265625 -1763.760986328125 -1754.793701171875 -1745.823486328125 -1736.8704833984375 -1727.96484375 -1719.1619873046875 -1710.525390625 -99999 -99999 -99999 -99999 -99999 -99999 -99999 -99999 -99999 -99999 -99999 -99999 -99999 -99999 -99999 -99999 -99999 -99999 -99999 -99999 -99999 -99999 -99999 -99999 -99999 -99999 -99999 -99999 -99999 -99999 -99999 -99999 -99999 -99999 -99999 -99999 -99999 -99999 -99999 -99999 -99999 -99999 -99999 -99999 -99999 -99999 -99999 -99999 -99999
 -99999 -99999 -99999 -99999 -99999 -99999 -99999 -2128.488525390625 -2121.7939453125 -2114.857177734375 -2107.455078125 -2099.665283203125 -2091.4599609375 -2082.851318359375 -2073.6708984375 -2064.248291015625 -2054.201171875 -2043.8631591796875 -2033.1671142578125 -2022.125 -2010.82568359375 -1999.336669921875 -1987.7852783203125 -1976.014892578125 -1964.2969970703125 -1952.647705078125 -1941.135986328125 -1929.970947265625 -1918.9002685546875 -1908.3873291015625 -1898.150390625 -1888.368896484375 -1879.1563720703125 -1870.3714599609375 -1862.0740966796875 -1854.2557373046875 -1847.033203125 -1840.411376953125 -1834.2496337890625 -1828.8485107421875 -1823.93310546875 -1819.5250244140625 -1815.6297607421875 -1812.40869140625 -1809.7149658203125 -1807.423828125 -1805.6407470703125 -1804.4239501953125 -1803.5802001953125 -1803.1009521484375 -1802.8282470703125 -1802.471923828125 -1801.5140380859375 -1799.4752197265625 -1795.7528076171875 -1788.3563232421875 -1777.1661376953125 -1763.684814453125 -1748.3629150390625 -1732.251953125 -1716.2943115234375 -1700.9217529296875 -1686.1688232421875 -1672.267333984375 -1659.1334228515625 -1646.4759521484375 -1634.9344482421875 -1624.6845703125 -1616.3740234375 -1609.357421875 -1603.334716796875 -1598.7366943359375 -1594.95947265625 -1591.984375 -1589.548095703125 -1587.574951171875 -1585.6806640625 -1583.7789306640625 -1581.628662109375 -1579.20654296875 -1576.6610107421875 -1573.724853515625 -1570.7880859375 -1567.82080078125 -1564.716552734375 -1561.899169921875 -1560.1817626953125 -1558.864990234375 -1557.2813720703125 -1555.593994140625 -1554.0750732421875 -1552.7874755859375 -1551.566162109375 -1550.007568359375 -1547.935791015625 -1544.6773681640625 -1539.377197265625 -1531.545166015625 -1522.17822265625 -1513.0408935546875 -1508.3970947265625 -1505.90966796875 -1503.8446044921875 -1504.013671875 -1505.34130859375 -1507.1279296875 -1509.078369140625 -1511.027587890625 -1512.835205078125 -1514.41748046875 -1515.8018798828125 -1517.18115234375 -1518.8497314453125 -1521.0908203125 -1523.8955078125 -1527.2298583984375 -1531.083740234375 -1535.4664306640625 -1540.3814697265625 -1545.6641845703125 -1551.4852294921875 -1557.7291259765625 -1564.389404296875 -1571.440185546875 -1578.8726806640625 -1586.7384033203125 -1594.8387451171875 -1603.2938232421875 -1612.011474609375 -1620.9468994140625 -1630.031982421875 -1639.343994140625 -1648.79638671875 -1658.4188232421875 -1668.25537109375 -1678.3604736328125 -1688.644287109375 -1699.158447265625 -1709.7962646484375 -1720.588134765625 -1731.4566650390625 -1742.2525634765625 -1752.9140625 -1763.2459716796875 -1773.0723876953125 -1782.5438232421875 -1791.4022216796875 -1799.81298828125 -1808.8250732421875 -1818.44140625 -1827.0240478515625 -1834.41162109375 -1840.89794921875 -1846.1524658203125 -1849.750732421875 -1851.9688720703125 -1853.0189208984375 -1852.8369140625 -1851.739501953125 -1849.9627685546875 -1847.421142578125 -1843.9417724609375 -1839.982177734375 -1835.3966064453125 -1830.07421875 -1824.2099609375 -1817.7950439453125 -1810.92919921875 -1803.691650390625 -1795.8773193359375 -1787.8875732421875 -1779.6138916015625 -1771.062744140625 -1762.4261474609375 -1753.6673583984375 -1744.8709716796875 -99999 -99999 -99999 -99999 -99999 -99999 -99999 -99999 -99999 -99999 -99999 -99999 -99999 -99999 -99999 -99999 -99999 -99999 -99999 -99999 -99999 -99999 -99999 -99999 -99999 -99999 -99999 -99999 -99999 -99999 -99999 -99999 -99999 -99999 -99999 -99999 -99999 -99999 -99999 -99999 -99999 -99999 -99999 -99999 -99999 -99999 -99999 -99999 -99999 -99999 -99999 -99999 -99999
 -99999 -99999 -99999 -99999 -99999 -99999 -2128.59521484375 -2122.3408203125 -2115.73095703125 -2108.728515625 -2101.33837890625 -2093.4453125 -2085.060302734375 -2076.23095703125 -2066.95849609375 -2057.083251953125 -2046.841064453125 -2036.17041015625 -2025.0238037109375 -2013.48828125 -2001.66064453125 -1989.609619140625 -1977.3990478515625 -1965.0167236328125 -1952.7293701171875 -1940.47314453125 -1928.332275390625 -1916.5501708984375 -1905.0340576171875 -1893.7838134765625 -1883.1802978515625 -1872.8443603515625 -1863.0189208984375 -1853.790283203125 -1845.0057373046875 -1836.7884521484375 -1829.2078857421875 -1822.1669921875 -1815.6820068359375 -1809.667236328125 -1804.3388671875 -1799.6396484375 -1795.4268798828125 -1791.809326171875 -1788.7259521484375 -1786.1890869140625 -1784.087646484375 -1782.4993896484375 -1781.58447265625 -1781.1298828125 -1781.061279296875 -1781.2264404296875 -1781.3626708984375 -1780.373779296875 -1777.271484375 -1770.7532958984375 -1760.1968994140625 -1746.1650390625 -1730.939208984375 -1715.26904296875 -1700.471923828125 -1686.4140625 -1673.3524169921875 -1661.386474609375 -1649.72119140625 -1638.6571044921875 -1628.30322265625 -1619.702880859375 -1613.4244384765625 -1608.1156005859375 -1603.576416015625 -1599.740966796875 -1596.64453125 -1593.565185546875 -1590.6968994140625 -1588.061767578125 -1585.52978515625 -1582.9661865234375 -1580.001220703125 -1576.8995361328125 -1573.60498046875 -1570.1534423828125 -1566.649658203125 -1563.2020263671875 -1559.8363037109375 -1556.9306640625 -1554.541015625 -1552.4974365234375 -1550.5526123046875 -1548.63671875 -1546.8182373046875 -1545.0250244140625 -1543.1407470703125 -1540.8260498046875 -1537.4443359375 -1532.056396484375 -1524.789794921875 -1516.17822265625 -1507.396240234375 -1499.251220703125 -1493.4715576171875 -1490.4376220703125 -1488.5916748046875 -1489.4229736328125 -1491.7464599609375 -1494.40673828125 -1497.316650390625 -1499.900390625 -1502.2132568359375 -1504.3094482421875 -1506.3817138671875 -1508.168212890625 -1510.334228515625 -1512.98193359375 -1516.142333984375 -1519.8624267578125 -1524.194091796875 -1528.98486328125 -1534.1739501953125 -1539.892333984375 -1545.984619140625 -1552.4561767578125 -1559.3197021484375 -1566.6925048828125 -1574.4019775390625 -1582.3876953125 -1590.75732421875 -1599.4014892578125 -1608.295654296875 -1617.411865234375 -1626.763671875 -1636.3271484375 -1646.089599609375 -1656.0335693359375 -1666.1805419921875 -1676.503662109375 -1687.073486328125 -1697.78369140625 -1708.630615234375 -1719.6163330078125 -1730.52587890625 -1741.4122314453125 -1752.0750732421875 -1762.40185546875 -1772.331298828125 -1781.4368896484375 -1789.7025146484375 -1797.68603515625 -1806.087646484375 -1815.1085205078125 -1823.632568359375 -1830.983154296875 -1837.1307373046875 -1841.9862060546875 -1845.6751708984375 -1848.0994873046875 -1849.208251953125 -1849.2657470703125 -1848.3720703125 -1846.46484375 -1843.9300537109375 -1840.71484375 -1836.698974609375 -1832.0595703125 -1826.9349365234375 -1821.21630859375 -1814.9346923828125 -1808.16015625 -1801.0277099609375 -1793.4886474609375 -1785.6544189453125 -1777.55615234375 -99999 -99999 -99999 -99999 -99999 -99999 -99999 -99999 -99999 -99999 -99999 -99999 -99999 -99999 -99999 -99999 -99999 -99999 -99999 -99999 -99999 -99999 -99999 -99999 -99999 -99999 -99999 -99999 -99999 -99999 -99999 -99999 -99999 -99999 -99999 -99999 -99999 -99999 -99999 -99999 -99999 -99999 -99999 -99999 -99999 -99999 -99999 -99999 -99999 -99999 -99999 -99999 -99999 -99999 -99999 -99999 -99999
 -99999 -99999 -99999 -99999 -99999 -2128.57763671875 -2122.7568359375 -2116.46337890625 -2110.043701171875 -2103.01708984375 -2095.527587890625 -2087.575927734375 -2079.181396484375 -2070.231201171875 -2060.648681640625 -2050.63330078125 -2040.05712890625 -2028.97265625 -2017.4400634765625 -2005.37255859375 -1992.994873046875 -1980.3758544921875 -1967.5269775390625 -1954.6015625 -1941.635009765625 -1928.7861328125 -1916.048828125 -1903.561279296875 -1891.449462890625 -1879.7874755859375 -1868.48046875 -1857.78369140625 -1847.4322509765625 -1837.8243408203125 -1828.644775390625 -1820.0255126953125 -1811.9278564453125 -1804.429931640625 -1797.6163330078125 -1791.254638671875 -1785.501953125 -1780.441162109375 -1775.9466552734375 -1771.8416748046875 -1768.3448486328125 -1765.3502197265625 -1762.90576171875 -1760.9681396484375 -1759.57080078125 -1758.881103515625 -1758.801025390625 -1759.31884765625 -1760.1282958984375 -1760.6307373046875 -1759.2344970703125 -1753.2244873046875 -1742.653076171875 -1728.13720703125 -1712.6553955078125 -1697.7337646484375 -1684.2412109375 -1672.102783203125 -1661.355224609375 -1651.435302734375 -1641.7796630859375 -1632.094970703125 -1623.040771484375 -1616.1104736328125 -1611.246337890625 -1607.5775146484375 -1603.778564453125 -1600.5057373046875 -1597.399658203125 -1594.0465087890625 -1590.365966796875 -1587.032470703125 -1583.7431640625 -1580.267578125 -1576.6934814453125 -1572.9837646484375 -1569.1668701171875 -1565.314453125 -1561.4849853515625 -1557.720703125 -1554.1724853515625 -1550.943603515625 -1548.1417236328125 -1545.630859375 -1543.237060546875 -1540.930908203125 -1538.5684814453125 -1536.1204833984375 -1533.2025146484375 -1529.51123046875 -1524.5672607421875 -1518.0960693359375 -1510.5850830078125 -1502.4190673828125 -1494.30322265625 -1487.677978515625 -1483.318359375 -1477.58203125 -1475.3800048828125 -1476.495849609375 -1479.6614990234375 -1483.3150634765625 -1486.771240234375 -1489.9783935546875 -1492.656005859375 -1494.9442138671875 -1497.22119140625 -1499.59814453125 -1502.1781005859375 -1505.2486572265625 -1508.8876953125 -1513.0098876953125 -1517.6446533203125 -1522.6846923828125 -1528.268310546875 -1534.2730712890625 -1540.6016845703125 -1547.4072265625 -1554.5595703125 -1562.071533203125 -1569.9315185546875 -1578.150146484375 -1586.7060546875 -1595.4871826171875 -1604.6065673828125 -1613.9664306640625 -1623.50341796875 -1633.2852783203125 -1643.263916015625 -1653.4295654296875 -1663.7503662109375 -1674.324462890625 -1685.0516357421875 -1695.9417724609375 -1706.9134521484375 -1717.94287109375 -1728.9927978515625 -1739.90771484375 -1750.609619140625 -1760.96484375 -1770.727783203125 -1780.05712890625 -1788.3369140625 -1795.8360595703125 -1803.76123046875 -1812.1055908203125 -1819.8074951171875 -1826.78271484375 -1832.7008056640625 -1837.546875 -1841.0771484375 -1843.3009033203125 -1844.48583984375 -1844.6966552734375 -1844.0042724609375 -1842.3079833984375 -1839.8135986328125 -1836.6510009765625 -1832.84326171875 -1828.4287109375 -1823.3433837890625 -1817.67431640625 -1811.5496826171875 -1805.068115234375 -99999 -99999 -99999 -99999 -99999 -99999 -99999 -99999 -99999 -99999 -99999 -99999 -99999 -99999 -99999 -99999 -99999 -99999 -99999 -99999 -99999 -99999 -99999 -99999 -99999 -99999 -99999 -99999 -99999 -99999 -99999 -99999 -99999 -99999 -99999 -99999 -99999 -99999 -99999 -99999 -99999 -99999 -99999 -99999 -99999 -99999 -99999 -99999 -99999 -99999 -99999 -99999 -99999 -99999 -99999 -99999 -99999 -99999 -99999 -99999 -99999
 -99999 -99999 -99999 -99999 -99999 -2122.820068359375 -2117.046630859375 -2111.025146484375 -2104.56005859375 -2097.627197265625 -2090.225341796875 -2082.2958984375 -2073.703369140625 -2064.672119140625 -2054.87841796875 -2044.606201171875 -2033.7276611328125 -2022.3406982421875 -2010.2633056640625 -1997.7720947265625 -1984.978759765625 -1971.664794921875 -1958.2193603515625 -1944.7833251953125 -1931.0433349609375 -1917.5758056640625 -1904.2972412109375 -1891.0870361328125 -1878.4844970703125 -1866.26904296875 -1854.394775390625 -1843.22607421875 -1832.60498046875 -1822.4630126953125 -1812.7816162109375 -1803.837646484375 -1795.406982421875 -1787.5101318359375 -1780.261962890625 -1773.6427001953125 -1767.5023193359375 -1762.0054931640625 -1757.2303466796875 -1752.837158203125 -1748.8963623046875 -1745.649169921875 -1742.69580078125 -1740.2791748046875 -1738.3262939453125 -1737.0174560546875 -1736.6619873046875 -1737.1116943359375 -1738.3218994140625 -1739.8951416015625 -1740.62890625 -1735.86865234375 -1723.9185791015625 -1708.635498046875 -1693.11669921875 -1679.761474609375 -1668.1728515625 -1658.5445556640625 -1650.5357666015625 -1643.056640625 -1635.1856689453125 -1627.070068359375 -1619.877685546875 -1614.6383056640625 -1610.8662109375 -1606.9056396484375 -1602.8619384765625 -1599.17724609375 -1595.9049072265625 -1592.0042724609375 -1587.96728515625 -1584.048583984375 -1580.0703125 -1576.11376953125 -1572.064208984375 -1567.983642578125 -1563.7718505859375 -1559.60693359375 -1555.469482421875 -1551.508056640625 -1547.785400390625 -1544.335693359375 -1541.1640625 -1538.13818359375 -1535.224609375 -1532.341064453125 -1529.163330078125 -1526.025634765625 -1522.0748291015625 -1517.236328125 -1511.5155029296875 -1504.74169921875 -1497.070556640625 -1489.0682373046875 -1481.9381103515625 -1476.3828125 -1472.014892578125 -1467.979736328125 -1464.8372802734375 -1466.3193359375 -1469.77734375 -1473.7879638671875 -1477.8441162109375 -1481.2694091796875 -1484.014892578125 -1486.32275390625 -1488.7674560546875 -1491.4644775390625 -1494.5015869140625 -1498.0164794921875 -1501.966796875 -1506.377685546875 -1511.37060546875 -1516.828857421875 -1522.6729736328125 -1528.8995361328125 -1535.4710693359375 -1542.5230712890625 -1549.8294677734375 -1557.5330810546875 -1565.6287841796875 -1574.0247802734375 -1582.686279296875 -1591.7100830078125 -1600.93896484375 -1610.4248046875 -1620.14453125 -1630.0927734375 -1640.2452392578125 -1650.5972900390625 -1661.115234375 -1671.7977294921875 -1682.667236328125 -1693.651611328125 -1704.704833984375 -1715.842529296875 -1726.8065185546875 -1737.7666015625 -1748.3890380859375 -1758.7921142578125 -1768.6383056640625 -1778.0472412109375 -1786.1458740234375 -1793.61669921875 -1801.017333984375 -1808.5174560546875 -1815.7415771484375 -1822.3204345703125 -1827.9132080078125 -1832.3133544921875 -1835.757080078125 -1838.166015625 -1839.4659423828125 -1839.6727294921875 -1838.9713134765625 -1837.4815673828125 -1835.2550048828125 -1832.2359619140625 -1828.4688720703125 -1824.1563720703125 -1819.2554931640625 -99999 -99999 -99999 -99999 -99999 -99999 -99999 -99999 -99999 -99999 -99999 -99999 -99999 -99999 -99999 -99999 -99999 -99999 -99999 -99999 -99999 -99999 -99999 -99999 -99999 -99999 -99999 -99999 -99999 -99999 -99999 -99999 -99999 -99999 -99999 -99999 -99999 -99999 -99999 -99999 -99999 -99999 -99999 -99999 -99999 -99999 -99999 -99999 -99999 -99999 -99999 -99999 -99999 -99999 -99999 -99999 -99999 -99999 -99999 -99999 -99999 -99999 -99999 -99999
 -99999 -99999 -99999 -99999 -99999 -2117.309326171875 -2111.7060546875 -2105.890869140625 -2099.5087890625 -2092.6357421875 -2085.23876953125 -2077.30908203125 -2068.778076171875 -2059.508544921875 -2049.6728515625 -2039.2099609375 -2028.076904296875 -2016.1868896484375 -2003.834228515625 -1990.8984375 -1977.401123046875 -1963.6507568359375 -1949.5943603515625 -1935.3355712890625 -1921.1192626953125 -1906.9666748046875 -1892.971923828125 -1879.3387451171875 -1866.072509765625 -1853.2779541015625 -1841.073974609375 -1829.40478515625 -1818.2806396484375 -1807.885498046875 -1797.8367919921875 -1788.6146240234375 -1779.788818359375 -1771.5645751953125 -1763.79052734375 -1756.9844970703125 -1750.6495361328125 -1744.93212890625 -1739.7530517578125 -1735.1217041015625 -1730.8824462890625 -1727.0501708984375 -1723.5628662109375 -1720.6529541015625 -1718.07080078125 -1716.0418701171875 -1714.7218017578125 -1714.4637451171875 -1715.0426025390625 -1717.20849609375 -1719.7457275390625 -1717.05419921875 -1703.2366943359375 -1686.7137451171875 -1672.58935546875 -1661.5689697265625 -1653.3009033203125 -1646.2115478515625 -1640.588623046875 -1635.2889404296875 -1629.1817626953125 -1622.3360595703125 -1617.5921630859375 -1613.4498291015625 -1608.9840087890625 -1604.45458984375 -1600.0760498046875 -1596.01953125 -1592.076904296875 -1588.10693359375 -1583.8812255859375 -1579.7001953125 -1575.2672119140625 -1570.9439697265625 -1566.477294921875 -1562.0423583984375 -1557.5841064453125 -1553.175537109375 -1548.869384765625 -1544.708251953125 -1540.7872314453125 -1537.0013427734375 -1533.47265625 -1529.893310546875 -1526.5172119140625 -1523.106689453125 -1519.30029296875 -1515.1597900390625 -1510.4603271484375 -1505.0584716796875 -1498.77734375 -1491.5791015625 -1483.9742431640625 -1476.6082763671875 -1470.0330810546875 -1464.6697998046875 -1460.8370361328125 -1457.544921875 -1457.0330810546875 -1458.6263427734375 -1461.61083984375 -1465.789306640625 -1470.1395263671875 -1473.10400390625 -1475.690673828125 -1478.2001953125 -1480.843017578125 -1483.8109130859375 -1487.229248046875 -1491.0638427734375 -1495.3406982421875 -1500.258056640625 -1505.529296875 -1511.1976318359375 -1517.272216796875 -1523.7908935546875 -1530.6346435546875 -1537.7802734375 -1545.3297119140625 -1553.177490234375 -1561.3675537109375 -1569.8858642578125 -1578.690673828125 -1587.8521728515625 -1597.2364501953125 -1606.888427734375 -1616.77294921875 -1626.837158203125 -1637.122802734375 -1647.58154296875 -1658.2049560546875 -1669.015625 -1679.906494140625 -1690.9459228515625 -1702.0023193359375 -1713.0467529296875 -1724.0478515625 -1734.887939453125 -1745.4195556640625 -1755.61865234375 -1765.3426513671875 -1774.50048828125 -1782.8040771484375 -1790.2747802734375 -1797.533447265625 -1804.5960693359375 -1811.2711181640625 -1817.2598876953125 -1822.513916015625 -1826.8387451171875 -1830.2056884765625 -1832.4371337890625 -1833.7420654296875 -1834.14697265625 -1833.6361083984375 -1832.2508544921875 -1830.0579833984375 -99999 -99999 -99999 -99999 -99999 -99999 -99999 -99999 -99999 -99999 -99999 -99999 -99999 -99999 -99999 -99999 -99999 -99999 -99999 -99999 -99999 -99999 -99999 -99999 -99999 -99999 -99999 -99999 -99999 -99999 -99999 -99999 -99999 -99999 -99999 -99999 -99999 -99999 -99999 -99999 -99999 -99999 -99999 -99999 -99999 -99999 -99999 -99999 -99999 -99999 -99999 -99999 -99999 -99999 -99999 -99999 -99999 -99999 -99999 -99999 -99999 -99999 -99999 -99999 -99999 -99999 -99999 -99999
 -99999 -99999 -99999 -99999 -2117.031982421875 -2111.9716796875 -2106.71044921875 -2100.9482421875 -2094.71533203125 -2088.0107421875 -2080.719482421875 -2072.82958984375 -2064.247802734375 -2054.95947265625 -2044.968505859375 -2034.3021240234375 -2022.93408203125 -2010.6912841796875 -1997.880126953125 -1984.453125 -1970.44970703125 -1956.0721435546875 -1941.46337890625 -1926.5345458984375 -1911.6405029296875 -1896.9373779296875 -1882.2469482421875 -1868.08154296875 -1854.3673095703125 -1840.9427490234375 -1828.4222412109375 -1816.421630859375 -1804.7742919921875 -1794.274658203125 -1784.0069580078125 -1774.3470458984375 -1765.0877685546875 -1756.645751953125 -1748.6944580078125 -1741.5556640625 -1735.00537109375 -1729.1693115234375 -1723.666748046875 -1718.6783447265625 -1714.326171875 -1710.2044677734375 -1706.3111572265625 -1702.83203125 -1699.8251953125 -1697.0330810546875 -1694.5679931640625 -1692.510986328125 -1691.5015869140625 -1691.670654296875 -1693.836181640625 -1695.327880859375 -1679.1234130859375 -1663.1300048828125 -1653.7054443359375 -1645.79931640625 -1640.5670166015625 -1636.7772216796875 -1633.1033935546875 -1628.8291015625 -1623.291748046875 -1617.7652587890625 -1613.0745849609375 -1608.9754638671875 -1604.5460205078125 -1600.0115966796875 -1595.5399169921875 -1591.2919921875 -1587.1463623046875 -1582.9493408203125 -1578.5574951171875 -1573.98095703125 -1569.3663330078125 -1564.6966552734375 -1560.0487060546875 -1555.362548828125 -1550.696044921875 -1546.091552734375 -1541.6490478515625 -1537.2882080078125 -1533.1510009765625 -1529.0504150390625 -1525.17333984375 -1521.3402099609375 -1517.4019775390625 -1513.3040771484375 -1508.970947265625 -1504.313232421875 -1498.964111328125 -1492.9163818359375 -1486.2216796875 -1478.988525390625 -1471.711669921875 -1464.73779296875 -1458.5501708984375 -1453.5347900390625 -1449.93212890625 -1448.654541015625 -1449.5771484375 -1451.89404296875 -1455.0240478515625 -1458.7244873046875 -1461.9957275390625 -1464.8787841796875 -1467.5528564453125 -1470.3682861328125 -1473.3896484375 -1476.6834716796875 -1480.36865234375 -1484.502685546875 -1489.1834716796875 -1494.3492431640625 -1499.9398193359375 -1505.964599609375 -1512.29150390625 -1518.940673828125 -1525.9288330078125 -1533.2286376953125 -1540.88623046875 -1548.8687744140625 -1557.21484375 -1565.877685546875 -1574.82177734375 -1584.052490234375 -1593.558349609375 -1603.2989501953125 -1613.2645263671875 -1623.4290771484375 -1633.8243408203125 -1644.3516845703125 -1655.0633544921875 -1665.866943359375 -1676.79931640625 -1687.82568359375 -1698.8519287109375 -1709.82177734375 -1720.6865234375 -1731.4208984375 -1741.863525390625 -1751.860107421875 -1761.401611328125 -1770.297119140625 -1778.477294921875 -1786.0408935546875 -1793.1649169921875 -1799.982666015625 -1806.19384765625 -1811.887939453125 -1816.878662109375 -1820.9039306640625 -1824.1024169921875 -1826.4273681640625 -1827.744140625 -99999 -99999 -99999 -99999 -99999 -99999 -99999 -99999 -99999 -99999 -99999 -99999 -99999 -99999 -99999 -99999 -99999 -99999 -99999 -99999 -99999 -99999 -99999 -99999 -99999 -99999 -99999 -99999 -99999 -99999 -99999 -99999 -99999 -99999 -99999 -99999 -99999 -99999 -99999 -99999 -99999 -99999 -99999 -99999 -99999 -99999 -99999 -99999 -99999 -99999 -99999 -99999 -99999 -99999 -99999 -99999 -99999 -99999 -99999 -99999 -99999 -99999 -99999 -99999 -99999 -99999 -99999 -99999 -99999 -99999 -99999 -99999
 -99999 -99999 -99999 -99999 -2111.75 -2107.00244140625 -2101.904296875 -2096.359130859375 -2090.2724609375 -2083.70947265625 -2076.537841796875 -2068.594970703125 -2060.174072265625 -2050.859375 -2040.7950439453125 -2029.9617919921875 -2018.2471923828125 -2005.7879638671875 -1992.55078125 -1978.7000732421875 -1964.20166015625 -1949.2662353515625 -1933.902587890625 -1918.5107421875 -1903.069580078125 -1887.554931640625 -1872.4293212890625 -1857.644775390625 -1843.261962890625 -1829.552978515625 -1816.5303955078125 -1804.162109375 -1792.5693359375 -1781.5601806640625 -1771.051513671875 -1761.1802978515625 -1751.6812744140625 -1742.9708251953125 -1734.828857421875 -1727.4461669921875 -1720.640380859375 -1714.6484375 -1709.283935546875 -1704.26318359375 -1699.6815185546875 -1695.2891845703125 -1691.1341552734375 -1687.223388671875 -1683.5252685546875 -1680.228271484375 -1677.164794921875 -1673.5576171875 -1669.9793701171875 -1666.4312744140625 -1665.4814453125 -1671.716796875 -1658.0413818359375 -1646.5755615234375 -1641.2059326171875 -1637.15576171875 -1633.904052734375 -1631.1812744140625 -1628.2659912109375 -1623.7720947265625 -1618.1796875 -1612.732421875 -1607.91455078125 -1603.42431640625 -1598.9017333984375 -1594.361083984375 -1589.87109375 -1585.4974365234375 -1581.1146240234375 -1576.5791015625 -1571.9847412109375 -1567.276123046875 -1562.540283203125 -1557.738525390625 -1552.8446044921875 -1547.9637451171875 -1543.2073974609375 -1538.4547119140625 -1533.8753662109375 -1529.384033203125 -1525.0003662109375 -1520.724853515625 -1516.4962158203125 -1512.239501953125 -1507.9361572265625 -1503.4915771484375 -1498.6353759765625 -1493.366943359375 -1487.576904296875 -1481.184814453125 -1474.319580078125 -1467.218017578125 -1460.2305908203125 -1453.6351318359375 -1447.92626953125 -1443.68310546875 -1441.0057373046875 -1440.9573974609375 -1443.0762939453125 -1446.1593017578125 -1449.642333984375 -1452.01416015625 -1454.0137939453125 -1456.751708984375 -1460.0391845703125 -1463.212158203125 -1466.431640625 -1469.9141845703125 -1473.9088134765625 -1478.3974609375 -1483.4420166015625 -1488.90087890625 -1494.8575439453125 -1501.0604248046875 -1507.55517578125 -1514.357177734375 -1521.4761962890625 -1528.909912109375 -1536.59716796875 -1544.7249755859375 -1553.1473388671875 -1561.8599853515625 -1570.90283203125 -1580.2216796875 -1589.8336181640625 -1599.6793212890625 -1609.7303466796875 -1619.9603271484375 -1630.379150390625 -1640.97119140625 -1651.679931640625 -1662.4852294921875 -1673.3719482421875 -1684.3411865234375 -1695.2891845703125 -1706.16162109375 -1716.9287109375 -1727.4105224609375 -1737.64990234375 -1747.41748046875 -1756.8323974609375 -1765.458251953125 -1773.587890625 -1781.14501953125 -1788.1639404296875 -1794.6688232421875 -1800.6793212890625 -1806.1123046875 -1810.7320556640625 -99999 -99999 -99999 -99999 -99999 -99999 -99999 -99999 -99999 -99999 -99999 -99999 -99999 -99999 -99999 -99999 -99999 -99999 -99999 -99999 -99999 -99999 -99999 -99999 -99999 -99999 -99999 -99999 -99999 -99999 -99999 -99999 -99999 -99999 -99999 -99999 -99999 -99999 -99999 -99999 -99999 -99999 -99999 -99999 -99999 -99999 -99999 -99999 -99999 -99999 -99999 -99999 -99999 -99999 -99999 -99999 -99999 -99999 -99999 -99999 -99999 -99999 -99999 -99999 -99999 -99999 -99999 -99999 -99999 -99999 -99999 -99999 -99999 -99999 -99999 -99999
 -99999 -99999 -99999 -99999 -2106.743896484375 -2102.18017578125 -2097.2685546875 -2091.940185546875 -2086.177978515625 -2079.805908203125 -2072.720458984375 -2064.982421875 -2056.457763671875 -2047.18408203125 -2037.097900390625 -2026.0833740234375 -2014.2757568359375 -2001.6004638671875 -1988.0601806640625 -1973.666748046875 -1958.6492919921875 -1942.9351806640625 -1927.216064453125 -1911.0115966796875 -1894.867431640625 -1878.8712158203125 -1863.129150390625 -1847.812255859375 -1832.8974609375 -1818.879638671875 -1805.4886474609375 -1792.89404296875 -1781.18603515625 -1770.03369140625 -1759.3887939453125 -1749.307861328125 -1739.611328125 -1730.495849609375 -1721.97216796875 -1714.6146240234375 -1707.98974609375 -1702.0450439453125 -1696.609375 -1691.5499267578125 -1686.9052734375 -1682.531494140625 -1678.137451171875 -1674.0947265625 -1669.9779052734375 -1666.4166259765625 -1663.143310546875 -1659.5128173828125 -1656.0706787109375 -1655.227294921875 -1659.1761474609375 -1665.3914794921875 -1657.343994140625 -1644.76513671875 -1637.8521728515625 -1633.2950439453125 -1630.04150390625 -1627.5966796875 -1624.631103515625 -1619.6839599609375 -1613.4207763671875 -1607.5291748046875 -1602.3458251953125 -1597.3741455078125 -1592.5794677734375 -1587.834228515625 -1583.24267578125 -1578.636962890625 -1574.0772705078125 -1569.390625 -1564.6724853515625 -1559.8653564453125 -1554.9093017578125 -1549.9169921875 -1544.9822998046875 -1540.020751953125 -1535.1627197265625 -1530.3367919921875 -1525.6090087890625 -1520.975341796875 -1516.44677734375 -1511.978515625 -1507.5244140625 -1503.052001953125 -1498.385986328125 -1493.5386962890625 -1488.34765625 -1482.7056884765625 -1476.5943603515625 -1470.0859375 -1463.274658203125 -1456.359375 -1449.5281982421875 -1443.529296875 -1438.6263427734375 -1435.479736328125 -1434.09228515625 -1434.84423828125 -1437.421875 -1440.8592529296875 -1443.733642578125 -1445.7513427734375 -1447.154541015625 -1450.0201416015625 -1453.3255615234375 -1456.6605224609375 -1460.0577392578125 -1463.7298583984375 -1467.907958984375 -1472.6190185546875 -1477.9326171875 -1483.8828125 -1490.09619140625 -1496.5469970703125 -1503.204345703125 -1510.10400390625 -1517.248291015625 -1524.70263671875 -1532.4859619140625 -1540.6175537109375 -1549.1094970703125 -1557.9205322265625 -1567.064208984375 -1576.4620361328125 -1586.124755859375 -1596.0308837890625 -1606.1097412109375 -1616.371826171875 -1626.80712890625 -1637.39453125 -1648.076171875 -1658.8397216796875 -1669.692626953125 -1680.502685546875 -1691.3372802734375 -1702.039794921875 -1712.6507568359375 -1722.9259033203125 -1732.9444580078125 -1742.5880126953125 -1751.671875 -1760.2808837890625 -1768.226318359375 -1775.681396484375 -1782.5413818359375 -1788.8709716796875 -99999 -99999 -99999 -99999 -99999 -99999 -99999 -99999 -99999 -99999 -99999 -99999 -99999 -99999 -99999 -99999 -99999 -99999 -99999 -99999 -99999 -99999 -99999 -99999 -99999 -99999 -99999 -99999 -99999 -99999 -99999 -99999 -99999 -99999 -99999 -99999 -99999 -99999 -99999 -99999 -99999 -99999 -99999 -99999 -99999 -99999 -99999 -99999 -99999 -99999 -99999 -99999 -99999 -99999 -99999 -99999 -99999 -99999 -99999 -99999 -99999 -99999 -99999 -99999 -99999 -99999 -99999 -99999 -99999 -99999 -99999 -99999 -99999 -99999 -99999 -99999 -99999 -99999 -99999
 -99999 -99999 -99999 -99999 -2101.723876953125 -2097.511474609375 -2092.936279296875 -2087.876708984375 -2082.271484375 -2076.10205078125 -2069.201171875 -2061.6015625 -2053.24853515625 -2044.0096435546875 -2033.8729248046875 -2022.96826171875 -2010.84814453125 -1997.8424072265625 -1984.02783203125 -1969.1016845703125 -1953.54248046875 -1937.51025390625 -1920.9224853515625 -1904.235107421875 -1887.5196533203125 -1871.0653076171875 -1854.8074951171875 -1838.915771484375 -1823.664306640625 -1809.097900390625 -1795.408447265625 -1782.6846923828125 -1770.8453369140625 -1759.62255859375 -1749.1224365234375 -1738.738037109375 -1728.860595703125 -1719.4310302734375 -1710.776611328125 -1703.5035400390625 -1696.9647216796875 -1691.039794921875 -1685.6361083984375 -1680.8084716796875 -1676.1822509765625 -1671.939453125 -1667.5838623046875 -1663.4510498046875 -1659.541015625 -1656.1317138671875 -1653.580322265625 -1650.9591064453125 -1649.64599609375 -1651.1656494140625 -1658.052734375 -1662.2430419921875 -1655.0985107421875 -1644.5916748046875 -1635.9774169921875 -1630.23046875 -1626.5582275390625 -1623.4876708984375 -1619.596923828125 -1613.9483642578125 -1607.741455078125 -1601.6544189453125 -1595.9080810546875 -1590.558349609375 -1585.6026611328125 -1580.6126708984375 -1575.8243408203125 -1571.0321044921875 -1566.267333984375 -1561.46044921875 -1556.57861328125 -1551.6077880859375 -1546.593994140625 -1541.5732421875 -1536.5733642578125 -1531.5526123046875 -1526.59814453125 -1521.710205078125 -1516.9541015625 -1512.2574462890625 -1507.61279296875 -1503.01416015625 -1498.37451171875 -1493.6949462890625 -1488.8416748046875 -1483.71923828125 -1478.281494140625 -1472.51025390625 -1466.3070068359375 -1459.885009765625 -1453.0328369140625 -1446.3731689453125 -1439.91650390625 -1434.3951416015625 -1430.13525390625 -1427.521240234375 -1427.212890625 -1429.012939453125 -1432.1146240234375 -1435.098388671875 -1437.40869140625 -1439.296142578125 -1441.3795166015625 -1444.123046875 -1447.330810546875 -1450.760986328125 -1454.2476806640625 -1457.9705810546875 -1462.1580810546875 -1467.3096923828125 -1473.08154296875 -1479.32958984375 -1485.826171875 -1492.48779296875 -1499.223876953125 -1506.0950927734375 -1513.2105712890625 -1520.6929931640625 -1528.517578125 -1536.6280517578125 -1545.18115234375 -1554.0516357421875 -1563.2149658203125 -1572.682373046875 -1582.3524169921875 -1592.3214111328125 -1602.4405517578125 -1612.7344970703125 -1623.138427734375 -1633.6693115234375 -1644.3138427734375 -1655.00244140625 -1665.714599609375 -1676.4317626953125 -1687.0799560546875 -1697.6290283203125 -1707.929443359375 -1718.162841796875 -1727.85107421875 -1737.2401123046875 -1746.1207275390625 -1754.6036376953125 -99999 -99999 -99999 -99999 -99999 -99999 -99999 -99999 -99999 -99999 -99999 -99999 -99999 -99999 -99999 -99999 -99999 -99999 -99999 -99999 -99999 -99999 -99999 -99999 -99999 -99999 -99999 -99999 -99999 -99999 -99999 -99999 -99999 -99999 -99999 -99999 -99999 -99999 -99999 -99999 -99999 -99999 -99999 -99999 -99999 -99999 -99999 -99999 -99999 -99999 -99999 -99999 -99999 -99999 -99999 -99999 -99999 -99999 -99999 -99999 -99999 -99999 -99999 -99999 -99999 -99999 -99999 -99999 -99999 -99999 -99999 -99999 -99999 -99999 -99999 -99999 -99999 -99999 -99999 -99999 -99999 -99999 -99999
 -99999 -99999 -99999 -2100.56591796875 -2096.933349609375 -2093.0126953125 -2088.718994140625 -2083.99951171875 -2078.76513671875 -2072.6572265625 -2066.111328125 -2058.692626953125 -2050.316650390625 -2041.083984375 -2031.1212158203125 -2020.0438232421875 -2007.9014892578125 -1994.763671875 -1980.5545654296875 -1965.3046875 -1949.2947998046875 -1932.5950927734375 -1915.44384765625 -1898.2496337890625 -1881.0487060546875 -1863.92431640625 -1847.14990234375 -1830.8731689453125 -1815.1248779296875 -1800.1468505859375 -1786.091552734375 -1773.47265625 -1761.732421875 -1750.747314453125 -1740.151611328125 -1729.79541015625 -1719.6640625 -1709.781494140625 -1700.888427734375 -1693.291748046875 -1687.4420166015625 -1681.90380859375 -1676.5638427734375 -1671.7449951171875 -1667.4696044921875 -1663.368408203125 -1659.3529052734375 -1655.454833984375 -1652.070556640625 -1648.993896484375 -1646.5762939453125 -1644.831298828125 -1644.53369140625 -1646.99853515625 -1650.339599609375 -1651.7674560546875 -1647.386962890625 -1638.9754638671875 -1631.7171630859375 -1625.7601318359375 -1621.4385986328125 -1617.163330078125 -1612.3004150390625 -1606.6451416015625 -1600.524169921875 -1594.3968505859375 -1588.6414794921875 -1583.0582275390625 -1577.798828125 -1572.6888427734375 -1567.6822509765625 -1562.727294921875 -1557.8253173828125 -1552.8526611328125 -1547.8470458984375 -1542.8271484375 -1537.7789306640625 -1532.707763671875 -1527.6363525390625 -1522.625732421875 -1517.67724609375 -1512.7930908203125 -1507.977294921875 -1503.231201171875 -1498.545654296875 -1493.8800048828125 -1489.173583984375 -1484.3656005859375 -1479.3868408203125 -1474.1943359375 -1468.7374267578125 -1463.000732421875 -1456.90087890625 -1450.4720458984375 -1443.9595947265625 -1437.4298095703125 -1431.2451171875 -1425.7225341796875 -1421.569580078125 -1420.0296630859375 -1420.54541015625 -1422.659912109375 -1425.6192626953125 -1428.515625 -1430.7523193359375 -1433.0203857421875 -1435.497802734375 -1438.3507080078125 -1441.680419921875 -1445.2315673828125 -1448.809326171875 -1452.5438232421875 -1456.989013671875 -1462.3404541015625 -1468.556884765625 -1475.391845703125 -1482.19189453125 -1488.8958740234375 -1495.6038818359375 -1502.411376953125 -1509.446533203125 -1516.7921142578125 -1524.5245361328125 -1532.7122802734375 -1541.2816162109375 -1550.1959228515625 -1559.44287109375 -1568.98095703125 -1578.688720703125 -1588.64453125 -1598.760498046875 -1609.0146484375 -1619.377197265625 -1629.842041015625 -1640.381591796875 -1650.9520263671875 -1661.5223388671875 -1672.0516357421875 -1682.5115966796875 -1692.8572998046875 -1702.991455078125 -1712.8896484375 -1722.4185791015625 -99999 -99999 -99999 -99999 -99999 -99999 -99999 -99999 -99999 -99999 -99999 -99999 -99999 -99999 -99999 -99999 -99999 -99999 -99999 -99999 -99999 -99999 -99999 -99999 -99999 -99999 -99999 -99999 -99999 -99999 -99999 -99999 -99999 -99999 -99999 -99999 -99999 -99999 -99999 -99999 -99999 -99999 -99999 -99999 -99999 -99999 -99999 -99999 -99999 -99999 -99999 -99999 -99999 -99999 -99999 -99999 -99999 -99999 -99999 -99999 -99999 -99999 -99999 -99999 -99999 -99999 -99999 -99999 -99999 -99999 -99999 -99999 -99999 -99999 -99999 -99999 -99999 -99999 -99999 -99999 -99999 -99999 -99999 -99999 -99999 -99999
 -99999 -99999 -99999 -2095.520751953125 -2092.2421875 -2088.740966796875 -2084.813720703125 -2080.3310546875 -2075.2412109375 -2069.649658203125 -2063.145263671875 -2055.8564453125 -2047.811279296875 -2038.822509765625 -2028.724609375 -2017.7783203125 -2005.657470703125 -1992.323974609375 -1977.9752197265625 -1962.1260986328125 -1945.4378662109375 -1928.16162109375 -1910.5479736328125 -1892.8402099609375 -1875.2227783203125 -1857.854736328125 -1840.68408203125 -1823.945556640625 -1807.6873779296875 -1792.3114013671875 -1778.0078125 -1765.0982666015625 -1753.760498046875 -1743.1689453125 -1732.6954345703125 -1722.2684326171875 -1711.958251953125 -1701.6826171875 -1691.6480712890625 -1685.2091064453125 -1679.6175537109375 -1674.27783203125 -1669.241455078125 -1664.656494140625 -1660.51611328125 -1656.6865234375 -1653.1004638671875 -1649.7269287109375 -1646.647705078125 -1643.865966796875 -1641.6300048828125 -1640.0411376953125 -1639.2904052734375 -1639.3873291015625 -1640.1807861328125 -1639.278564453125 -1635.187744140625 -1629.591796875 -1624.0823974609375 -1619.2100830078125 -1614.173095703125 -1609.02978515625 -1603.6883544921875 -1597.8929443359375 -1591.9610595703125 -1586.023681640625 -1580.2012939453125 -1574.666748046875 -1569.2757568359375 -1564.0489501953125 -1558.9158935546875 -1553.82373046875 -1548.764892578125 -1543.709228515625 -1538.652587890625 -1533.5799560546875 -1528.45361328125 -1523.3804931640625 -1518.3441162109375 -1513.3355712890625 -1508.3868408203125 -1503.520263671875 -1498.746337890625 -1494.0196533203125 -1489.3553466796875 -1484.689453125 -1479.98974609375 -1475.2027587890625 -1470.27490234375 -1465.1724853515625 -1459.7943115234375 -1454.1448974609375 -1448.2869873046875 -1442.11181640625 -1435.925048828125 -1429.578857421875 -1423.479736328125 -1418.1700439453125 -1414.1441650390625 -1412.26416015625 -1413.260498046875 -1416.1966552734375 -1419.0628662109375 -1421.8045654296875 -1424.4761962890625 -1427.0230712890625 -1429.85791015625 -1432.9945068359375 -1436.383544921875 -1439.9830322265625 -1443.7080078125 -1447.35791015625 -1451.66943359375 -1457.69775390625 -1464.906494140625 -1472.2562255859375 -1479.288330078125 -1485.9390869140625 -1492.3145751953125 -1498.9266357421875 -1505.740966796875 -1513.0069580078125 -1520.7481689453125 -1528.8726806640625 -1537.427490234375 -1546.466796875 -1555.697265625 -1565.238525390625 -1575.0172119140625 -1584.9630126953125 -1595.052490234375 -1605.260986328125 -1615.5556640625 -1625.908935546875 -1636.3336181640625 -1646.7562255859375 -1657.164794921875 -1667.5467529296875 -1677.759521484375 -1687.9185791015625 -1697.8018798828125 -1707.4515380859375 -99999 -99999 -99999 -99999 -99999 -99999 -99999 -99999 -99999 -99999 -99999 -99999 -99999 -99999 -99999 -99999 -99999 -99999 -99999 -99999 -99999 -99999 -99999 -99999 -99999 -99999 -99999 -99999 -99999 -99999 -99999 -99999 -99999 -99999 -99999 -99999 -99999 -99999 -99999 -99999 -99999 -99999 -99999 -99999 -99999 -99999 -99999 -99999 -99999 -99999 -99999 -99999 -99999 -99999 -99999 -99999 -99999 -99999 -99999 -99999 -99999 -99999 -99999 -99999 -99999 -99999 -99999 -99999 -99999 -99999 -99999 -99999 -99999 -99999 -99999 -99999 -99999 -99999 -99999 -99999 -99999 -99999 -99999 -99999 -99999 -99999 -99999
 -99999 -99999 -99999 -2090.661865234375 -2087.716796875 -2084.529296875 -2080.948486328125 -2076.893798828125 -2072.193115234375 -2066.718994140625 -2060.59375 -2053.412353515625 -2045.39794921875 -2036.431884765625 -2026.6441650390625 -2015.6060791015625 -2003.6138916015625 -1990.4918212890625 -1975.713134765625 -1959.5419921875 -1942.2957763671875 -1924.3016357421875 -1906.1534423828125 -1888.154541015625 -1870.235595703125 -1852.5057373046875 -1835.0592041015625 -1817.94677734375 -1801.3863525390625 -1785.311767578125 -1770.2733154296875 -1757.626708984375 -1746.9671630859375 -1736.7587890625 -1726.3389892578125 -1715.830078125 -1705.5047607421875 -1695.3905029296875 -1686.388916015625 -1678.8702392578125 -1673.2864990234375 -1667.975341796875 -1663.2635498046875 -1658.9385986328125 -1655.1357421875 -1651.7020263671875 -1648.5147705078125 -1645.630615234375 -1642.876953125 -1640.373779296875 -1637.9791259765625 -1635.5980224609375 -1633.5595703125 -1631.307861328125 -1628.5916748046875 -1625.5213623046875 -1622.3116455078125 -1618.273193359375 -1613.7958984375 -1609.4139404296875 -1604.3829345703125 -1599.0130615234375 -1593.6025390625 -1588.11181640625 -1582.372802734375 -1576.748779296875 -1571.0313720703125 -1565.5076904296875 -1560.1246337890625 -1554.8072509765625 -1549.567138671875 -1544.3809814453125 -1539.2774658203125 -1534.1688232421875 -1529.002685546875 -1523.893798828125 -1518.8065185546875 -1513.734375 -1508.696533203125 -1503.72607421875 -1498.85107421875 -1494.0465087890625 -1489.3345947265625 -1484.698974609375 -1480.1151123046875 -1475.5506591796875 -1470.92236328125 -1466.2730712890625 -1461.509521484375 -1456.5765380859375 -1451.470458984375 -1446.1614990234375 -1440.64697265625 -1434.8829345703125 -1428.9925537109375 -1423.1484375 -1417.40966796875 -1411.790771484375 -1407.0364990234375 -1404.637939453125 -1407.1212158203125 -1410.5467529296875 -1413.4566650390625 -1416.0382080078125 -1418.7845458984375 -1421.7181396484375 -1424.8297119140625 -1428.087646484375 -1431.59814453125 -1435.30419921875 -1439.052734375 -1442.815185546875 -1446.99755859375 -1454.1839599609375 -1462.464599609375 -1470.409912109375 -1477.2794189453125 -1483.4693603515625 -1489.423828125 -1495.5487060546875 -1502.17626953125 -1509.2064208984375 -1516.8358154296875 -1525.057861328125 -1533.6456298828125 -1542.6978759765625 -1552.0810546875 -1561.6507568359375 -1571.416748046875 -1581.3197021484375 -1591.379150390625 -1601.4830322265625 -1611.6966552734375 -1621.9310302734375 -1632.1776123046875 -1642.466064453125 -1652.667724609375 -1662.803955078125 -1672.8663330078125 -1682.705078125 -99999 -99999 -99999 -99999 -99999 -99999 -99999 -99999 -99999 -99999 -99999 -99999 -99999 -99999 -99999 -99999 -99999 -99999 -99999 -99999 -99999 -99999 -99999 -99999 -99999 -99999 -99999 -99999 -99999 -99999 -99999 -99999 -99999 -99999 -99999 -99999 -99999 -99999 -99999 -99999 -99999 -99999 -99999 -99999 -99999 -99999 -99999 -99999 -99999 -99999 -99999 -99999 -99999 -99999 -99999 -99999 -99999 -99999 -99999 -99999 -99999 -99999 -99999 -99999 -99999 -99999 -99999 -99999 -99999 -99999 -99999 -99999 -99999 -99999 -99999 -99999 -99999 -99999 -99999 -99999 -99999 -99999 -99999 -99999 -99999 -99999 -99999 -99999 -99999
 -99999 -99999 -2088.12060546875 -2085.78369140625 -2083.3076171875 -2080.5595703125 -2077.2763671875 -2073.476318359375 -2068.991455078125 -2063.953857421875 -2057.943359375 -2051.05615234375 -2043.176025390625 -2034.3663330078125 -2024.6123046875 -2013.8330078125 -2001.9952392578125 -1988.902587890625 -1974.2939453125 -1957.653564453125 -1939.471923828125 -1920.7762451171875 -1902.2568359375 -1884.098876953125 -1865.991943359375 -1847.9329833984375 -1830.28076171875 -1813.12841796875 -1796.4390869140625 -1779.925537109375 -1764.38623046875 -1751.769287109375 -1741.103271484375 -1730.8114013671875 -1720.419677734375 -1710.0386962890625 -1699.97314453125 -1690.2698974609375 -1681.53857421875 -1674.46728515625 -1668.3131103515625 -1663.1318359375 -1658.5533447265625 -1654.500732421875 -1650.9544677734375 -1647.81689453125 -1645.1014404296875 -1642.6468505859375 -1640.3067626953125 -1637.9189453125 -1635.4027099609375 -1632.3250732421875 -1628.61328125 -1623.5897216796875 -1617.595947265625 -1612.091064453125 -1609.4556884765625 -1606.28955078125 -1601.9210205078125 -1597.2994384765625 -1592.670654296875 -1587.7159423828125 -1582.6151123046875 -1577.4732666015625 -1572.0140380859375 -1566.578369140625 -1561.1763916015625 -1555.7476806640625 -1550.35205078125 -1545.037353515625 -1539.822998046875 -1534.611328125 -1529.3818359375 -1524.2178955078125 -1519.080322265625 -1513.9560546875 -1508.8604736328125 -1503.8050537109375 -1498.8330078125 -1493.9368896484375 -1489.1243896484375 -1484.435302734375 -1479.8426513671875 -1475.318115234375 -1470.8480224609375 -1466.452880859375 -1462.0810546875 -1457.6490478515625 -1453.1240234375 -1448.4215087890625 -1443.607666015625 -1438.7266845703125 -1433.6407470703125 -1428.5140380859375 -1423.3594970703125 -1418.08056640625 -1412.64306640625 -1407.431396484375 -1402.384765625 -1400.3419189453125 -1402.242431640625 -1405.744140625 -1408.466796875 -1411.1221923828125 -1413.9771728515625 -1417.0533447265625 -1420.3363037109375 -1423.8717041015625 -1427.601318359375 -1431.5150146484375 -1435.509521484375 -1439.60888671875 -1444.7135009765625 -1452.5296630859375 -1461.51513671875 -1469.6602783203125 -1475.8717041015625 -1481.3330078125 -1486.6800537109375 -1492.1541748046875 -1498.42919921875 -1505.39892578125 -1513.045654296875 -1521.3203125 -1530.0291748046875 -1539.1376953125 -1548.545166015625 -1558.1337890625 -1567.9188232421875 -1577.7506103515625 -1587.7340087890625 -1597.764892578125 -1607.8193359375 -1617.8824462890625 -1627.9674072265625 -1638.0369873046875 -1648.0552978515625 -1658.00732421875 -99999 -99999 -99999 -99999 -99999 -99999 -99999 -99999 -99999 -99999 -99999 -99999 -99999 -99999 -99999 -99999 -99999 -99999 -99999 -99999 -99999 -99999 -99999 -99999 -99999 -99999 -99999 -99999 -99999 -99999 -99999 -99999 -99999 -99999 -99999 -99999 -99999 -99999 -99999 -99999 -99999 -99999 -99999 -99999 -99999 -99999 -99999 -99999 -99999 -99999 -99999 -99999 -99999 -99999 -99999 -99999 -99999 -99999 -99999 -99999 -99999 -99999 -99999 -99999 -99999 -99999 -99999 -99999 -99999 -99999 -99999 -99999 -99999 -99999 -99999 -99999 -99999 -99999 -99999 -99999 -99999 -99999 -99999 -99999 -99999 -99999 -99999 -99999 -99999 -99999 -99999
 -99999 -99999 -2083.055419921875 -2081.0634765625 -2078.91455078125 -2076.510498046875 -2073.567138671875 -2070.1318359375 -2066.031982421875 -2061.255126953125 -2055.489990234375 -2048.765625 -2040.9544677734375 -2032.1065673828125 -2022.449951171875 -2011.737548828125 -2000.2125244140625 -1987.773193359375 -1973.18017578125 -1956.0880126953125 -1936.7587890625 -1917.123779296875 -1898.5885009765625 -1880.5284423828125 -1862.3323974609375 -1844.208740234375 -1826.33544921875 -1809.00732421875 -1792.412109375 -1776.0186767578125 -1760.4752197265625 -1747.4276123046875 -1736.214599609375 -1725.6605224609375 -1715.18115234375 -1705.0443115234375 -1695.1722412109375 -1685.9931640625 -1677.7354736328125 -1670.4991455078125 -1664.4178466796875 -1659.1973876953125 -1654.7313232421875 -1650.8509521484375 -1647.67041015625 -1644.986328125 -1642.642822265625 -1640.5181884765625 -1638.4991455078125 -1636.380126953125 -1633.7181396484375 -1630.1273193359375 -1625.1170654296875 -1617.1898193359375 -1607.8670654296875 -1600.4342041015625 -1597.5751953125 -1593.7840576171875 -1589.0137939453125 -1584.3123779296875 -1579.955322265625 -1575.511962890625 -1570.8314208984375 -1566.050537109375 -1561.1236572265625 -1556.012939453125 -1550.7650146484375 -1545.46875 -1540.22119140625 -1534.9678955078125 -1529.6832275390625 -1524.4554443359375 -1519.2542724609375 -1514.0706787109375 -1508.905517578125 -1503.7808837890625 -1498.7186279296875 -1493.716064453125 -1488.7889404296875 -1483.9923095703125 -1479.2994384765625 -1474.70361328125 -1470.24072265625 -1465.9161376953125 -1461.7139892578125 -1457.531982421875 -1453.373779296875 -1449.200439453125 -1444.9888916015625 -1440.7625732421875 -1436.4111328125 -1432.03173828125 -1427.5467529296875 -1423.0115966796875 -1418.4725341796875 -1414.1732177734375 -1409.68408203125 -1404.874755859375 -1400.72412109375 -1398.385986328125 -1399.314208984375 -1401.6475830078125 -1404.246826171875 -1406.92919921875 -1409.94189453125 -1413.190185546875 -1416.6646728515625 -1420.3638916015625 -1424.2783203125 -1428.4674072265625 -1433.0782470703125 -1438.2774658203125 -1444.3731689453125 -1452.4403076171875 -1462.056640625 -1469.82421875 -1474.976318359375 -1479.0394287109375 -1483.48583984375 -1488.63671875 -1494.4859619140625 -1501.4449462890625 -1509.1761474609375 -1517.5225830078125 -1526.498046875 -1535.7191162109375 -1545.1998291015625 -1554.8056640625 -1564.524658203125 -1574.3350830078125 -1584.145751953125 -1594.04248046875 -1603.961181640625 -1613.8953857421875 -1623.7593994140625 -1633.6229248046875 -1643.4014892578125 -99999 -99999 -99999 -99999 -99999 -99999 -99999 -99999 -99999 -99999 -99999 -99999 -99999 -99999 -99999 -99999 -99999 -99999 -99999 -99999 -99999 -99999 -99999 -99999 -99999 -99999 -99999 -99999 -99999 -99999 -99999 -99999 -99999 -99999 -99999 -99999 -99999 -99999 -99999 -99999 -99999 -99999 -99999 -99999 -99999 -99999 -99999 -99999 -99999 -99999 -99999 -99999 -99999 -99999 -99999 -99999 -99999 -99999 -99999 -99999 -99999 -99999 -99999 -99999 -99999 -99999 -99999 -99999 -99999 -99999 -99999 -99999 -99999 -99999 -99999 -99999 -99999 -99999 -99999 -99999 -99999 -99999 -99999 -99999 -99999 -99999 -99999 -99999 -99999 -99999 -99999 -99999
 -99999 -99999 -2077.8837890625 -2076.3662109375 -2074.68017578125 -2072.60791015625 -2070.102294921875 -2066.935302734375 -2063.0517578125 -2058.415771484375 -2052.908935546875 -2046.41748046875 -2038.5706787109375 -2029.7547607421875 -2020.028076171875 -2009.3848876953125 -1998.0213623046875 -1986.0484619140625 -1972.467529296875 -1955.561767578125 -1934.271484375 -1913.647705078125 -1895.354736328125 -1877.3204345703125 -1859.133544921875 -1840.974609375 -1823.07666015625 -1805.70361328125 -1789.0286865234375 -1772.843994140625 -1757.818359375 -1744.5882568359375 -1732.6082763671875 -1721.4908447265625 -1710.94677734375 -1700.8358154296875 -1691.199462890625 -1682.3179931640625 -1674.246337890625 -1667.1961669921875 -1661.1685791015625 -1655.9276123046875 -1651.6192626953125 -1647.9681396484375 -1645.0504150390625 -1642.5311279296875 -1640.5216064453125 -1638.8963623046875 -1637.3538818359375 -1635.459716796875 -1632.9288330078125 -1629.295166015625 -1623.2835693359375 -1614.453125 -1602.1380615234375 -1591.383056640625 -1585.1185302734375 -1579.68212890625 -1574.6700439453125 -1570.467041015625 -1566.511962890625 -1562.748046875 -1558.8077392578125 -1554.4652099609375 -1549.841796875 -1544.999267578125 -1540.0587158203125 -1534.9996337890625 -1529.7950439453125 -1524.5968017578125 -1519.367919921875 -1514.14501953125 -1508.9273681640625 -1503.7335205078125 -1498.5850830078125 -1493.4755859375 -1488.4290771484375 -1483.4957275390625 -1478.655517578125 -1473.9219970703125 -1469.34521484375 -1464.9395751953125 -1460.7056884765625 -1456.5601806640625 -1452.5501708984375 -1448.66015625 -1444.838134765625 -1441.0933837890625 -1437.366455078125 -1433.607421875 -1429.6761474609375 -1425.690673828125 -1421.7625732421875 -1418.060546875 -1414.6116943359375 -1411.2054443359375 -1407.4315185546875 -1403.2474365234375 -1399.6500244140625 -1397.49169921875 -1397.37939453125 -1398.596923828125 -1400.928466796875 -1403.6556396484375 -1406.7344970703125 -1410.052978515625 -1413.6025390625 -1417.44873046875 -1421.63232421875 -1426.19384765625 -1431.213623046875 -1436.85205078125 -1443.6514892578125 -1451.6728515625 -1460.831298828125 -1468.0401611328125 -1472.3167724609375 -1475.9765625 -1480.005859375 -1484.6767578125 -1490.3858642578125 -1497.2923583984375 -1505.3675537109375 -1514.0419921875 -1523.1893310546875 -1532.49658203125 -1542.07275390625 -1551.6751708984375 -1561.329833984375 -1571.0225830078125 -1580.7034912109375 -1590.4451904296875 -1600.1151123046875 -1609.7977294921875 -1619.4952392578125 -99999 -99999 -99999 -99999 -99999 -99999 -99999 -99999 -99999 -99999 -99999 -99999 -99999 -99999 -99999 -99999 -99999 -99999 -99999 -99999 -99999 -99999 -99999 -99999 -99999 -99999 -99999 -99999 -99999 -99999 -99999 -99999 -99999 -99999 -99999 -99999 -99999 -99999 -99999 -99999 -99999 -99999 -99999 -99999 -99999 -99999 -99999 -99999 -99999 -99999 -99999 -99999 -99999 -99999 -99999 -99999 -99999 -99999 -99999 -99999 -99999 -99999 -99999 -99999 -99999 -99999 -99999 -99999 -99999 -99999 -99999 -99999 -99999 -99999 -99999 -99999 -99999 -99999 -99999 -99999 -99999 -99999 -99999 -99999 -99999 -99999 -99999 -99999 -99999 -99999 -99999 -99999 -99999 -99999
 -99999 -99999 -2072.771728515625 -2071.733154296875 -2070.472900390625 -2068.781005859375 -2066.52490234375 -2063.57080078125 -2059.885986328125 -2055.520751953125 -2050.2587890625 -2043.760009765625 -2036.0609130859375 -2026.9649658203125 -2017.0989990234375 -2006.4520263671875 -1995.022216796875 -1983.43408203125 -1970.5321044921875 -1953.1358642578125 -1932.027587890625 -1911.4163818359375 -1892.760498046875 -1874.4434814453125 -1856.2318115234375 -1838.0745849609375 -1820.229248046875 -1802.938232421875 -1786.244140625 -1770.38037109375 -1755.4962158203125 -1741.922607421875 -1729.6275634765625 -1718.1859130859375 -1707.4530029296875 -1697.3260498046875 -1687.84521484375 -1679.100830078125 -1671.1812744140625 -1664.26904296875 -1658.2506103515625 -1653.216064453125 -1648.8658447265625 -1645.353515625 -1642.4920654296875 -1640.327880859375 -1638.6767578125 -1637.3223876953125 -1636.072998046875 -1634.68896484375 -1632.6781005859375 -1629.076904296875 -1623.297119140625 -1612.3970947265625 -1597.1549072265625 -1577.835693359375 -1567.845947265625 -1562.421142578125 -1558.8580322265625 -1556.1658935546875 -1553.3792724609375 -1550.1641845703125 -1546.6270751953125 -1542.753173828125 -1538.61181640625 -1534.0377197265625 -1529.2528076171875 -1524.3319091796875 -1519.245361328125 -1514.1015625 -1508.91357421875 -1503.7049560546875 -1498.4996337890625 -1493.30908203125 -1488.159912109375 -1483.0821533203125 -1478.0850830078125 -1473.17919921875 -1468.4185791015625 -1463.8297119140625 -1459.4140625 -1455.14990234375 -1451.0709228515625 -1447.186767578125 -1443.499267578125 -1439.9686279296875 -1436.6317138671875 -1433.322265625 -1429.986572265625 -1426.6156005859375 -1423.2471923828125 -1419.924560546875 -1416.5574951171875 -1413.341796875 -1410.4091796875 -1407.9095458984375 -1405.2535400390625 -1401.47607421875 -1398.4556884765625 -1396.500732421875 -1395.908203125 -1396.6663818359375 -1398.6708984375 -1401.319091796875 -1404.2242431640625 -1407.5592041015625 -1411.140380859375 -1415.092529296875 -1419.4061279296875 -1424.11376953125 -1429.423583984375 -1435.3687744140625 -1442.076904296875 -1449.3250732421875 -1456.95361328125 -1463.522216796875 -1468.2393798828125 -1472.0660400390625 -1475.755615234375 -1480.272705078125 -1486.0179443359375 -1493.22412109375 -1501.7393798828125 -1510.779296875 -1520.2020263671875 -1529.744140625 -1539.1932373046875 -1548.7889404296875 -1558.2879638671875 -1567.8319091796875 -1577.3270263671875 -1586.8277587890625 -1596.36572265625 -99999 -99999 -99999 -99999 -99999 -99999 -99999 -99999 -99999 -99999 -99999 -99999 -99999 -99999 -99999 -99999 -99999 -99999 -99999 -99999 -99999 -99999 -99999 -99999 -99999 -99999 -99999 -99999 -99999 -99999 -99999 -99999 -99999 -99999 -99999 -99999 -99999 -99999 -99999 -99999 -99999 -99999 -99999 -99999 -99999 -99999 -99999 -99999 -99999 -99999 -99999 -99999 -99999 -99999 -99999 -99999 -99999 -99999 -99999 -99999 -99999 -99999 -99999 -99999 -99999 -99999 -99999 -99999 -99999 -99999 -99999 -99999 -99999 -99999 -99999 -99999 -99999 -99999 -99999 -99999 -99999 -99999 -99999 -99999 -99999 -99999 -99999 -99999 -99999 -99999 -99999 -99999 -99999 -99999 -99999 -99999
 -99999 -2068.8603515625 -2067.905029296875 -2067.25048828125 -2066.39501953125 -2065.11767578125 -2063.003173828125 -2060.031005859375 -2056.317138671875 -2052.013916015625 -2047.12255859375 -2041.4998779296875 -2032.8978271484375 -2023.6114501953125 -2013.69482421875 -2002.9324951171875 -1991.481689453125 -1979.39990234375 -1965.543701171875 -1948.7171630859375 -1929.3465576171875 -1909.6163330078125 -1890.50927734375 -1871.8612060546875 -1853.468017578125 -1835.3790283203125 -1817.611572265625 -1800.41943359375 -1783.885498046875 -1768.055908203125 -1753.375732421875 -1739.699951171875 -1727.0146484375 -1715.32666015625 -1704.473388671875 -1694.2652587890625 -1684.9403076171875 -1676.3399658203125 -1668.4908447265625 -1661.682373046875 -1655.6759033203125 -1650.5064697265625 -1646.2281494140625 -1642.7694091796875 -1640.0726318359375 -1637.9957275390625 -1636.448486328125 -1635.387451171875 -1634.521484375 -1633.4090576171875 -1631.628173828125 -1628.7027587890625 -1623.189453125 -1611.9058837890625 -1590.775146484375 -1562.959228515625 -1549.1722412109375 -1546.5794677734375 -1544.515380859375 -1542.6666259765625 -1540.5926513671875 -1538.1005859375 -1535.0189208984375 -1531.4190673828125 -1527.4664306640625 -1523.1273193359375 -1518.4942626953125 -1513.6658935546875 -1508.6988525390625 -1503.6141357421875 -1498.4420166015625 -1493.2542724609375 -1488.0423583984375 -1482.8555908203125 -1477.719970703125 -1472.646484375 -1467.681640625 -1462.86767578125 -1458.2076416015625 -1453.6942138671875 -1449.4010009765625 -1445.3370361328125 -1441.513671875 -1437.913330078125 -1434.606201171875 -1431.4808349609375 -1428.46533203125 -1425.6025390625 -1422.8697509765625 -1420.166748046875 -1417.3074951171875 -1414.3565673828125 -1411.415771484375 -1408.683837890625 -1406.2633056640625 -1404.12744140625 -1401.9515380859375 -1399.3516845703125 -1397.07080078125 -1395.579833984375 -1395.1180419921875 -1395.82080078125 -1397.53369140625 -1399.8306884765625 -1402.493408203125 -1405.6087646484375 -1409.149169921875 -1413.0201416015625 -1417.3704833984375 -1422.2720947265625 -1427.59716796875 -1433.475341796875 -1439.8575439453125 -1446.52685546875 -1453.16845703125 -1458.8719482421875 -1463.5640869140625 -1467.577880859375 -1471.315673828125 -1475.1807861328125 -1481.0296630859375 -1489.37841796875 -1498.480224609375 -1508.117919921875 -1517.741943359375 -1527.320556640625 -1536.779541015625 -1546.1634521484375 -1555.5032958984375 -1564.8265380859375 -1574.0880126953125 -1583.3377685546875 -99999 -99999 -99999 -99999 -99999 -99999 -99999 -99999 -99999 -99999 -99999 -99999 -99999 -99999 -99999 -99999 -99999 -99999 -99999 -99999 -99999 -99999 -99999 -99999 -99999 -99999 -99999 -99999 -99999 -99999 -99999 -99999 -99999 -99999 -99999 -99999 -99999 -99999 -99999 -99999 -99999 -99999 -99999 -99999 -99999 -99999 -99999 -99999 -99999 -99999 -99999 -99999 -99999 -99999 -99999 -99999 -99999 -99999 -99999 -99999 -99999 -99999 -99999 -99999 -99999 -99999 -99999 -99999 -99999 -99999 -99999 -99999 -99999 -99999 -99999 -99999 -99999 -99999 -99999 -99999 -99999 -99999 -99999 -99999 -99999 -99999 -99999 -99999 -99999 -99999 -99999 -99999 -99999 -99999 -99999 -99999 -99999
 -99999 -2063.701904296875 -2062.986083984375 -2062.678466796875 -2062.41015625 -2061.236572265625 -2059.12939453125 -2056.160888671875 -2052.484619140625 -2047.950927734375 -2043.0545654296875 -2036.96728515625 -2029.0823974609375 -2019.7025146484375 -2009.7218017578125 -1998.883056640625 -1987.180419921875 -1974.4561767578125 -1960.4285888671875 -1943.71435546875 -1925.625732421875 -1906.584228515625 -1887.643310546875 -1869.0284423828125 -1850.69091796875 -1832.6650390625 -1815.04541015625 -1797.89501953125 -1781.498046875 -1765.98974609375 -1751.1629638671875 -1737.53564453125 -1724.835693359375 -1712.8828125 -1702.0240478515625 -1691.7711181640625 -1682.330078125 -1673.6614990234375 -1665.9857177734375 -1659.0545654296875 -1652.998291015625 -1647.92236328125 -1643.681640625 -1640.079345703125 -1637.238037109375 -1635.1768798828125 -1633.7568359375 -1632.73681640625 -1631.924560546875 -1631.0770263671875 -1629.505126953125 -1626.4913330078125 -1620.9713134765625 -1607.4884033203125 -1580.4627685546875 -1551.8955078125 -1539.0745849609375 -1535.0244140625 -1533.2950439453125 -1531.5660400390625 -1529.564208984375 -1527.1180419921875 -1524.1143798828125 -1520.6329345703125 -1516.7459716796875 -1512.496826171875 -1508.0115966796875 -1503.2333984375 -1498.2647705078125 -1493.2237548828125 -1488.0518798828125 -1482.83544921875 -1477.62451171875 -1472.4307861328125 -1467.2886962890625 -1462.260009765625 -1457.34521484375 -1452.555908203125 -1447.9527587890625 -1443.590087890625 -1439.4608154296875 -1435.57373046875 -1432.03955078125 -1428.7222900390625 -1425.6773681640625 -1422.9422607421875 -1420.4666748046875 -1418.195556640625 -1416.02685546875 -1413.8525390625 -1411.6014404296875 -1409.1636962890625 -1406.5421142578125 -1404.12548828125 -1402.060546875 -1400.2640380859375 -1398.50634765625 -1396.7598876953125 -1395.3507080078125 -1394.673583984375 -1394.8089599609375 -1395.6015625 -1396.9013671875 -1398.7041015625 -1401.1656494140625 -1404.0006103515625 -1407.391357421875 -1411.271728515625 -1415.5767822265625 -1420.327392578125 -1425.539794921875 -1431.2742919921875 -1437.283447265625 -1443.3765869140625 -1449.2991943359375 -1454.4954833984375 -1459.104248046875 -1463.076171875 -1466.390869140625 -1469.980712890625 -1476.502685546875 -1485.4820556640625 -1496.0135498046875 -1506.2091064453125 -1515.9541015625 -1525.3936767578125 -1534.5306396484375 -1543.7957763671875 -1552.866455078125 -1561.9058837890625 -99999 -99999 -99999 -99999 -99999 -99999 -99999 -99999 -99999 -99999 -99999 -99999 -99999 -99999 -99999 -99999 -99999 -99999 -99999 -99999 -99999 -99999 -99999 -99999 -99999 -99999 -99999 -99999 -99999 -99999 -99999 -99999 -99999 -99999 -99999 -99999 -99999 -99999 -99999 -99999 -99999 -99999 -99999 -99999 -99999 -99999 -99999 -99999 -99999 -99999 -99999 -99999 -99999 -99999 -99999 -99999 -99999 -99999 -99999 -99999 -99999 -99999 -99999 -99999 -99999 -99999 -99999 -99999 -99999 -99999 -99999 -99999 -99999 -99999 -99999 -99999 -99999 -99999 -99999 -99999 -99999 -99999 -99999 -99999 -99999 -99999 -99999 -99999 -99999 -99999 -99999 -99999 -99999 -99999 -99999 -99999 -99999 -99999 -99999
 -99999 -2058.25732421875 -2057.95703125 -2057.953369140625 -2057.946044921875 -2057.411865234375 -2054.883056640625 -2051.722900390625 -2047.9329833984375 -2043.38720703125 -2038.2158203125 -2031.9312744140625 -2024.193603515625 -2015.1064453125 -2004.9925537109375 -1993.8951416015625 -1982.1402587890625 -1968.9677734375 -1954.369140625 -1938.4580078125 -1920.9493408203125 -1902.79296875 -1884.333984375 -1865.9022216796875 -1847.6552734375 -1829.8565673828125 -1812.3948974609375 -1795.5177001953125 -1779.2930908203125 -1763.6978759765625 -1749.197265625 -1735.4210205078125 -1722.5186767578125 -1710.6195068359375 -1699.568359375 -1689.2845458984375 -1679.948974609375 -1671.23486328125 -1663.4600830078125 -1656.602783203125 -1650.4873046875 -1645.20458984375 -1640.621826171875 -1637.0318603515625 -1634.121826171875 -1631.845458984375 -1630.1431884765625 -1628.9635009765625 -1628.103759765625 -1627.002197265625 -1625.2265625 -1621.3983154296875 -1612.734130859375 -1597.8275146484375 -1573.1651611328125 -1550.6336669921875 -1535.973388671875 -1529.6650390625 -1525.66552734375 -1522.9649658203125 -1520.332275390625 -1517.389892578125 -1514.241455078125 -1510.707763671875 -1506.739990234375 -1502.4149169921875 -1497.864501953125 -1493.0830078125 -1488.1011962890625 -1482.9833984375 -1477.791259765625 -1472.551025390625 -1467.31787109375 -1462.1158447265625 -1456.9820556640625 -1451.9342041015625 -1447.02587890625 -1442.322265625 -1437.7957763671875 -1433.5233154296875 -1429.5634765625 -1425.8753662109375 -1422.537353515625 -1419.47314453125 -1416.8331298828125 -1414.5382080078125 -1412.5361328125 -1410.79833984375 -1409.2823486328125 -1407.8544921875 -1406.2119140625 -1404.2178955078125 -1401.9273681640625 -1399.845458984375 -1398.0743408203125 -1396.580322265625 -1395.2598876953125 -1394.2064208984375 -1393.546630859375 -1393.4019775390625 -1393.8673095703125 -1394.910400390625 -1396.1845703125 -1397.8162841796875 -1399.9017333984375 -1402.5291748046875 -1405.8289794921875 -1409.4984130859375 -1413.7120361328125 -1418.4244384765625 -1423.52587890625 -1428.977294921875 -1434.6044921875 -1440.3310546875 -1445.86328125 -1450.92041015625 -1455.3629150390625 -1459.2979736328125 -1462.743896484375 -1466.1358642578125 -1471.346923828125 -1483.7860107421875 -1495.556640625 -1505.4493408203125 -1514.7896728515625 -1523.8663330078125 -1532.8079833984375 -1541.5780029296875 -99999 -99999 -99999 -99999 -99999 -99999 -99999 -99999 -99999 -99999 -99999 -99999 -99999 -99999 -99999 -99999 -99999 -99999 -99999 -99999 -99999 -99999 -99999 -99999 -99999 -99999 -99999 -99999 -99999 -99999 -99999 -99999 -99999 -99999 -99999 -99999 -99999 -99999 -99999 -99999 -99999 -99999 -99999 -99999 -99999 -99999 -99999 -99999 -99999 -99999 -99999 -99999 -99999 -99999 -99999 -99999 -99999 -99999 -99999 -99999 -99999 -99999 -99999 -99999 -99999 -99999 -99999 -99999 -99999 -99999 -99999 -99999 -99999 -99999 -99999 -99999 -99999 -99999 -99999 -99999 -99999 -99999 -99999 -99999 -99999 -99999 -99999 -99999 -99999 -99999 -99999 -99999 -99999 -99999 -99999 -99999 -99999 -99999 -99999 -99999 -99999
 -99999 -2053.48876953125 -2052.99365234375 -2053.0517578125 -2052.946533203125 -2051.80517578125 -2049.721923828125 -2046.6295166015625 -2042.8421630859375 -2038.14013671875 -2032.5751953125 -2026.2222900390625 -2018.34521484375 -2009.336181640625 -1999.32666015625 -1988.375 -1976.27392578125 -1963.0751953125 -1948.572021484375 -1932.8089599609375 -1915.89306640625 -1898.1915283203125 -1880.266845703125 -1862.2008056640625 -1844.3585205078125 -1826.67822265625 -1809.4400634765625 -1792.80322265625 -1776.7249755859375 -1761.3720703125 -1746.8583984375 -1733.23583984375 -1720.47216796875 -1708.4033203125 -1697.36376953125 -1687.0556640625 -1677.5135498046875 -1668.8221435546875 -1661.0198974609375 -1653.877685546875 -1647.6348876953125 -1642.2646484375 -1637.5865478515625 -1633.5828857421875 -1630.23291015625 -1627.6707763671875 -1625.591064453125 -1624.0880126953125 -1622.737548828125 -1621.0980224609375 -1618.4296875 -1613.7974853515625 -1604.828369140625 -1588.551513671875 -1568.7244873046875 -1549.474853515625 -1535.17578125 -1526.7120361328125 -1521.0343017578125 -1516.5899658203125 -1512.8250732421875 -1509.219970703125 -1505.5948486328125 -1501.5980224609375 -1497.3944091796875 -1492.926513671875 -1488.2076416015625 -1483.28369140625 -1478.214599609375 -1473.032470703125 -1467.787109375 -1462.4879150390625 -1457.197021484375 -1451.94775390625 -1446.7894287109375 -1441.7496337890625 -1436.86083984375 -1432.176513671875 -1427.7479248046875 -1423.5682373046875 -1419.71435546875 -1416.162841796875 -1413.0703125 -1410.3548583984375 -1408.01708984375 -1406.0667724609375 -1404.487060546875 -1403.2813720703125 -1402.4573974609375 -1401.8939208984375 -1401.05712890625 -1399.5836181640625 -1397.587158203125 -1395.63623046875 -1394.1417236328125 -1392.96826171875 -1392.073486328125 -1391.478759765625 -1391.237060546875 -1391.658203125 -1392.623291015625 -1393.851318359375 -1395.0791015625 -1396.508056640625 -1398.5538330078125 -1401.1160888671875 -1404.162353515625 -1407.810302734375 -1411.8974609375 -1416.40234375 -1421.33544921875 -1426.6109619140625 -1432.0419921875 -1437.485107421875 -1442.85888671875 -1447.9959716796875 -1452.670654296875 -1457.1614990234375 -1461.3624267578125 -1466.569580078125 -1474.341796875 -1485.252197265625 -1496.1837158203125 -1505.3531494140625 -1514.0595703125 -1522.6734619140625 -1531.1019287109375 -99999 -99999 -99999 -99999 -99999 -99999 -99999 -99999 -99999 -99999 -99999 -99999 -99999 -99999 -99999 -99999 -99999 -99999 -99999 -99999 -99999 -99999 -99999 -99999 -99999 -99999 -99999 -99999 -99999 -99999 -99999 -99999 -99999 -99999 -99999 -99999 -99999 -99999 -99999 -99999 -99999 -99999 -99999 -99999 -99999 -99999 -99999 -99999 -99999 -99999 -99999 -99999 -99999 -99999 -99999 -99999 -99999 -99999 -99999 -99999 -99999 -99999 -99999 -99999 -99999 -99999 -99999 -99999 -99999 -99999 -99999 -99999 -99999 -99999 -99999 -99999 -99999 -99999 -99999 -99999 -99999 -99999 -99999 -99999 -99999 -99999 -99999 -99999 -99999 -99999 -99999 -99999 -99999 -99999 -99999 -99999 -99999 -99999 -99999 -99999 -99999 -99999
 -99999 -99999 -99999 -2048.135009765625 -2047.45947265625 -2046.2293701171875 -2044.0596923828125 -2040.901611328125 -2036.9129638671875 -2032.2332763671875 -2026.5716552734375 -2019.8599853515625 -2012.005615234375 -2003.0693359375 -1992.9644775390625 -1982.1197509765625 -1969.8223876953125 -1956.497802734375 -1942.200439453125 -1926.6265869140625 -1910.193115234375 -1893.143310546875 -1875.6759033203125 -1858.0791015625 -1840.5364990234375 -1823.2950439453125 -1806.3812255859375 -1789.9918212890625 -1774.13818359375 -1758.924560546875 -1744.6318359375 -1730.99462890625 -1718.110595703125 -1706.21240234375 -1695.017822265625 -1684.6728515625 -1675.1075439453125 -1666.34521484375 -1658.3880615234375 -1651.2579345703125 -1644.7822265625 -1639.0386962890625 -1634.06884765625 -1629.802978515625 -1626.0750732421875 -1622.9168701171875 -1620.252197265625 -1617.935546875 -1615.9508056640625 -1613.9178466796875 -1610.6519775390625 -1604.35107421875 -1594.4521484375 -1580.8514404296875 -1564.4345703125 -1548.4141845703125 -1534.6240234375 -1524.874755859375 -1517.16650390625 -1511.4647216796875 -1506.7362060546875 -1502.174560546875 -1497.75830078125 -1493.32177734375 -1488.7186279296875 -1483.9119873046875 -1478.9896240234375 -1473.905029296875 -1468.696044921875 -1463.383544921875 -1458.016845703125 -1452.6611328125 -1447.3004150390625 -1441.983154296875 -1436.804443359375 -1431.7430419921875 -1426.86181640625 -1422.19580078125 -1417.8062744140625 -1413.6898193359375 -1409.9781494140625 -1406.5791015625 -1403.65869140625 -1401.1964111328125 -1399.2423095703125 -1397.64453125 -1396.46484375 -1395.74560546875 -1395.47900390625 -1395.578369140625 -1395.815185546875 -1394.755615234375 -1392.9412841796875 -1391.357421875 -1390.110107421875 -1389.2000732421875 -1388.588623046875 -1388.462646484375 -1388.7398681640625 -1389.4342041015625 -1390.574462890625 -1392.0244140625 -1393.3525390625 -1394.91259765625 -1396.86572265625 -1399.359619140625 -1402.41796875 -1405.9078369140625 -1409.929931640625 -1414.392578125 -1419.2078857421875 -1424.27197265625 -1429.56298828125 -1434.9368896484375 -1440.2620849609375 -1445.5260009765625 -1450.6695556640625 -1455.8154296875 -1461.44775390625 -1467.7908935546875 -1476.26123046875 -1486.7481689453125 -1496.5416259765625 -1505.00537109375 -1513.16162109375 -99999 -99999 -99999 -99999 -99999 -99999 -99999 -99999 -99999 -99999 -99999 -99999 -99999 -99999 -99999 -99999 -99999 -99999 -99999 -99999 -99999 -99999 -99999 -99999 -99999 -99999 -99999 -99999 -99999 -99999 -99999 -99999 -99999 -99999 -99999 -99999 -99999 -99999 -99999 -99999 -99999 -99999 -99999 -99999 -99999 -99999 -99999 -99999 -99999 -99999 -99999 -99999 -99999 -99999 -99999 -99999 -99999 -99999 -99999 -99999 -99999 -99999 -99999 -99999 -99999 -99999 -99999 -99999 -99999 -99999 -99999 -99999 -99999 -99999 -99999 -99999 -99999 -99999 -99999 -99999 -99999 -99999 -99999 -99999 -99999 -99999 -99999 -99999 -99999 -99999 -99999 -99999 -99999 -99999 -99999 -99999 -99999 -99999 -99999 -99999 -99999 -99999 -99999 -99999
 -99999 -99999 -99999 -99999 -99999 -2040.3155517578125 -2037.8680419921875 -2034.7208251953125 -2030.692138671875 -2025.828857421875 -2019.7900390625 -2012.97509765625 -2005.057861328125 -1995.9976806640625 -1986.111572265625 -1974.9349365234375 -1962.7884521484375 -1949.7218017578125 -1935.5087890625 -1920.306884765625 -1904.3153076171875 -1887.726806640625 -1870.722900390625 -1853.507080078125 -1836.479248046875 -1819.5355224609375 -1802.91357421875 -1786.8365478515625 -1771.23974609375 -1756.283447265625 -1742.0654296875 -1728.533447265625 -1715.795654296875 -1703.8519287109375 -1692.6839599609375 -1682.3421630859375 -1672.642822265625 -1663.8597412109375 -1655.728271484375 -1648.3326416015625 -1641.7010498046875 -1635.7691650390625 -1630.4462890625 -1625.706298828125 -1621.5404052734375 -1617.6673583984375 -1614.0916748046875 -1611.033935546875 -1608.34423828125 -1605.5550537109375 -1601.4697265625 -1594.907470703125 -1585.6905517578125 -1573.6715087890625 -1559.3092041015625 -1545.1064453125 -1532.685791015625 -1522.388916015625 -1514.0477294921875 -1507.1163330078125 -1501.0662841796875 -1495.7691650390625 -1490.6982421875 -1485.564208984375 -1480.5972900390625 -1475.4879150390625 -1470.23974609375 -1464.91455078125 -1459.5284423828125 -1454.1053466796875 -1448.5926513671875 -1443.095458984375 -1437.66943359375 -1432.2882080078125 -1427.0284423828125 -1421.9300537109375 -1417.0692138671875 -1412.4141845703125 -1408.038818359375 -1403.9609375 -1400.3671875 -1397.1580810546875 -1394.454833984375 -1392.209228515625 -1390.4212646484375 -1389.1878662109375 -1388.4073486328125 -1388.0035400390625 -1387.9813232421875 -1388.3873291015625 -1388.9591064453125 -1388.7752685546875 -1387.6978759765625 -1386.4791259765625 -1385.593017578125 -1385.1220703125 -1384.9974365234375 -1385.169677734375 -1385.6920166015625 -1386.631103515625 -1387.9478759765625 -1389.4383544921875 -1391.01806640625 -1392.7352294921875 -1394.853759765625 -1397.4420166015625 -1400.4466552734375 -1403.9654541015625 -1407.9161376953125 -1412.2471923828125 -1416.9830322265625 -1422.002197265625 -1427.2197265625 -1432.57958984375 -1438.0330810546875 -1443.4947509765625 -1449.1798095703125 -1454.911376953125 -1461.124755859375 -1468.49755859375 -1477.0330810546875 -1486.203369140625 -1495.3936767578125 -99999 -99999 -99999 -99999 -99999 -99999 -99999 -99999 -99999 -99999 -99999 -99999 -99999 -99999 -99999 -99999 -99999 -99999 -99999 -99999 -99999 -99999 -99999 -99999 -99999 -99999 -99999 -99999 -99999 -99999 -99999 -99999 -99999 -99999 -99999 -99999 -99999 -99999 -99999 -99999 -99999 -99999 -99999 -99999 -99999 -99999 -99999 -99999 -99999 -99999 -99999 -99999 -99999 -99999 -99999 -99999 -99999 -99999 -99999 -99999 -99999 -99999 -99999 -99999 -99999 -99999 -99999 -99999 -99999 -99999 -99999 -99999 -99999 -99999 -99999 -99999 -99999 -99999 -99999 -99999 -99999 -99999 -99999 -99999 -99999 -99999 -99999 -99999 -99999 -99999 -99999 -99999 -99999 -99999 -99999 -99999 -99999 -99999 -99999 -99999 -99999 -99999 -99999 -99999 -99999 -99999
 -99999 -99999 -99999 -99999 -99999 -99999 -2031.5440673828125 -2028.1597900390625 -2023.8935546875 -2018.661376953125 -2012.631591796875 -2005.605712890625 -1997.574951171875 -1988.61376953125 -1978.662841796875 -1967.427978515625 -1955.373291015625 -1942.35400390625 -1928.3076171875 -1913.510498046875 -1897.971923828125 -1881.7093505859375 -1865.2452392578125 -1848.633544921875 -1831.91943359375 -1815.431884765625 -1799.1669921875 -1783.4169921875 -1768.1519775390625 -1753.3529052734375 -1739.3543701171875 -1725.986328125 -1713.2608642578125 -1701.4193115234375 -1690.2205810546875 -1679.791259765625 -1670.048828125 -1661.166259765625 -1652.94677734375 -1645.386962890625 -1638.470703125 -1632.1982421875 -1626.5513916015625 -1621.416259765625 -1616.73583984375 -1612.4056396484375 -1608.232421875 -1604.013671875 -1599.894775390625 -1596.6552734375 -1592.2462158203125 -1585.7275390625 -1576.956298828125 -1565.98828125 -1553.81103515625 -1541.52587890625 -1529.68017578125 -1519.367431640625 -1510.335693359375 -1502.7664794921875 -1496.07421875 -1489.9193115234375 -1484.109619140625 -1478.52685546875 -1472.9481201171875 -1467.4398193359375 -1461.94970703125 -1456.4176025390625 -1450.790283203125 -1445.1434326171875 -1439.5029296875 -1433.858154296875 -1428.27880859375 -1422.840087890625 -1417.5487060546875 -1412.4227294921875 -1407.481201171875 -1402.8271484375 -1398.5294189453125 -1394.5697021484375 -1391.027587890625 -1387.9095458984375 -1385.2744140625 -1383.2578125 -1381.8189697265625 -1380.854248046875 -1380.271484375 -1380.0623779296875 -1380.3101806640625 -1380.90283203125 -1381.5775146484375 -1381.8021240234375 -1381.4949951171875 -1381.1697998046875 -1380.904541015625 -1380.7884521484375 -1380.9637451171875 -1381.4500732421875 -1382.3289794921875 -1383.47021484375 -1384.8897705078125 -1386.491943359375 -1388.26171875 -1390.273193359375 -1392.55517578125 -1395.2171630859375 -1398.28515625 -1401.79638671875 -1405.77294921875 -1410.068603515625 -1414.74755859375 -1419.7086181640625 -1424.94189453125 -1430.34521484375 -1435.8968505859375 -1441.6654052734375 -1447.630859375 -1453.9075927734375 -1460.7628173828125 -1468.2584228515625 -1476.5535888671875 -99999 -99999 -99999 -99999 -99999 -99999 -99999 -99999 -99999 -99999 -99999 -99999 -99999 -99999 -99999 -99999 -99999 -99999 -99999 -99999 -99999 -99999 -99999 -99999 -99999 -99999 -99999 -99999 -99999 -99999 -99999 -99999 -99999 -99999 -99999 -99999 -99999 -99999 -99999 -99999 -99999 -99999 -99999 -99999 -99999 -99999 -99999 -99999 -99999 -99999 -99999 -99999 -99999 -99999 -99999 -99999 -99999 -99999 -99999 -99999 -99999 -99999 -99999 -99999 -99999 -99999 -99999 -99999 -99999 -99999 -99999 -99999 -99999 -99999 -99999 -99999 -99999 -99999 -99999 -99999 -99999 -99999 -99999 -99999 -99999 -99999 -99999 -99999 -99999 -99999 -99999 -99999 -99999 -99999 -99999 -99999 -99999 -99999 -99999 -99999 -99999 -99999 -99999 -99999 -99999 -99999 -99999 -99999
 -99999 -99999 -99999 -99999 -99999 -99999 -99999 -99999 -2016.5535888671875 -2011.15478515625 -2004.968994140625 -1997.75439453125 -1989.72607421875 -1980.7696533203125 -1970.564208984375 -1959.6121826171875 -1947.614013671875 -1934.783203125 -1921.014892578125 -1906.499267578125 -1891.3330078125 -1875.67041015625 -1859.6239013671875 -1843.3817138671875 -1827.1888427734375 -1811.058349609375 -1795.2923583984375 -1779.78515625 -1764.7232666015625 -1750.298095703125 -1736.4351806640625 -1723.1500244140625 -1710.59716796875 -1698.7952880859375 -1687.622802734375 -1677.1368408203125 -1667.392822265625 -1658.3448486328125 -1649.9295654296875 -1642.250732421875 -1635.1614990234375 -1628.637451171875 -1622.67529296875 -1617.169921875 -1612.0340576171875 -1607.113037109375 -1602.4598388671875 -1597.6630859375 -1592.9964599609375 -1588.6097412109375 -1583.746826171875 -1577.2174072265625 -1568.916748046875 -1559.119140625 -1548.0439453125 -1536.61279296875 -1525.780517578125 -1515.5609130859375 -1506.427978515625 -1498.271728515625 -1491.0040283203125 -1484.2091064453125 -1477.7613525390625 -1471.6962890625 -1465.792236328125 -1459.960205078125 -1454.0977783203125 -1448.2452392578125 -1442.3936767578125 -1436.5101318359375 -1430.6793212890625 -1424.927001953125 -1419.2738037109375 -1413.725830078125 -1408.3138427734375 -1403.145751953125 -1398.2430419921875 -1393.610595703125 -1389.3458251953125 -1385.3858642578125 -1381.838623046875 -1378.8211669921875 -1376.366455078125 -1374.55078125 -1373.31787109375 -1372.626220703125 -1372.3740234375 -1372.3079833984375 -1372.7513427734375 -1373.5174560546875 -1374.3306884765625 -1375.001708984375 -1375.3306884765625 -1375.474853515625 -1375.6768798828125 -1376.038330078125 -1376.6802978515625 -1377.5072021484375 -1378.5933837890625 -1379.9296875 -1381.5416259765625 -1383.32763671875 -1385.3079833984375 -1387.48681640625 -1389.9217529296875 -1392.742431640625 -1395.9228515625 -1399.5072021484375 -1403.4832763671875 -1407.7889404296875 -1412.4547119140625 -1417.41455078125 -1422.65380859375 -1428.15869140625 -1433.8822021484375 -1439.819091796875 -1446.07666015625 -99999 -99999 -99999 -99999 -99999 -99999 -99999 -99999 -99999 -99999 -99999 -99999 -99999 -99999 -99999 -99999 -99999 -99999 -99999 -99999 -99999 -99999 -99999 -99999 -99999 -99999 -99999 -99999 -99999 -99999 -99999 -99999 -99999 -99999 -99999 -99999 -99999 -99999 -99999 -99999 -99999 -99999 -99999 -99999 -99999 -99999 -99999 -99999 -99999 -99999 -99999 -99999 -99999 -99999 -99999 -99999 -99999 -99999 -99999 -99999 -99999 -99999 -99999 -99999 -99999 -99999 -99999 -99999 -99999 -99999 -99999 -99999 -99999 -99999 -99999 -99999 -99999 -99999 -99999 -99999 -99999 -99999 -99999 -99999 -99999 -99999 -99999 -99999 -99999 -99999 -99999 -99999 -99999 -99999 -99999 -99999 -99999 -99999 -99999 -99999 -99999 -99999 -99999 -99999 -99999 -99999 -99999 -99999 -99999 -99999 -99999 -99999
 -99999 -99999 -99999 -99999 -99999 -99999 -99999 -99999 -99999 -99999 -1997.0379638671875 -1989.6849365234375 -1981.627685546875 -1972.44482421875 -1962.3673095703125 -1951.31982421875 -1939.568115234375 -1926.897216796875 -1913.3428955078125 -1899.1622314453125 -1884.391357421875 -1869.1427001953125 -1853.5447998046875 -1837.8280029296875 -1822.0584716796875 -1806.4415283203125 -1790.94873046875 -1775.8336181640625 -1761.148193359375 -1746.8994140625 -1733.2437744140625 -1720.234130859375 -1707.7030029296875 -1695.94287109375 -1684.861083984375 -1674.33837890625 -1664.55078125 -1655.4559326171875 -1646.909912109375 -1638.975341796875 -1631.6307373046875 -1624.910400390625 -1618.6221923828125 -1612.7666015625 -1607.3153076171875 -1602.1072998046875 -1597.0478515625 -1591.872802734375 -1586.666259765625 -1581.6124267578125 -1575.993408203125 -1569.120361328125 -1561.203369140625 -1551.960693359375 -1541.858154296875 -1531.3096923828125 -1520.95947265625 -1511.1419677734375 -1502.014404296875 -1493.5487060546875 -1485.824951171875 -1478.635986328125 -1471.8240966796875 -1465.281494140625 -1458.9378662109375 -1452.7330322265625 -1446.5975341796875 -1440.4320068359375 -1434.3397216796875 -1428.28759765625 -1422.2767333984375 -1416.354248046875 -1410.5577392578125 -1404.9027099609375 -1399.4522705078125 -1394.2618408203125 -1389.3643798828125 -1384.716064453125 -1380.4088134765625 -1376.5223388671875 -1373.09814453125 -1370.120361328125 -1367.6788330078125 -1365.90673828125 -1365.0341796875 -1364.79931640625 -1364.7757568359375 -1364.9163818359375 -1365.4736328125 -1366.3966064453125 -1367.364013671875 -1368.2412109375 -1368.9830322265625 -1369.7010498046875 -1370.4071044921875 -1371.1705322265625 -1372.092529296875 -1373.20458984375 -1374.595947265625 -1376.186767578125 -1377.965087890625 -1379.92578125 -1382.060791015625 -1384.4736328125 -1387.132568359375 -1390.0848388671875 -1393.3564453125 -1396.9708251953125 -1400.98828125 -1405.40625 -1410.03515625 -1415.0543212890625 -99999 -99999 -99999 -99999 -99999 -99999 -99999 -99999 -99999 -99999 -99999 -99999 -99999 -99999 -99999 -99999 -99999 -99999 -99999 -99999 -99999 -99999 -99999 -99999 -99999 -99999 -99999 -99999 -99999 -99999 -99999 -99999 -99999 -99999 -99999 -99999 -99999 -99999 -99999 -99999 -99999 -99999 -99999 -99999 -99999 -99999 -99999 -99999 -99999 -99999 -99999 -99999 -99999 -99999 -99999 -99999 -99999 -99999 -99999 -99999 -99999 -99999 -99999 -99999 -99999 -99999 -99999 -99999 -99999 -99999 -99999 -99999 -99999 -99999 -99999 -99999 -99999 -99999 -99999 -99999 -99999 -99999 -99999 -99999 -99999 -99999 -99999 -99999 -99999 -99999 -99999 -99999 -99999 -99999 -99999 -99999 -99999 -99999 -99999 -99999 -99999 -99999 -99999 -99999 -99999 -99999 -99999 -99999 -99999 -99999 -99999 -99999 -99999 -99999 -99999 -99999 -99999
 -99999 -99999 -99999 -99999 -99999 -99999 -99999 -99999 -99999 -99999 -99999 -1981.3631591796875 -1972.9971923828125 -1963.804931640625 -1953.7728271484375 -1942.989013671875 -1931.3321533203125 -1918.817626953125 -1905.6195068359375 -1891.7642822265625 -1877.372314453125 -1862.4949951171875 -1847.38232421875 -1832.106689453125 -1816.745361328125 -1801.4495849609375 -1786.44140625 -1771.6685791015625 -1757.2232666015625 -1743.351318359375 -1729.9208984375 -1716.935302734375 -1704.712646484375 -1692.9893798828125 -1681.851318359375 -1671.37744140625 -1661.58984375 -1652.2933349609375 -1643.669921875 -1635.6572265625 -1628.099853515625 -1621.1298828125 -1614.6026611328125 -1608.451904296875 -1602.630615234375 -1597.0496826171875 -1591.62548828125 -1586.22265625 -1580.6702880859375 -1574.9290771484375 -1568.7169189453125 -1561.879638671875 -1553.9957275390625 -1545.065185546875 -1535.6134033203125 -1525.679931640625 -1515.8197021484375 -1506.305908203125 -1497.1260986328125 -1488.6630859375 -1480.657470703125 -1473.07373046875 -1465.9156494140625 -1459.0740966796875 -1452.42919921875 -1445.8541259765625 -1439.41357421875 -1433.0216064453125 -1426.6776123046875 -1420.3863525390625 -1414.2213134765625 -1408.1336669921875 -1402.19091796875 -1396.476806640625 -1390.9832763671875 -1385.7115478515625 -1380.73095703125 -1376.19287109375 -1372.0093994140625 -1368.1778564453125 -1364.7266845703125 -1361.6778564453125 -1359.2388916015625 -1357.4998779296875 -1356.7962646484375 -1356.974609375 -1357.3646240234375 -1357.77099609375 -1358.4825439453125 -1359.5037841796875 -1360.631103515625 -1361.7667236328125 -1362.855224609375 -1363.8916015625 -1364.9521484375 -1366.0740966796875 -1367.3785400390625 -1368.810791015625 -1370.414794921875 -1372.19384765625 -1374.15283203125 -1376.3438720703125 -1378.725341796875 -1381.2803955078125 -1384.0751953125 -1387.16064453125 -1390.6005859375 -1394.357177734375 -99999 -99999 -99999 -99999 -99999 -99999 -99999 -99999 -99999 -99999 -99999 -99999 -99999 -99999 -99999 -99999 -99999 -99999 -99999 -99999 -99999 -99999 -99999 -99999 -99999 -99999 -99999 -99999 -99999 -99999 -99999 -99999 -99999 -99999 -99999 -99999 -99999 -99999 -99999 -99999 -99999 -99999 -99999 -99999 -99999 -99999 -99999 -99999 -99999 -99999 -99999 -99999 -99999 -99999 -99999 -99999 -99999 -99999 -99999 -99999 -99999 -99999 -99999 -99999 -99999 -99999 -99999 -99999 -99999 -99999 -99999 -99999 -99999 -99999 -99999 -99999 -99999 -99999 -99999 -99999 -99999 -99999 -99999 -99999 -99999 -99999 -99999 -99999 -99999 -99999 -99999 -99999 -99999 -99999 -99999 -99999 -99999 -99999 -99999 -99999 -99999 -99999 -99999 -99999 -99999 -99999 -99999 -99999 -99999 -99999 -99999 -99999 -99999 -99999 -99999 -99999 -99999 -99999 -99999 -99999 -99999
 -99999 -99999 -99999 -99999 -99999 -99999 -99999 -99999 -99999 -99999 -99999 -99999 -99999 -99999 -1945.086669921875 -1934.5262451171875 -1922.8438720703125 -1910.513427734375 -1897.599365234375 -1884.075927734375 -1870.02099609375 -1855.6065673828125 -1840.921142578125 -1826.07861328125 -1811.17626953125 -1796.3404541015625 -1781.6751708984375 -1767.212158203125 -1753.1707763671875 -1739.4722900390625 -1726.212158203125 -1713.4697265625 -1701.335205078125 -1689.713134765625 -1678.78173828125 -1668.1953125 -1658.3890380859375 -1649.1231689453125 -1640.4051513671875 -1632.0943603515625 -1624.3638916015625 -99999 -99999 -99999 -99999 -1592.074462890625 -1586.3408203125 -1580.6063232421875 -1574.656494140625 -1568.5616455078125 -1561.9591064453125 -1554.746826171875 -1546.826416015625 -1538.341552734375 -1529.1697998046875 -1519.7308349609375 -1510.2725830078125 -1500.9412841796875 -1491.9835205078125 -1483.40087890625 -1475.3516845703125 -1467.6025390625 -1460.1927490234375 -1453.0421142578125 -1446.1053466796875 -1439.2906494140625 -1432.5665283203125 -1425.9510498046875 -1419.388427734375 -1412.92041015625 -1406.5382080078125 -1400.297119140625 -1394.2442626953125 -1388.364501953125 -1382.7843017578125 -1377.5472412109375 -1372.6612548828125 -1368.1326904296875 -1363.964599609375 -1360.2042236328125 -1356.86767578125 -1353.9522705078125 -1351.4371337890625 -1349.514892578125 -1348.7052001953125 -1349.1400146484375 -1349.866455078125 -1350.676513671875 -1351.6605224609375 -1352.8134765625 -1354.1002197265625 -1355.4398193359375 -1356.83935546875 -1358.177490234375 -1359.58447265625 -1361.032470703125 -1362.5517578125 -1364.230224609375 -1366.059326171875 -1368.0833740234375 -1370.2674560546875 -1372.617919921875 -1375.1439208984375 -99999 -99999 -99999 -99999 -99999 -99999 -99999 -99999 -99999 -99999 -99999 -99999 -99999 -99999 -99999 -99999 -99999 -99999 -99999 -99999 -99999 -99999 -99999 -99999 -99999 -99999 -99999 -99999 -99999 -99999 -99999 -99999 -99999 -99999 -99999 -99999 -99999 -99999 -99999 -99999 -99999 -99999 -99999 -99999 -99999 -99999 -99999 -99999 -99999 -99999 -99999 -99999 -99999 -99999 -99999 -99999 -99999 -99999 -99999 -99999 -99999 -99999 -99999 -99999 -99999 -99999 -99999 -99999 -99999 -99999 -99999 -99999 -99999 -99999 -99999 -99999 -99999 -99999 -99999 -99999 -99999 -99999 -99999 -99999 -99999 -99999 -99999 -99999 -99999 -99999 -99999 -99999 -99999 -99999 -99999 -99999 -99999 -99999 -99999 -99999 -99999 -99999 -99999 -99999 -99999 -99999 -99999 -99999 -99999 -99999 -99999 -99999 -99999 -99999 -99999 -99999 -99999 -99999 -99999 -99999 -99999 -99999 -99999 -99999 -99999 -99999
 -99999 -99999 -99999 -99999 -99999 -99999 -99999 -99999 -99999 -99999 -99999 -99999 -99999 -99999 -99999 -99999 -99999 -99999 -99999 -99999 -99999 -99999 -99999 -99999 -99999 -99999 -99999 -99999 -1748.7542724609375 -1735.403564453125 -1722.4273681640625 -1709.844970703125 -1697.8792724609375 -1686.3731689453125 -1675.3314208984375 -1664.9727783203125 -99999 -99999 -99999 -99999 -99999 -99999 -99999 -99999 -99999 -99999 -99999 -1574.9093017578125 -1568.6932373046875 -1562.185791015625 -1555.3138427734375 -1548.0072021484375 -1540.109375 -1531.6959228515625 -1522.78466796875 -1513.632080078125 -1504.47998046875 -1495.42529296875 -1486.590087890625 -1478.127197265625 -1469.9139404296875 -1462.028564453125 -1454.4976806640625 -1447.1634521484375 -1440.0166015625 -1433.0059814453125 -1426.0819091796875 -1419.238037109375 -1412.4647216796875 -1405.814208984375 -1399.21044921875 -1392.8284912109375 -1386.626708984375 -1380.6868896484375 -1375.0838623046875 -1369.7911376953125 -1364.893798828125 -1360.4237060546875 -1356.408203125 -1352.9097900390625 -1349.78662109375 -1346.9769287109375 -1344.447021484375 -1342.1285400390625 -1341.1202392578125 -1341.7705078125 -1342.8096923828125 -1343.8822021484375 -1345.0562744140625 -1346.3909912109375 -1347.8446044921875 -1349.36474609375 -1350.9306640625 -1352.5081787109375 -1354.144775390625 -1355.9033203125 -1357.7012939453125 -1359.6522216796875 -1361.6737060546875 -1363.864501953125 -99999 -99999 -99999 -99999 -99999 -99999 -99999 -99999 -99999 -99999 -99999 -99999 -99999 -99999 -99999 -99999 -99999 -99999 -99999 -99999 -99999 -99999 -99999 -99999 -99999 -99999 -99999 -99999 -99999 -99999 -99999 -99999 -99999 -99999 -99999 -99999 -99999 -99999 -99999 -99999 -99999 -99999 -99999 -99999 -99999 -99999 -99999 -99999 -99999 -99999 -99999 -99999 -99999 -99999 -99999 -99999 -99999 -99999 -99999 -99999 -99999 -99999 -99999 -99999 -99999 -99999 -99999 -99999 -99999 -99999 -99999 -99999 -99999 -99999 -99999 -99999 -99999 -99999 -99999 -99999 -99999 -99999 -99999 -99999 -99999 -99999 -99999 -99999 -99999 -99999 -99999 -99999 -99999 -99999 -99999 -99999 -99999 -99999 -99999 -99999 -99999 -99999 -99999 -99999 -99999 -99999 -99999 -99999 -99999 -99999 -99999 -99999 -99999 -99999 -99999 -99999 -99999 -99999 -99999 -99999 -99999 -99999 -99999 -99999 -99999 -99999 -99999 -99999 -99999
 -99999 -99999 -99999 -99999 -99999 -99999 -99999 -99999 -99999 -99999 -99999 -99999 -99999 -99999 -99999 -99999 -99999 -99999 -99999 -99999 -99999 -99999 -99999 -99999 -99999 -99999 -99999 -99999 -99999 -99999 -99999 -99999 -99999 -99999 -99999 -99999 -99999 -99999 -99999 -99999 -99999 -99999 -99999 -99999 -99999 -99999 -99999 -1569.176025390625 -1562.6456298828125 -1555.900146484375 -1548.844970703125 -1541.36865234375 -1533.4569091796875 -1525.0361328125 -1516.3572998046875 -1507.51708984375 -1498.5926513671875 -1489.7274169921875 -1481.0645751953125 -1472.6004638671875 -1464.43701171875 -1456.564208984375 -1448.888916015625 -1441.457763671875 -1434.1611328125 -1426.9713134765625 -1419.87890625 -1412.90185546875 -1405.9400634765625 -1399.0947265625 -1392.3494873046875 -1385.77392578125 -1379.405029296875 -1373.3704833984375 -1367.683349609375 -1362.42041015625 -1357.5394287109375 -1353.2806396484375 -1349.5028076171875 -1346.167236328125 -1343.2532958984375 -1340.6595458984375 -1338.4442138671875 -1336.5252685546875 -1335.4964599609375 -1335.5755615234375 -1336.491455078125 -1337.5941162109375 -1338.87841796875 -1340.3153076171875 -1341.875 -1343.5101318359375 -1345.2349853515625 -1347.029052734375 -1348.8857421875 -1350.8011474609375 -1352.7838134765625 -1354.9698486328125 -99999 -99999 -99999 -99999 -99999 -99999 -99999 -99999 -99999 -99999 -99999 -99999 -99999 -99999 -99999 -99999 -99999 -99999 -99999 -99999 -99999 -99999 -99999 -99999 -99999 -99999 -99999 -99999 -99999 -99999 -99999 -99999 -99999 -99999 -99999 -99999 -99999 -99999 -99999 -99999 -99999 -99999 -99999 -99999 -99999 -99999 -99999 -99999 -99999 -99999 -99999 -99999 -99999 -99999 -99999 -99999 -99999 -99999 -99999 -99999 -99999 -99999 -99999 -99999 -99999 -99999 -99999 -99999 -99999 -99999 -99999 -99999 -99999 -99999 -99999 -99999 -99999 -99999 -99999 -99999 -99999 -99999 -99999 -99999 -99999 -99999 -99999 -99999 -99999 -99999 -99999 -99999 -99999 -99999 -99999 -99999 -99999 -99999 -99999 -99999 -99999 -99999 -99999 -99999 -99999 -99999 -99999 -99999 -99999 -99999 -99999 -99999 -99999 -99999 -99999 -99999 -99999 -99999 -99999 -99999 -99999 -99999 -99999 -99999 -99999 -99999 -99999 -99999 -99999 -99999 -99999
 -99999 -99999 -99999 -99999 -99999 -99999 -99999 -99999 -99999 -99999 -99999 -99999 -99999 -99999 -99999 -99999 -99999 -99999 -99999 -99999 -99999 -99999 -99999 -99999 -99999 -99999 -99999 -99999 -99999 -99999 -99999 -99999 -99999 -99999 -99999 -99999 -99999 -99999 -99999 -99999 -99999 -99999 -99999 -99999 -99999 -99999 -99999 -99999 -1556.66796875 -1549.6260986328125 -1542.4259033203125 -1534.7884521484375 -1526.789306640625 -1518.5489501953125 -1510.025634765625 -1501.3155517578125 -1492.625732421875 -1483.94091796875 -1475.4349365234375 -1467.0823974609375 -1458.963134765625 -1451.055908203125 -1443.384033203125 -1435.8804931640625 -1428.504638671875 -1421.2452392578125 -1414.0478515625 -1406.851318359375 -1399.7882080078125 -1392.7301025390625 -1385.772705078125 -1379.0499267578125 -1372.5965576171875 -1366.4825439453125 -1360.615966796875 -1355.4228515625 -1350.705078125 -1346.509521484375 -1342.901123046875 -1339.759033203125 -1337.177734375 -1334.937255859375 -1332.9527587890625 -1331.2269287109375 -1330.278076171875 -1330.28076171875 -1330.85546875 -1331.84228515625 -1333.123291015625 -1334.5640869140625 -1336.19482421875 -1337.9478759765625 -1339.802490234375 -1341.709228515625 -1343.6964111328125 -1345.81005859375 -1348.0167236328125 -99999 -99999 -99999 -99999 -99999 -99999 -99999 -99999 -99999 -99999 -99999 -99999 -99999 -99999 -99999 -99999 -99999 -99999 -99999 -99999 -99999 -99999 -99999 -99999 -99999 -99999 -99999 -99999 -99999 -99999 -99999 -99999 -99999 -99999 -99999 -99999 -99999 -99999 -99999 -99999 -99999 -99999 -99999 -99999 -99999 -99999 -99999 -99999 -99999 -99999 -99999 -99999 -99999 -99999 -99999 -99999 -99999 -99999 -99999 -99999 -99999 -99999 -99999 -99999 -99999 -99999 -99999 -99999 -99999 -99999 -99999 -99999 -99999 -99999 -99999 -99999 -99999 -99999 -99999 -99999 -99999 -99999 -99999 -99999 -99999 -99999 -99999 -99999 -99999 -99999 -99999 -99999 -99999 -99999 -99999 -99999 -99999 -99999 -99999 -99999 -99999 -99999 -99999 -99999 -99999 -99999 -99999 -99999 -99999 -99999 -99999 -99999 -99999 -99999 -99999 -99999 -99999 -99999 -99999 -99999 -99999 -99999 -99999 -99999 -99999 -99999 -99999 -99999 -99999 -99999 -99999 -99999
 -99999 -99999 -99999 -99999 -99999 -99999 -99999 -99999 -99999 -99999 -99999 -99999 -99999 -99999 -99999 -99999 -99999 -99999 -99999 -99999 -99999 -99999 -99999 -99999 -99999 -99999 -99999 -99999 -99999 -99999 -99999 -99999 -99999 -99999 -99999 -99999 -99999 -99999 -99999 -99999 -99999 -99999 -99999 -99999 -99999 -99999 -99999 -99999 -99999 -1543.46337890625 -1536.0533447265625 -1528.2880859375 -1520.322998046875 -1512.10546875 -1503.7034912109375 -1495.2205810546875 -1486.633056640625 -1478.1636962890625 -1469.75 -1461.5126953125 -1453.4615478515625 -1445.620361328125 -1437.985595703125 -1430.4898681640625 -1423.0911865234375 -1415.780517578125 -1408.4859619140625 -1401.23583984375 -1393.978271484375 -1386.77734375 -1379.6783447265625 -1372.779541015625 -1366.1563720703125 -1359.890380859375 -1354.092041015625 -1348.841796875 -1344.1375732421875 -1339.985595703125 -1336.6331787109375 -1333.8426513671875 -1331.4710693359375 -1329.35400390625 -1327.458984375 -1326.1129150390625 -1325.3138427734375 -1325.1727294921875 -1325.638427734375 -1326.5198974609375 -1327.730712890625 -1329.17919921875 -1330.8326416015625 -1332.635009765625 -1334.546630859375 -1336.582275390625 -1338.7298583984375 -1340.952880859375 -99999 -99999 -99999 -99999 -99999 -99999 -99999 -99999 -99999 -99999 -99999 -99999 -99999 -99999 -99999 -99999 -99999 -99999 -99999 -99999 -99999 -99999 -99999 -99999 -99999 -99999 -99999 -99999 -99999 -99999 -99999 -99999 -99999 -99999 -99999 -99999 -99999 -99999 -99999 -99999 -99999 -99999 -99999 -99999 -99999 -99999 -99999 -99999 -99999 -99999 -99999 -99999 -99999 -99999 -99999 -99999 -99999 -99999 -99999 -99999 -99999 -99999 -99999 -99999 -99999 -99999 -99999 -99999 -99999 -99999 -99999 -99999 -99999 -99999 -99999 -99999 -99999 -99999 -99999 -99999 -99999 -99999 -99999 -99999 -99999 -99999 -99999 -99999 -99999 -99999 -99999 -99999 -99999 -99999 -99999 -99999 -99999 -99999 -99999 -99999 -99999 -99999 -99999 -99999 -99999 -99999 -99999 -99999 -99999 -99999 -99999 -99999 -99999 -99999 -99999 -99999 -99999 -99999 -99999 -99999 -99999 -99999 -99999 -99999 -99999 -99999 -99999 -99999 -99999 -99999 -99999 -99999 -99999
 -99999 -99999 -99999 -99999 -99999 -99999 -99999 -99999 -99999 -99999 -99999 -99999 -99999 -99999 -99999 -99999 -99999 -99999 -99999 -99999 -99999 -99999 -99999 -99999 -99999 -99999 -99999 -99999 -99999 -99999 -99999 -99999 -99999 -99999 -99999 -99999 -99999 -99999 -99999 -99999 -99999 -99999 -99999 -99999 -99999 -99999 -99999 -99999 -99999 -1537.35986328125 -1529.7069091796875 -1521.9407958984375 -1513.9478759765625 -1505.787109375 -1497.479736328125 -1489.0999755859375 -1480.691162109375 -1472.3070068359375 -1464.033203125 -1455.9522705078125 -1447.99853515625 -1440.2569580078125 -1432.7113037109375 -1425.2525634765625 -1417.912109375 -1410.6192626953125 -1403.2821044921875 -1395.9990234375 -1388.62744140625 -1381.2203369140625 -1373.9315185546875 -1366.890869140625 -1360.0994873046875 -1353.7275390625 -1347.9444580078125 -1342.584228515625 -1337.873046875 -1333.829345703125 -1330.683837890625 -1328.0567626953125 -1325.8560791015625 -1323.935302734375 -1322.3349609375 -1321.149169921875 -1320.464111328125 -1320.33447265625 -1320.71875 -1321.531494140625 -1322.70068359375 -1324.11865234375 -1325.754150390625 -1327.578369140625 -1329.55712890625 -1331.66064453125 -1333.8695068359375 -99999 -99999 -99999 -99999 -99999 -99999 -99999 -99999 -99999 -99999 -99999 -99999 -99999 -99999 -99999 -99999 -99999 -99999 -99999 -99999 -99999 -99999 -99999 -99999 -99999 -99999 -99999 -99999 -99999 -99999 -99999 -99999 -99999 -99999 -99999 -99999 -99999 -99999 -99999 -99999 -99999 -99999 -99999 -99999 -99999 -99999 -99999 -99999 -99999 -99999 -99999 -99999 -99999 -99999 -99999 -99999 -99999 -99999 -99999 -99999 -99999 -99999 -99999 -99999 -99999 -99999 -99999 -99999 -99999 -99999 -99999 -99999 -99999 -99999 -99999 -99999 -99999 -99999 -99999 -99999 -99999 -99999 -99999 -99999 -99999 -99999 -99999 -99999 -99999 -99999 -99999 -99999 -99999 -99999 -99999 -99999 -99999 -99999 -99999 -99999 -99999 -99999 -99999 -99999 -99999 -99999 -99999 -99999 -99999 -99999 -99999 -99999 -99999 -99999 -99999 -99999 -99999 -99999 -99999 -99999 -99999 -99999 -99999 -99999 -99999 -99999 -99999 -99999 -99999 -99999 -99999 -99999 -99999 -99999
 -99999 -99999 -99999 -99999 -99999 -99999 -99999 -99999 -99999 -99999 -99999 -99999 -99999 -99999 -99999 -99999 -99999 -99999 -99999 -99999 -99999 -99999 -99999 -99999 -99999 -99999 -99999 -99999 -99999 -99999 -99999 -99999 -99999 -99999 -99999 -99999 -99999 -99999 -99999 -99999 -99999 -99999 -99999 -99999 -99999 -99999 -99999 -99999 -99999 -99999 -1523.5133056640625 -1515.66845703125 -1507.6629638671875 -1499.5433349609375 -1491.339599609375 -1483.025634765625 -1474.74658203125 -1466.512939453125 -1458.396728515625 -1450.3931884765625 -1442.5889892578125 -1434.9935302734375 -1427.4981689453125 -1420.169189453125 -1412.971923828125 -1405.701416015625 -1398.525634765625 -1391.156494140625 -1383.6519775390625 -1376.1224365234375 -1368.6568603515625 -1361.2960205078125 -1354.4580078125 -1347.9720458984375 -1342.0904541015625 -1336.7886962890625 -1332.1220703125 -1328.01708984375 -1324.7459716796875 -1322.4788818359375 -1320.5023193359375 -1318.7696533203125 -1317.34814453125 -1316.3387451171875 -1315.8243408203125 -1315.7701416015625 -1316.129638671875 -1316.859375 -1317.9302978515625 -1319.322998046875 -1320.967041015625 -1322.7919921875 -1324.7752685546875 -99999 -99999 -99999 -99999 -99999 -99999 -99999 -99999 -99999 -99999 -99999 -99999 -99999 -99999 -99999 -99999 -99999 -99999 -99999 -99999 -99999 -99999 -99999 -99999 -99999 -99999 -99999 -99999 -99999 -99999 -99999 -99999 -99999 -99999 -99999 -99999 -99999 -99999 -99999 -99999 -99999 -99999 -99999 -99999 -99999 -99999 -99999 -99999 -99999 -99999 -99999 -99999 -99999 -99999 -99999 -99999 -99999 -99999 -99999 -99999 -99999 -99999 -99999 -99999 -99999 -99999 -99999 -99999 -99999 -99999 -99999 -99999 -99999 -99999 -99999 -99999 -99999 -99999 -99999 -99999 -99999 -99999 -99999 -99999 -99999 -99999 -99999 -99999 -99999 -99999 -99999 -99999 -99999 -99999 -99999 -99999 -99999 -99999 -99999 -99999 -99999 -99999 -99999 -99999 -99999 -99999 -99999 -99999 -99999 -99999 -99999 -99999 -99999 -99999 -99999 -99999 -99999 -99999 -99999 -99999 -99999 -99999 -99999 -99999 -99999 -99999 -99999 -99999 -99999 -99999 -99999 -99999 -99999 -99999 -99999 -99999
 -99999 -99999 -99999 -99999 -99999 -99999 -99999 -99999 -99999 -99999 -99999 -99999 -99999 -99999 -99999 -99999 -99999 -99999 -99999 -99999 -99999 -99999 -99999 -99999 -99999 -99999 -99999 -99999 -99999 -99999 -99999 -99999 -99999 -99999 -99999 -99999 -99999 -99999 -99999 -99999 -99999 -99999 -99999 -99999 -99999 -99999 -99999 -99999 -99999 -99999 -1517.419677734375 -1509.5157470703125 -1501.520263671875 -1493.4407958984375 -1485.2357177734375 -1477.0469970703125 -1468.857421875 -1460.7464599609375 -1452.7266845703125 -1444.868408203125 -1437.2205810546875 -1429.7227783203125 -1422.413818359375 -1415.2850341796875 -1408.1805419921875 -1401.1864013671875 -1394.0704345703125 -1386.7396240234375 -1379.1907958984375 -1371.4326171875 -1363.6768798828125 -1356.19970703125 -1349.1103515625 -1342.64501953125 -1336.6839599609375 -1331.4072265625 -1326.76318359375 -1322.6964111328125 -1319.615478515625 -1317.2852783203125 -1315.441650390625 -1313.9498291015625 -1312.6976318359375 -1311.7774658203125 -1311.3427734375 -1311.3238525390625 -1311.6820068359375 -1312.398681640625 -1313.4525146484375 -1314.8280029296875 -1316.41748046875 -1318.2127685546875 -99999 -99999 -99999 -99999 -99999 -99999 -99999 -99999 -99999 -99999 -99999 -99999 -99999 -99999 -99999 -99999 -99999 -99999 -99999 -99999 -99999 -99999 -99999 -99999 -99999 -99999 -99999 -99999 -99999 -99999 -99999 -99999 -99999 -99999 -99999 -99999 -99999 -99999 -99999 -99999 -99999 -99999 -99999 -99999 -99999 -99999 -99999 -99999 -99999 -99999 -99999 -99999 -99999 -99999 -99999 -99999 -99999 -99999 -99999 -99999 -99999 -99999 -99999 -99999 -99999 -99999 -99999 -99999 -99999 -99999 -99999 -99999 -99999 -99999 -99999 -99999 -99999 -99999 -99999 -99999 -99999 -99999 -99999 -99999 -99999 -99999 -99999 -99999 -99999 -99999 -99999 -99999 -99999 -99999 -99999 -99999 -99999 -99999 -99999 -99999 -99999 -99999 -99999 -99999 -99999 -99999 -99999 -99999 -99999 -99999 -99999 -99999 -99999 -99999 -99999 -99999 -99999 -99999 -99999 -99999 -99999 -99999 -99999 -99999 -99999 -99999 -99999 -99999 -99999 -99999 -99999 -99999 -99999 -99999 -99999 -99999 -99999
 -99999 -99999 -99999 -99999 -99999 -99999 -99999 -99999 -99999 -99999 -99999 -99999 -99999 -99999 -99999 -99999 -99999 -99999 -99999 -99999 -99999 -99999 -99999 -99999 -99999 -99999 -99999 -99999 -99999 -99999 -99999 -99999 -99999 -99999 -99999 -99999 -99999 -99999 -99999 -99999 -99999 -99999 -99999 -99999 -99999 -99999 -99999 -99999 -99999 -99999 -1511.444580078125 -1503.4771728515625 -1495.503173828125 -1487.3955078125 -1479.2529296875 -1471.12158203125 -1463.023193359375 -1455.0108642578125 -1447.0950927734375 -1439.3670654296875 -1431.868896484375 -1424.5120849609375 -1417.3961181640625 -1410.431884765625 -1403.6298828125 -1396.92236328125 -1390.0714111328125 -1382.843017578125 -1375.1539306640625 -1367.1932373046875 -1359.146240234375 -1351.3988037109375 -1344.135986328125 -1337.3812255859375 -1331.5001220703125 -1326.4954833984375 -1322.101806640625 -1318.2725830078125 -1315.0369873046875 -1312.7662353515625 -1310.8724365234375 -1309.37109375 -1308.2777099609375 -1307.5208740234375 -1307.111572265625 -1307.056640625 -1307.39990234375 -1308.1451416015625 -1309.1868896484375 -1310.4993896484375 -1312.0589599609375 -99999 -99999 -99999 -99999 -99999 -99999 -99999 -99999 -99999 -99999 -99999 -99999 -99999 -99999 -99999 -99999 -99999 -99999 -99999 -99999 -99999 -99999 -99999 -99999 -99999 -99999 -99999 -99999 -99999 -99999 -99999 -99999 -99999 -99999 -99999 -99999 -99999 -99999 -99999 -99999 -99999 -99999 -99999 -99999 -99999 -99999 -99999 -99999 -99999 -99999 -99999 -99999 -99999 -99999 -99999 -99999 -99999 -99999 -99999 -99999 -99999 -99999 -99999 -99999 -99999 -99999 -99999 -99999 -99999 -99999 -99999 -99999 -99999 -99999 -99999 -99999 -99999 -99999 -99999 -99999 -99999 -99999 -99999 -99999 -99999 -99999 -99999 -99999 -99999 -99999 -99999 -99999 -99999 -99999 -99999 -99999 -99999 -99999 -99999 -99999 -99999 -99999 -99999 -99999 -99999 -99999 -99999 -99999 -99999 -99999 -99999 -99999 -99999 -99999 -99999 -99999 -99999 -99999 -99999 -99999 -99999 -99999 -99999 -99999 -99999 -99999 -99999 -99999 -99999 -99999 -99999 -99999 -99999 -99999 -99999 -99999 -99999 -99999
 -99999 -99999 -99999 -99999 -99999 -99999 -99999 -99999 -99999 -99999 -99999 -99999 -99999 -99999 -99999 -99999 -99999 -99999 -99999 -99999 -99999 -99999 -99999 -99999 -99999 -99999 -99999 -99999 -99999 -99999 -99999 -99999 -99999 -99999 -99999 -99999 -99999 -99999 -99999 -99999 -99999 -99999 -99999 -99999 -99999 -99999 -99999 -99999 -99999 -99999 -99999 -1497.5858154296875 -1489.56298828125 -1481.4625244140625 -1473.3648681640625 -1465.286865234375 -1457.2755126953125 -1449.3311767578125 -1441.5308837890625 -1433.9317626953125 -1426.4727783203125 -1419.26513671875 -1412.323974609375 -1405.5445556640625 -1399.1898193359375 -1392.8548583984375 -1386.37109375 -1379.4224853515625 -1371.6922607421875 -1363.3499755859375 -1354.82763671875 -1346.6978759765625 -1339.27587890625 -1332.5595703125 -1326.72021484375 -1321.749267578125 -1317.5494384765625 -1313.99462890625 -1310.960693359375 -1308.58935546875 -1306.7501220703125 -1305.29150390625 -1304.1832275390625 -1303.416259765625 -1303.0670166015625 -1303.0894775390625 -1303.4398193359375 -1304.1055908203125 -1305.085693359375 -1306.4002685546875 -99999 -99999 -99999 -99999 -99999 -99999 -99999 -99999 -99999 -99999 -99999 -99999 -99999 -99999 -99999 -99999 -99999 -99999 -99999 -99999 -99999 -99999 -99999 -99999 -99999 -99999 -99999 -99999 -99999 -99999 -99999 -99999 -99999 -99999 -99999 -99999 -99999 -99999 -99999 -99999 -99999 -99999 -99999 -99999 -99999 -99999 -99999 -99999 -99999 -99999 -99999 -99999 -99999 -99999 -99999 -99999 -99999 -99999 -99999 -99999 -99999 -99999 -99999 -99999 -99999 -99999 -99999 -99999 -99999 -99999 -99999 -99999 -99999 -99999 -99999 -99999 -99999 -99999 -99999 -99999 -99999 -99999 -99999 -99999 -99999 -99999 -99999 -99999 -99999 -99999 -99999 -99999 -99999 -99999 -99999 -99999 -99999 -99999 -99999 -99999 -99999 -99999 -99999 -99999 -99999 -99999 -99999 -99999 -99999 -99999 -99999 -99999 -99999 -99999 -99999 -99999 -99999 -99999 -99999 -99999 -99999 -99999 -99999 -99999 -99999 -99999 -99999 -99999 -99999 -99999 -99999 -99999 -99999 -99999 -99999 -99999 -99999 -99999 -99999
 -99999 -99999 -99999 -99999 -99999 -99999 -99999 -99999 -99999 -99999 -99999 -99999 -99999 -99999 -99999 -99999 -99999 -99999 -99999 -99999 -99999 -99999 -99999 -99999 -99999 -99999 -99999 -99999 -99999 -99999 -99999 -99999 -99999 -99999 -99999 -99999 -99999 -99999 -99999 -99999 -99999 -99999 -99999 -99999 -99999 -99999 -99999 -99999 -99999 -99999 -99999 -1491.8084716796875 -1483.72509765625 -1475.65087890625 -1467.585693359375 -1459.5599365234375 -1451.5843505859375 -1443.7135009765625 -1435.988037109375 -1428.408203125 -1421.066650390625 -1414.0106201171875 -1407.158203125 -1400.7080078125 -1394.654541015625 -1388.843505859375 -1382.987548828125 -1376.518798828125 -1368.5731201171875 -1359.56396484375 -1350.611572265625 -1342.2086181640625 -1334.5435791015625 -1327.787109375 -1321.947998046875 -1317.3388671875 -1313.40478515625 -1310.0037841796875 -1307.1717529296875 -1304.8045654296875 -1302.885009765625 -1301.4208984375 -1300.3602294921875 -1299.663330078125 -1299.2991943359375 -1299.261962890625 -1299.6033935546875 -1300.2894287109375 -99999 -99999 -99999 -99999 -99999 -99999 -99999 -99999 -99999 -99999 -99999 -99999 -99999 -99999 -99999 -99999 -99999 -99999 -99999 -99999 -99999 -99999 -99999 -99999 -99999 -99999 -99999 -99999 -99999 -99999 -99999 -99999 -99999 -99999 -99999 -99999 -99999 -99999 -99999 -99999 -99999 -99999 -99999 -99999 -99999 -99999 -99999 -99999 -99999 -99999 -99999 -99999 -99999 -99999 -99999 -99999 -99999 -99999 -99999 -99999 -99999 -99999 -99999 -99999 -99999 -99999 -99999 -99999 -99999 -99999 -99999 -99999 -99999 -99999 -99999 -99999 -99999 -99999 -99999 -99999 -99999 -99999 -99999 -99999 -99999 -99999 -99999 -99999 -99999 -99999 -99999 -99999 -99999 -99999 -99999 -99999 -99999 -99999 -99999 -99999 -99999 -99999 -99999 -99999 -99999 -99999 -99999 -99999 -99999 -99999 -99999 -99999 -99999 -99999 -99999 -99999 -99999 -99999 -99999 -99999 -99999 -99999 -99999 -99999 -99999 -99999 -99999 -99999 -99999 -99999 -99999 -99999 -99999 -99999 -99999 -99999 -99999 -99999 -99999 -99999 -99999
 -99999 -99999 -99999 -99999 -99999 -99999 -99999 -99999 -99999 -99999 -99999 -99999 -99999 -99999 -99999 -99999 -99999 -99999 -99999 -99999 -99999 -99999 -99999 -99999 -99999 -99999 -99999 -99999 -99999 -99999 -99999 -99999 -99999 -99999 -99999 -99999 -99999 -99999 -99999 -99999 -99999 -99999 -99999 -99999 -99999 -99999 -99999 -99999 -99999 -99999 -99999 -1486.0986328125 -1478.0235595703125 -1469.9559326171875 -1461.9140625 -1453.911865234375 -1445.9749755859375 -1438.153564453125 -1430.4725341796875 -1422.950439453125 -1415.66064453125 -1408.6085205078125 -1401.8662109375 -1395.61669921875 -1389.7474365234375 -1384.36181640625 -1379.228759765625 -1373.700927734375 -1365.419921875 -1355.4559326171875 -1345.9578857421875 -1337.3497314453125 -1329.719482421875 -1323.378662109375 -1317.9229736328125 -1313.3609619140625 -1309.582763671875 -1306.3145751953125 -1303.5184326171875 -1301.1943359375 -1299.3414306640625 -1297.8837890625 -1296.784423828125 -1296.0689697265625 -1295.70361328125 -1295.7069091796875 -1296.0234375 -99999 -99999 -99999 -99999 -99999 -99999 -99999 -99999 -99999 -99999 -99999 -99999 -99999 -99999 -99999 -99999 -99999 -99999 -99999 -99999 -99999 -99999 -99999 -99999 -99999 -99999 -99999 -99999 -99999 -99999 -99999 -99999 -99999 -99999 -99999 -99999 -99999 -99999 -99999 -99999 -99999 -99999 -99999 -99999 -99999 -99999 -99999 -99999 -99999 -99999 -99999 -99999 -99999 -99999 -99999 -99999 -99999 -99999 -99999 -99999 -99999 -99999 -99999 -99999 -99999 -99999 -99999 -99999 -99999 -99999 -99999 -99999 -99999 -99999 -99999 -99999 -99999 -99999 -99999 -99999 -99999 -99999 -99999 -99999 -99999 -99999 -99999 -99999 -99999 -99999 -99999 -99999 -99999 -99999 -99999 -99999 -99999 -99999 -99999 -99999 -99999 -99999 -99999 -99999 -99999 -99999 -99999 -99999 -99999 -99999 -99999 -99999 -99999 -99999 -99999 -99999 -99999 -99999 -99999 -99999 -99999 -99999 -99999 -99999 -99999 -99999 -99999 -99999 -99999 -99999 -99999 -99999 -99999 -99999 -99999 -99999 -99999 -99999 -99999 -99999 -99999 -99999
 -99999 -99999 -99999 -99999 -99999 -99999 -99999 -99999 -99999 -99999 -99999 -99999 -99999 -99999 -99999 -99999 -99999 -99999 -99999 -99999 -99999 -99999 -99999 -99999 -99999 -99999 -99999 -99999 -99999 -99999 -99999 -99999 -99999 -99999 -99999 -99999 -99999 -99999 -99999 -99999 -99999 -99999 -99999 -99999 -99999 -99999 -99999 -99999 -99999 -99999 -99999 -1480.521484375 -1472.4423828125 -1464.3800048828125 -1456.360107421875 -1448.3839111328125 -1440.4737548828125 -1432.6763916015625 -1424.990966796875 -1417.50146484375 -1410.2158203125 -1403.1390380859375 -1396.5028076171875 -1390.179931640625 -1384.339111328125 -1378.9041748046875 -1373.9698486328125 -1368.9100341796875 -1360.133544921875 -1350.2171630859375 -1340.71923828125 -1332.2392578125 -1325.1331787109375 -1319.12060546875 -1314.0496826171875 -1309.7513427734375 -1306.0489501953125 -1302.8441162109375 -1300.1492919921875 -1297.866943359375 -1295.9964599609375 -1294.54541015625 -1293.4503173828125 -1292.7257080078125 -1292.341796875 -1292.3128662109375 -99999 -99999 -99999 -99999 -99999 -99999 -99999 -99999 -99999 -99999 -99999 -99999 -99999 -99999 -99999 -99999 -99999 -99999 -99999 -99999 -99999 -99999 -99999 -99999 -99999 -99999 -99999 -99999 -99999 -99999 -99999 -99999 -99999 -99999 -99999 -99999 -99999 -99999 -99999 -99999 -99999 -99999 -99999 -99999 -99999 -99999 -99999 -99999 -99999 -99999 -99999 -99999 -99999 -99999 -99999 -99999 -99999 -99999 -99999 -99999 -99999 -99999 -99999 -99999 -99999 -99999 -99999 -99999 -99999 -99999 -99999 -99999 -99999 -99999 -99999 -99999 -99999 -99999 -99999 -99999 -99999 -99999 -99999 -99999 -99999 -99999 -99999 -99999 -99999 -99999 -99999 -99999 -99999 -99999 -99999 -99999 -99999 -99999 -99999 -99999 -99999 -99999 -99999 -99999 -99999 -99999 -99999 -99999 -99999 -99999 -99999 -99999 -99999 -99999 -99999 -99999 -99999 -99999 -99999 -99999 -99999 -99999 -99999 -99999 -99999 -99999 -99999 -99999 -99999 -99999 -99999 -99999 -99999 -99999 -99999 -99999 -99999 -99999 -99999 -99999 -99999 -99999 -99999
 -99999 -99999 -99999 -99999 -99999 -99999 -99999 -99999 -99999 -99999 -99999 -99999 -99999 -99999 -99999 -99999 -99999 -99999 -99999 -99999 -99999 -99999 -99999 -99999 -99999 -99999 -99999 -99999 -99999 -99999 -99999 -99999 -99999 -99999 -99999 -99999 -99999 -99999 -99999 -99999 -99999 -99999 -99999 -99999 -99999 -99999 -99999 -99999 -99999 -99999 -99999 -1475.070556640625 -1466.985107421875 -1458.93798828125 -1450.9327392578125 -1442.9593505859375 -1435.079345703125 -1427.2744140625 -1419.6060791015625 -1412.113037109375 -1404.7373046875 -1397.7135009765625 -1390.903564453125 -1384.4224853515625 -1378.339111328125 -1372.597900390625 -1366.9324951171875 -1360.706298828125 -1352.5975341796875 -1343.681640625 -1334.7481689453125 -1327.0177001953125 -1320.4710693359375 -1315.135498046875 -1310.4744873046875 -1306.318115234375 -1302.7686767578125 -1299.6561279296875 -1297.0028076171875 -1294.7440185546875 -1292.87841796875 -1291.41015625 -1290.308837890625 -1289.5816650390625 -1289.18408203125 -99999 -99999 -99999 -99999 -99999 -99999 -99999 -99999 -99999 -99999 -99999 -99999 -99999 -99999 -99999 -99999 -99999 -99999 -99999 -99999 -99999 -99999 -99999 -99999 -99999 -99999 -99999 -99999 -99999 -99999 -99999 -99999 -99999 -99999 -99999 -99999 -99999 -99999 -99999 -99999 -99999 -99999 -99999 -99999 -99999 -99999 -99999 -99999 -99999 -99999 -99999 -99999 -99999 -99999 -99999 -99999 -99999 -99999 -99999 -99999 -99999 -99999 -99999 -99999 -99999 -99999 -99999 -99999 -99999 -99999 -99999 -99999 -99999 -99999 -99999 -99999 -99999 -99999 -99999 -99999 -99999 -99999 -99999 -99999 -99999 -99999 -99999 -99999 -99999 -99999 -99999 -99999 -99999 -99999 -99999 -99999 -99999 -99999 -99999 -99999 -99999 -99999 -99999 -99999 -99999 -99999 -99999 -99999 -99999 -99999 -99999 -99999 -99999 -99999 -99999 -99999 -99999 -99999 -99999 -99999 -99999 -99999 -99999 -99999 -99999 -99999 -99999 -99999 -99999 -99999 -99999 -99999 -99999 -99999 -99999 -99999 -99999 -99999 -99999 -99999 -99999 -99999 -99999 -99999
 -99999 -99999 -99999 -99999 -99999 -99999 -99999 -99999 -99999 -99999 -99999 -99999 -99999 -99999 -99999 -99999 -99999 -99999 -99999 -99999 -99999 -99999 -99999 -99999 -99999 -99999 -99999 -99999 -99999 -99999 -99999 -99999 -99999 -99999 -99999 -99999 -99999 -99999 -99999 -99999 -99999 -99999 -99999 -99999 -99999 -99999 -99999 -99999 -99999 -99999 -99999 -1469.739013671875 -1461.6639404296875 -1453.623046875 -1445.629150390625 -1437.6761474609375 -1429.792724609375 -1421.9993896484375 -1414.347412109375 -1406.74951171875 -1399.4539794921875 -1392.2928466796875 -1385.3382568359375 -1378.6207275390625 -1372.090576171875 -1365.698486328125 -1359.3477783203125 -1352.38818359375 -1344.65869140625 -1336.3939208984375 -1328.5355224609375 -1322.0281982421875 -1316.4122314453125 -1311.4599609375 -1307.1103515625 -1303.20751953125 -1299.73876953125 -1296.6807861328125 -1294.04248046875 -1291.79931640625 -1289.972900390625 -1288.49560546875 -1287.3572998046875 -99999 -99999 -99999 -99999 -99999 -99999 -99999 -99999 -99999 -99999 -99999 -99999 -99999 -99999 -99999 -99999 -99999 -99999 -99999 -99999 -99999 -99999 -99999 -99999 -99999 -99999 -99999 -99999 -99999 -99999 -99999 -99999 -99999 -99999 -99999 -99999 -99999 -99999 -99999 -99999 -99999 -99999 -99999 -99999 -99999 -99999 -99999 -99999 -99999 -99999 -99999 -99999 -99999 -99999 -99999 -99999 -99999 -99999 -99999 -99999 -99999 -99999 -99999 -99999 -99999 -99999 -99999 -99999 -99999 -99999 -99999 -99999 -99999 -99999 -99999 -99999 -99999 -99999 -99999 -99999 -99999 -99999 -99999 -99999 -99999 -99999 -99999 -99999 -99999 -99999 -99999 -99999 -99999 -99999 -99999 -99999 -99999 -99999 -99999 -99999 -99999 -99999 -99999 -99999 -99999 -99999 -99999 -99999 -99999 -99999 -99999 -99999 -99999 -99999 -99999 -99999 -99999 -99999 -99999 -99999 -99999 -99999 -99999 -99999 -99999 -99999 -99999 -99999 -99999 -99999 -99999 -99999 -99999 -99999 -99999 -99999 -99999 -99999 -99999 -99999 -99999 -99999 -99999 -99999 -99999 -99999
 -99999 -99999 -99999 -99999 -99999 -99999 -99999 -99999 -99999 -99999 -99999 -99999 -99999 -99999 -99999 -99999 -99999 -99999 -99999 -99999 -99999 -99999 -99999 -99999 -99999 -99999 -99999 -99999 -99999 -99999 -99999 -99999 -99999 -99999 -99999 -99999 -99999 -99999 -99999 -99999 -99999 -99999 -99999 -99999 -99999 -99999 -99999 -99999 -99999 -99999 -99999 -1464.540283203125 -1456.4696044921875 -1448.358154296875 -1440.449951171875 -1432.529296875 -1424.6610107421875 -1416.8948974609375 -1409.220703125 -1401.646484375 -1394.27001953125 -1386.9832763671875 -1379.837890625 -1372.911376953125 -1366.055419921875 -1359.2530517578125 -1352.3116455078125 -1344.990478515625 -1337.2864990234375 -1329.94189453125 -1323.5692138671875 -1317.84765625 -1312.8017578125 -1308.236328125 -1304.04736328125 -1300.2421875 -1296.84130859375 -1293.913818359375 -1291.3009033203125 -1289.0750732421875 -1287.1898193359375 -1285.681396484375 -99999 -99999 -99999 -99999 -99999 -99999 -99999 -99999 -99999 -99999 -99999 -99999 -99999 -99999 -99999 -99999 -99999 -99999 -99999 -99999 -99999 -99999 -99999 -99999 -99999 -99999 -99999 -99999 -99999 -99999 -99999 -99999 -99999 -99999 -99999 -99999 -99999 -99999 -99999 -99999 -99999 -99999 -99999 -99999 -99999 -99999 -99999 -99999 -99999 -99999 -99999 -99999 -99999 -99999 -99999 -99999 -99999 -99999 -99999 -99999 -99999 -99999 -99999 -99999 -99999 -99999 -99999 -99999 -99999 -99999 -99999 -99999 -99999 -99999 -99999 -99999 -99999 -99999 -99999 -99999 -99999 -99999 -99999 -99999 -99999 -99999 -99999 -99999 -99999 -99999 -99999 -99999 -99999 -99999 -99999 -99999 -99999 -99999 -99999 -99999 -99999 -99999 -99999 -99999 -99999 -99999 -99999 -99999 -99999 -99999 -99999 -99999 -99999 -99999 -99999 -99999 -99999 -99999 -99999 -99999 -99999 -99999 -99999 -99999 -99999 -99999 -99999 -99999 -99999 -99999 -99999 -99999 -99999 -99999 -99999 -99999 -99999 -99999 -99999 -99999 -99999 -99999 -99999 -99999 -99999 -99999 -99999
 -99999 -99999 -99999 -99999 -99999 -99999 -99999 -99999 -99999 -99999 -99999 -99999 -99999 -99999 -99999 -99999 -99999 -99999 -99999 -99999 -99999 -99999 -99999 -99999 -99999 -99999 -99999 -99999 -99999 -99999 -99999 -99999 -99999 -99999 -99999 -99999 -99999 -99999 -99999 -99999 -99999 -99999 -99999 -99999 -99999 -99999 -99999 -99999 -99999 -99999 -99999 -1459.473388671875 -1451.4266357421875 -1443.409912109375 -1435.43798828125 -1427.5245361328125 -1419.6883544921875 -1411.9410400390625 -1404.2769775390625 -1396.7176513671875 -1389.2713623046875 -1381.9293212890625 -1374.7166748046875 -1367.5963134765625 -1360.567138671875 -1353.5157470703125 -1346.3336181640625 -1338.8511962890625 -1331.5184326171875 -1325.054443359375 -1319.468017578125 -1314.4161376953125 -1309.6494140625 -1305.2259521484375 -1301.1912841796875 -1297.5498046875 -1294.2537841796875 -1291.2835693359375 -1288.6611328125 -1286.4564208984375 -1284.628173828125 -99999 -99999 -99999 -99999 -99999 -99999 -99999 -99999 -99999 -99999 -99999 -99999 -99999 -99999 -99999 -99999 -99999 -99999 -99999 -99999 -99999 -99999 -99999 -99999 -99999 -99999 -99999 -99999 -99999 -99999 -99999 -99999 -99999 -99999 -99999 -99999 -99999 -99999 -99999 -99999 -99999 -99999 -99999 -99999 -99999 -99999 -99999 -99999 -99999 -99999 -99999 -99999 -99999 -99999 -99999 -99999 -99999 -99999 -99999 -99999 -99999 -99999 -99999 -99999 -99999 -99999 -99999 -99999 -99999 -99999 -99999 -99999 -99999 -99999 -99999 -99999 -99999 -99999 -99999 -99999 -99999 -99999 -99999 -99999 -99999 -99999 -99999 -99999 -99999 -99999 -99999 -99999 -99999 -99999 -99999 -99999 -99999 -99999 -99999 -99999 -99999 -99999 -99999 -99999 -99999 -99999 -99999 -99999 -99999 -99999 -99999 -99999 -99999 -99999 -99999 -99999 -99999 -99999 -99999 -99999 -99999 -99999 -99999 -99999 -99999 -99999 -99999 -99999 -99999 -99999 -99999 -99999 -99999 -99999 -99999 -99999 -99999 -99999 -99999 -99999 -99999 -99999 -99999 -99999 -99999 -99999 -99999 -99999
 -99999 -99999 -99999 -99999 -99999 -99999 -99999 -99999 -99999 -99999 -99999 -99999 -99999 -99999 -99999 -99999 -99999 -99999 -99999 -99999 -99999 -99999 -99999 -99999 -99999 -99999 -99999 -99999 -99999 -99999 -99999 -99999 -99999 -99999 -99999 -99999 -99999 -99999 -99999 -99999 -99999 -99999 -99999 -99999 -99999 -99999 -99999 -99999 -99999 -99999 -99999 -1454.537841796875 -1446.523193359375 -1438.5185546875 -1430.5736083984375 -1422.701416015625 -1414.9229736328125 -1407.1995849609375 -1399.5709228515625 -1392.0296630859375 -1384.5693359375 -1377.219970703125 -1369.978271484375 -1362.841796875 -1355.7672119140625 -1348.6636962890625 -1341.5203857421875 -1334.4285888671875 -1327.6494140625 -1321.64892578125 -1316.463134765625 -1311.46142578125 -1306.8775634765625 -1302.6220703125 -1298.6705322265625 -1295.029296875 -1291.721435546875 -1288.8297119140625 -1286.2783203125 -1284.0545654296875 -99999 -99999 -99999 -99999 -99999 -99999 -99999 -99999 -99999 -99999 -99999 -99999 -99999 -99999 -99999 -99999 -99999 -99999 -99999 -99999 -99999 -99999 -99999 -99999 -99999 -99999 -99999 -99999 -99999 -99999 -99999 -99999 -99999 -99999 -99999 -99999 -99999 -99999 -99999 -99999 -99999 -99999 -99999 -99999 -99999 -99999 -99999 -99999 -99999 -99999 -99999 -99999 -99999 -99999 -99999 -99999 -99999 -99999 -99999 -99999 -99999 -99999 -99999 -99999 -99999 -99999 -99999 -99999 -99999 -99999 -99999 -99999 -99999 -99999 -99999 -99999 -99999 -99999 -99999 -99999 -99999 -99999 -99999 -99999 -99999 -99999 -99999 -99999 -99999 -99999 -99999 -99999 -99999 -99999 -99999 -99999 -99999 -99999 -99999 -99999 -99999 -99999 -99999 -99999 -99999 -99999 -99999 -99999 -99999 -99999 -99999 -99999 -99999 -99999 -99999 -99999 -99999 -99999 -99999 -99999 -99999 -99999 -99999 -99999 -99999 -99999 -99999 -99999 -99999 -99999 -99999 -99999 -99999 -99999 -99999 -99999 -99999 -99999 -99999 -99999 -99999 -99999 -99999 -99999 -99999 -99999 -99999 -99999 -99999
 -99999 -99999 -99999 -99999 -99999 -99999 -99999 -99999 -99999 -99999 -99999 -99999 -99999 -99999 -99999 -99999 -99999 -99999 -99999 -99999 -99999 -99999 -99999 -99999 -99999 -99999 -99999 -99999 -99999 -99999 -99999 -99999 -99999 -99999 -99999 -99999 -99999 -99999 -99999 -99999 -99999 -99999 -99999 -99999 -99999 -99999 -99999 -99999 -99999 -99999 -99999 -99999 -1441.7259521484375 -1433.773681640625 -1425.884033203125 -1418.075927734375 -1410.3179931640625 -1402.6644287109375 -1395.0770263671875 -1387.5618896484375 -1380.1453857421875 -1372.8740234375 -1365.689697265625 -1358.587646484375 -1351.5615234375 -1344.61669921875 -1337.6904296875 -1330.9949951171875 -1324.82275390625 -1319.1077880859375 -1313.8778076171875 -1309.013916015625 -1304.457275390625 -1300.1954345703125 -1296.27490234375 -1292.7132568359375 -1289.467529296875 -1286.5400390625 -99999 -99999 -99999 -99999 -99999 -99999 -99999 -99999 -99999 -99999 -99999 -99999 -99999 -99999 -99999 -99999 -99999 -99999 -99999 -99999 -99999 -99999 -99999 -99999 -99999 -99999 -99999 -99999 -99999 -99999 -99999 -99999 -99999 -99999 -99999 -99999 -99999 -99999 -99999 -99999 -99999 -99999 -99999 -99999 -99999 -99999 -99999 -99999 -99999 -99999 -99999 -99999 -99999 -99999 -99999 -99999 -99999 -99999 -99999 -99999 -99999 -99999 -99999 -99999 -99999 -99999 -99999 -99999 -99999 -99999 -99999 -99999 -99999 -99999 -99999 -99999 -99999 -99999 -99999 -99999 -99999 -99999 -99999 -99999 -99999 -99999 -99999 -99999 -99999 -99999 -99999 -99999 -99999 -99999 -99999 -99999 -99999 -99999 -99999 -99999 -99999 -99999 -99999 -99999 -99999 -99999 -99999 -99999 -99999 -99999 -99999 -99999 -99999 -99999 -99999 -99999 -99999 -99999 -99999 -99999 -99999 -99999 -99999 -99999 -99999 -99999 -99999 -99999 -99999 -99999 -99999 -99999 -99999 -99999 -99999 -99999 -99999 -99999 -99999 -99999 -99999 -99999 -99999 -99999 -99999 -99999 -99999 -99999 -99999 -99999 -99999
 -99999 -99999 -99999 -99999 -99999 -99999 -99999 -99999 -99999 -99999 -99999 -99999 -99999 -99999 -99999 -99999 -99999 -99999 -99999 -99999 -99999 -99999 -99999 -99999 -99999 -99999 -99999 -99999 -99999 -99999 -99999 -99999 -99999 -99999 -99999 -99999 -99999 -99999 -99999 -99999 -99999 -99999 -99999 -99999 -99999 -99999 -99999 -99999 -99999 -99999 -99999 -99999 -1437.0916748046875 -1429.185791015625 -1421.3529052734375 -1413.5799560546875 -1405.9093017578125 -1398.3062744140625 -1390.78271484375 -1383.360107421875 -1376.0543212890625 -1368.8526611328125 -1361.751220703125 -1354.778564453125 -1347.9073486328125 -1341.1031494140625 -1334.537841796875 -1328.275634765625 -1322.3079833984375 -1316.728515625 -1311.682861328125 -1306.73828125 -1302.2034912109375 -1298.0115966796875 -1294.118896484375 -1290.513427734375 -1287.2685546875 -99999 -99999 -99999 -99999 -99999 -99999 -99999 -99999 -99999 -99999 -99999 -99999 -99999 -99999 -99999 -99999 -99999 -99999 -99999 -99999 -99999 -99999 -99999 -99999 -99999 -99999 -99999 -99999 -99999 -99999 -99999 -99999 -99999 -99999 -99999 -99999 -99999 -99999 -99999 -99999 -99999 -99999 -99999 -99999 -99999 -99999 -99999 -99999 -99999 -99999 -99999 -99999 -99999 -99999 -99999 -99999 -99999 -99999 -99999 -99999 -99999 -99999 -99999 -99999 -99999 -99999 -99999 -99999 -99999 -99999 -99999 -99999 -99999 -99999 -99999 -99999 -99999 -99999 -99999 -99999 -99999 -99999 -99999 -99999 -99999 -99999 -99999 -99999 -99999 -99999 -99999 -99999 -99999 -99999 -99999 -99999 -99999 -99999 -99999 -99999 -99999 -99999 -99999 -99999 -99999 -99999 -99999 -99999 -99999 -99999 -99999 -99999 -99999 -99999 -99999 -99999 -99999 -99999 -99999 -99999 -99999 -99999 -99999 -99999 -99999 -99999 -99999 -99999 -99999 -99999 -99999 -99999 -99999 -99999 -99999 -99999 -99999 -99999 -99999 -99999 -99999 -99999 -99999 -99999 -99999 -99999 -99999 -99999 -99999 -99999 -99999 -99999
 -99999 -99999 -99999 -99999 -99999 -99999 -99999 -99999 -99999 -99999 -99999 -99999 -99999 -99999 -99999 -99999 -99999 -99999 -99999 -99999 -99999 -99999 -99999 -99999 -99999 -99999 -99999 -99999 -99999 -99999 -99999 -99999 -99999 -99999 -99999 -99999 -99999 -99999 -99999 -99999 -99999 -99999 -99999 -99999 -99999 -99999 -99999 -99999 -99999 -99999 -99999 -99999 -99999 -1424.7196044921875 -1416.9671630859375 -1409.287841796875 -1401.66162109375 -1394.1533203125 -1386.725341796875 -1379.38232421875 -1372.1639404296875 -1365.1080322265625 -1358.1661376953125 -1351.33642578125 -1344.669677734375 -1338.1016845703125 -1331.7978515625 -1325.685791015625 -1319.95849609375 -1314.6285400390625 -1309.4185791015625 -1304.6259765625 -1300.1124267578125 -1295.92333984375 -1292.027099609375 -1288.449462890625 -99999 -99999 -99999 -99999 -99999 -99999 -99999 -99999 -99999 -99999 -99999 -99999 -99999 -99999 -99999 -99999 -99999 -99999 -99999 -99999 -99999 -99999 -99999 -99999 -99999 -99999 -99999 -99999 -99999 -99999 -99999 -99999 -99999 -99999 -99999 -99999 -99999 -99999 -99999 -99999 -99999 -99999 -99999 -99999 -99999 -99999 -99999 -99999 -99999 -99999 -99999 -99999 -99999 -99999 -99999 -99999 -99999 -99999 -99999 -99999 -99999 -99999 -99999 -99999 -99999 -99999 -99999 -99999 -99999 -99999 -99999 -99999 -99999 -99999 -99999 -99999 -99999 -99999 -99999 -99999 -99999 -99999 -99999 -99999 -99999 -99999 -99999 -99999 -99999 -99999 -99999 -99999 -99999 -99999 -99999 -99999 -99999 -99999 -99999 -99999 -99999 -99999 -99999 -99999 -99999 -99999 -99999 -99999 -99999 -99999 -99999 -99999 -99999 -99999 -99999 -99999 -99999 -99999 -99999 -99999 -99999 -99999 -99999 -99999 -99999 -99999 -99999 -99999 -99999 -99999 -99999 -99999 -99999 -99999 -99999 -99999 -99999 -99999 -99999 -99999 -99999 -99999 -99999 -99999 -99999 -99999 -99999 -99999 -99999 -99999 -99999 -99999 -99999
 -99999 -99999 -99999 -99999 -99999 -99999 -99999 -99999 -99999 -99999 -99999 -99999 -99999 -99999 -99999 -99999 -99999 -99999 -99999 -99999 -99999 -99999 -99999 -99999 -99999 -99999 -99999 -99999 -99999 -99999 -99999 -99999 -99999 -99999 -99999 -99999 -99999 -99999 -99999 -99999 -99999 -99999 -99999 -99999 -99999 -99999 -99999 -99999 -99999 -99999 -99999 -99999 -99999 -1420.4267578125 -1412.7314453125 -1405.1141357421875 -1397.59033203125 -1390.15966796875 -1382.8140869140625 -1375.613525390625 -1368.55322265625 -1361.5238037109375 -1354.8021240234375 -1348.1605224609375 -1341.6416015625 -1335.25341796875 -1329.140625 -1323.287841796875 -1317.7666015625 -1312.40380859375 -1307.322998046875 -1302.561279296875 -1298.0791015625 -1293.9210205078125 -1290.0213623046875 -99999 -99999 -99999 -99999 -99999 -99999 -99999 -99999 -99999 -99999 -99999 -99999 -99999 -99999 -99999 -99999 -99999 -99999 -99999 -99999 -99999 -99999 -99999 -99999 -99999 -99999 -99999 -99999 -99999 -99999 -99999 -99999 -99999 -99999 -99999 -99999 -99999 -99999 -99999 -99999 -99999 -99999 -99999 -99999 -99999 -99999 -99999 -99999 -99999 -99999 -99999 -99999 -99999 -99999 -99999 -99999 -99999 -99999 -99999 -99999 -99999 -99999 -99999 -99999 -99999 -99999 -99999 -99999 -99999 -99999 -99999 -99999 -99999 -99999 -99999 -99999 -99999 -99999 -99999 -99999 -99999 -99999 -99999 -99999 -99999 -99999 -99999 -99999 -99999 -99999 -99999 -99999 -99999 -99999 -99999 -99999 -99999 -99999 -99999 -99999 -99999 -99999 -99999 -99999 -99999 -99999 -99999 -99999 -99999 -99999 -99999 -99999 -99999 -99999 -99999 -99999 -99999 -99999 -99999 -99999 -99999 -99999 -99999 -99999 -99999 -99999 -99999 -99999 -99999 -99999 -99999 -99999 -99999 -99999 -99999 -99999 -99999 -99999 -99999 -99999 -99999 -99999 -99999 -99999 -99999 -99999 -99999 -99999 -99999 -99999 -99999 -99999 -99999 -99999
 -99999 -99999 -99999 -99999 -99999 -99999 -99999 -99999 -99999 -99999 -99999 -99999 -99999 -99999 -99999 -99999 -99999 -99999 -99999 -99999 -99999 -99999 -99999 -99999 -99999 -99999 -99999 -99999 -99999 -99999 -99999 -99999 -99999 -99999 -99999 -99999 -99999 -99999 -99999 -99999 -99999 -99999 -99999 -99999 -99999 -99999 -99999 -99999 -99999 -99999 -99999 -99999 -99999 -99999 -1408.6207275390625 -1401.1060791015625 -1393.6441650390625 -1386.343994140625 -1379.1085205078125 -1372.0216064453125 -1365.061279296875 -1358.255615234375 -1351.59814453125 -1345.0592041015625 -1338.7371826171875 -1332.56982421875 -1326.6162109375 -1320.8829345703125 -1315.4315185546875 -1310.20458984375 -1305.2100830078125 -1300.4962158203125 -1296.0673828125 -99999 -99999 -99999 -99999 -99999 -99999 -99999 -99999 -99999 -99999 -99999 -99999 -99999 -99999 -99999 -99999 -99999 -99999 -99999 -99999 -99999 -99999 -99999 -99999 -99999 -99999 -99999 -99999 -99999 -99999 -99999 -99999 -99999 -99999 -99999 -99999 -99999 -99999 -99999 -99999 -99999 -99999 -99999 -99999 -99999 -99999 -99999 -99999 -99999 -99999 -99999 -99999 -99999 -99999 -99999 -99999 -99999 -99999 -99999 -99999 -99999 -99999 -99999 -99999 -99999 -99999 -99999 -99999 -99999 -99999 -99999 -99999 -99999 -99999 -99999 -99999 -99999 -99999 -99999 -99999 -99999 -99999 -99999 -99999 -99999 -99999 -99999 -99999 -99999 -99999 -99999 -99999 -99999 -99999 -99999 -99999 -99999 -99999 -99999 -99999 -99999 -99999 -99999 -99999 -99999 -99999 -99999 -99999 -99999 -99999 -99999 -99999 -99999 -99999 -99999 -99999 -99999 -99999 -99999 -99999 -99999 -99999 -99999 -99999 -99999 -99999 -99999 -99999 -99999 -99999 -99999 -99999 -99999 -99999 -99999 -99999 -99999 -99999 -99999 -99999 -99999 -99999 -99999 -99999 -99999 -99999 -99999 -99999 -99999 -99999 -99999 -99999 -99999 -99999 -99999 -99999
 -99999 -99999 -99999 -99999 -99999 -99999 -99999 -99999 -99999 -99999 -99999 -99999 -99999 -99999 -99999 -99999 -99999 -99999 -99999 -99999 -99999 -99999 -99999 -99999 -99999 -99999 -99999 -99999 -99999 -99999 -99999 -99999 -99999 -99999 -99999 -99999 -99999 -99999 -99999 -99999 -99999 -99999 -99999 -99999 -99999 -99999 -99999 -99999 -99999 -99999 -99999 -99999 -99999 -99999 -1404.659912109375 -1397.2054443359375 -1389.8651123046875 -1382.6259765625 -1375.51904296875 -1368.54443359375 -1361.75048828125 -1355.031982421875 -1348.5133056640625 -1342.156982421875 -1335.927734375 -1329.9012451171875 -1324.0787353515625 -1318.5135498046875 -1313.224609375 -1308.00048828125 -1303.12255859375 -1298.484130859375 -99999 -99999 -99999 -99999 -99999 -99999 -99999 -99999 -99999 -99999 -99999 -99999 -99999 -99999 -99999 -99999 -99999 -99999 -99999 -99999 -99999 -99999 -99999 -99999 -99999 -99999 -99999 -99999 -99999 -99999 -99999 -99999 -99999 -99999 -99999 -99999 -99999 -99999 -99999 -99999 -99999 -99999 -99999 -99999 -99999 -99999 -99999 -99999 -99999 -99999 -99999 -99999 -99999 -99999 -99999 -99999 -99999 -99999 -99999 -99999 -99999 -99999 -99999 -99999 -99999 -99999 -99999 -99999 -99999 -99999 -99999 -99999 -99999 -99999 -99999 -99999 -99999 -99999 -99999 -99999 -99999 -99999 -99999 -99999 -99999 -99999 -99999 -99999 -99999 -99999 -99999 -99999 -99999 -99999 -99999 -99999 -99999 -99999 -99999 -99999 -99999 -99999 -99999 -99999 -99999 -99999 -99999 -99999 -99999 -99999 -99999 -99999 -99999 -99999 -99999 -99999 -99999 -99999 -99999 -99999 -99999 -99999 -99999 -99999 -99999 -99999 -99999 -99999 -99999 -99999 -99999 -99999 -99999 -99999 -99999 -99999 -99999 -99999 -99999 -99999 -99999 -99999 -99999 -99999 -99999 -99999 -99999 -99999 -99999 -99999 -99999 -99999 -99999 -99999 -99999 -99999 -99999
 -99999 -99999 -99999 -99999 -99999 -99999 -99999 -99999 -99999 -99999 -99999 -99999 -99999 -99999 -99999 -99999 -99999 -99999 -99999 -99999 -99999 -99999 -99999 -99999 -99999 -99999 -99999 -99999 -99999 -99999 -99999 -99999 -99999 -99999 -99999 -99999 -99999 -99999 -99999 -99999 -99999 -99999 -99999 -99999 -99999 -99999 -99999 -99999 -99999 -99999 -99999 -99999 -99999 -99999 -99999 -1393.42431640625 -1386.1663818359375 -1379.03662109375 -1372.0684814453125 -1365.213623046875 -1358.4720458984375 -1351.92236328125 -1345.5211181640625 -1339.2520751953125 -1333.16845703125 -1327.3109130859375 -1321.6339111328125 -1316.128173828125 -1310.8704833984375 -1305.844482421875 -1301.01171875 -99999 -99999 -99999 -99999 -99999 -99999 -99999 -99999 -99999 -99999 -99999 -99999 -99999 -99999 -99999 -99999 -99999 -99999 -99999 -99999 -99999 -99999 -99999 -99999 -99999 -99999 -99999 -99999 -99999 -99999 -99999 -99999 -99999 -99999 -99999 -99999 -99999 -99999 -99999 -99999 -99999 -99999 -99999 -99999 -99999 -99999 -99999 -99999 -99999 -99999 -99999 -99999 -99999 -99999 -99999 -99999 -99999 -99999 -99999 -99999 -99999 -99999 -99999 -99999 -99999 -99999 -99999 -99999 -99999 -99999 -99999 -99999 -99999 -99999 -99999 -99999 -99999 -99999 -99999 -99999 -99999 -99999 -99999 -99999 -99999 -99999 -99999 -99999 -99999 -99999 -99999 -99999 -99999 -99999 -99999 -99999 -99999 -99999 -99999 -99999 -99999 -99999 -99999 -99999 -99999 -99999 -99999 -99999 -99999 -99999 -99999 -99999 -99999 -99999 -99999 -99999 -99999 -99999 -99999 -99999 -99999 -99999 -99999 -99999 -99999 -99999 -99999 -99999 -99999 -99999 -99999 -99999 -99999 -99999 -99999 -99999 -99999 -99999 -99999 -99999 -99999 -99999 -99999 -99999 -99999 -99999 -99999 -99999 -99999 -99999 -99999 -99999 -99999 -99999 -99999 -99999 -99999 -99999
 -99999 -99999 -99999 -99999 -99999 -99999 -99999 -99999 -99999 -99999 -99999 -99999 -99999 -99999 -99999 -99999 -99999 -99999 -99999 -99999 -99999 -99999 -99999 -99999 -99999 -99999 -99999 -99999 -99999 -99999 -99999 -99999 -99999 -99999 -99999 -99999 -99999 -99999 -99999 -99999 -99999 -99999 -99999 -99999 -99999 -99999 -99999 -99999 -99999 -99999 -99999 -99999 -99999 -99999 -99999 -99999 -1382.6014404296875 -1375.592529296875 -1368.695556640625 -1361.932373046875 -1355.3680419921875 -1348.8804931640625 -1342.5736083984375 -1336.4549560546875 -1330.5218505859375 -1324.736083984375 -1319.15087890625 -1313.8623046875 -1308.5999755859375 -99999 -99999 -99999 -99999 -99999 -99999 -99999 -99999 -99999 -99999 -99999 -99999 -99999 -99999 -99999 -99999 -99999 -99999 -99999 -99999 -99999 -99999 -99999 -99999 -99999 -99999 -99999 -99999 -99999 -99999 -99999 -99999 -99999 -99999 -99999 -99999 -99999 -99999 -99999 -99999 -99999 -99999 -99999 -99999 -99999 -99999 -99999 -99999 -99999 -99999 -99999 -99999 -99999 -99999 -99999 -99999 -99999 -99999 -99999 -99999 -99999 -99999 -99999 -99999 -99999 -99999 -99999 -99999 -99999 -99999 -99999 -99999 -99999 -99999 -99999 -99999 -99999 -99999 -99999 -99999 -99999 -99999 -99999 -99999 -99999 -99999 -99999 -99999 -99999 -99999 -99999 -99999 -99999 -99999 -99999 -99999 -99999 -99999 -99999 -99999 -99999 -99999 -99999 -99999 -99999 -99999 -99999 -99999 -99999 -99999 -99999 -99999 -99999 -99999 -99999 -99999 -99999 -99999 -99999 -99999 -99999 -99999 -99999 -99999 -99999 -99999 -99999 -99999 -99999 -99999 -99999 -99999 -99999 -99999 -99999 -99999 -99999 -99999 -99999 -99999 -99999 -99999 -99999 -99999 -99999 -99999 -99999 -99999 -99999 -99999 -99999 -99999 -99999 -99999 -99999 -99999 -99999 -99999 -99999 -99999
 -99999 -99999 -99999 -99999 -99999 -99999 -99999 -99999 -99999 -99999 -99999 -99999 -99999 -99999 -99999 -99999 -99999 -99999 -99999 -99999 -99999 -99999 -99999 -99999 -99999 -99999 -99999 -99999 -99999 -99999 -99999 -99999 -99999 -99999 -99999 -99999 -99999 -99999 -99999 -99999 -99999 -99999 -99999 -99999 -99999 -99999 -99999 -99999 -99999 -99999 -99999 -99999 -99999 -99999 -99999 -99999 -1379.113525390625 -1372.1793212890625 -1365.416015625 -1358.7998046875 -1352.2630615234375 -1345.922607421875 -1339.733642578125 -1333.70751953125 -1327.8365478515625 -1322.1851806640625 -1316.793701171875 -1311.4141845703125 -99999 -99999 -99999 -99999 -99999 -99999 -99999 -99999 -99999 -99999 -99999 -99999 -99999 -99999 -99999 -99999 -99999 -99999 -99999 -99999 -99999 -99999 -99999 -99999 -99999 -99999 -99999 -99999 -99999 -99999 -99999 -99999 -99999 -99999 -99999 -99999 -99999 -99999 -99999 -99999 -99999 -99999 -99999 -99999 -99999 -99999 -99999 -99999 -99999 -99999 -99999 -99999 -99999 -99999 -99999 -99999 -99999 -99999 -99999 -99999 -99999 -99999 -99999 -99999 -99999 -99999 -99999 -99999 -99999 -99999 -99999 -99999 -99999 -99999 -99999 -99999 -99999 -99999 -99999 -99999 -99999 -99999 -99999 -99999 -99999 -99999 -99999 -99999 -99999 -99999 -99999 -99999 -99999 -99999 -99999 -99999 -99999 -99999 -99999 -99999 -99999 -99999 -99999 -99999 -99999 -99999 -99999 -99999 -99999 -99999 -99999 -99999 -99999 -99999 -99999 -99999 -99999 -99999 -99999 -99999 -99999 -99999 -99999 -99999 -99999 -99999 -99999 -99999 -99999 -99999 -99999 -99999 -99999 -99999 -99999 -99999 -99999 -99999 -99999 -99999 -99999 -99999 -99999 -99999 -99999 -99999 -99999 -99999 -99999 -99999 -99999 -99999 -99999 -99999 -99999 -99999 -99999 -99999 -99999 -99999 -99999
 -99999 -99999 -99999 -99999 -99999 -99999 -99999 -99999 -99999 -99999 -99999 -99999 -99999 -99999 -99999 -99999 -99999 -99999 -99999 -99999 -99999 -99999 -99999 -99999 -99999 -99999 -99999 -99999 -99999 -99999 -99999 -99999 -99999 -99999 -99999 -99999 -99999 -99999 -99999 -99999 -99999 -99999 -99999 -99999 -99999 -99999 -99999 -99999 -99999 -99999 -99999 -99999 -99999 -99999 -99999 -99999 -99999 -1368.9027099609375 -1362.2244873046875 -1355.6229248046875 -1349.2684326171875 -1343.01318359375 -1336.8968505859375 -1330.9898681640625 -1325.25439453125 -1319.691162109375 -1314.322021484375 -99999 -99999 -99999 -99999 -99999 -99999 -99999 -99999 -99999 -99999 -99999 -99999 -99999 -99999 -99999 -99999 -99999 -99999 -99999 -99999 -99999 -99999 -99999 -99999 -99999 -99999 -99999 -99999 -99999 -99999 -99999 -99999 -99999 -99999 -99999 -99999 -99999 -99999 -99999 -99999 -99999 -99999 -99999 -99999 -99999 -99999 -99999 -99999 -99999 -99999 -99999 -99999 -99999 -99999 -99999 -99999 -99999 -99999 -99999 -99999 -99999 -99999 -99999 -99999 -99999 -99999 -99999 -99999 -99999 -99999 -99999 -99999 -99999 -99999 -99999 -99999 -99999 -99999 -99999 -99999 -99999 -99999 -99999 -99999 -99999 -99999 -99999 -99999 -99999 -99999 -99999 -99999 -99999 -99999 -99999 -99999 -99999 -99999 -99999 -99999 -99999 -99999 -99999 -99999 -99999 -99999 -99999 -99999 -99999 -99999 -99999 -99999 -99999 -99999 -99999 -99999 -99999 -99999 -99999 -99999 -99999 -99999 -99999 -99999 -99999 -99999 -99999 -99999 -99999 -99999 -99999 -99999 -99999 -99999 -99999 -99999 -99999 -99999 -99999 -99999 -99999 -99999 -99999 -99999 -99999 -99999 -99999 -99999 -99999 -99999 -99999 -99999 -99999 -99999 -99999 -99999 -99999 -99999 -99999 -99999 -99999 -99999
