ncols        127
nrows        98
xllcorner    210896.761122183612
yllcorner    8947317.961928261444
cellsize     50.000000000000
NODATA_value  -99999
 -99999.0 -99999 -99999 -99999 -99999 -99999 -99999 -99999 -99999 -99999 -99999 -99999 -99999 -99999 -99999 -99999 -99999 -99999 -99999 -99999 -99999 -99999 -99999 -99999 -99999 -99999 -99999 -99999 -99999 -99999 -99999 -99999 -99999 -99999 -99999 -99999 -99999 -99999 -99999 -99999 -99999 -99999 -99999 -99999 -99999 -99999 -99999 -99999 -99999 -99999 -99999 -99999 -99999 -99999 -99999 -99999 -99999 -99999 -99999 -99999 -99999 -99999 -99999 -99999 -99999 -99999 -99999 -99999 -99999 -99999 -99999 -99999 -99999 -99999 -99999 -99999 -99999 -99999 -99999 -99999 -99999 -99999 -99999 -99999 -99999 -99999 -99999 -99999 -99999 -99999 -99999 -99999 -99999 -99999 -99999 -99999 -99999 -99999 -99999 -99999 -99999 -99999 -99999 -99999 -99999 -99999 -99999 -99999 -99999 -99999 -99999 -99999 -99999 -99999 -99999 -99999 -99999 -99999 -99999 -99999 -99999 -99999 -99999 -99999 -99999 -99999 -99999
 -99999 -99999 -99999 -99999 -99999 -99999 -99999 -99999 -99999 -99999 -99999 -99999 -99999 -99999 -99999 -99999 -99999 -99999 -99999 -99999 -99999 -99999 -99999 -99999 -99999 -99999 -99999 -99999 -99999 -99999 -99999 -99999 -99999 -99999 -99999 -99999 -99999 -99999 -99999 -99999 -99999 -99999 -99999 -99999 -99999 19.234025955200195312 19.837129592895507812 20.436641693115234375 20.895776748657226562 21.3712310791015625 21.901918411254882812 22.363279342651367188 22.69310760498046875 23.272731781005859375 23.809804916381835938 24.379228591918945312 25.000005722045898438 25.734209060668945312 26.499324798583984375 27.356464385986328125 28.327566146850585938 29.442188262939453125 30.624904632568359375 31.778440475463867188 32.688385009765625 33.009059906005859375 32.3442230224609375 32.2679901123046875 35.452724456787109375 40.51154327392578125 44.0592498779296875 45.9757843017578125 47.51195526123046875 48.308216094970703125 49.28339385986328125 50.43958282470703125 51.617053985595703125 52.40222930908203125 53.2247161865234375 53.77214813232421875 54.246891021728515625 54.3633270263671875 54.390819549560546875 -99999 -99999 -99999 -99999 -99999 -99999 -99999 -99999 -99999 -99999 -99999 -99999 -99999 -99999 -99999 -99999 -99999 -99999 -99999 -99999 -99999 -99999 -99999 -99999 -99999 -99999 -99999 -99999 -99999 -99999 -99999 -99999 -99999 -99999 -99999 -99999 -99999 -99999 -99999 -99999 -99999 -99999 -99999 -99999
 -99999 -99999 -99999 -99999 -99999 -99999 -99999 -99999 -99999 -99999 -99999 -99999 -99999 -99999 -99999 -99999 -99999 -99999 -99999 -99999 -99999 -99999 -99999 -99999 -99999 -99999 -99999 -99999 -99999 -99999 -99999 -99999 -99999 -99999 -99999 -99999 -99999 -99999 -99999 -99999 -99999 -99999 20.49092864990234375 21.180896759033203125 21.896152496337890625 22.57501983642578125 23.155866622924804688 23.568401336669921875 23.995599746704101562 24.512359619140625 24.91301727294921875 25.33341217041015625 25.779012680053710938 26.20912933349609375 26.656938552856445312 27.164720535278320312 27.682758331298828125 28.381870269775390625 29.123905181884765625 29.947637557983398438 30.786050796508789062 31.66677093505859375 32.587860107421875 33.392192840576171875 33.80367279052734375 33.83600616455078125 33.272052764892578125 33.49715423583984375 39.033603668212890625 45.456233978271484375 49.25379180908203125 50.368007659912109375 50.59410858154296875 50.920318603515625 51.9617462158203125 53.10036468505859375 54.3934478759765625 55.566249847412109375 56.192752838134765625 56.796947479248046875 57.03998565673828125 57.017375946044921875 57.0533905029296875 56.8693695068359375 56.63524627685546875 56.5379791259765625 -99999 -99999 -99999 -99999 -99999 -99999 -99999 -99999 -99999 -99999 -99999 -99999 -99999 -99999 -99999 -99999 -99999 -99999 -99999 -99999 -99999 -99999 -99999 -99999 -99999 -99999 -99999 -99999 -99999 -99999 -99999 -99999 -99999 -99999 -99999 -99999 -99999 -99999 -99999 -99999 -99999
 -99999 -99999 -99999 -99999 -99999 -99999 -99999 -99999 -99999 -99999 -99999 -99999 -99999 -99999 -99999 -99999 -99999 -99999 -99999 -99999 -99999 -99999 -99999 -99999 -99999 -99999 -99999 -99999 -99999 -99999 -99999 -99999 -99999 -99999 -99999 -99999 -99999 -99999 -99999 21.103002548217773438 22.17203521728515625 23.2198028564453125 24.02120208740234375 24.697444915771484375 25.323339462280273438 25.956439971923828125 26.454977035522460938 26.891283035278320312 27.322542190551757812 27.631908416748046875 28.01813507080078125 28.432430267333984375 28.665590286254882812 29.033987045288085938 29.556760787963867188 30.1226043701171875 30.618249893188476562 31.000360488891601562 31.687349319458007812 32.49213409423828125 33.195377349853515625 33.772670745849609375 34.505718231201171875 35.369167327880859375 35.998992919921875 36.130741119384765625 36.499538421630859375 39.15222930908203125 46.444278717041015625 53.508167266845703125 54.351531982421875 52.8492279052734375 52.4315338134765625 53.0062408447265625 54.296451568603515625 55.987407684326171875 57.474056243896484375 58.448486328125 59.270320892333984375 59.709239959716796875 59.7029571533203125 59.676944732666015625 59.49908447265625 59.09534454345703125 58.91527557373046875 58.66625213623046875 58.35953521728515625 58.3859100341796875 58.33681488037109375 -99999 -99999 -99999 -99999 -99999 -99999 -99999 -99999 -99999 -99999 -99999 -99999 -99999 -99999 -99999 -99999 -99999 -99999 -99999 -99999 -99999 -99999 -99999 -99999 -99999 -99999 -99999 -99999 -99999 -99999 -99999 -99999 -99999 -99999 -99999 -99999 -99999 -99999
 -99999 -99999 -99999 -99999 -99999 -99999 -99999 -99999 -99999 -99999 -99999 -99999 -99999 -99999 -99999 -99999 -99999 -99999 -99999 -99999 -99999 -99999 -99999 -99999 -99999 -99999 -99999 -99999 -99999 -99999 -99999 -99999 -99999 -99999 -99999 19.510416030883789062 21.165880203247070312 22.576478958129882812 23.893466949462890625 25.029415130615234375 25.93917083740234375 26.915618896484375 27.627645492553710938 28.24495697021484375 28.839153289794921875 29.357172012329101562 29.856405258178710938 30.143331527709960938 30.461790084838867188 30.744609832763671875 31.118276596069335938 31.478517532348632812 31.723455429077148438 32.14153289794921875 32.45053863525390625 32.836803436279296875 33.337429046630859375 33.973491668701171875 34.634857177734375 35.1794586181640625 35.824398040771484375 36.590541839599609375 37.399272918701171875 38.208789825439453125 39.10179901123046875 40.09279632568359375 42.2083282470703125 46.29095458984375 53.759181976318359375 58.1929473876953125 56.01909637451171875 53.855865478515625 52.6004180908203125 54.13692474365234375 56.577098846435546875 58.6411285400390625 60.44373321533203125 61.44786834716796875 62.360622406005859375 62.493427276611328125 62.428249359130859375 62.471683502197265625 61.6676788330078125 61.29315185546875 60.996326446533203125 60.528293609619140625 60.435840606689453125 60.4090118408203125 60.27581024169921875 60.408660888671875 60.50379180908203125 60.381317138671875 -99999 -99999 -99999 -99999 -99999 -99999 -99999 -99999 -99999 -99999 -99999 -99999 -99999 -99999 -99999 -99999 -99999 -99999 -99999 -99999 -99999 -99999 -99999 -99999 -99999 -99999 -99999 -99999 -99999 -99999 -99999 -99999 -99999 -99999 -99999
 -99999 -99999 -99999 -99999 -99999 -99999 -99999 -99999 -99999 -99999 -99999 -99999 -99999 -99999 -99999 -99999 -99999 -99999 -99999 -99999 -99999 -99999 -99999 -99999 -99999 -99999 -99999 -99999 -99999 -99999 -99999 -99999 18.23783111572265625 20.18196868896484375 21.948551177978515625 23.600116729736328125 25.060792922973632812 26.525211334228515625 27.756862640380859375 28.864582061767578125 29.833749771118164062 30.613012313842773438 31.33730316162109375 31.86185455322265625 32.254222869873046875 32.824031829833984375 33.09644317626953125 33.386974334716796875 33.75868988037109375 34.0584564208984375 34.19799041748046875 34.4676971435546875 34.792377471923828125 34.938892364501953125 35.286952972412109375 35.765865325927734375 36.300411224365234375 36.723300933837890625 37.21144866943359375 37.882144927978515625 38.66748809814453125 39.432720184326171875 40.227794647216796875 41.11911773681640625 42.437713623046875 44.17130279541015625 46.900638580322265625 50.669643402099609375 54.930850982666015625 56.53199005126953125 54.718402862548828125 51.76171875 52.91013336181640625 56.143276214599609375 59.479816436767578125 62.1692352294921875 63.73416900634765625 64.9188385009765625 65.53145599365234375 65.2334747314453125 65.1440582275390625 64.3693084716796875 63.77332305908203125 63.277492523193359375 62.666690826416015625 62.354717254638671875 62.2537384033203125 62.121051788330078125 62.351116180419921875 62.582103729248046875 62.575958251953125 62.710811614990234375 62.83056640625 62.616588592529296875 62.226245880126953125 -99999 -99999 -99999 -99999 -99999 -99999 -99999 -99999 -99999 -99999 -99999 -99999 -99999 -99999 -99999 -99999 -99999 -99999 -99999 -99999 -99999 -99999 -99999 -99999 -99999 -99999 -99999 -99999 -99999 -99999 -99999 -99999
 -99999 -99999 -99999 -99999 -99999 -99999 -99999 -99999 -99999 -99999 -99999 -99999 -99999 -99999 -99999 -99999 -99999 -99999 -99999 -99999 -99999 -99999 -99999 -99999 -99999 -99999 -99999 -99999 -99999 -99999 -99999 20.053846359252929688 22.152776718139648438 24.492185592651367188 26.337276458740234375 27.891462326049804688 29.390745162963867188 30.725482940673828125 31.88140869140625 32.851711273193359375 33.5552825927734375 34.458782196044921875 34.898296356201171875 35.42647552490234375 35.925502777099609375 36.163364410400390625 36.577831268310546875 36.7892303466796875 36.87978363037109375 37.025127410888671875 37.325405120849609375 37.514774322509765625 37.7406463623046875 38.06208038330078125 38.353282928466796875 38.5949554443359375 38.91033172607421875 39.454196929931640625 40.092037200927734375 40.732547760009765625 41.360500335693359375 42.0751495361328125 43.101230621337890625 44.383274078369140625 45.793292999267578125 47.54261016845703125 49.756603240966796875 52.642608642578125 55.4410247802734375 56.05975341796875 53.973724365234375 52.650699615478515625 55.294284820556640625 60.05146026611328125 63.329570770263671875 65.58203125 67.213104248046875 68.20793914794921875 68.19112396240234375 68.133544921875 67.37563323974609375 66.5126800537109375 65.686737060546875 64.8731231689453125 64.23090362548828125 63.986652374267578125 63.70290374755859375 63.927951812744140625 64.31737518310546875 64.47344207763671875 64.80951690673828125 65.16597747802734375 65.15361785888671875 64.99073028564453125 64.6774444580078125 64.23529815673828125 63.530010223388671875 62.572071075439453125 -99999 -99999 -99999 -99999 -99999 -99999 -99999 -99999 -99999 -99999 -99999 -99999 -99999 -99999 -99999 -99999 -99999 -99999 -99999 -99999 -99999 -99999 -99999 -99999 -99999 -99999 -99999 -99999 -99999
 -99999 -99999 -99999 -99999 -99999 -99999 -99999 -99999 -99999 -99999 -99999 -99999 -99999 -99999 -99999 -99999 -99999 -99999 -99999 -99999 -99999 -99999 -99999 -99999 -99999 -99999 -99999 -99999 -99999 -99999 23.062685012817382812 25.043552398681640625 27.328901290893554688 28.940160751342773438 30.776178359985351562 32.214756011962890625 33.677646636962890625 34.984127044677734375 35.83636474609375 36.825927734375 37.5615081787109375 38.1457061767578125 38.7801666259765625 39.0382843017578125 39.231449127197265625 39.515346527099609375 39.8021392822265625 39.85530853271484375 40.123760223388671875 40.39638519287109375 40.444427490234375 40.468181610107421875 40.593906402587890625 41.018566131591796875 41.083339691162109375 41.483489990234375 41.946544647216796875 42.356388092041015625 42.807048797607421875 43.379589080810546875 44.20697021484375 45.15887451171875 46.10997772216796875 47.173213958740234375 48.475879669189453125 50.271068572998046875 52.634677886962890625 54.739696502685546875 55.941562652587890625 56.56591796875 55.995700836181640625 56.389499664306640625 60.698825836181640625 64.5416412353515625 66.7937774658203125 69.21135711669921875 70.93058013916015625 71.31780242919921875 71.2788238525390625 70.41722869873046875 69.36846160888671875 68.2367095947265625 67.0515899658203125 66.01348876953125 65.60945892333984375 65.14136505126953125 65.15245819091796875 65.6864471435546875 66.04074859619140625 66.41443634033203125 67.15923309326171875 67.4727783203125 67.48691558837890625 67.50237274169921875 67.25745391845703125 66.7100982666015625 65.89548492431640625 64.96639251708984375 63.916996002197265625 62.61865234375 61.240047454833984375 -99999 -99999 -99999 -99999 -99999 -99999 -99999 -99999 -99999 -99999 -99999 -99999 -99999 -99999 -99999 -99999 -99999 -99999 -99999 -99999 -99999 -99999 -99999 -99999 -99999 -99999
 -99999 -99999 -99999 -99999 -99999 -99999 -99999 -99999 -99999 -99999 -99999 -99999 -99999 -99999 -99999 -99999 -99999 -99999 -99999 -99999 -99999 -99999 -99999 -99999 -99999 -99999 -99999 -99999 -99999 26.648504257202148438 28.564119338989257812 30.342935562133789062 31.908740997314453125 33.77362823486328125 35.640598297119140625 36.857875823974609375 38.152538299560546875 39.136219024658203125 40.112514495849609375 40.799228668212890625 41.317577362060546875 41.986785888671875 42.19109344482421875 42.514171600341796875 42.818511962890625 43.014186859130859375 43.174594879150390625 43.36257171630859375 43.250438690185546875 43.31412506103515625 43.374423980712890625 43.574981689453125 43.775585174560546875 43.839878082275390625 44.031646728515625 44.349765777587890625 44.611545562744140625 45.034809112548828125 45.646209716796875 46.2795867919921875 46.930850982666015625 47.710357666015625 48.804775238037109375 50.074855804443359375 51.432941436767578125 53.142543792724609375 54.841033935546875 56.454586029052734375 57.60817718505859375 58.239658355712890625 59.536975860595703125 61.2449951171875 64.63661956787109375 67.58330535888671875 70.0946502685546875 72.92446136474609375 74.390777587890625 74.783538818359375 73.43637847900390625 72.236480712890625 71.18511962890625 69.46999359130859375 68.131439208984375 67.1895294189453125 66.35802459716796875 65.93166351318359375 66.42720794677734375 67.06708526611328125 67.64374542236328125 68.70264434814453125 69.4639892578125 69.778472900390625 70.1369781494140625 70.16211700439453125 69.81732177734375 69.1804351806640625 68.28664398193359375 67.44446563720703125 66.12284088134765625 64.729522705078125 63.332881927490234375 61.800273895263671875 60.113269805908203125 -99999 -99999 -99999 -99999 -99999 -99999 -99999 -99999 -99999 -99999 -99999 -99999 -99999 -99999 -99999 -99999 -99999 -99999 -99999 -99999 -99999 -99999 -99999 -99999
 -99999 -99999 -99999 -99999 -99999 -99999 -99999 -99999 -99999 -99999 -99999 -99999 -99999 -99999 -99999 -99999 -99999 -99999 -99999 -99999 -99999 -99999 -99999 -99999 -99999 -99999 -99999 -99999 31.019865036010742188 32.912311553955078125 34.2830963134765625 36.029083251953125 37.715564727783203125 38.972240447998046875 40.5707244873046875 41.580303192138671875 42.563720703125 43.55047607421875 44.08847808837890625 44.777149200439453125 45.34839630126953125 45.564266204833984375 45.95041656494140625 46.15927886962890625 46.232242584228515625 46.228427886962890625 46.3289947509765625 46.255565643310546875 46.327404022216796875 46.45440673828125 46.5727081298828125 46.472064971923828125 46.42685699462890625 46.614292144775390625 46.90338134765625 47.17010498046875 47.45117950439453125 47.8345184326171875 48.4262542724609375 49.02959442138671875 49.807964324951171875 50.585544586181640625 51.4595794677734375 52.702327728271484375 54.14435577392578125 55.570873260498046875 56.965343475341796875 58.228313446044921875 59.543712615966796875 61.134037017822265625 62.833560943603515625 64.96089935302734375 67.83789825439453125 70.920867919921875 73.69812774658203125 76.35335540771484375 77.501190185546875 75.50018310546875 74.30162811279296875 73.94390106201171875 72.5018310546875 70.41558074951171875 68.87677764892578125 67.401641845703125 66.6717987060546875 66.8775482177734375 67.29465484619140625 68.28662872314453125 69.717376708984375 70.92266082763671875 71.81735992431640625 72.46695709228515625 73.1096343994140625 72.826263427734375 72.41593170166015625 71.66034698486328125 70.77448272705078125 69.63408660888671875 68.32843017578125 66.8848114013671875 65.3133697509765625 63.684474945068359375 61.93614959716796875 60.178813934326171875 58.384075164794921875 -99999 -99999 -99999 -99999 -99999 -99999 -99999 -99999 -99999 -99999 -99999 -99999 -99999 -99999 -99999 -99999 -99999 -99999 -99999 -99999 -99999 -99999
 -99999 -99999 -99999 -99999 -99999 -99999 -99999 -99999 -99999 -99999 -99999 -99999 -99999 -99999 -99999 -99999 -99999 -99999 -99999 -99999 -99999 -99999 -99999 -99999 -99999 -99999 -99999 34.677501678466796875 37.01670074462890625 39.1461334228515625 40.746124267578125 41.83989715576171875 42.828624725341796875 43.953731536865234375 45.02066802978515625 46.114223480224609375 46.9748687744140625 47.704463958740234375 48.365924835205078125 48.645076751708984375 49.018566131591796875 49.3609161376953125 49.290668487548828125 49.45977020263671875 49.601757049560546875 49.700977325439453125 49.45636749267578125 49.565799713134765625 49.551242828369140625 49.3473968505859375 49.1688232421875 49.26807403564453125 49.459590911865234375 49.5603790283203125 49.581645965576171875 49.668514251708984375 50.0955810546875 50.6222381591796875 51.115093231201171875 51.54357147216796875 52.1544647216796875 53.126789093017578125 54.283412933349609375 55.353450775146484375 56.444988250732421875 57.648712158203125 59.13149261474609375 60.7356414794921875 62.4925079345703125 63.871051788330078125 65.60274505615234375 67.9927978515625 70.65362548828125 73.41538238525390625 76.34537506103515625 78.20015716552734375 77.01961517333984375 76.40224456787109375 75.96974945068359375 75.20803070068359375 73.15438079833984375 70.80710601806640625 68.75566864013671875 67.149871826171875 66.85308837890625 66.95276641845703125 68.05178070068359375 70.0206146240234375 71.581329345703125 73.19535064697265625 74.43120574951171875 75.43083953857421875 75.7377166748046875 75.60577392578125 75.06256866455078125 74.20668792724609375 73.19329071044921875 71.81874847412109375 70.41097259521484375 68.9110107421875 67.23767852783203125 65.46160888671875 63.69116973876953125 61.881687164306640625 59.939105987548828125 57.92786407470703125 -99999 -99999 -99999 -99999 -99999 -99999 -99999 -99999 -99999 -99999 -99999 -99999 -99999 -99999 -99999 -99999 -99999 -99999 -99999 -99999 -99999
 -99999 -99999 -99999 -99999 -99999 -99999 -99999 -99999 -99999 -99999 -99999 -99999 -99999 -99999 -99999 -99999 -99999 -99999 -99999 -99999 -99999 -99999 -99999 -99999 -99999 -99999 36.97742462158203125 39.833988189697265625 42.4027252197265625 44.7039031982421875 46.0991058349609375 47.3001251220703125 48.30637359619140625 49.0736083984375 50.07740020751953125 50.61513519287109375 51.255405426025390625 51.76921844482421875 52.180187225341796875 52.46535491943359375 52.755939483642578125 52.82788848876953125 52.850856781005859375 52.920391082763671875 52.8463592529296875 52.706272125244140625 52.620708465576171875 52.485828399658203125 52.203044891357421875 52.283588409423828125 52.32621002197265625 52.21233367919921875 52.09333038330078125 51.992340087890625 52.26509857177734375 52.63344573974609375 52.836177825927734375 53.02416229248046875 53.45269775390625 54.199222564697265625 55.082286834716796875 55.799571990966796875 56.554065704345703125 57.407489776611328125 58.842861175537109375 60.192562103271484375 61.89208221435546875 63.119476318359375 64.39870452880859375 65.97772979736328125 68.25743865966796875 70.20394134521484375 72.40631866455078125 75.14525604248046875 77.1078948974609375 77.8137969970703125 77.1443023681640625 77.2677001953125 76.4068756103515625 75.30633544921875 73.69632720947265625 70.83124542236328125 68.193878173828125 66.76572418212890625 65.996002197265625 66.90007781982421875 69.14531707763671875 71.21630859375 73.608001708984375 75.84482574462890625 77.6059112548828125 78.5848236083984375 78.82434844970703125 78.5688934326171875 77.846923828125 76.7984771728515625 75.49990081787109375 73.97591400146484375 72.482025146484375 70.75804901123046875 68.98332977294921875 67.196044921875 65.37120819091796875 63.426227569580078125 61.40952301025390625 59.41962432861328125 57.394046783447265625 -99999 -99999 -99999 -99999 -99999 -99999 -99999 -99999 -99999 -99999 -99999 -99999 -99999 -99999 -99999 -99999 -99999 -99999 -99999 -99999
 -99999 -99999 -99999 -99999 -99999 -99999 -99999 -99999 -99999 -99999 -99999 -99999 -99999 -99999 -99999 -99999 -99999 -99999 -99999 -99999 -99999 -99999 -99999 -99999 -99999 -99999 41.320953369140625 44.430828094482421875 47.16811370849609375 49.403472900390625 50.998321533203125 52.235301971435546875 53.16022491455078125 53.640445709228515625 54.399871826171875 54.80831146240234375 55.363307952880859375 55.532619476318359375 55.94895172119140625 56.08758544921875 56.25501251220703125 56.284454345703125 56.17729949951171875 56.000530242919921875 55.931674957275390625 55.8254241943359375 55.589702606201171875 55.425685882568359375 55.4331207275390625 55.157100677490234375 54.8101043701171875 54.698749542236328125 54.82355499267578125 54.987720489501953125 54.8994140625 54.93161773681640625 55.234405517578125 55.727313995361328125 56.262943267822265625 56.669223785400390625 57.18706512451171875 57.870555877685546875 58.986728668212890625 60.05638885498046875 61.41110992431640625 62.556365966796875 63.713871002197265625 65.00051116943359375 66.61440277099609375 68.35068511962890625 70.121368408203125 71.99324798583984375 74.119476318359375 76.01042938232421875 77.1715545654296875 77.7178802490234375 78.694000244140625 77.49420928955078125 76.98166656494140625 76.00809478759765625 73.64080047607421875 70.44300079345703125 67.13648223876953125 64.8582305908203125 64.799468994140625 66.78736114501953125 69.80218505859375 72.922821044921875 76.539581298828125 79.56359100341796875 81.00780487060546875 82.01209259033203125 82.08747100830078125 81.76491546630859375 80.56497955322265625 79.235687255859375 77.6253662109375 76.07917022705078125 74.2922515869140625 72.49666595458984375 70.65744781494140625 68.79433441162109375 66.89572906494140625 64.86208343505859375 62.820697784423828125 60.79999542236328125 58.759998321533203125 56.601909637451171875 54.47772979736328125 -99999 -99999 -99999 -99999 -99999 -99999 -99999 -99999 -99999 -99999 -99999 -99999 -99999 -99999 -99999 -99999 -99999 -99999
 -99999 -99999 -99999 -99999 -99999 -99999 -99999 -99999 -99999 -99999 -99999 -99999 -99999 -99999 -99999 -99999 -99999 -99999 -99999 -99999 -99999 -99999 -99999 -99999 -99999 41.439666748046875 45.15771484375 48.38307952880859375 51.192058563232421875 53.703617095947265625 55.55370330810546875 56.67804718017578125 57.349704742431640625 57.50511932373046875 58.442661285400390625 58.66623687744140625 59.071338653564453125 59.25359344482421875 59.419063568115234375 59.567829132080078125 59.622150421142578125 59.431934356689453125 59.2757110595703125 59.2611083984375 59.214282989501953125 58.747516632080078125 58.464168548583984375 58.09845733642578125 57.837673187255859375 57.6646270751953125 57.6849822998046875 57.64415740966796875 57.3588409423828125 57.199779510498046875 57.33213043212890625 57.67681884765625 57.8926239013671875 58.011356353759765625 58.35443115234375 58.931934356689453125 59.693023681640625 60.450775146484375 61.454242706298828125 62.414276123046875 63.229885101318359375 64.38387298583984375 65.5728302001953125 67.128662109375 68.6162261962890625 69.995086669921875 71.7208709716796875 73.42324066162109375 74.874603271484375 76.16585540771484375 77.04985809326171875 77.34722137451171875 77.857574462890625 76.91761016845703125 75.5988311767578125 74.71913909912109375 73.76873016357421875 68.4073638916015625 63.601470947265625 62.252368927001953125 64.21337127685546875 66.665252685546875 70.8411712646484375 75.777374267578125 79.9605865478515625 83.13162994384765625 85.26275634765625 85.8438262939453125 85.6322479248046875 84.59859466552734375 83.158355712890625 81.50153350830078125 79.728515625 78.02901458740234375 76.0070343017578125 74.12094879150390625 72.14290618896484375 70.2984161376953125 68.26396942138671875 66.18483734130859375 64.22444915771484375 62.111103057861328125 59.912250518798828125 57.782444000244140625 55.63097381591796875 53.437465667724609375 -99999 -99999 -99999 -99999 -99999 -99999 -99999 -99999 -99999 -99999 -99999 -99999 -99999 -99999 -99999 -99999 -99999
 -99999 -99999 -99999 -99999 -99999 -99999 -99999 -99999 -99999 -99999 -99999 -99999 -99999 -99999 -99999 -99999 -99999 -99999 -99999 -99999 -99999 -99999 -99999 -99999 -99999 44.58731842041015625 48.318115234375 51.6648406982421875 54.85791015625 57.254062652587890625 58.990264892578125 60.404445648193359375 61.149654388427734375 61.412708282470703125 62.21025848388671875 62.35064697265625 62.532939910888671875 62.773006439208984375 62.742511749267578125 62.8868408203125 62.761112213134765625 62.5460357666015625 62.562938690185546875 62.1155548095703125 61.9799346923828125 61.544116973876953125 61.210277557373046875 60.957065582275390625 60.697261810302734375 60.5124969482421875 60.063449859619140625 59.782440185546875 59.807308197021484375 59.839679718017578125 59.8111114501953125 59.831390380859375 60.02556610107421875 60.361370086669921875 60.80893707275390625 61.3343353271484375 62.0199127197265625 62.745513916015625 63.354709625244140625 64.25829315185546875 65.17046356201171875 66.49486541748046875 67.628509521484375 68.94542694091796875 70.19420623779296875 71.59832763671875 73.0296478271484375 74.3632049560546875 75.44248199462890625 76.37039947509765625 77.01446533203125 77.101531982421875 77.103668212890625 75.76151275634765625 74.611358642578125 74.5135650634765625 71.64228057861328125 64.00826263427734375 59.8812408447265625 60.984691619873046875 63.06928253173828125 67.31546783447265625 73.2431182861328125 78.94107818603515625 84.64624786376953125 88.23258209228515625 89.914947509765625 90.20916748046875 89.094451904296875 87.5847930908203125 85.7074737548828125 83.53830718994140625 81.55472564697265625 79.515716552734375 77.50041961669921875 75.49701690673828125 73.57372283935546875 71.59639739990234375 69.61786651611328125 67.51172637939453125 65.41576385498046875 63.2132415771484375 61.0475921630859375 58.8950042724609375 56.787944793701171875 54.469966888427734375 52.313533782958984375 -99999 -99999 -99999 -99999 -99999 -99999 -99999 -99999 -99999 -99999 -99999 -99999 -99999 -99999 -99999 -99999
 -99999 -99999 -99999 -99999 -99999 -99999 -99999 -99999 -99999 -99999 -99999 -99999 -99999 -99999 -99999 -99999 -99999 -99999 -99999 -99999 -99999 -99999 -99999 -99999 42.726062774658203125 46.93839263916015625 50.87984466552734375 54.38144683837890625 57.63010406494140625 60.24776458740234375 62.364654541015625 63.3592529296875 63.907878875732421875 64.65749359130859375 64.9913177490234375 65.26528167724609375 65.549713134765625 65.71240234375 65.8658905029296875 65.8396453857421875 65.69110107421875 65.3057403564453125 64.8297119140625 64.99819183349609375 64.7676849365234375 64.16802215576171875 63.818569183349609375 63.470813751220703125 63.204372406005859375 62.7699737548828125 62.46221923828125 62.250518798828125 62.105632781982421875 62.01136016845703125 62.033367156982421875 62.127452850341796875 62.312702178955078125 62.648822784423828125 63.035213470458984375 63.53493499755859375 63.9851531982421875 64.615142822265625 65.32227325439453125 66.35201263427734375 67.27303314208984375 68.4732208251953125 69.48822784423828125 70.52306365966796875 71.70401763916015625 73.0629730224609375 74.10106658935546875 75.14579010009765625 76.09039306640625 76.67645263671875 76.879119873046875 76.6141815185546875 76.16524505615234375 74.60406494140625 73.5507659912109375 71.24512481689453125 66.18231201171875 60.1035919189453125 60.83135223388671875 61.6804351806640625 63.74715423583984375 67.91390228271484375 75.88726806640625 84.259765625 90.63803863525390625 94.28240966796875 95.4986724853515625 94.51092529296875 92.7171478271484375 90.23825836181640625 87.69974517822265625 85.25048828125 82.97564697265625 80.8307342529296875 78.7743682861328125 76.739776611328125 74.82141876220703125 72.754058837890625 70.72429656982421875 68.68950653076171875 66.46884918212890625 64.26749420166015625 62.108661651611328125 59.919895172119140625 57.67574310302734375 55.38024139404296875 53.1997222900390625 51.040348052978515625 48.80600738525390625 -99999 -99999 -99999 -99999 -99999 -99999 -99999 -99999 -99999 -99999 -99999 -99999 -99999 -99999
 -99999 -99999 -99999 -99999 -99999 -99999 -99999 -99999 -99999 -99999 -99999 -99999 -99999 -99999 -99999 -99999 -99999 -99999 -99999 -99999 -99999 -99999 -99999 -99999 44.54288482666015625 48.719879150390625 52.731414794921875 56.57564544677734375 59.968212127685546875 62.5575103759765625 64.3256378173828125 65.51851654052734375 66.46900177001953125 67.13542938232421875 67.58266448974609375 67.90969085693359375 68.2115631103515625 68.67684173583984375 68.58127593994140625 68.5229644775390625 68.462158203125 68.11840057373046875 68.22791290283203125 67.69266510009765625 67.080108642578125 66.72113037109375 66.28888702392578125 65.86566162109375 65.462493896484375 65.0909881591796875 64.75099945068359375 64.4964599609375 64.3097381591796875 64.199493408203125 64.1637420654296875 64.3257904052734375 64.44470977783203125 64.7565765380859375 65.00632476806640625 65.3710784912109375 65.9140167236328125 66.60102081298828125 67.37032318115234375 68.2802276611328125 69.2019500732421875 69.9368133544921875 70.97502899169921875 72.10836029052734375 73.171630859375 74.0076904296875 75.113067626953125 75.96382904052734375 76.52179718017578125 76.91112518310546875 76.95267486572265625 76.51824951171875 75.80921173095703125 74.6834564208984375 72.28844451904296875 69.215911865234375 64.782379150390625 61.981151580810546875 61.772739410400390625 64.77335357666015625 63.394763946533203125 70.56591796875 80.9312591552734375 91.866180419921875 99.326202392578125 101.981658935546875 101.2574615478515625 98.9519500732421875 95.69516754150390625 92.27509307861328125 89.28456878662109375 86.50682830810546875 84.029815673828125 81.8426055908203125 79.73431396484375 77.86151885986328125 75.863677978515625 73.82262420654296875 71.8614654541015625 69.68932342529296875 67.46355438232421875 65.277618408203125 63.044223785400390625 60.807361602783203125 58.4810638427734375 56.295482635498046875 54.115978240966796875 52.03347015380859375 49.747432708740234375 47.56293487548828125 -99999 -99999 -99999 -99999 -99999 -99999 -99999 -99999 -99999 -99999 -99999 -99999 -99999
 -99999 -99999 -99999 -99999 -99999 -99999 -99999 -99999 -99999 -99999 -99999 -99999 -99999 -99999 -99999 -99999 -99999 -99999 -99999 -99999 -99999 -99999 -99999 -99999 45.796207427978515625 50.108081817626953125 54.095966339111328125 57.6733245849609375 61.03159332275390625 64.186859130859375 66.12709808349609375 66.94873809814453125 67.96901702880859375 68.96247100830078125 69.5428619384765625 70.1049652099609375 70.69702911376953125 70.97869110107421875 71.0403900146484375 71.14870452880859375 71.0325927734375 70.66257476806640625 70.2580718994140625 69.9372100830078125 69.52959442138671875 69.073516845703125 68.58673095703125 68.10137939453125 67.62579345703125 67.20372772216796875 66.84021759033203125 66.541473388671875 66.321533203125 66.2647705078125 66.189605712890625 66.33769989013671875 66.37872314453125 66.4982452392578125 66.818389892578125 67.26868438720703125 67.842254638671875 68.55428314208984375 69.229339599609375 69.87799072265625 70.65839385986328125 71.624267578125 72.51999664306640625 73.44020843505859375 74.32515716552734375 75.3166046142578125 76.16721343994140625 76.71060943603515625 77.17545318603515625 77.35742950439453125 77.212860107421875 76.6912994384765625 75.9299163818359375 74.353668212890625 72.1872100830078125 69.53797149658203125 66.63907623291015625 64.7000579833984375 64.90445709228515625 63.841335296630859375 64.32796478271484375 74.83977508544921875 90.777374267578125 103.15765380859375 109.46376800537109375 110.1849365234375 106.69635772705078125 102.21567535400390625 97.3882904052734375 93.2452850341796875 89.86812591552734375 86.92781829833984375 84.49726104736328125 82.4246368408203125 80.6287994384765625 78.7385101318359375 76.76494598388671875 74.8867645263671875 72.81153106689453125 70.64148712158203125 68.41259765625 66.14598846435546875 63.930316925048828125 61.526645660400390625 59.2690277099609375 57.030689239501953125 54.899295806884765625 52.61334991455078125 50.511993408203125 48.331760406494140625 46.295917510986328125 -99999 -99999 -99999 -99999 -99999 -99999 -99999 -99999 -99999 -99999 -99999 -99999
 -99999 -99999 -99999 -99999 -99999 -99999 -99999 -99999 -99999 -99999 -99999 -99999 -99999 -99999 -99999 -99999 -99999 -99999 -99999 -99999 -99999 -99999 -99999 42.282367706298828125 46.78688812255859375 50.9214019775390625 54.78833770751953125 58.269496917724609375 61.33650970458984375 63.63428497314453125 65.4495849609375 67.41053009033203125 68.903533935546875 70.278594970703125 71.4112701416015625 72.27197265625 72.8494873046875 73.2325286865234375 73.3445281982421875 73.47615814208984375 73.35968780517578125 73.14043426513671875 72.5896148681640625 72.24930572509765625 71.81988525390625 71.29828643798828125 70.744232177734375 70.1546173095703125 69.6207275390625 69.14949798583984375 68.73598480224609375 68.46106719970703125 68.299102783203125 68.15334320068359375 68.0527191162109375 67.95475006103515625 68.1240997314453125 68.48606109619140625 68.73052978515625 69.19045257568359375 69.686065673828125 70.244903564453125 70.7129058837890625 71.48624420166015625 72.2716217041015625 73.14997100830078125 73.9156494140625 74.77880096435546875 75.6046295166015625 76.40644073486328125 76.9984588623046875 77.544158935546875 77.95305633544921875 77.9947509765625 77.79311370849609375 77.31356048583984375 76.32518768310546875 75.2603759765625 73.71431732177734375 71.907867431640625 70.172027587890625 69.42499542236328125 69.257965087890625 69.91071319580078125 74.082733154296875 87.50553131103515625 106.0507354736328125 118.1398468017578125 120.8816986083984375 116.9309539794921875 110.2207489013671875 103.70062255859375 97.56874847412109375 92.9474029541015625 89.5219573974609375 86.76689910888671875 84.68526458740234375 82.88360595703125 81.20169830322265625 79.46974945068359375 77.70508575439453125 75.84032440185546875 73.71306610107421875 71.5284423828125 69.17285919189453125 66.9542236328125 64.53693389892578125 62.11743927001953125 59.897647857666015625 57.723026275634765625 55.4813385009765625 53.380157470703125 51.317584991455078125 49.224945068359375 47.27939605712890625 44.89414215087890625 -99999 -99999 -99999 -99999 -99999 -99999 -99999 -99999 -99999 -99999 -99999
 -99999 -99999 -99999 -99999 -99999 -99999 -99999 -99999 -99999 -99999 -99999 -99999 -99999 -99999 -99999 -99999 -99999 -99999 -99999 -99999 -99999 -99999 -99999 42.769428253173828125 47.317142486572265625 51.549633026123046875 55.498565673828125 58.6211090087890625 61.142650604248046875 62.795520782470703125 64.93990325927734375 67.50042724609375 69.983612060546875 71.51541900634765625 72.9548797607421875 74.0114898681640625 74.8303070068359375 75.150543212890625 75.51104736328125 75.68035125732421875 75.489990234375 74.9745941162109375 75.01427459716796875 74.671417236328125 74.0256195068359375 73.21466827392578125 72.69863128662109375 72.0196533203125 71.4203643798828125 70.9156951904296875 70.508056640625 70.20955657958984375 69.9794158935546875 69.7109222412109375 69.802337646484375 69.892791748046875 69.94763946533203125 70.146270751953125 70.49737548828125 70.83925628662109375 71.12645721435546875 71.69066619873046875 72.39925384521484375 73.0621795654296875 73.86426544189453125 74.51866912841796875 75.2724456787109375 76.07149505615234375 76.81366729736328125 77.4014434814453125 78.04058074951171875 78.5320587158203125 78.75911712646484375 78.8616790771484375 78.788665771484375 78.4132232666015625 77.7656402587890625 77.0401611328125 76.14147186279296875 75.26044464111328125 74.63086700439453125 75.23116302490234375 76.69918060302734375 80.6632232666015625 89.15337371826171875 104.56050872802734375 122.5638885498046875 132.1052093505859375 129.3440093994140625 120.55850982666015625 110.65625762939453125 102.1947174072265625 95.46527099609375 91.389892578125 88.1979522705078125 85.9937591552734375 84.40755462646484375 83.15550994873046875 81.75043487548828125 80.24164581298828125 78.69087982177734375 76.723785400390625 74.6051483154296875 72.248565673828125 69.96221160888671875 67.54488372802734375 65.06542205810546875 62.68740081787109375 60.42818450927734375 58.247257232666015625 56.04604339599609375 54.05367279052734375 51.95334625244140625 50.051624298095703125 47.83127593994140625 45.84876251220703125 43.724700927734375 -99999 -99999 -99999 -99999 -99999 -99999 -99999 -99999 -99999 -99999
 -99999 -99999 -99999 -99999 -99999 -99999 -99999 -99999 -99999 -99999 -99999 -99999 -99999 -99999 -99999 -99999 -99999 -99999 -99999 -99999 -99999 -99999 -99999 43.19000244140625 47.82843017578125 52.013263702392578125 55.80034637451171875 59.1688385009765625 61.891925811767578125 64.1139984130859375 66.655120849609375 68.80338287353515625 71.24627685546875 73.08600616455078125 74.579376220703125 75.78815460205078125 76.88626861572265625 77.0748291015625 77.50156402587890625 77.665740966796875 77.2358551025390625 76.775238037109375 77.5137481689453125 76.66252899169921875 75.9673614501953125 75.17624664306640625 74.38892364501953125 73.64867401123046875 73.088714599609375 72.521575927734375 72.14798736572265625 71.81928253173828125 71.670074462890625 71.60820770263671875 71.4278717041015625 71.40387725830078125 71.5510101318359375 71.72389984130859375 71.93053436279296875 72.30673980712890625 72.84391021728515625 73.322235107421875 73.9210052490234375 74.57532501220703125 75.12353515625 75.83423614501953125 76.60858917236328125 77.27072906494140625 77.87126922607421875 78.5549468994140625 79.1006011962890625 79.4262237548828125 79.82958221435546875 79.986785888671875 79.88565826416015625 79.83023834228515625 79.5693359375 79.326995849609375 79.10758209228515625 79.18090057373046875 79.91448211669921875 82.0321807861328125 85.9853515625 91.75852203369140625 101.45758819580078125 115.67059326171875 129.6268157958984375 135.836639404296875 128.9168701171875 117.26851654052734375 105.93056488037109375 97.36243438720703125 91.9900054931640625 88.17667388916015625 86.03591156005859375 84.90659332275390625 84.16773223876953125 83.33606719970703125 82.43060302734375 81.127166748046875 79.60950469970703125 77.6579437255859375 75.4128265380859375 73.05303192138671875 70.6004791259765625 67.96065521240234375 65.5328216552734375 63.071056365966796875 60.868122100830078125 58.562286376953125 56.5621795654296875 54.488437652587890625 52.665042877197265625 50.724658966064453125 48.787933349609375 46.8142852783203125 44.75914764404296875 42.43271636962890625 -99999 -99999 -99999 -99999 -99999 -99999 -99999 -99999 -99999
 -99999 -99999 -99999 -99999 -99999 -99999 -99999 -99999 -99999 -99999 -99999 -99999 -99999 -99999 -99999 -99999 -99999 -99999 -99999 -99999 -99999 -99999 -99999 43.3131866455078125 47.949169158935546875 52.407138824462890625 56.6447906494140625 60.1002044677734375 63.51531982421875 67.1065673828125 69.3748931884765625 71.445587158203125 72.97768402099609375 74.56029510498046875 76.190399169921875 77.521087646484375 78.47552490234375 78.72137451171875 79.119720458984375 79.37110137939453125 79.082061767578125 78.44965362548828125 79.0106658935546875 78.09351348876953125 77.2043304443359375 76.5959930419921875 75.71302032470703125 75.08734893798828125 74.451141357421875 73.97528839111328125 73.779296875 73.48567962646484375 73.11032867431640625 72.94915008544921875 72.9445953369140625 72.91629791259765625 72.9776611328125 73.2720947265625 73.51534271240234375 73.8125 74.21530914306640625 74.759674072265625 75.2490386962890625 75.797637939453125 76.47780609130859375 77.16585540771484375 77.79042816162109375 78.45885467529296875 79.1209716796875 79.77634429931640625 80.23725128173828125 80.66851806640625 81.03878021240234375 81.2904510498046875 81.4985198974609375 81.6289215087890625 81.75511932373046875 82.099700927734375 82.52727508544921875 83.43668365478515625 85.3331298828125 88.3716278076171875 92.5475311279296875 99.3021697998046875 108.70215606689453125 119.272979736328125 127.45101165771484375 129.504608154296875 121.39432525634765625 108.99698638916015625 97.32897186279296875 90.5025634765625 86.531494140625 84.9171600341796875 84.16963958740234375 84.26064300537109375 84.26912689208984375 83.95654296875 83.3600921630859375 82.35021209716796875 80.64238739013671875 78.64412689208984375 76.2679595947265625 73.82933807373046875 71.013275146484375 68.24643707275390625 65.66844940185546875 63.227329254150390625 61.004573822021484375 58.770610809326171875 56.8693084716796875 54.9900360107421875 53.21971893310546875 51.42101287841796875 49.704067230224609375 47.790866851806640625 45.92923736572265625 43.6013336181640625 41.445339202880859375 -99999 -99999 -99999 -99999 -99999 -99999 -99999 -99999
 -99999 -99999 -99999 -99999 -99999 -99999 -99999 -99999 -99999 -99999 -99999 -99999 -99999 -99999 -99999 -99999 -99999 -99999 -99999 -99999 -99999 -99999 38.183490753173828125 43.307651519775390625 48.285037994384765625 52.989215850830078125 57.23065948486328125 61.066959381103515625 64.6834259033203125 68.02519989013671875 70.72248077392578125 72.68805694580078125 74.3523101806640625 76.368133544921875 77.88864898681640625 79.1256256103515625 80.1929779052734375 80.4801025390625 80.95410919189453125 81.023529052734375 80.58489227294921875 80.210662841796875 79.8708343505859375 79.370880126953125 78.559906005859375 77.7511749267578125 76.99112701416015625 76.29802703857421875 75.81754302978515625 75.3700103759765625 74.9854278564453125 74.59925079345703125 74.44814300537109375 74.25556182861328125 74.206573486328125 74.311126708984375 74.40438079833984375 74.43251800537109375 74.80645751953125 75.10721588134765625 75.59316253662109375 75.9741363525390625 76.49199676513671875 77.09131622314453125 77.74672698974609375 78.35614013671875 78.9853515625 79.63089752197265625 80.293182373046875 80.80663299560546875 81.389892578125 81.91858673095703125 82.34748077392578125 82.736358642578125 83.1423187255859375 83.57598114013671875 83.996734619140625 84.69901275634765625 85.67176055908203125 87.24803924560546875 89.61139678955078125 92.97503662109375 97.38880157470703125 103.4792022705078125 110.28961181640625 116.802642822265625 120.80755615234375 119.25574493408203125 111.165863037109375 98.8838043212890625 88.43138885498046875 83.4932861328125 82.07592010498046875 82.34494781494140625 83.456817626953125 84.1893768310546875 84.64386749267578125 84.8708343505859375 84.538665771484375 83.566192626953125 81.96929168701171875 79.74163055419921875 77.167388916015625 74.24983978271484375 71.2201080322265625 68.40830230712890625 65.71837615966796875 63.28438568115234375 60.897480010986328125 58.86547088623046875 57.01387786865234375 55.302886962890625 53.602222442626953125 52.192356109619140625 50.45110321044921875 48.828014373779296875 46.810909271240234375 44.780475616455078125 42.49207305908203125 40.078582763671875 -99999 -99999 -99999 -99999 -99999 -99999 -99999
 -99999 -99999 -99999 -99999 -99999 -99999 -99999 -99999 -99999 -99999 -99999 -99999 -99999 -99999 -99999 -99999 -99999 -99999 -99999 -99999 -99999 -99999 37.99355316162109375 43.329853057861328125 48.4328155517578125 53.39365386962890625 57.86309814453125 61.990081787109375 65.33792877197265625 68.0605010986328125 70.940093994140625 73.46433258056640625 75.8609161376953125 77.993988037109375 79.6126861572265625 80.9410400390625 81.71710205078125 82.25260162353515625 82.52386474609375 82.30800628662109375 81.89295196533203125 81.61591339111328125 80.84018707275390625 80.15030670166015625 79.464080810546875 78.7669525146484375 78.05881500244140625 77.53238677978515625 77.0263824462890625 76.47119140625 76.09137725830078125 75.9089813232421875 75.62995147705078125 75.44220733642578125 75.46448516845703125 75.4358673095703125 75.52664947509765625 75.80896759033203125 76.02388763427734375 76.3416900634765625 76.70352935791015625 77.22975921630859375 77.721038818359375 78.344970703125 78.88397979736328125 79.4932403564453125 80.122467041015625 80.75946044921875 81.3379974365234375 81.966400146484375 82.58454132080078125 83.0782928466796875 83.6119537353515625 84.17227935791015625 84.67287445068359375 85.30724334716796875 86.12598419189453125 87.07616424560546875 88.429779052734375 90.3400115966796875 93.120452880859375 96.06537628173828125 100.18798828125 104.85588836669921875 109.62249755859375 113.34951019287109375 113.7784423828125 110.20233917236328125 102.44609832763671875 92.38671875 83.50290679931640625 79.07448577880859375 80.2106475830078125 82.43326568603515625 83.86236572265625 84.95862579345703125 85.845977783203125 86.4978485107421875 86.30707550048828125 85.19774627685546875 83.2222442626953125 80.881561279296875 77.8742523193359375 74.607147216796875 71.36655426025390625 68.26725006103515625 65.535369873046875 62.872959136962890625 60.58477020263671875 58.736064910888671875 57.134304046630859375 55.668212890625 54.17293548583984375 52.859256744384765625 51.3833465576171875 49.72101593017578125 47.95256805419921875 46.252902984619140625 43.8999481201171875 41.2129364013671875 38.440036773681640625 -99999 -99999 -99999 -99999 -99999 -99999
 -99999 -99999 -99999 -99999 -99999 -99999 -99999 -99999 -99999 -99999 -99999 -99999 -99999 -99999 -99999 -99999 -99999 -99999 -99999 -99999 -99999 -99999 37.4788360595703125 43.062160491943359375 48.6741790771484375 53.906246185302734375 58.702999114990234375 63.035732269287109375 66.5944366455078125 69.60128021240234375 71.99077606201171875 75.29518890380859375 77.88466644287109375 79.91315460205078125 81.4432525634765625 82.8156280517578125 83.3960113525390625 83.70574188232421875 83.80910491943359375 83.55463409423828125 83.19915771484375 82.5615997314453125 81.8992156982421875 81.161041259765625 80.42999267578125 79.72515869140625 79.11981964111328125 78.38333892822265625 78.00760650634765625 77.572509765625 77.1740875244140625 76.96929931640625 76.63968658447265625 76.580352783203125 76.45043182373046875 76.481597900390625 76.68225860595703125 76.82250213623046875 77.1966094970703125 77.4718475341796875 77.86651611328125 78.3300628662109375 78.86450958251953125 79.37813568115234375 79.96578216552734375 80.55353546142578125 81.178009033203125 81.791595458984375 82.446807861328125 83.0722198486328125 83.65584564208984375 84.30029296875 84.90903472900390625 85.536834716796875 86.2581024169921875 87.08950042724609375 88.00937652587890625 89.2700653076171875 90.800445556640625 92.7628631591796875 95.0615997314453125 98.09369659423828125 101.26992034912109375 104.80123138427734375 107.61133575439453125 108.87984466552734375 108.0577850341796875 104.10237884521484375 97.35516357421875 89.6950531005859375 83.1738128662109375 80.823272705078125 82.63292694091796875 84.7424774169921875 85.729644775390625 86.5701141357421875 87.76670074462890625 88.3951263427734375 88.3292388916015625 87.24211883544921875 85.02410125732421875 81.95830535888671875 78.35494232177734375 74.65207672119140625 71.00968170166015625 67.77519989013671875 64.86995697021484375 62.351665496826171875 60.208770751953125 58.44300079345703125 57.0242919921875 55.68007659912109375 54.538272857666015625 53.46996307373046875 52.217159271240234375 51.03881072998046875 49.44896697998046875 47.446887969970703125 45.2583770751953125 42.87876129150390625 39.812408447265625 36.5453338623046875 -99999 -99999 -99999 -99999 -99999
 -99999 -99999 -99999 -99999 -99999 -99999 -99999 -99999 -99999 -99999 -99999 -99999 -99999 -99999 -99999 -99999 -99999 -99999 -99999 -99999 -99999 -99999 37.0044708251953125 42.99388885498046875 48.840221405029296875 54.4581451416015625 59.760814666748046875 64.51798248291015625 68.63057708740234375 72.31131744384765625 75.848602294921875 78.05582427978515625 80.073638916015625 81.92357635498046875 83.4448699951171875 84.53543853759765625 85.11734771728515625 85.21604156494140625 85.12837982177734375 84.68796539306640625 84.08890533447265625 83.39495849609375 82.9270172119140625 82.156341552734375 81.2261810302734375 80.4391937255859375 79.921417236328125 79.3913726806640625 78.78308868408203125 78.40111541748046875 78.0350494384765625 77.70336151123046875 77.4737701416015625 77.46602630615234375 77.4051055908203125 77.482421875 77.581512451171875 77.87877655029296875 78.12445068359375 78.4777374267578125 78.86637115478515625 79.3603668212890625 79.79999542236328125 80.398895263671875 81.00160980224609375 81.5512847900390625 82.20947265625 82.83935546875 83.491485595703125 84.14987945556640625 84.7836151123046875 85.4316558837890625 86.13675689697265625 86.89043426513671875 87.69492340087890625 88.6081085205078125 89.7310333251953125 91.000579833984375 92.53107452392578125 94.2442779541015625 96.54141998291015625 99.00495147705078125 101.53137969970703125 103.6327056884765625 105.270904541015625 105.22431182861328125 103.656005859375 100.37764739990234375 95.1815338134765625 89.6432342529296875 85.55644989013671875 84.41698455810546875 86.4173126220703125 87.39823150634765625 87.67058563232421875 88.350677490234375 90.0355224609375 91.22507476806640625 91.27762603759765625 89.765472412109375 86.5787811279296875 82.7789154052734375 78.4974822998046875 74.2094268798828125 70.340087890625 66.81540679931640625 63.765377044677734375 61.34352874755859375 59.48499298095703125 57.849109649658203125 56.64514923095703125 55.58493804931640625 54.99311065673828125 54.020099639892578125 53.22492218017578125 52.181728363037109375 50.726703643798828125 49.207569122314453125 47.0104827880859375 44.279094696044921875 41.1391448974609375 38.198978424072265625 34.622802734375 -99999 -99999 -99999 -99999
 -99999 -99999 -99999 -99999 -99999 -99999 -99999 -99999 -99999 -99999 -99999 -99999 -99999 -99999 -99999 -99999 -99999 -99999 -99999 -99999 -99999 -99999 36.246425628662109375 42.606685638427734375 49.02435302734375 55.243297576904296875 61.15728759765625 66.342437744140625 70.6067352294921875 74.45934295654296875 77.331024169921875 80.1788330078125 82.35056304931640625 84.253173828125 85.58728790283203125 86.360595703125 86.64705657958984375 86.48595428466796875 86.15389251708984375 85.64728546142578125 84.9511260986328125 84.17066192626953125 83.45556640625 82.54459381103515625 81.8863372802734375 81.20462799072265625 80.443450927734375 79.95330047607421875 79.45318603515625 78.95273590087890625 78.6332244873046875 78.464691162109375 78.24625396728515625 78.17376708984375 78.25360107421875 78.23395538330078125 78.50072479248046875 78.62726593017578125 78.9946136474609375 79.29134368896484375 79.775543212890625 80.2020721435546875 80.76421356201171875 81.30968475341796875 81.9037628173828125 82.47431182861328125 83.146026611328125 83.782928466796875 84.417572021484375 85.11612701416015625 85.81316375732421875 86.501007080078125 87.25989532470703125 88.0667877197265625 88.91687774658203125 89.921051025390625 91.057952880859375 92.37729644775390625 93.8182525634765625 95.491607666015625 97.34087371826171875 99.2801055908203125 101.1294097900390625 102.36098480224609375 103.2205657958984375 102.853057861328125 101.32720947265625 98.14923858642578125 94.48126983642578125 90.90714263916015625 88.62651824951171875 87.79076385498046875 88.27455902099609375 89.06516265869140625 89.2452850341796875 90.77452850341796875 92.9959716796875 94.431610107421875 94.31021881103515625 92.0539398193359375 87.8710784912109375 83.05233001708984375 77.83222198486328125 73.2321929931640625 68.9910430908203125 65.334228515625 62.360992431640625 60.261623382568359375 58.290027618408203125 57.160396575927734375 56.399913787841796875 55.651859283447265625 55.197418212890625 54.667205810546875 54.2024688720703125 53.341022491455078125 52.218410491943359375 50.623371124267578125 48.7035064697265625 46.482601165771484375 43.022430419921875 39.6158905029296875 35.436038970947265625 -99999 -99999 -99999 -99999
 -99999 -99999 -99999 -99999 -99999 -99999 -99999 -99999 -99999 -99999 -99999 -99999 -99999 -99999 -99999 -99999 -99999 -99999 -99999 -99999 -99999 -99999 35.415424346923828125 42.471363067626953125 49.515651702880859375 56.35800933837890625 62.63234710693359375 68.26146697998046875 73.00276947021484375 76.33397674560546875 77.848358154296875 81.67303466796875 84.82501983642578125 86.7727813720703125 87.79294586181640625 88.208038330078125 88.117279052734375 87.6366424560546875 87.05658721923828125 86.33678436279296875 85.4739227294921875 84.5905303955078125 83.7555389404296875 82.93985748291015625 82.1858367919921875 81.4774017333984375 80.87487030029296875 80.319915771484375 79.91992950439453125 79.4131317138671875 79.2512359619140625 78.97149658203125 78.72795867919921875 78.83861541748046875 78.8173828125 78.9143524169921875 79.08917236328125 79.44532012939453125 79.7395172119140625 80.18447113037109375 80.613555908203125 81.0889739990234375 81.60279083251953125 82.17200469970703125 82.759002685546875 83.36704254150390625 84.02606201171875 84.641754150390625 85.3344879150390625 86.03638458251953125 86.71073150634765625 87.4739990234375 88.25337982177734375 89.07952117919921875 89.99507904052734375 91.00550079345703125 92.1253814697265625 93.3831329345703125 94.77199554443359375 96.19589996337890625 97.69756317138671875 99.16745758056640625 100.51491546630859375 101.39290618896484375 101.8015899658203125 101.13408660888671875 99.7942047119140625 97.587982177734375 95.0941314697265625 92.78455352783203125 91.090118408203125 90.46840667724609375 90.687744140625 91.29285430908203125 91.98552703857421875 94.09720611572265625 96.42290496826171875 98.37474822998046875 97.41016387939453125 93.864166259765625 88.626556396484375 82.65238189697265625 76.65319061279296875 71.51906585693359375 67.00885009765625 63.3413238525390625 60.61986541748046875 58.66847991943359375 57.24932098388671875 56.5337066650390625 55.860454559326171875 55.793254852294921875 55.55786895751953125 55.197437286376953125 54.953426361083984375 54.327312469482421875 53.634059906005859375 52.3194122314453125 50.4549102783203125 48.3700408935546875 45.586650848388671875 41.07804107666015625 36.166324615478515625 33.072048187255859375 -99999 -99999 -99999
 -99999 -99999 -99999 -99999 -99999 -99999 -99999 -99999 -99999 -99999 -99999 -99999 -99999 -99999 -99999 -99999 -99999 -99999 -99999 -99999 -99999 -99999 34.574344635009765625 42.0187835693359375 49.6660003662109375 57.4274749755859375 64.8711700439453125 71.30464935302734375 76.286865234375 80.01490020751953125 83.16455841064453125 85.89221954345703125 88.5481109619140625 89.89586639404296875 90.1894378662109375 89.81497955322265625 89.27515411376953125 88.43918609619140625 87.5365447998046875 86.63653564453125 85.64067840576171875 84.71004486083984375 83.8653717041015625 83.03803253173828125 82.33821868896484375 81.6669921875 81.07879638671875 80.542633056640625 80.09023284912109375 79.83240509033203125 79.48291778564453125 79.2927703857421875 79.3096923828125 79.2790679931640625 79.41786956787109375 79.54328155517578125 79.706024169921875 80.0460205078125 80.42822265625 80.80680084228515625 81.27532958984375 81.77474212646484375 82.297698974609375 82.8905792236328125 83.50988006591796875 84.11711883544921875 84.782989501953125 85.45612335205078125 86.12929534912109375 86.83937835693359375 87.5780029296875 88.32523345947265625 89.11986541748046875 89.97440338134765625 90.874481201171875 91.87564849853515625 92.89316558837890625 94.07320404052734375 95.3416595458984375 96.62210845947265625 97.8290557861328125 99.01732635498046875 100.0970916748046875 100.5795745849609375 100.66855621337890625 100.2700347900390625 99.22142791748046875 97.803253173828125 95.989288330078125 94.4220733642578125 93.27468109130859375 93.08355712890625 93.371734619140625 94.2561492919921875 95.543975830078125 97.56568145751953125 100.37218475341796875 102.22080230712890625 100.37293243408203125 95.17955780029296875 87.80374908447265625 80.38533782958984375 74.13238525390625 68.65674591064453125 64.3671875 61.045154571533203125 58.775066375732421875 56.971881866455078125 55.721965789794921875 55.221477508544921875 54.943332672119140625 55.381938934326171875 55.8239593505859375 55.83435821533203125 55.833370208740234375 55.62252044677734375 55.342529296875 53.588703155517578125 51.86174774169921875 50.893405914306640625 48.654918670654296875 43.30721282958984375 37.86957550048828125 34.251819610595703125 32.31583404541015625 -99999 -99999
 -99999 -99999 -99999 -99999 -99999 -99999 -99999 -99999 -99999 -99999 -99999 -99999 -99999 -99999 -99999 -99999 -99999 -99999 -99999 -99999 -99999 26.060943603515625 33.46096038818359375 41.533481597900390625 50.121646881103515625 58.705532073974609375 66.73062896728515625 74.1023406982421875 80.96443939208984375 86.03484344482421875 89.41695404052734375 91.9692230224609375 92.8480377197265625 92.68328094482421875 92.03026580810546875 91.08652496337890625 89.9465484619140625 88.7574920654296875 87.658203125 86.58419036865234375 85.5785369873046875 84.60659027099609375 83.725738525390625 82.9359893798828125 82.2157135009765625 81.61223602294921875 81.03043365478515625 80.58275604248046875 80.20931243896484375 79.93495941162109375 79.6549835205078125 79.5931549072265625 79.5843658447265625 79.67669677734375 79.768768310546875 79.944854736328125 80.25311279296875 80.62157440185546875 80.91600799560546875 81.41907501220703125 81.8603363037109375 82.4277496337890625 82.9480133056640625 83.56162261962890625 84.21854400634765625 84.82999420166015625 85.4947967529296875 86.16808319091796875 86.8517913818359375 87.57022857666015625 88.30068206787109375 89.05004119873046875 89.8563995361328125 90.6898040771484375 91.567352294921875 92.53017425537109375 93.513427734375 94.60772705078125 95.66907501220703125 96.79444122314453125 97.82826995849609375 98.75446319580078125 99.5202484130859375 100.0728607177734375 100.14493560791015625 99.83271026611328125 99.09600830078125 98.1163177490234375 96.99987030029296875 96.26119232177734375 95.6578369140625 95.60174560546875 95.9691009521484375 96.9187164306640625 98.27274322509765625 100.52509307861328125 102.6441650390625 103.7669830322265625 100.2818145751953125 93.354248046875 85.0180816650390625 76.920166015625 70.372467041015625 65.1415863037109375 61.194469451904296875 58.64501953125 56.398639678955078125 55.01021575927734375 54.519008636474609375 54.231670379638671875 54.6610260009765625 55.841129302978515625 56.26863861083984375 56.42476654052734375 56.30837249755859375 56.359889984130859375 56.773509979248046875 55.5712890625 51.87531280517578125 51.807849884033203125 50.41645050048828125 45.6227264404296875 40.4600372314453125 36.538013458251953125 33.8061981201171875 -99999 -99999
 -99999 -99999 -99999 -99999 -99999 -99999 -99999 -99999 -99999 -99999 -99999 -99999 -99999 -99999 -99999 -99999 -99999 -99999 -99999 -99999 -99999 24.681331634521484375 32.163967132568359375 40.999942779541015625 50.3778839111328125 59.768260955810546875 68.942962646484375 77.20937347412109375 84.680694580078125 90.66033172607421875 95.33855438232421875 96.52509307861328125 96.03011322021484375 94.85002899169921875 93.231475830078125 91.40940093994140625 89.9488372802734375 88.47125244140625 87.21019744873046875 86.09145355224609375 85.08899688720703125 84.12776947021484375 83.28485107421875 82.5920257568359375 81.88571929931640625 81.38216400146484375 80.84039306640625 80.47496795654296875 80.16996002197265625 79.94525909423828125 79.79099273681640625 79.74990081787109375 79.8254241943359375 79.8197021484375 79.99655914306640625 80.3187103271484375 80.66960906982421875 80.99956512451171875 81.4172821044921875 81.89165496826171875 82.4251556396484375 82.976287841796875 83.5591583251953125 84.15985870361328125 84.78124237060546875 85.44307708740234375 86.10572052001953125 86.77866363525390625 87.483917236328125 88.191375732421875 88.9126434326171875 89.6676025390625 90.4490203857421875 91.25539398193359375 92.1013946533203125 92.9986419677734375 93.94565582275390625 94.82715606689453125 95.8369903564453125 96.77154541015625 97.7018280029296875 98.482330322265625 99.12882232666015625 99.55591583251953125 99.69672393798828125 99.6151275634765625 99.2548065185546875 98.775482177734375 98.24896240234375 97.8340301513671875 97.572021484375 97.60406494140625 97.8912811279296875 98.6972503662109375 99.6722259521484375 100.84799957275390625 101.159088134765625 100.63910675048828125 96.44793701171875 89.036346435546875 78.8937835693359375 70.9612884521484375 65.143768310546875 60.89516448974609375 58.026111602783203125 55.849822998046875 54.684551239013671875 54.03342437744140625 53.321346282958984375 53.100460052490234375 53.80733489990234375 55.4967803955078125 57.446018218994140625 57.357669830322265625 56.552127838134765625 56.637195587158203125 57.97318267822265625 57.1777496337890625 53.87042999267578125 52.263950347900390625 50.9221649169921875 47.09793853759765625 42.779720306396484375 38.724689483642578125 35.6663665771484375 -99999 -99999
 -99999 -99999 -99999 -99999 -99999 -99999 -99999 -99999 -99999 -99999 -99999 -99999 -99999 -99999 -99999 -99999 -99999 -99999 -99999 -99999 -99999 23.212518692016601562 31.237054824829101562 40.57303619384765625 50.75904083251953125 61.028533935546875 70.54094696044921875 79.12909698486328125 86.7518310546875 92.9174652099609375 96.89646148681640625 98.17395782470703125 97.10721588134765625 94.9704437255859375 92.6996002197265625 90.72132110595703125 88.95343780517578125 87.477935791015625 86.22547149658203125 85.1269989013671875 84.18468475341796875 83.34629058837890625 82.6062774658203125 81.94699859619140625 81.3743133544921875 80.89251708984375 80.58029937744140625 80.28568267822265625 79.89455413818359375 79.8236236572265625 79.71935272216796875 79.81597137451171875 79.84801483154296875 79.908599853515625 80.27526092529296875 80.53014373779296875 80.95175933837890625 81.276580810546875 81.80229949951171875 82.337982177734375 82.80364227294921875 83.44176483154296875 84.037200927734375 84.65984344482421875 85.31008148193359375 85.9654541015625 86.63404083251953125 87.313629150390625 88.01024627685546875 88.70595550537109375 89.42235565185546875 90.1538238525390625 90.90534210205078125 91.676239013671875 92.46337127685546875 93.3509063720703125 94.11569976806640625 94.97719573974609375 95.8049163818359375 96.721282958984375 97.43946075439453125 98.18023681640625 98.68791961669921875 99.19083404541015625 99.4835968017578125 99.56502532958984375 99.60987091064453125 99.450653076171875 99.2775421142578125 99.13297271728515625 99.0208740234375 99.0554656982421875 99.1859283447265625 99.293182373046875 99.28571319580078125 99.1280670166015625 97.82608795166015625 94.7873992919921875 89.243316650390625 81.32209014892578125 71.0046234130859375 64.60007476806640625 60.176029205322265625 56.979999542236328125 55.2337646484375 54.085681915283203125 53.393558502197265625 52.748554229736328125 52.31908416748046875 52.2108306884765625 53.1580810546875 55.737857818603515625 58.304241180419921875 59.05517578125 56.72278594970703125 56.496799468994140625 57.818447113037109375 58.095577239990234375 55.695186614990234375 53.478000640869140625 51.351287841796875 47.984813690185546875 44.5374603271484375 40.7590789794921875 37.715496063232421875 -99999 -99999
 -99999 -99999 -99999 -99999 -99999 -99999 -99999 -99999 -99999 -99999 -99999 -99999 -99999 -99999 -99999 -99999 -99999 -99999 -99999 -99999 -99999 22.50125885009765625 30.532640457153320312 40.7169036865234375 51.49369049072265625 62.16286468505859375 71.45200347900390625 79.5069732666015625 86.531463623046875 92.10794830322265625 95.02198028564453125 95.7459564208984375 94.9010009765625 92.6996917724609375 90.3384552001953125 88.36251068115234375 86.9395599365234375 85.66713714599609375 84.63826751708984375 83.747955322265625 82.9622955322265625 82.26682281494140625 81.6448822021484375 81.12337493896484375 80.6705780029296875 80.376434326171875 79.9856719970703125 79.55466461181640625 79.62158966064453125 79.48099517822265625 79.48645782470703125 79.7737884521484375 79.77390289306640625 80.0291595458984375 80.280975341796875 80.66873931884765625 81.04782867431640625 81.57018280029296875 82.10453033447265625 82.60235595703125 83.2166900634765625 83.84523773193359375 84.4229583740234375 85.0867767333984375 85.75121307373046875 86.385589599609375 87.05786895751953125 87.7635650634765625 88.42882537841796875 89.12551116943359375 89.8099517822265625 90.5129241943359375 91.22142791748046875 91.95655059814453125 92.7264556884765625 93.4306640625 94.21970367431640625 94.953887939453125 95.7075042724609375 96.36116790771484375 97.1366424560546875 97.7535400390625 98.40436553955078125 98.8452301025390625 99.23415374755859375 99.60710906982421875 99.810302734375 100.02883148193359375 100.12143707275390625 100.1469573974609375 100.15618896484375 100.02458953857421875 99.68097686767578125 99.14543914794921875 98.07654571533203125 96.14000701904296875 93.09299468994140625 88.52979278564453125 81.97449493408203125 73.02618408203125 65.30248260498046875 59.514942169189453125 55.9214019775390625 53.77448272705078125 52.713226318359375 52.254871368408203125 53.083629608154296875 53.12621307373046875 52.28319549560546875 51.776580810546875 52.2213592529296875 54.3579254150390625 59.839992523193359375 61.18255615234375 59.208332061767578125 58.092716217041015625 58.01847076416015625 57.94626617431640625 56.46932220458984375 54.25678253173828125 51.688571929931640625 49.060749053955078125 45.962474822998046875 42.486545562744140625 39.364353179931640625 -99999 -99999
 -99999 -99999 -99999 -99999 -99999 -99999 -99999 -99999 -99999 -99999 -99999 -99999 -99999 -99999 -99999 -99999 -99999 -99999 -99999 -99999 -99999 22.81896209716796875 31.041124343872070312 41.733356475830078125 53.12115478515625 63.03485870361328125 71.70099639892578125 78.73736572265625 84.7200775146484375 89.491424560546875 93.21490478515625 93.50637054443359375 90.14733123779296875 87.62386322021484375 86.097747802734375 84.80519866943359375 83.93399810791015625 83.1899566650390625 82.53942108154296875 81.95041656494140625 81.3892669677734375 80.907989501953125 80.49341583251953125 80.1145782470703125 79.81797027587890625 79.4805450439453125 79.116973876953125 79.18877410888671875 79.133148193359375 79.07177734375 79.32294464111328125 79.34549713134765625 79.594207763671875 79.8816070556640625 80.26641082763671875 80.6280059814453125 81.1796112060546875 81.7129669189453125 82.2248077392578125 82.83829498291015625 83.47103118896484375 84.0908966064453125 84.72133636474609375 85.4256591796875 86.095794677734375 86.76142120361328125 87.4370574951171875 88.10671234130859375 88.78008270263671875 89.44406890869140625 90.1107177734375 90.7909393310546875 91.4462432861328125 92.1111602783203125 92.7895050048828125 93.4788970947265625 94.12001800537109375 94.805877685546875 95.46016693115234375 96.1367034912109375 96.660919189453125 97.308258056640625 97.833526611328125 98.42633819580078125 98.95574188232421875 99.48622894287109375 99.96355438232421875 100.36260223388671875 100.79003143310546875 100.98671722412109375 100.9528350830078125 100.644195556640625 99.8866424560546875 98.4961395263671875 96.3646087646484375 93.33626556396484375 89.04705810546875 82.91394805908203125 75.63210296630859375 67.72992706298828125 60.363513946533203125 55.6844940185546875 53.10944366455078125 50.820415496826171875 51.49628448486328125 53.180908203125 54.50826263427734375 54.932464599609375 54.209011077880859375 52.93726348876953125 53.323154449462890625 55.22504425048828125 58.463581085205078125 61.398372650146484375 60.661960601806640625 59.623966217041015625 59.0421295166015625 58.360332489013671875 56.903583526611328125 55.116424560546875 52.876461029052734375 49.95584869384765625 46.992404937744140625 44.090877532958984375 40.963436126708984375 -99999 -99999
 -99999 -99999 -99999 -99999 -99999 -99999 -99999 -99999 -99999 -99999 -99999 -99999 -99999 -99999 -99999 -99999 -99999 -99999 -99999 -99999 19.713268280029296875 25.598501205444335938 33.466304779052734375 45.364879608154296875 56.41463470458984375 65.70513916015625 72.666595458984375 76.83289337158203125 79.81177520751953125 81.708587646484375 84.12175750732421875 82.53530120849609375 81.07621002197265625 80.0880889892578125 80.4429931640625 80.50507354736328125 80.51824951171875 80.3229827880859375 80.1294403076171875 79.90378570556640625 79.7032318115234375 79.4080810546875 79.18549346923828125 78.9456787109375 78.902801513671875 78.70391845703125 78.462158203125 78.51840972900390625 78.4782562255859375 78.7068328857421875 78.71993255615234375 78.956329345703125 79.29962921142578125 79.67458343505859375 80.1224822998046875 80.57472991943359375 81.16504669189453125 81.75609588623046875 82.31848907470703125 83.0111846923828125 83.683349609375 84.31348419189453125 85.01131439208984375 85.71755218505859375 86.374359130859375 87.04730987548828125 87.711700439453125 88.3774261474609375 89.02805328369140625 89.66872406005859375 90.3144683837890625 90.95317840576171875 91.555419921875 92.16918182373046875 92.8051910400390625 93.35501861572265625 93.9543914794921875 94.50284576416015625 95.07550811767578125 95.66176605224609375 96.1432037353515625 96.65047454833984375 97.25811767578125 97.82743072509765625 98.520965576171875 99.15653228759765625 99.91483306884765625 100.67076873779296875 101.25823974609375 101.6925506591796875 101.6546478271484375 101.1645660400390625 99.95316314697265625 98.1589202880859375 95.16820526123046875 90.94301605224609375 85.54347991943359375 79.1574859619140625 71.64617156982421875 63.85387420654296875 57.32309722900390625 52.239902496337890625 49.17024993896484375 50.657459259033203125 52.900356292724609375 54.63602447509765625 56.696140289306640625 58.4561309814453125 58.4749755859375 57.35932159423828125 56.669300079345703125 57.74725341796875 59.48134613037109375 61.053131103515625 61.262462615966796875 60.765483856201171875 59.957363128662109375 59.003177642822265625 57.67986297607421875 55.703891754150390625 53.499980926513671875 51.2657012939453125 48.415821075439453125 45.4161224365234375 42.41573333740234375 -99999 -99999
 -99999 -99999 -99999 -99999 -99999 -99999 -99999 -99999 -99999 -99999 -99999 -99999 -99999 -99999 -99999 -99999 -99999 -99999 -99999 -99999 24.542652130126953125 30.890520095825195312 39.580718994140625 50.675846099853515625 61.2593536376953125 69.103607177734375 73.14170074462890625 74.62883758544921875 73.98188018798828125 71.6787567138671875 68.45440673828125 68.01275634765625 70.67253875732421875 73.27789306640625 75.1161346435546875 76.18991851806640625 76.85742950439453125 77.416412353515625 77.69439697265625 77.8455810546875 77.8153533935546875 77.85425567626953125 77.794097900390625 77.84781646728515625 77.78128814697265625 77.48413848876953125 77.697021484375 77.6948699951171875 77.77447509765625 78.133087158203125 78.28556060791015625 78.55934906005859375 78.9349212646484375 79.4790496826171875 79.8626708984375 80.496185302734375 81.1558074951171875 81.69492340087890625 82.4189453125 83.147491455078125 83.7547149658203125 84.51152801513671875 85.2427825927734375 85.8968353271484375 86.57947540283203125 87.25225830078125 87.9187469482421875 88.56996917724609375 89.19962310791015625 89.8205413818359375 90.409576416015625 91.02216339111328125 91.556915283203125 92.09999847412109375 92.6608428955078125 93.15154266357421875 93.6718292236328125 94.1240997314453125 94.5795135498046875 95.02458953857421875 95.43808746337890625 95.91846466064453125 96.4464874267578125 97.1551971435546875 97.76992034912109375 98.7357177734375 99.70934295654296875 100.77266693115234375 101.58172607421875 102.22614288330078125 102.233245849609375 101.8551788330078125 100.30602264404296875 97.99193572998046875 94.5432281494140625 89.85448455810546875 83.8296966552734375 76.86818695068359375 69.2047271728515625 61.474193572998046875 54.84310150146484375 50.69876861572265625 49.441619873046875 51.150936126708984375 55.16231536865234375 58.019001007080078125 61.146575927734375 63.84973907470703125 63.8149566650390625 61.81043243408203125 61.165802001953125 61.1291961669921875 61.89559173583984375 62.5908355712890625 62.40167236328125 61.86382293701171875 60.95711517333984375 59.8507080078125 58.42795562744140625 56.65230560302734375 54.47772979736328125 52.0168609619140625 49.508975982666015625 46.852298736572265625 44.042430877685546875 -99999 -99999
 -99999 -99999 -99999 -99999 -99999 -99999 -99999 -99999 -99999 -99999 -99999 -99999 -99999 -99999 -99999 -99999 -99999 -99999 -99999 25.657304763793945312 30.476884841918945312 37.55164337158203125 46.302471160888671875 56.569568634033203125 66.626739501953125 72.754730224609375 72.581024169921875 72.78662872314453125 71.01961517333984375 66.47714996337890625 60.839611053466796875 60.13704681396484375 64.65024566650390625 68.4888458251953125 70.83188629150390625 72.6976165771484375 73.9748077392578125 74.81172943115234375 75.42105865478515625 75.82021331787109375 76.10965728759765625 76.24842071533203125 76.43016815185546875 76.45928955078125 76.47955322265625 76.57837677001953125 76.69190216064453125 76.88242340087890625 77.11191558837890625 77.343109130859375 77.60015869140625 78.04920196533203125 78.58154296875 78.96321868896484375 79.65493011474609375 80.30953216552734375 80.904998779296875 81.67185211181640625 82.3990631103515625 83.1222076416015625 83.8467864990234375 84.6025543212890625 85.32846832275390625 86.03684234619140625 86.72075653076171875 87.393646240234375 88.047271728515625 88.6851806640625 89.28983306884765625 89.87841033935546875 90.44260406494140625 90.9754180908203125 91.4745025634765625 91.96831512451171875 92.443603515625 92.803192138671875 93.31241607666015625 93.70301055908203125 93.95709991455078125 94.3849945068359375 94.64249420166015625 95.04632568359375 95.412384033203125 96.072784423828125 96.9047698974609375 98.00244140625 99.2166748046875 100.55632781982421875 101.6095123291015625 102.70676422119140625 103.03356170654296875 102.56976318359375 101.118865966796875 98.50649261474609375 94.58850860595703125 89.5289154052734375 83.24636077880859375 76.11724090576171875 68.4547271728515625 60.532558441162109375 53.908916473388671875 50.506381988525390625 49.347522735595703125 52.491725921630859375 59.6318817138671875 62.527435302734375 67.37964630126953125 71.0092620849609375 70.0037841796875 67.923095703125 66.2668304443359375 65.0656890869140625 64.49988555908203125 64.0499420166015625 63.699764251708984375 63.077373504638671875 61.973781585693359375 60.6636505126953125 59.289325714111328125 57.548915863037109375 55.624996185302734375 53.277721405029296875 50.7534332275390625 47.98101806640625 45.253772735595703125 -99999 -99999
 -99999 -99999 -99999 -99999 -99999 -99999 -99999 -99999 -99999 -99999 -99999 -99999 -99999 -99999 -99999 -99999 -99999 -99999 -99999 31.947906494140625 37.577457427978515625 44.396472930908203125 52.735260009765625 60.942317962646484375 68.4387664794921875 72.91278839111328125 71.687225341796875 72.31848907470703125 71.9253997802734375 68.53458404541015625 63.827472686767578125 63.56081390380859375 65.271636962890625 67.009857177734375 68.97626495361328125 70.6105194091796875 71.823272705078125 72.7283477783203125 73.5492401123046875 74.074676513671875 74.48508453369140625 74.80289459228515625 75.01535797119140625 75.47516632080078125 75.43367767333984375 75.411163330078125 75.785614013671875 75.94936370849609375 76.14031982421875 76.42888641357421875 76.98607635498046875 77.378082275390625 78.015228271484375 78.56406402587890625 79.2561492919921875 80.043853759765625 80.67588043212890625 81.52648162841796875 82.35787200927734375 83.06313323974609375 83.8878936767578125 84.6631622314453125 85.39510345458984375 86.1055908203125 86.79799652099609375 87.4740447998046875 88.1173553466796875 88.727935791015625 89.31420135498046875 89.87906646728515625 90.4018402099609375 90.87947845458984375 91.32616424560546875 91.75214385986328125 92.13513946533203125 92.4781494140625 92.9029693603515625 93.09063720703125 93.39437103271484375 93.54584503173828125 93.735687255859375 93.91498565673828125 94.1741485595703125 94.771636962890625 95.65076446533203125 96.91756439208984375 98.24547576904296875 99.99642181396484375 101.8351287841796875 103.25818634033203125 103.8663330078125 103.50865936279296875 102.1891021728515625 99.1795654296875 95.4445953369140625 90.34554290771484375 84.17366790771484375 76.91253662109375 69.63459014892578125 62.02508544921875 56.400432586669921875 52.184078216552734375 52.401302337646484375 55.643711090087890625 61.196704864501953125 67.7716522216796875 74.78543853759765625 77.38193511962890625 74.870635986328125 72.10723876953125 69.72927093505859375 68.56833648681640625 67.3862762451171875 66.3381195068359375 65.4241485595703125 64.25272369384765625 63.06842041015625 61.609951019287109375 60.066600799560546875 58.43781280517578125 56.5761260986328125 54.40052032470703125 51.953350067138671875 49.5056304931640625 46.6733245849609375 -99999 -99999
 -99999 -99999 -99999 -99999 -99999 -99999 -99999 -99999 -99999 -99999 -99999 -99999 -99999 -99999 -99999 -99999 -99999 -99999 33.83238983154296875 38.591907501220703125 44.261318206787109375 50.62355804443359375 57.79706573486328125 64.8332061767578125 70.76197052001953125 73.3744659423828125 74.668304443359375 75.81008148193359375 75.80027008056640625 73.7652130126953125 72.32879638671875 71.49260711669921875 69.5841217041015625 68.95953369140625 69.1302337646484375 69.3926544189453125 70.09774017333984375 71.09393310546875 71.90106964111328125 72.606170654296875 73.07193756103515625 73.45929718017578125 73.8564300537109375 73.965972900390625 74.0382843017578125 74.4308624267578125 74.6014556884765625 74.9227447509765625 75.36162567138671875 75.61199188232421875 76.2116241455078125 76.82949066162109375 77.312835693359375 78.09380340576171875 78.877288818359375 79.558685302734375 80.4853668212890625 81.3500213623046875 82.159027099609375 83.02759552001953125 83.88323974609375 84.63608551025390625 85.39853668212890625 86.1277923583984375 86.8184967041015625 87.4883880615234375 88.1176605224609375 88.708648681640625 89.286651611328125 89.82082366943359375 90.2973480224609375 90.7254486083984375 91.1224517822265625 91.4607391357421875 91.74956512451171875 92.05735015869140625 92.32320404052734375 92.50261688232421875 92.67099761962890625 92.759796142578125 92.64603424072265625 92.67962646484375 92.7121734619140625 93.06702423095703125 93.9655609130859375 95.2384796142578125 97.11104583740234375 99.49489593505859375 101.54317474365234375 103.34152984619140625 104.787322998046875 104.7039337158203125 103.29560089111328125 100.4615325927734375 96.73711395263671875 91.779693603515625 85.729705810546875 79.0653533935546875 71.8829345703125 64.837921142578125 59.097316741943359375 56.45787811279296875 56.61373138427734375 59.35874176025390625 65.35140228271484375 71.23944091796875 75.97006988525390625 78.7805633544921875 75.01543426513671875 73.75446319580078125 72.29302978515625 70.4066314697265625 69.5817718505859375 68.09667205810546875 66.5010223388671875 65.46014404296875 64.110321044921875 62.622051239013671875 61.027072906494140625 59.347499847412109375 57.546909332275390625 55.4918670654296875 53.2714691162109375 50.694080352783203125 47.97432708740234375 -99999 -99999
 -99999 -99999 -99999 -99999 -99999 -99999 -99999 -99999 -99999 -99999 -99999 -99999 -99999 -99999 -99999 -99999 -99999 -99999 39.979736328125 44.76941680908203125 50.08266448974609375 56.10475921630859375 62.736583709716796875 68.68970489501953125 73.40547943115234375 76.4692535400390625 78.49961090087890625 79.9298553466796875 79.135406494140625 76.7260894775390625 76.303314208984375 76.6142578125 73.95946502685546875 71.10935211181640625 69.1283111572265625 68.70815277099609375 69.30621337890625 70.07805633544921875 70.61505126953125 71.35821533203125 71.8106689453125 72.21282196044921875 72.501434326171875 72.90128326416015625 73.11163330078125 73.31610870361328125 73.52223968505859375 74.00704193115234375 74.225250244140625 74.78290557861328125 75.36932373046875 75.924957275390625 76.63869476318359375 77.4342193603515625 78.29479217529296875 79.17848968505859375 80.14128875732421875 81.10556793212890625 81.9969329833984375 82.920318603515625 83.77986907958984375 84.60172271728515625 85.37181854248046875 86.09856414794921875 86.7935943603515625 87.44120025634765625 88.04642486572265625 88.63959503173828125 89.191864013671875 89.69535064697265625 90.13683319091796875 90.51694488525390625 90.86373138427734375 91.07625579833984375 91.33579254150390625 91.547271728515625 91.75745391845703125 91.96413421630859375 92.1587371826171875 91.91900634765625 91.73462677001953125 91.26021575927734375 91.06255340576171875 91.06548309326171875 91.81972503662109375 93.48458099365234375 95.5728302001953125 98.1471099853515625 100.9568634033203125 103.83935546875 105.35485076904296875 105.853759765625 104.30483245849609375 101.29132080078125 97.74138641357421875 93.76361846923828125 87.75246429443359375 81.10926055908203125 74.4319915771484375 68.70207977294921875 64.2220458984375 61.2249298095703125 61.0388641357421875 63.83261871337890625 67.8966522216796875 72.4182891845703125 76.6279296875 77.87371063232421875 76.95192718505859375 75.42560577392578125 73.402069091796875 73.01045989990234375 71.2804107666015625 69.84276580810546875 67.875030517578125 66.21569061279296875 64.88222503662109375 63.51651763916015625 61.968914031982421875 60.3524322509765625 58.6683197021484375 56.752292633056640625 54.527980804443359375 51.991649627685546875 49.353794097900390625 46.335910797119140625 -99999
 -99999 -99999 -99999 -99999 -99999 -99999 -99999 -99999 -99999 -99999 -99999 -99999 -99999 -99999 -99999 -99999 -99999 -99999 45.575725555419921875 50.3990631103515625 55.543216705322265625 61.341220855712890625 67.1484222412109375 72.375244140625 76.8556365966796875 80.21923828125 81.87408447265625 82.68267822265625 80.72991180419921875 77.535491943359375 79.14958953857421875 81.67923736572265625 76.1248931884765625 70.96834564208984375 68.74118804931640625 68.13909912109375 68.418792724609375 69.0604705810546875 69.8084716796875 70.49524688720703125 70.86017608642578125 71.17919921875 71.54266357421875 71.72844696044921875 71.80313873291015625 72.23610687255859375 72.44931793212890625 72.81797027587890625 73.14261627197265625 73.72084808349609375 74.46323394775390625 75.11226654052734375 75.9623260498046875 76.87264251708984375 77.77721405029296875 78.7620086669921875 79.781036376953125 80.74738311767578125 81.80136871337890625 82.75460052490234375 83.67165374755859375 84.505340576171875 85.2985687255859375 86.01929473876953125 86.6946868896484375 87.324371337890625 87.92397308349609375 88.50276947021484375 89.03818511962890625 89.52005767822265625 89.95534515380859375 90.26140594482421875 90.52947235107421875 90.70615386962890625 90.8233184814453125 90.9639434814453125 91.10959625244140625 91.3490447998046875 91.36313629150390625 91.24639892578125 90.6787567138671875 89.94879913330078125 89.0828094482421875 88.89306640625 89.396484375 90.918212890625 93.4111480712890625 96.7496337890625 100.0310821533203125 103.2269134521484375 105.85540008544921875 106.58251190185546875 105.2858123779296875 102.1693115234375 98.420928955078125 94.3296966552734375 89.150421142578125 83.41376495361328125 77.8870391845703125 72.3411407470703125 67.75208282470703125 65.52800750732421875 65.77288818359375 67.4822540283203125 70.453765869140625 73.62368011474609375 76.5078582763671875 77.5011444091796875 76.6869964599609375 76.3407135009765625 75.06406402587890625 73.631072998046875 72.46833038330078125 71.10303497314453125 68.87512969970703125 67.1446990966796875 65.3819580078125 64.01323699951171875 62.816165924072265625 61.441192626953125 59.772129058837890625 57.997089385986328125 55.943210601806640625 53.445087432861328125 50.65097808837890625 47.69620513916015625 -99999
 -99999 -99999 -99999 -99999 -99999 -99999 -99999 -99999 -99999 -99999 -99999 -99999 -99999 -99999 -99999 -99999 -99999 46.764118194580078125 50.992919921875 55.523578643798828125 60.626583099365234375 65.75675201416015625 70.9157562255859375 75.72217559814453125 79.94316864013671875 83.1395721435546875 85.168853759765625 85.57718658447265625 84.1015625 81.46604156494140625 79.1295623779296875 79.489349365234375 73.5084686279296875 68.71520233154296875 67.063446044921875 67.27652740478515625 67.94795989990234375 68.83335113525390625 69.3465423583984375 69.68424224853515625 70.0127716064453125 70.208221435546875 70.35321807861328125 70.47245025634765625 70.723114013671875 70.9478912353515625 71.34441375732421875 71.717315673828125 72.111602783203125 72.74365997314453125 73.46832275390625 74.16600799560546875 75.12667083740234375 76.14090728759765625 77.128692626953125 78.22443389892578125 79.3374176025390625 80.46566009521484375 81.5421142578125 82.55619049072265625 83.50942230224609375 84.4287567138671875 85.19055938720703125 85.914825439453125 86.51824188232421875 87.14003753662109375 87.74158477783203125 88.29460906982421875 88.82855987548828125 89.3313446044921875 89.783172607421875 90.06925201416015625 90.193878173828125 90.25286865234375 90.2368011474609375 90.26265716552734375 90.4348907470703125 90.7166290283203125 90.94641876220703125 90.75506591796875 90.06118011474609375 88.66815185546875 86.94945526123046875 85.87677001953125 86.34111785888671875 88.21148681640625 91.17545318603515625 94.5934295654296875 98.37941741943359375 102.0846405029296875 105.3637237548828125 106.76290130615234375 105.41500091552734375 102.60715484619140625 99.14574432373046875 95.1866455078125 90.3714447021484375 85.27545166015625 79.92304229736328125 75.8176116943359375 72.18785858154296875 70.07955169677734375 69.9187469482421875 70.79083251953125 72.549530029296875 74.73856353759765625 76.32512664794921875 77.2733306884765625 77.9288177490234375 76.20761871337890625 75.24594879150390625 74.71675872802734375 73.74608612060546875 71.47940826416015625 69.0236053466796875 66.85999298095703125 65.55472564697265625 64.578399658203125 63.358547210693359375 62.4804229736328125 61.197040557861328125 59.334453582763671875 57.3094940185546875 54.88040924072265625 52.045318603515625 48.902400970458984375 -99999
 -99999 -99999 -99999 -99999 -99999 -99999 -99999 -99999 -99999 -99999 -99999 -99999 -99999 -99999 -99999 -99999 -99999 51.556285858154296875 55.578723907470703125 60.17617034912109375 64.73867034912109375 69.65876007080078125 74.15167236328125 78.621307373046875 82.67444610595703125 85.83795166015625 88.24131011962890625 89.869842529296875 90.06195068359375 90.654693603515625 91.82147216796875 86.1063079833984375 70.04798126220703125 66.06528472900390625 66.025604248046875 67.10614013671875 68.092376708984375 68.7449951171875 69.140716552734375 69.31195068359375 69.345001220703125 69.2949676513671875 69.46616363525390625 69.47493743896484375 69.48416900634765625 69.70996856689453125 70.0441741943359375 70.26473236083984375 70.91826629638671875 71.53533935546875 72.1831512451171875 73.2109375 74.1833953857421875 75.17987060546875 76.38339996337890625 77.5943450927734375 78.88812255859375 80.05925750732421875 81.2605133056640625 82.3570556640625 83.41043853759765625 84.25066375732421875 85.05670166015625 85.74279022216796875 86.44110107421875 86.93346405029296875 87.46112823486328125 87.998382568359375 88.56475067138671875 89.093353271484375 89.5294342041015625 89.81250762939453125 89.9387359619140625 89.8088226318359375 89.55633544921875 89.407501220703125 89.52191925048828125 90.074310302734375 90.691650390625 90.7855072021484375 90.16373443603515625 87.68133544921875 84.83000946044921875 83.05321502685546875 83.1738739013671875 85.21633148193359375 88.61324310302734375 92.490020751953125 96.51425933837890625 100.3214569091796875 103.44359588623046875 104.9080963134765625 104.52927398681640625 102.35430908203125 99.0835723876953125 95.4318695068359375 91.31525421142578125 86.91779327392578125 82.71227264404296875 78.6752471923828125 75.64453125 73.838714599609375 72.92978668212890625 73.57010650634765625 74.35961151123046875 75.56516265869140625 76.84365081787109375 77.059783935546875 76.89495086669921875 77.17891693115234375 76.48572540283203125 75.3076934814453125 73.64119720458984375 71.10062408447265625 68.4937591552734375 66.87017822265625 65.73047637939453125 65.01726531982421875 64.36682891845703125 63.562168121337890625 62.536708831787109375 60.9269256591796875 58.78870391845703125 56.346927642822265625 53.35948944091796875 50.12137603759765625 -99999
 -99999 -99999 -99999 -99999 -99999 -99999 -99999 -99999 -99999 -99999 -99999 -99999 -99999 -99999 -99999 -99999 52.359039306640625 56.125766754150390625 59.943492889404296875 64.16658782958984375 68.48300933837890625 72.87973785400390625 77.1581573486328125 81.32764434814453125 85.2842559814453125 88.194549560546875 90.833984375 92.96219635009765625 94.8531951904296875 96.4768829345703125 97.55816650390625 89.1657562255859375 76.00341033935546875 67.6686248779296875 66.92356109619140625 68.52147674560546875 69.16701507568359375 69.3680267333984375 69.19512939453125 68.8719635009765625 68.553009033203125 68.344024658203125 68.30035400390625 68.08254241943359375 68.169036865234375 68.35767364501953125 68.59917449951171875 69.016571044921875 69.59426116943359375 70.3125 71.12346649169921875 72.05522918701171875 73.17378997802734375 74.335601806640625 75.6584014892578125 77.06139373779296875 78.361480712890625 79.66831207275390625 80.981536865234375 82.19208526611328125 83.26761627197265625 84.13387298583984375 84.93148040771484375 85.565277099609375 86.09943389892578125 86.5198211669921875 87.08060455322265625 87.6285247802734375 88.24092864990234375 88.829010009765625 89.362030029296875 89.68466949462890625 89.769073486328125 89.3549652099609375 88.8304443359375 88.400360107421875 88.39667510986328125 89.1071929931640625 90.35363006591796875 91.34027862548828125 90.77318572998046875 87.444610595703125 82.7965850830078125 79.44464111328125 79.9195709228515625 82.732879638671875 86.422149658203125 90.50711822509765625 94.4223785400390625 98.0436248779296875 101.0300445556640625 102.71225738525390625 102.47869873046875 101.024566650390625 98.648956298828125 95.56082916259765625 91.94712066650390625 88.27828216552734375 84.634063720703125 81.32099151611328125 78.55120086669921875 76.6068267822265625 75.6814727783203125 75.602569580078125 75.7853240966796875 76.441925048828125 77.14139556884765625 77.4230804443359375 77.3603515625 76.4357757568359375 75.50255584716796875 74.71376800537109375 72.68231201171875 69.8781585693359375 67.598419189453125 66.07801055908203125 65.385406494140625 65.45333099365234375 65.5271148681640625 65.0486602783203125 64.02881622314453125 62.675891876220703125 60.398799896240234375 57.779327392578125 54.716953277587890625 51.021026611328125 -99999
 -99999 -99999 -99999 -99999 -99999 -99999 -99999 -99999 -99999 -99999 -99999 -99999 -99999 -99999 -99999 -99999 56.62891387939453125 60.101802825927734375 63.815990447998046875 67.6489715576171875 71.7147369384765625 75.66542816162109375 79.528228759765625 83.12323760986328125 86.4376220703125 89.75708770751953125 92.433990478515625 94.8052520751953125 96.8162994384765625 98.37351226806640625 97.44927978515625 92.60074615478515625 81.48209381103515625 73.53150177001953125 71.4626312255859375 71.24481964111328125 70.76013946533203125 69.935272216796875 69.08477783203125 68.3303070068359375 67.72646331787109375 67.20996856689453125 66.9307098388671875 66.8138580322265625 66.72611236572265625 66.9119720458984375 67.20922088623046875 67.49755859375 68.13944244384765625 68.92504119873046875 69.72920989990234375 70.8798675537109375 71.97731781005859375 73.3595123291015625 74.80220794677734375 76.264404296875 77.764984130859375 79.24077606201171875 80.76993560791015625 82.0509796142578125 83.1361236572265625 84.05623626708984375 84.82295989990234375 85.36235809326171875 85.7899169921875 86.150665283203125 86.59691619873046875 87.1237335205078125 87.654449462890625 88.4859466552734375 89.17139434814453125 89.680511474609375 89.7177276611328125 89.208282470703125 88.20182037353515625 87.1667633056640625 86.71979522705078125 87.8458404541015625 90.03729248046875 92.300567626953125 92.69013214111328125 89.090911865234375 82.72083282470703125 76.9658966064453125 78.09694671630859375 81.0194244384765625 84.6548614501953125 88.5614471435546875 92.39226531982421875 95.85369110107421875 98.5792388916015625 100.18096160888671875 100.59307861328125 99.5648040771484375 97.6736907958984375 95.21120452880859375 92.351409912109375 89.2280120849609375 86.039093017578125 83.12786865234375 80.78147125244140625 79.01250457763671875 77.845062255859375 77.34833526611328125 77.41832733154296875 77.16442108154296875 77.52216339111328125 77.40319061279296875 76.7265167236328125 76.01446533203125 74.77099609375 73.7197418212890625 71.67819976806640625 69.2415924072265625 66.9831695556640625 65.87503814697265625 65.97678375244140625 66.37822723388671875 66.65345001220703125 66.614471435546875 65.7797393798828125 64.16332244873046875 61.916046142578125 59.16814422607421875 55.907238006591796875 52.134670257568359375 -99999
 -99999 -99999 -99999 -99999 -99999 -99999 -99999 -99999 -99999 -99999 -99999 -99999 -99999 -99999 -99999 57.3055572509765625 60.48830413818359375 63.788623809814453125 67.27291107177734375 70.8561248779296875 74.3994293212890625 77.81803131103515625 81.27440643310546875 84.55860137939453125 87.6444549560546875 90.34166717529296875 93.00861358642578125 95.24338531494140625 96.83997344970703125 97.3623046875 95.6941070556640625 91.1161956787109375 85.1048736572265625 79.712615966796875 75.9033966064453125 74.29500579833984375 72.12387847900390625 70.00716400146484375 68.5052337646484375 67.407501220703125 66.48485565185546875 65.84241485595703125 65.56204986572265625 65.1978759765625 65.16248321533203125 65.152130126953125 65.3411865234375 65.8808135986328125 66.465667724609375 67.251983642578125 68.26743316650390625 69.42971038818359375 70.7840118408203125 72.2815704345703125 73.82372283935546875 75.4662933349609375 77.11742401123046875 78.89253997802734375 80.41625213623046875 81.7922210693359375 83.03209686279296875 84.06983184814453125 84.74437713623046875 85.1407318115234375 85.4398651123046875 85.7179718017578125 85.97637939453125 86.428314208984375 87.15634918212890625 88.05572509765625 89.07990264892578125 89.836395263671875 90.0878143310546875 89.2978668212890625 87.79846954345703125 85.529205322265625 84.70240020751953125 85.44142913818359375 88.7559356689453125 92.54296112060546875 94.37552642822265625 92.13811492919921875 84.419464111328125 78.904937744140625 78.39789581298828125 80.74373626708984375 83.94104766845703125 87.44866943359375 90.8555450439453125 93.90503692626953125 96.39032745361328125 98.0135498046875 98.50193023681640625 98.0225982666015625 96.78907012939453125 94.75498199462890625 92.3290557861328125 89.70531463623046875 87.12703704833984375 84.66703033447265625 82.45534515380859375 80.784454345703125 79.57550048828125 78.67230987548828125 77.93316650390625 77.85498809814453125 77.5891571044921875 77.3058013916015625 76.78368377685546875 75.957000732421875 74.73065948486328125 73.22049713134765625 71.35216522216796875 69.21793365478515625 67.4046478271484375 66.51284027099609375 66.67462158203125 67.7377166748046875 68.67917633056640625 68.60540771484375 67.65363311767578125 65.89328765869140625 63.425289154052734375 60.35971832275390625 56.9935150146484375 52.921474456787109375 -99999
 -99999 -99999 -99999 -99999 -99999 -99999 -99999 -99999 -99999 -99999 -99999 -99999 -99999 -99999 -99999 61.06795501708984375 64.09842681884765625 67.234344482421875 70.36132049560546875 73.5069580078125 76.6790924072265625 79.755584716796875 82.7015228271484375 85.340545654296875 87.82859039306640625 90.1198883056640625 92.3077392578125 93.9455413818359375 95.2432098388671875 96.02959442138671875 95.37146759033203125 92.865203857421875 87.8777313232421875 82.5051727294921875 78.05340576171875 74.62574005126953125 71.49697113037109375 68.96262359619140625 67.22516632080078125 65.93201446533203125 65.0155792236328125 64.15937042236328125 63.595706939697265625 63.25177764892578125 63.217220306396484375 63.2775115966796875 63.64766693115234375 64.0670318603515625 64.82183074951171875 65.67986297607421875 66.73334503173828125 68.102447509765625 69.4459228515625 71.1342315673828125 72.81511688232421875 74.6704864501953125 76.5177459716796875 78.36517333984375 80.0433197021484375 81.78810882568359375 83.11283111572265625 84.18379974365234375 84.692352294921875 84.94842529296875 85.06101226806640625 85.0178070068359375 85.1743927001953125 85.54631805419921875 86.385223388671875 87.3826446533203125 88.659759521484375 90.03888702392578125 90.76433563232421875 90.17169952392578125 88.0116119384765625 84.95323944091796875 82.1256561279296875 82.07375335693359375 86.6551361083984375 91.93007659912109375 93.745391845703125 92.09032440185546875 86.51906585693359375 82.330718994140625 81.0818023681640625 82.03217315673828125 84.13013458251953125 86.935455322265625 89.8709564208984375 92.58962249755859375 94.76792144775390625 96.19158172607421875 96.784942626953125 96.54839324951171875 95.61707305908203125 94.13265228271484375 92.27742767333984375 90.08026123046875 87.82395172119140625 85.64276123046875 83.7102813720703125 82.11214447021484375 80.74835968017578125 79.81406402587890625 79.17890167236328125 78.46411895751953125 77.87847137451171875 77.2825927734375 76.58502197265625 75.64609527587890625 74.49200439453125 73.06644439697265625 71.44824981689453125 69.94063568115234375 68.614837646484375 68.22599029541015625 68.667449951171875 69.78089141845703125 70.72721099853515625 70.91500091552734375 69.43366241455078125 67.15999603271484375 64.8581390380859375 61.466609954833984375 57.713581085205078125 53.444293975830078125 -99999
 -99999 -99999 -99999 -99999 -99999 -99999 -99999 -99999 -99999 -99999 -99999 -99999 -99999 -99999 61.862201690673828125 64.6229400634765625 67.4502410888671875 70.317047119140625 73.17137908935546875 75.9993133544921875 78.67960357666015625 81.18349456787109375 83.558837890625 85.7182159423828125 87.63886260986328125 89.226043701171875 90.43921661376953125 91.43231201171875 92.19696044921875 92.719451904296875 93.1818695068359375 91.73328399658203125 86.652069091796875 81.22675323486328125 76.79944610595703125 73.30173492431640625 70.11594390869140625 67.4788665771484375 65.46414947509765625 63.96132659912109375 62.845916748046875 62.01160430908203125 61.594257354736328125 61.0974884033203125 61.10439300537109375 61.24240875244140625 61.515071868896484375 62.159290313720703125 62.855010986328125 63.826641082763671875 65.03633880615234375 66.30033111572265625 67.9842376708984375 69.7364044189453125 71.70737457275390625 73.68749237060546875 75.800018310546875 77.7275543212890625 79.7604827880859375 81.76552581787109375 83.1512908935546875 84.2738800048828125 84.7823486328125 84.918731689453125 84.65200042724609375 84.27222442626953125 84.2386627197265625 84.52898406982421875 85.11946868896484375 86.30098724365234375 87.880126953125 90.2221527099609375 92.0050506591796875 91.4238739013671875 88.8880462646484375 85.2233734130859375 80.82042694091796875 80.12439727783203125 84.3740234375 88.85225677490234375 91.38426971435546875 90.65111541748046875 87.64110565185546875 84.48809814453125 83.32018280029296875 83.727142333984375 85.12493133544921875 87.25994873046875 89.48980712890625 91.635955810546875 93.44187164306640625 94.71291351318359375 95.37023162841796875 95.36067962646484375 94.683380126953125 93.48555755615234375 91.93453216552734375 90.14157867431640625 88.26739501953125 86.3800811767578125 84.610595703125 83.01944732666015625 81.742431640625 80.56586456298828125 79.54584503173828125 78.8914031982421875 78.050750732421875 77.3034820556640625 76.45966339111328125 75.519439697265625 74.419647216796875 73.21533966064453125 71.95721435546875 70.8375244140625 70.19680023193359375 70.062591552734375 70.74526214599609375 72.02767181396484375 73.236846923828125 72.64644622802734375 70.65145111083984375 67.97530364990234375 65.263153076171875 62.01197052001953125 58.352016448974609375 53.59799957275390625 -99999
 -99999 -99999 -99999 -99999 -99999 -99999 -99999 -99999 -99999 -99999 -99999 -99999 -99999 -99999 65.338409423828125 67.98290252685546875 70.63287353515625 73.24027252197265625 75.75725555419921875 78.12567138671875 80.3951873779296875 82.4583587646484375 84.29052734375 85.78202056884765625 86.92119598388671875 87.7015838623046875 88.10140228271484375 88.10569000244140625 87.56784820556640625 86.43145751953125 84.94232177734375 82.68579864501953125 79.439178466796875 76.30706024169921875 73.20682525634765625 70.47270965576171875 67.8359832763671875 65.40300750732421875 63.32968902587890625 61.640361785888671875 60.646808624267578125 59.310527801513671875 58.61370086669921875 58.711883544921875 58.706241607666015625 58.89092254638671875 59.372447967529296875 60.0058135986328125 60.777439117431640625 61.857173919677734375 63.1279754638671875 64.63854217529296875 66.36275482177734375 68.34500885009765625 70.5029296875 72.6128082275390625 74.87129974365234375 77.193572998046875 79.57244110107421875 81.58209228515625 83.229949951171875 84.85015106201171875 85.25629425048828125 84.81591796875 84.15948486328125 83.39304351806640625 82.9826812744140625 83.13701629638671875 83.8542327880859375 84.79022216796875 86.6848907470703125 90.10601806640625 92.78897857666015625 93.17111968994140625 89.98423004150390625 86.34656524658203125 82.41943359375 81.76055145263671875 83.6175537109375 86.8327789306640625 88.77231597900390625 88.8650054931640625 87.69901275634765625 86.1649932861328125 85.29718017578125 85.2803497314453125 86.203704833984375 87.69959259033203125 89.4086151123046875 91.13935089111328125 92.6451263427734375 93.7067413330078125 94.2241973876953125 94.24155426025390625 93.784942626953125 92.90065765380859375 91.63170623779296875 90.10456085205078125 88.46772003173828125 86.7827911376953125 85.16796112060546875 83.69571685791015625 82.3341522216796875 81.150726318359375 80.08443450927734375 79.2571563720703125 78.36339569091796875 77.36829376220703125 76.4906005859375 75.4875640869140625 74.48639678955078125 73.4590301513671875 72.49040985107421875 71.81870269775390625 71.491973876953125 71.7152557373046875 72.41802978515625 73.49184417724609375 74.2553253173828125 74.0479736328125 70.4725494384765625 67.80034637451171875 65.4954071044921875 62.533779144287109375 58.38562774658203125 53.34316253662109375 -99999
 -99999 -99999 -99999 -99999 -99999 -99999 -99999 -99999 -99999 -99999 -99999 -99999 -99999 66.17792510986328125 68.679779052734375 71.20211029052734375 73.65624237060546875 75.9814910888671875 78.177642822265625 80.21175384521484375 82.02840423583984375 83.61855316162109375 84.8299560546875 85.6826934814453125 86.13100433349609375 86.1480560302734375 85.41304779052734375 84.21257781982421875 82.36231231689453125 79.6274261474609375 76.0371246337890625 72.5106048583984375 70.84073638916015625 69.768768310546875 68.44023895263671875 66.74648284912109375 64.9150543212890625 63.03154754638671875 61.21012115478515625 59.0948944091796875 56.3273162841796875 56.338298797607421875 55.739147186279296875 55.70706939697265625 56.1683197021484375 56.57772064208984375 57.009632110595703125 57.835845947265625 58.598239898681640625 59.824275970458984375 61.085956573486328125 62.682857513427734375 64.7150115966796875 66.72882080078125 69.056549072265625 71.5255889892578125 73.98863983154296875 76.31363677978515625 78.92195892333984375 81.46750640869140625 83.80062103271484375 85.409332275390625 85.87298583984375 85.34516143798828125 84.02864837646484375 82.48657989501953125 81.80181884765625 81.9820098876953125 82.528045654296875 83.2514190673828125 84.31253814697265625 87.6030426025390625 93.160125732421875 93.2336883544921875 90.48920440673828125 87.2218780517578125 84.3634185791015625 83.31000518798828125 84.35332489013671875 85.97991943359375 87.45450592041015625 88.08123016357421875 87.5172882080078125 86.92601776123046875 86.45941925048828125 86.60753631591796875 87.2488861083984375 88.34186553955078125 89.614105224609375 90.95194244384765625 92.07834625244140625 92.921783447265625 93.416229248046875 93.5015106201171875 93.0735015869140625 92.3014984130859375 91.2466583251953125 89.96839141845703125 88.52042388916015625 87.0101165771484375 85.52498626708984375 84.07459259033203125 82.81125640869140625 81.51291656494140625 80.3621673583984375 79.261016845703125 78.3220062255859375 77.602142333984375 76.55666351318359375 75.54046630859375 74.6009063720703125 73.8585205078125 73.1535491943359375 72.5237884521484375 72.2830047607421875 72.48779296875 73.04912567138671875 73.5544891357421875 73.46871185302734375 71.68543243408203125 69.04737091064453125 66.76847076416015625 65.4427032470703125 62.649959564208984375 58.46143341064453125 52.500843048095703125 -99999
 -99999 -99999 -99999 -99999 -99999 -99999 -99999 -99999 -99999 -99999 -99999 -99999 -99999 69.49497222900390625 71.962127685546875 74.31101226806640625 76.5418548583984375 78.6337738037109375 80.583160400390625 82.26993560791015625 83.66341400146484375 84.73296356201171875 85.4744415283203125 85.8576507568359375 85.52481842041015625 84.733245849609375 83.2054443359375 81.09253692626953125 78.2261505126953125 74.34578704833984375 70.02152252197265625 66.33808135986328125 65.0765228271484375 64.7288665771484375 64.18030548095703125 63.306400299072265625 62.018978118896484375 60.393268585205078125 58.68132781982421875 56.685272216796875 54.8046417236328125 52.484035491943359375 52.807651519775390625 53.053638458251953125 53.3653106689453125 53.9591522216796875 54.57750701904296875 55.223850250244140625 56.196044921875 57.440319061279296875 58.820751190185546875 60.569599151611328125 62.708667755126953125 65.128173828125 67.71663665771484375 70.3263397216796875 72.8303375244140625 75.4999237060546875 78.07293701171875 81.07332611083984375 84.05499267578125 86.46723175048828125 87.27802276611328125 86.189056396484375 83.52809906005859375 81.29599761962890625 80.47911834716796875 80.76645660400390625 81.47310638427734375 82.15517425537109375 82.059356689453125 85.37226104736328125 89.49137115478515625 91.0778961181640625 89.84075164794921875 87.7134857177734375 85.57872772216796875 84.678497314453125 84.9285125732421875 86.093414306640625 87.04711151123046875 87.56456756591796875 87.66292572021484375 87.4715576171875 87.3885345458984375 87.53057098388671875 88.03462982177734375 88.94222259521484375 89.91449737548828125 90.90348052978515625 91.80643463134765625 92.50103759765625 92.81314849853515625 92.80939483642578125 92.48998260498046875 91.8619232177734375 90.90448760986328125 89.74237823486328125 88.45198822021484375 87.06842041015625 85.6005859375 84.31816864013671875 82.9654998779296875 81.7184906005859375 80.52788543701171875 79.34595489501953125 78.47943878173828125 77.32312774658203125 76.28047943115234375 75.54241180419921875 74.8031158447265625 73.84215545654296875 73.106201171875 72.77364349365234375 72.66783905029296875 72.67763519287109375 72.775054931640625 72.6965179443359375 72.04583740234375 70.49593353271484375 67.78515625 66.635986328125 66.51934051513671875 63.4565582275390625 57.437713623046875 50.550556182861328125 -99999
 -99999 -99999 -99999 -99999 -99999 -99999 -99999 -99999 -99999 -99999 -99999 -99999 70.330841064453125 72.78476715087890625 75.12802886962890625 77.34880828857421875 79.43778228759765625 81.29364013671875 82.91979217529296875 84.294036865234375 85.39185333251953125 86.10047149658203125 86.3656463623046875 86.15766143798828125 85.36041259765625 84.00423431396484375 81.96546173095703125 79.06027984619140625 75.5542449951171875 71.57965850830078125 67.5179290771484375 64.3477935791015625 62.481945037841796875 61.87097930908203125 61.17609405517578125 60.287296295166015625 59.27768707275390625 58.065166473388671875 56.6843414306640625 54.677997589111328125 52.42534637451171875 51.435207366943359375 50.684169769287109375 50.756744384765625 51.1672210693359375 51.57028961181640625 52.254978179931640625 52.899227142333984375 53.85083770751953125 55.106006622314453125 56.62665557861328125 58.461971282958984375 60.68392181396484375 63.329433441162109375 66.10520172119140625 68.8984222412109375 71.31571197509765625 74.053009033203125 76.94820404052734375 80.135772705078125 84.0557708740234375 87.56310272216796875 89.18849945068359375 87.72623443603515625 83.507049560546875 79.9323883056640625 79.3224029541015625 79.82514190673828125 80.55561065673828125 81.4113616943359375 82.38510894775390625 84.580352783203125 87.6079254150390625 88.9976654052734375 88.62189483642578125 87.46251678466796875 86.34667205810546875 85.6822967529296875 85.8148193359375 86.3582916259765625 87.0481414794921875 87.5894317626953125 87.83974456787109375 87.94113922119140625 88.03789520263671875 88.3485107421875 88.82959747314453125 89.47895050048828125 90.24027252197265625 91.03319549560546875 91.67261505126953125 92.140899658203125 92.394622802734375 92.36454010009765625 92.02510833740234375 91.401214599609375 90.55927276611328125 89.52906036376953125 88.31838226318359375 87.02150726318359375 85.68433380126953125 84.3411102294921875 83.06368255615234375 81.77407073974609375 80.57056427001953125 79.38816070556640625 78.226898193359375 77.26248931884765625 76.38677978515625 75.34024810791015625 74.44146728515625 73.76465606689453125 73.20337677001953125 72.70281982421875 72.305145263671875 72.1337738037109375 71.95693206787109375 71.628570556640625 70.73761749267578125 69.2374420166015625 67.75494384765625 67.005462646484375 66.428070068359375 62.256053924560546875 54.78462982177734375 46.9130859375 40.268444061279296875
 -99999 -99999 -99999 -99999 -99999 -99999 -99999 -99999 -99999 -99999 -99999 71.10715484619140625 73.6207733154296875 76.0149993896484375 78.28717803955078125 80.360687255859375 82.2474365234375 83.92639923095703125 85.37691497802734375 86.54637908935546875 87.29177093505859375 87.6529998779296875 87.57199859619140625 87.00955963134765625 85.8598175048828125 83.99903106689453125 81.513885498046875 78.40984344482421875 74.74315643310546875 70.59557342529296875 66.95919036865234375 63.93599700927734375 61.794551849365234375 60.233135223388671875 59.218475341796875 58.3658447265625 57.314075469970703125 55.874301910400390625 54.3359222412109375 52.86527252197265625 51.282985687255859375 50.000873565673828125 49.120243072509765625 48.6494598388671875 48.731090545654296875 49.262592315673828125 49.602375030517578125 50.40297698974609375 51.3937225341796875 52.5279541015625 54.04486083984375 56.120319366455078125 58.433132171630859375 61.462574005126953125 64.7812652587890625 67.82010650634765625 70.59259796142578125 72.6338348388671875 74.8953704833984375 78.6324615478515625 83.40216064453125 88.99312591552734375 91.6511383056640625 89.73465728759765625 84.42774200439453125 79.8748626708984375 78.86592864990234375 79.28278350830078125 79.85466766357421875 80.82099151611328125 81.99924468994140625 83.92583465576171875 85.85968780517578125 87.195068359375 87.5446624755859375 87.2946319580078125 86.652557373046875 86.37261199951171875 86.36312103271484375 86.79755401611328125 87.30892181396484375 87.7854766845703125 88.10712432861328125 88.39284515380859375 88.67461395263671875 88.9774169921875 89.45162200927734375 90.0233612060546875 90.58864593505859375 91.1447296142578125 91.6364288330078125 91.98606109619140625 92.10992431640625 91.9856414794921875 91.6423492431640625 91.0542449951171875 90.24576568603515625 89.2537078857421875 88.12821197509765625 86.90702056884765625 85.6016845703125 84.300506591796875 82.9911651611328125 81.7185211181640625 80.4777679443359375 79.29351806640625 78.15154266357421875 76.94100189208984375 75.89414215087890625 75.05606842041015625 74.20984649658203125 73.40245819091796875 72.7160186767578125 72.1586456298828125 71.486846923828125 71.3277740478515625 70.837921142578125 70.07759857177734375 69.05126953125 67.82447052001953125 66.447296142578125 65.4586944580078125 63.3197479248046875 57.79425048828125 49.860088348388671875 42.305912017822265625 35.8730316162109375
 -99999 -99999 -99999 -99999 -99999 -99999 -99999 -99999 -99999 -99999 -99999 74.3733978271484375 76.86572265625 79.19136810302734375 81.35887908935546875 83.35143280029296875 85.128204345703125 86.68341827392578125 87.9003448486328125 88.814544677734375 89.3720855712890625 89.54876708984375 89.23215484619140625 88.34702301025390625 86.92021942138671875 84.8775787353515625 82.244415283203125 78.99444580078125 75.2863311767578125 71.47374725341796875 67.75464630126953125 64.44260406494140625 62.0029296875 60.208965301513671875 58.647136688232421875 57.029834747314453125 55.4816741943359375 54.079410552978515625 52.6190643310546875 51.066394805908203125 49.744503021240234375 48.525623321533203125 47.742641448974609375 47.420185089111328125 47.195064544677734375 47.20536041259765625 47.516826629638671875 47.979450225830078125 49.0235595703125 50.052066802978515625 51.48963165283203125 53.516155242919921875 56.123264312744140625 59.329502105712890625 63.440784454345703125 67.17620086669921875 69.952606201171875 71.06040191650390625 72.54506683349609375 75.79027557373046875 81.01647186279296875 88.029388427734375 93.040313720703125 91.0184478759765625 85.962066650390625 81.59055328369140625 79.6644134521484375 79.29141998291015625 79.73963165283203125 80.62081146240234375 81.79067230224609375 83.40106201171875 84.8800048828125 86.06404876708984375 86.67467498779296875 86.76367950439453125 86.7457122802734375 86.68206024169921875 86.87546539306640625 87.1915283203125 87.64250946044921875 88.06191253662109375 88.48287200927734375 88.8685455322265625 89.2126617431640625 89.5671844482421875 90.02063751220703125 90.4709625244140625 90.92707061767578125 91.3678131103515625 91.69800567626953125 91.87939453125 91.9019317626953125 91.72649383544921875 91.3463592529296875 90.7422637939453125 89.9557952880859375 88.99990081787109375 87.90424346923828125 86.71297454833984375 85.44335174560546875 84.14496612548828125 82.84632110595703125 81.5687713623046875 80.27413177490234375 79.0892333984375 77.88092803955078125 76.75576019287109375 75.61945343017578125 74.57708740234375 73.64713287353515625 72.73006439208984375 71.79662322998046875 71.36009979248046875 70.71240234375 70.00624847412109375 69.1571044921875 68.20372772216796875 67.02924346923828125 65.6749267578125 63.916873931884765625 61.718753814697265625 57.633113861083984375 51.98722076416015625 44.44284820556640625 37.53777313232421875 31.442064285278320312
 -99999 -99999 -99999 -99999 -99999 -99999 -99999 -99999 -99999 -99999 74.98056793212890625 77.57740020751953125 80.02921295166015625 82.31873321533203125 84.4372406005859375 86.36573028564453125 87.99640655517578125 89.42464447021484375 90.54062652587890625 91.34712982177734375 91.76366424560546875 91.74306488037109375 91.2390289306640625 90.24835968017578125 88.739105224609375 86.614166259765625 83.93405914306640625 80.59787750244140625 77.0491790771484375 73.2912445068359375 69.6630706787109375 66.34819793701171875 63.3453369140625 60.69361114501953125 58.45400238037109375 56.43508148193359375 54.5503387451171875 52.59862518310546875 50.9925994873046875 49.496974945068359375 48.2331085205078125 47.1807403564453125 46.443828582763671875 46.0897216796875 45.729061126708984375 45.271209716796875 45.19240570068359375 45.629352569580078125 46.264522552490234375 47.602443695068359375 49.029705047607421875 51.039806365966796875 53.535602569580078125 57.359584808349609375 61.903102874755859375 67.21950531005859375 70.2842864990234375 70.21149444580078125 70.4637298583984375 73.1986236572265625 78.35001373291015625 85.57717132568359375 90.3935089111328125 90.0250396728515625 86.57363128662109375 83.09192657470703125 80.92633056640625 80.17905426025390625 80.2854461669921875 80.765625 81.792388916015625 83.02458953857421875 84.2474517822265625 85.3060150146484375 86.02121734619140625 86.46832275390625 86.65139007568359375 86.92758941650390625 87.20843505859375 87.59131622314453125 88.03351593017578125 88.4794921875 88.9289398193359375 89.34300994873046875 89.74150848388671875 90.09607696533203125 90.51543426513671875 90.941162109375 91.272918701171875 91.56470489501953125 91.7769012451171875 91.86623382568359375 91.80747222900390625 91.54402923583984375 91.10211181640625 90.47360992431640625 89.68173980712890625 88.74291229248046875 87.66414642333984375 86.48488616943359375 85.23116302490234375 83.91977691650390625 82.6243743896484375 81.3053436279296875 80.02329254150390625 78.738067626953125 77.5020751953125 76.326934814453125 75.17438507080078125 74.10391998291015625 73.0877227783203125 72.1233978271484375 71.1909027099609375 70.2547607421875 69.3343353271484375 68.39688873291015625 67.3294830322265625 66.00557708740234375 64.80597686767578125 62.65311431884765625 60.15533447265625 56.856166839599609375 52.27971649169921875 46.3020477294921875 39.811412811279296875 33.254726409912109375 27.568883895874023438
 -99999 -99999 -99999 -99999 -99999 -99999 -99999 -99999 -99999 75.363739013671875 78.09032440185546875 80.68965911865234375 83.14734649658203125 85.4328155517578125 87.49514007568359375 89.3393096923828125 90.95543670654296875 92.3166656494140625 93.3555450439453125 94.0074920654296875 94.34453582763671875 94.255523681640625 93.75745391845703125 92.74028778076171875 91.1536407470703125 89.046722412109375 86.43010711669921875 83.2851715087890625 79.92133331298828125 76.1555938720703125 72.4512176513671875 68.7587432861328125 65.3759002685546875 62.202983856201171875 59.25921630859375 56.32108306884765625 53.80284881591796875 51.513118743896484375 49.411510467529296875 47.57190704345703125 46.519985198974609375 45.85822296142578125 45.537471771240234375 45.057697296142578125 44.71506500244140625 44.27342987060546875 43.8066864013671875 43.69318389892578125 44.2648162841796875 45.295169830322265625 46.839008331298828125 48.391254425048828125 51.065547943115234375 55.037555694580078125 60.531314849853515625 67.376800537109375 71.627288818359375 71.45284271240234375 70.2613372802734375 72.79825592041015625 77.26129150390625 82.98793792724609375 86.56073760986328125 87.51056671142578125 86.088653564453125 83.48500823974609375 81.86815643310546875 80.8852691650390625 80.5590972900390625 81.0805816650390625 81.816650390625 82.68117523193359375 83.8406524658203125 84.797210693359375 85.6145172119140625 86.1826629638671875 86.607879638671875 87.04187774658203125 87.47101593017578125 87.93953704833984375 88.41365814208984375 88.900726318359375 89.37371063232421875 89.816375732421875 90.2351837158203125 90.63022613525390625 91.02658843994140625 91.32110595703125 91.60157012939453125 91.81395721435546875 91.9366302490234375 91.90227508544921875 91.72834014892578125 91.4010772705078125 90.915863037109375 90.26876068115234375 89.4449462890625 88.475433349609375 87.3942413330078125 86.21993255615234375 84.9685211181640625 83.656707763671875 82.31537628173828125 80.98671722412109375 79.642059326171875 78.3189544677734375 77.02679443359375 75.7781524658203125 74.56578826904296875 73.3917388916015625 72.2360076904296875 71.12261199951171875 70.02931976318359375 68.9399871826171875 67.81441497802734375 66.5424346923828125 65.19962310791015625 63.69568634033203125 61.70490264892578125 59.18669891357421875 56.226593017578125 52.42303466796875 47.692150115966796875 42.1425323486328125 35.748867034912109375 29.956098556518554688 24.698148727416992188
 -99999 -99999 -99999 -99999 -99999 -99999 -99999 -99999 -99999 78.36522674560546875 81.1411285400390625 83.7653656005859375 86.20233917236328125 88.45481109619140625 90.54334259033203125 92.32126617431640625 93.95568084716796875 95.23638916015625 96.2221832275390625 96.899658203125 97.22919464111328125 97.1213531494140625 96.57051849365234375 95.5894927978515625 94.1592559814453125 92.2585906982421875 89.74124908447265625 86.91259002685546875 83.50330352783203125 79.78720855712890625 75.92491912841796875 72.005035400390625 68.0803375244140625 64.1262664794921875 60.344509124755859375 56.780666351318359375 53.342803955078125 50.161899566650390625 47.900970458984375 46.176113128662109375 45.182346343994140625 44.510303497314453125 44.48332977294921875 44.352108001708984375 43.990154266357421875 43.305538177490234375 42.889553070068359375 41.907806396484375 41.983501434326171875 44.117191314697265625 45.03087615966796875 46.540996551513671875 48.901973724365234375 53.0095977783203125 58.942901611328125 67.41129302978515625 72.94318389892578125 73.1400604248046875 72.6810150146484375 74.0048065185546875 77.54460906982421875 81.6313018798828125 84.47290802001953125 85.45421600341796875 85.0077972412109375 83.67934417724609375 82.44928741455078125 81.54686737060546875 81.2290496826171875 81.51519775390625 82.097808837890625 82.87941741943359375 83.69144439697265625 84.5165557861328125 85.33411407470703125 86.0063629150390625 86.59806060791015625 87.14659881591796875 87.6879425048828125 88.2237396240234375 88.76686859130859375 89.302642822265625 89.8062744140625 90.28556060791015625 90.72019195556640625 91.06513214111328125 91.45188140869140625 91.73123931884765625 91.9535369873046875 92.06583404541015625 92.07500457763671875 91.9664306640625 91.7283172607421875 91.34051513671875 90.77011871337890625 90.05559539794921875 89.20599365234375 88.2311248779296875 87.13545989990234375 85.92704010009765625 84.6520233154296875 83.32590484619140625 81.9652099609375 80.5732269287109375 79.18785858154296875 77.8162994384765625 76.46039581298828125 75.12574005126953125 73.8071746826171875 72.5258026123046875 71.2614593505859375 70.0055694580078125 68.74674224853515625 67.424407958984375 66.04328155517578125 64.64746856689453125 62.95526123046875 60.87450408935546875 58.624034881591796875 56.09534454345703125 52.68300628662109375 48.480220794677734375 43.880435943603515625 38.51584625244140625 32.85704803466796875 27.437580108642578125 -99999
 -99999 -99999 -99999 -99999 -99999 -99999 -99999 -99999 78.3640594482421875 81.2859649658203125 84.07547760009765625 86.72296142578125 89.2113037109375 91.5205230712890625 93.5669097900390625 95.3851165771484375 96.9598388671875 98.2754058837890625 99.29450225830078125 99.9259185791015625 100.2308349609375 100.15233612060546875 99.80267333984375 98.97785186767578125 97.64605712890625 95.965728759765625 93.6396942138671875 90.88292694091796875 87.73006439208984375 84.1217498779296875 80.14310455322265625 75.8222503662109375 71.30368804931640625 66.65476226806640625 61.959186553955078125 57.380970001220703125 53.06188201904296875 49.375057220458984375 46.398651123046875 44.208858489990234375 43.18714141845703125 43.120208740234375 43.3782806396484375 43.915058135986328125 43.81501007080078125 43.253475189208984375 42.09061431884765625 41.3578338623046875 41.503238677978515625 42.75286865234375 43.943859100341796875 45.02603912353515625 48.333026885986328125 53.46096038818359375 59.48870086669921875 66.877044677734375 72.30810546875 74.02793121337890625 74.90720367431640625 76.3810577392578125 78.48471832275390625 81.2277374267578125 83.21004486083984375 84.25250244140625 84.16320037841796875 83.58394622802734375 82.6794281005859375 82.050140380859375 81.73725128173828125 81.76876068115234375 82.26149749755859375 82.72452545166015625 83.64006805419921875 84.36163330078125 85.10285186767578125 85.85134124755859375 86.56341552734375 87.20488739013671875 87.85272216796875 88.48670196533203125 89.09705352783203125 89.68798828125 90.23244476318359375 90.7327117919921875 91.183380126953125 91.576080322265625 91.8913116455078125 92.130889892578125 92.2958526611328125 92.3303070068359375 92.2777557373046875 92.09166717529296875 91.7493438720703125 91.2720489501953125 90.65891265869140625 89.9111480712890625 89.00975799560546875 87.9753875732421875 86.84024810791015625 85.6171722412109375 84.31952667236328125 82.95259857177734375 81.54593658447265625 80.11328887939453125 78.6878662109375 77.23197174072265625 75.7994842529296875 74.37935638427734375 72.96868133544921875 71.5664520263671875 70.172027587890625 68.757354736328125 67.31081390380859375 65.8766937255859375 64.3166351318359375 62.60689544677734375 60.523754119873046875 58.44104766845703125 55.752750396728515625 52.7305450439453125 49.18372344970703125 45.2832183837890625 40.640949249267578125 35.522052764892578125 30.3209381103515625 25.222553253173828125 -99999
 -99999 -99999 -99999 -99999 -99999 -99999 -99999 77.994140625 81.09229278564453125 84.0794677734375 86.94409942626953125 89.63552093505859375 92.14177703857421875 94.44364166259765625 96.562713623046875 98.4503326416015625 100.03716278076171875 101.3300933837890625 102.34358978271484375 103.05712127685546875 103.46340179443359375 103.51441192626953125 103.20516204833984375 102.60524749755859375 101.532135009765625 100.11157989501953125 98.19150543212890625 95.7346649169921875 92.68134307861328125 89.06627655029296875 84.910980224609375 80.22518157958984375 75.16251373291015625 69.78839111328125 64.0924224853515625 58.457172393798828125 52.983486175537109375 48.18962860107421875 44.552032470703125 42.3143463134765625 41.38623809814453125 41.5963592529296875 42.8963623046875 43.89176177978515625 44.143726348876953125 43.367473602294921875 41.53124237060546875 40.4480743408203125 40.721988677978515625 41.571483612060546875 41.837032318115234375 44.755023956298828125 50.530696868896484375 57.110820770263671875 63.2491302490234375 69.260009765625 73.28276824951171875 75.6809234619140625 76.97852325439453125 78.16182708740234375 79.89711761474609375 81.69769287109375 83.14757537841796875 83.888458251953125 83.9208526611328125 83.4423828125 82.86203765869140625 82.199737548828125 82.0347900390625 82.1074066162109375 82.35533905029296875 82.8320159912109375 83.480987548828125 84.2982177734375 85.0135955810546875 85.7533721923828125 86.53939056396484375 87.27904510498046875 88.00928497314453125 88.7339935302734375 89.41275787353515625 90.05207061767578125 90.636260986328125 91.18677520751953125 91.648651123046875 92.031158447265625 92.32527923583984375 92.50536346435546875 92.67057037353515625 92.63426971435546875 92.4825439453125 92.212615966796875 91.8151397705078125 91.284149169921875 90.5912933349609375 89.7581634521484375 88.8051605224609375 87.7401123046875 86.57086181640625 85.2927093505859375 83.94229888916015625 82.53638458251953125 81.08635711669921875 79.61081695556640625 78.1023406982421875 76.5844573974609375 75.0686798095703125 73.55673980712890625 72.05532073974609375 70.53106689453125 68.9994049072265625 67.45754241943359375 65.8570098876953125 64.21619415283203125 62.3704833984375 60.483036041259765625 58.256084442138671875 55.741668701171875 53.04163360595703125 49.960418701171875 46.337154388427734375 42.326206207275390625 37.736408233642578125 33.055362701416015625 28.227502822875976562 23.607540130615234375 -99999
 -99999 -99999 -99999 -99999 -99999 -99999 -99999 80.56594085693359375 83.72249603271484375 86.75617218017578125 89.65789794921875 92.41202545166015625 94.9756927490234375 97.37462615966796875 99.51789093017578125 101.4140777587890625 103.0597991943359375 104.4425201416015625 105.4990997314453125 106.25072479248046875 106.695709228515625 106.902374267578125 106.81992340087890625 106.4456634521484375 105.6818695068359375 104.50731658935546875 102.85640716552734375 100.795806884765625 98.05226898193359375 94.59116363525390625 90.340576171875 85.398590087890625 79.6692352294921875 73.31204986572265625 66.66417694091796875 59.691249847412109375 53.135066986083984375 47.3939208984375 42.86077117919921875 39.7592620849609375 38.838901519775390625 39.961284637451171875 41.97101593017578125 44.036285400390625 45.1141510009765625 43.85382080078125 41.75637054443359375 40.34283447265625 40.56215667724609375 41.366607666015625 43.0095062255859375 47.424907684326171875 56.11339569091796875 63.16727447509765625 68.00528717041015625 71.9155120849609375 75.18405914306640625 77.1838531494140625 78.56630706787109375 79.80519866943359375 81.1715850830078125 82.3547515869140625 83.3092803955078125 83.81330108642578125 83.75354766845703125 83.43984222412109375 82.914825439453125 82.54656219482421875 82.25103759765625 82.134246826171875 82.45529937744140625 82.86163330078125 83.3925628662109375 84.101409912109375 84.85186004638671875 85.65472412109375 86.5067901611328125 87.32647705078125 88.1644744873046875 88.93527984619140625 89.69232940673828125 90.4127044677734375 91.065032958984375 91.615875244140625 92.1020965576171875 92.49749755859375 92.76827239990234375 92.97014617919921875 92.99477386474609375 92.919647216796875 92.7225799560546875 92.39517974853515625 91.90702056884765625 91.27985382080078125 90.52477264404296875 89.64434051513671875 88.6419677734375 87.50115203857421875 86.264739990234375 84.94495391845703125 83.55374908447265625 82.1031646728515625 80.5909271240234375 79.04595184326171875 77.4757232666015625 75.8964080810546875 74.3081817626953125 72.70702362060546875 71.06977081298828125 69.4811553955078125 67.82016754150390625 66.213348388671875 64.37923431396484375 62.540618896484375 60.476284027099609375 58.323848724365234375 56.0269622802734375 53.477298736572265625 50.543384552001953125 47.179309844970703125 43.72936248779296875 39.525203704833984375 35.430355072021484375 31.013662338256835938 26.450986862182617188 -99999 -99999
 -99999 -99999 -99999 -99999 -99999 -99999 79.66019439697265625 82.9703216552734375 86.1851043701171875 89.29901123046875 92.27974700927734375 95.05214691162109375 97.72381591796875 100.1773529052734375 102.41584014892578125 104.3855743408203125 106.07848358154296875 107.48358154296875 108.59711456298828125 109.43866729736328125 109.9784393310546875 110.25409698486328125 110.40631103515625 110.1314239501953125 109.70165252685546875 109.0694122314453125 108.1050262451171875 106.33354949951171875 103.8506317138671875 100.52117156982421875 96.23603057861328125 90.937652587890625 84.71938323974609375 77.58428955078125 69.7745513916015625 61.7696533203125 53.78032684326171875 46.617279052734375 40.959873199462890625 37.396331787109375 36.290706634521484375 37.825592041015625 41.073322296142578125 44.44269561767578125 46.00566864013671875 44.8875579833984375 42.520908355712890625 40.618770599365234375 41.40450286865234375 43.200107574462890625 46.56049346923828125 52.651966094970703125 61.663501739501953125 68.7990875244140625 72.33818817138671875 75.0575103759765625 77.20337677001953125 79.064727783203125 80.19617462158203125 81.1513671875 82.15740203857421875 83.1060638427734375 83.7460174560546875 83.8387298583984375 83.8773040771484375 83.5131683349609375 82.92505645751953125 82.6331787109375 82.3280029296875 82.18695068359375 82.25200653076171875 82.73377227783203125 83.235748291015625 83.8721160888671875 84.68471527099609375 85.5340576171875 86.43262481689453125 87.32326507568359375 88.2511138916015625 89.141937255859375 89.9844207763671875 90.75400543212890625 91.457183837890625 92.06147003173828125 92.56668853759765625 92.95758056640625 93.22705078125 93.354095458984375 93.37375640869140625 93.2593231201171875 92.97728729248046875 92.55901336669921875 92.00762176513671875 91.321014404296875 90.5046539306640625 89.53137969970703125 88.4461669921875 87.2571258544921875 85.9727630615234375 84.59973907470703125 83.13762664794921875 81.618377685546875 80.05332183837890625 78.4571990966796875 76.82398223876953125 75.15778350830078125 73.47216033935546875 71.82232666015625 70.09381103515625 68.41614532470703125 66.575897216796875 64.756317138671875 62.79235076904296875 60.7657928466796875 58.651828765869140625 56.42212677001953125 53.916110992431640625 51.13498687744140625 48.16461944580078125 44.893260955810546875 41.245639801025390625 37.483978271484375 33.368404388427734375 29.0720672607421875 24.828458786010742188 -99999 -99999
 -99999 -99999 -99999 -99999 -99999 -99999 81.85996246337890625 85.23107147216796875 88.496429443359375 91.66516876220703125 94.71434783935546875 97.61206817626953125 100.37145233154296875 102.89249420166015625 105.2023162841796875 107.25897216796875 109.041748046875 110.51009368896484375 111.6623382568359375 112.54035186767578125 113.13736724853515625 113.5861053466796875 113.69942474365234375 113.82442474365234375 113.89312744140625 113.61985015869140625 112.93018341064453125 111.8787689208984375 109.96593475341796875 106.8814849853515625 102.56504058837890625 97.19725799560546875 90.50363922119140625 82.882476806640625 73.957550048828125 64.3495025634765625 54.91973876953125 46.44138336181640625 39.592159271240234375 35.059600830078125 33.225982666015625 35.537448883056640625 39.534923553466796875 43.5950469970703125 45.779201507568359375 45.346790313720703125 43.558383941650390625 42.6046142578125 43.642848968505859375 45.833400726318359375 49.85492706298828125 56.441318511962890625 64.26045989990234375 70.67743682861328125 74.39519500732421875 76.83941650390625 78.8935089111328125 79.97110748291015625 81.1555633544921875 82.2303619384765625 83.32266998291015625 84.09424591064453125 84.3860626220703125 84.545501708984375 84.11174774169921875 83.53464508056640625 83.0794219970703125 82.5662689208984375 82.30986785888671875 82.088348388671875 82.1772003173828125 82.45121002197265625 83.0618896484375 83.66259765625 84.407989501953125 85.30957794189453125 86.3274078369140625 87.345306396484375 88.365386962890625 89.31104278564453125 90.23464202880859375 91.1026458740234375 91.90367889404296875 92.508270263671875 93.0430908203125 93.4369354248046875 93.6855010986328125 93.8048858642578125 93.76340484619140625 93.58649444580078125 93.245147705078125 92.768218994140625 92.14945220947265625 91.36541748046875 90.45523834228515625 89.4241180419921875 88.281707763671875 87.02524566650390625 85.6577606201171875 84.21178436279296875 82.6996612548828125 81.13021087646484375 79.4995574951171875 77.8195648193359375 76.10839080810546875 74.42118072509765625 72.64556121826171875 70.931732177734375 69.0580291748046875 67.219573974609375 65.2672576904296875 63.2769927978515625 61.27021026611328125 59.166088104248046875 56.880527496337890625 54.489719390869140625 51.87923431396484375 49.062992095947265625 45.9383087158203125 42.823108673095703125 39.187480926513671875 35.40843963623046875 31.52333831787109375 27.541259765625 23.498676300048828125 -99999 -99999
 -99999 -99999 -99999 -99999 -99999 80.40721893310546875 83.87287139892578125 87.281768798828125 90.6214447021484375 93.88213348388671875 96.985748291015625 99.98790740966796875 102.82994842529296875 105.49065399169921875 107.92287445068359375 110.04883575439453125 111.898345947265625 113.45578765869140625 114.66278839111328125 115.54819488525390625 116.1820526123046875 116.59101104736328125 116.9257049560546875 117.217376708984375 117.42708587646484375 117.84230804443359375 118.068634033203125 117.50434112548828125 116.03227996826171875 113.531402587890625 109.59990692138671875 103.86049652099609375 96.66359710693359375 88.2298583984375 78.37796783447265625 67.85190582275390625 57.189815521240234375 46.979808807373046875 39.01175689697265625 33.501331329345703125 31.511199951171875 32.93270111083984375 37.76752471923828125 41.740222930908203125 44.13897705078125 44.891605377197265625 44.691181182861328125 44.515209197998046875 45.810787200927734375 48.577945709228515625 52.5675048828125 58.585582733154296875 64.8321533203125 70.40019989013671875 74.4381561279296875 77.51800537109375 79.490692138671875 80.399932861328125 81.30600738525390625 82.54866790771484375 84.032379150390625 84.8711395263671875 85.2059478759765625 85.00959014892578125 84.46771240234375 83.770660400390625 83.03098297119140625 82.54721832275390625 82.06861114501953125 81.686187744140625 81.8251800537109375 82.06206512451171875 82.61969757080078125 83.26418304443359375 84.1156768798828125 85.12563323974609375 86.173553466796875 87.26807403564453125 88.38602447509765625 89.49981689453125 90.5144500732421875 91.450469970703125 92.262115478515625 92.97705841064453125 93.52974700927734375 93.947052001953125 94.186279296875 94.24640655517578125 94.18415069580078125 93.949127197265625 93.55956268310546875 92.98227691650390625 92.26786041259765625 91.419891357421875 90.44583892822265625 89.3345489501953125 88.09532928466796875 86.759735107421875 85.33635711669921875 83.8347015380859375 82.2467193603515625 80.59235382080078125 78.8968353271484375 77.19622039794921875 75.4044647216796875 73.6540069580078125 71.77761077880859375 69.897796630859375 67.9273223876953125 65.94155120849609375 63.980533599853515625 61.95740509033203125 59.82391357421875 57.553287506103515625 55.148761749267578125 52.645427703857421875 49.988742828369140625 47.0661468505859375 44.096813201904296875 40.789752960205078125 37.3434906005859375 33.706508636474609375 29.895174026489257812 26.015491485595703125 -99999 -99999 -99999
 -99999 -99999 -99999 -99999 -99999 82.191680908203125 85.701568603515625 89.14894866943359375 92.5296783447265625 95.84954833984375 99.07331085205078125 102.202850341796875 105.14862823486328125 107.90831756591796875 110.4534149169921875 112.74835205078125 114.72076416015625 116.2874603271484375 117.51732635498046875 118.43463134765625 119.1242523193359375 119.42218017578125 119.58672332763671875 119.9624176025390625 120.82183074951171875 121.66831207275390625 122.3914947509765625 122.8404083251953125 122.53551483154296875 120.05121612548828125 116.19854736328125 110.343658447265625 103.10199737548828125 94.290008544921875 84.06038665771484375 72.39966583251953125 60.319019317626953125 49.087108612060546875 40.344814300537109375 34.519863128662109375 31.85955047607421875 33.1484527587890625 36.54894256591796875 39.973819732666015625 42.7449798583984375 44.281768798828125 45.05561065673828125 45.904369354248046875 47.66773223876953125 50.5020751953125 54.461338043212890625 59.50057220458984375 64.55291748046875 69.705352783203125 73.53780364990234375 76.73810577392578125 78.717132568359375 79.27700042724609375 80.19400787353515625 82.252197265625 84.6819915771484375 86.0758819580078125 86.21074676513671875 85.6898345947265625 84.70488739013671875 83.837310791015625 82.82138824462890625 82.2323760986328125 81.56450653076171875 81.3115386962890625 81.30402374267578125 81.55816650390625 81.993133544921875 82.7567138671875 83.58788299560546875 84.75901031494140625 85.9570770263671875 87.18108367919921875 88.44809722900390625 89.646270751953125 90.7819671630859375 91.8286590576171875 92.815765380859375 93.5218353271484375 94.07123565673828125 94.46666717529296875 94.6985015869140625 94.75916290283203125 94.64116668701171875 94.32611083984375 93.8436737060546875 93.21492767333984375 92.433685302734375 91.49517822265625 90.41304779052734375 89.215789794921875 87.91286468505859375 86.512664794921875 85.00063323974609375 83.41049957275390625 81.757232666015625 80.04779052734375 78.291259765625 76.5442047119140625 74.65468597412109375 72.74858856201171875 70.77758026123046875 68.801025390625 66.85198974609375 64.85137939453125 62.7470855712890625 60.548786163330078125 58.2867584228515625 55.943515777587890625 53.56398773193359375 50.9662322998046875 48.16046142578125 45.21291351318359375 42.3014984130859375 38.975345611572265625 35.56620025634765625 32.04453277587890625 28.4126129150390625 24.812219619750976562 -99999 -99999 -99999
 -99999 -99999 -99999 -99999 80.2556610107421875 83.78598785400390625 87.30150604248046875 90.7718658447265625 94.20374298095703125 97.61515045166015625 100.9261016845703125 104.14727020263671875 107.2498321533203125 110.1988983154296875 112.875885009765625 115.26122283935546875 117.330413818359375 119.049468994140625 120.35790252685546875 121.32678985595703125 121.5928192138671875 121.78015899658203125 122.02547454833984375 122.40222930908203125 123.03044891357421875 124.2820587158203125 126.33935546875 127.8578033447265625 128.313995361328125 126.4806365966796875 122.4839019775390625 116.78977203369140625 109.56189727783203125 100.77394866943359375 89.7760009765625 77.7980499267578125 65.38851165771484375 53.634845733642578125 44.308807373046875 38.418613433837890625 35.452327728271484375 35.468231201171875 37.03395843505859375 39.749095916748046875 42.1057281494140625 44.143962860107421875 45.40230560302734375 47.04021453857421875 49.26125335693359375 52.0088043212890625 55.730258941650390625 59.95623779296875 64.37287139892578125 68.54663848876953125 72.04639434814453125 74.8920745849609375 76.4825592041015625 77.18814849853515625 78.62094879150390625 82.170928955078125 85.94187164306640625 87.55910491943359375 87.08617401123046875 86.0410614013671875 84.815582275390625 83.79746246337890625 82.7414398193359375 81.70446014404296875 81.09496307373046875 80.6959381103515625 80.564361572265625 80.77355194091796875 81.31304931640625 82.032440185546875 83.108062744140625 84.3618011474609375 85.7130279541015625 87.081146240234375 88.4434967041015625 89.835052490234375 91.0818634033203125 92.2106170654296875 93.2228240966796875 94.01220703125 94.62052154541015625 95.0566558837890625 95.28115081787109375 95.27490997314453125 95.08399200439453125 94.72588348388671875 94.192535400390625 93.46517181396484375 92.57331085205078125 91.54398345947265625 90.39141082763671875 89.122100830078125 87.716064453125 86.21611785888671875 84.634918212890625 82.9806976318359375 81.2593536376953125 79.4626617431640625 77.70760345458984375 75.75293731689453125 73.7990570068359375 71.83211517333984375 69.8621063232421875 67.85800933837890625 65.76032257080078125 63.605731964111328125 61.402019500732421875 59.228824615478515625 56.902927398681640625 54.47824859619140625 51.905162811279296875 49.18669891357421875 46.44017791748046875 43.66312408447265625 40.527256011962890625 37.372829437255859375 34.065032958984375 30.557432174682617188 26.996950149536132812 23.459955215454101562 -99999 -99999 -99999
 -99999 -99999 -99999 -99999 81.74263763427734375 85.17000579833984375 88.6753387451171875 92.163238525390625 95.6440887451171875 99.06249237060546875 102.52251434326171875 105.8817138671875 109.120758056640625 112.19893646240234375 115.06845855712890625 117.67983245849609375 119.89163970947265625 121.6500244140625 123.0829010009765625 123.85485076904296875 124.1697998046875 124.06398773193359375 123.6536102294921875 123.58779144287109375 124.592559814453125 126.43090057373046875 128.9544677734375 131.858428955078125 133.39410400390625 132.604766845703125 128.8782806396484375 122.2406005859375 114.90752410888671875 106.2756805419921875 95.69097900390625 83.27447509765625 70.8255462646484375 59.46356201171875 50.382610321044921875 43.790096282958984375 40.049793243408203125 38.687408447265625 39.227970123291015625 40.91996002197265625 42.77463531494140625 44.547481536865234375 46.301727294921875 48.197265625 50.29206085205078125 52.91226959228515625 56.429935455322265625 59.849761962890625 63.656024932861328125 67.29042816162109375 70.30516815185546875 72.91872406005859375 74.7687835693359375 75.5655517578125 77.52886962890625 83.08075714111328125 88.5037841796875 89.29201507568359375 88.0947418212890625 86.36475372314453125 84.9821014404296875 83.58927154541015625 82.14295196533203125 81.17417144775390625 80.24755096435546875 79.81621551513671875 79.56348419189453125 79.8372650146484375 80.38663482666015625 81.31801605224609375 82.4886322021484375 83.8414306640625 85.35453033447265625 86.935302734375 88.5386810302734375 90.019775390625 91.4273834228515625 92.68682098388671875 93.758209228515625 94.67679595947265625 95.2682952880859375 95.66291046142578125 95.853240966796875 95.83698272705078125 95.6195526123046875 95.14676666259765625 94.50749969482421875 93.69666290283203125 92.73957061767578125 91.6278228759765625 90.35414886474609375 88.97170257568359375 87.48949432373046875 85.916656494140625 84.259246826171875 82.5115203857421875 80.70537567138671875 78.89898681640625 76.9803466796875 74.9717559814453125 72.98465728759765625 70.97509765625 68.9009552001953125 66.767364501953125 64.61179351806640625 62.445491790771484375 60.22269439697265625 57.881717681884765625 55.44080352783203125 52.970668792724609375 50.305027008056640625 47.740558624267578125 45.08597564697265625 42.0742034912109375 39.000423431396484375 35.80794525146484375 32.52132415771484375 29.182523727416992188 25.766656875610351562 -99999 -99999 -99999 -99999
 -99999 -99999 -99999 79.3694305419921875 82.87195587158203125 86.309722900390625 89.770416259765625 93.245361328125 96.751220703125 100.26214599609375 103.78807830810546875 107.28603363037109375 110.7159423828125 113.99620819091796875 117.03420257568359375 119.78985595703125 122.194793701171875 124.280487060546875 125.762786865234375 126.363525390625 126.45511627197265625 126.02529144287109375 125.26357269287109375 124.53267669677734375 124.4678192138671875 125.89572906494140625 129.8161468505859375 134.8199005126953125 138.0240631103515625 137.9155120849609375 133.1513214111328125 126.57419586181640625 118.9917449951171875 110.58068084716796875 99.85095977783203125 88.17734527587890625 76.3623809814453125 65.47864532470703125 56.421154022216796875 49.82129669189453125 45.147090911865234375 42.99748992919921875 42.72811126708984375 43.219970703125 44.240711212158203125 45.75763702392578125 47.463542938232421875 49.0763397216796875 51.088565826416015625 53.79747772216796875 56.531406402587890625 59.67771148681640625 63.05879974365234375 65.996978759765625 68.9173126220703125 71.22232818603515625 73.19556427001953125 75.2418670654296875 78.636993408203125 86.47756195068359375 91.6301116943359375 90.34272003173828125 87.8467864990234375 86.129791259765625 84.7966461181640625 83.23122406005859375 81.476806640625 80.20632171630859375 79.3437347412109375 78.5350494384765625 78.2955322265625 78.4747772216796875 79.136688232421875 80.20966339111328125 81.5807952880859375 83.23838043212890625 85.019378662109375 86.8028411865234375 88.57279205322265625 90.27123260498046875 91.82276153564453125 93.19482421875 94.39263916015625 95.33492279052734375 95.98093414306640625 96.37886810302734375 96.55292510986328125 96.44536590576171875 96.1179351806640625 95.58437347412109375 94.86199188232421875 93.9726715087890625 92.8741302490234375 91.65225982666015625 90.2890777587890625 88.82247161865234375 87.25301361083984375 85.5731201171875 83.820587158203125 82.00304412841796875 80.1296844482421875 78.25446319580078125 76.19001007080078125 74.2194061279296875 72.14691162109375 70.01792144775390625 67.86965179443359375 65.72301483154296875 63.553256988525390625 61.25749969482421875 58.903011322021484375 56.53911590576171875 54.13350677490234375 51.48821258544921875 48.9642333984375 46.36286163330078125 43.47705841064453125 40.50617218017578125 37.51004791259765625 34.4305267333984375 31.199453353881835938 27.872961044311523438 24.636594772338867188 -99999 -99999 -99999 -99999
 -99999 -99999 -99999 80.50801849365234375 83.86716461181640625 87.19928741455078125 90.599456787109375 94.005950927734375 97.52790069580078125 101.109832763671875 104.743499755859375 108.36428070068359375 111.95497894287109375 115.43158721923828125 118.72257232666015625 121.7318115234375 124.3148956298828125 126.636749267578125 128.002532958984375 128.8753509521484375 128.9353485107421875 128.066497802734375 126.3360443115234375 124.70534515380859375 123.77294921875 124.7814178466796875 128.4416046142578125 135.8621673583984375 140.48388671875 140.98858642578125 136.968475341796875 129.5537567138671875 121.9527130126953125 113.1109161376953125 103.3146514892578125 92.178009033203125 81.2410125732421875 71.10308837890625 62.3678436279296875 55.4502716064453125 50.7011260986328125 47.77455902099609375 46.258106231689453125 46.05515289306640625 46.43317413330078125 47.618976593017578125 48.759914398193359375 50.294612884521484375 52.28968048095703125 54.400249481201171875 56.827281951904296875 59.542575836181640625 62.322021484375 64.92205047607421875 67.53399658203125 69.80088043212890625 72.2229461669921875 75.0154571533203125 79.27761077880859375 84.72524261474609375 88.1738433837890625 87.5930938720703125 86.66806793212890625 85.979705810546875 84.32529449462890625 82.31861114501953125 80.7971954345703125 79.240234375 77.74443817138671875 76.9138336181640625 76.6153717041015625 76.79758453369140625 77.63525390625 79.04132843017578125 80.704620361328125 82.60802459716796875 84.6062469482421875 86.65192413330078125 88.70146942138671875 90.60610198974609375 92.35634613037109375 93.84514617919921875 95.0839080810546875 96.1075592041015625 96.782470703125 97.14917755126953125 97.2460479736328125 97.08997344970703125 96.69509124755859375 96.06952667236328125 95.19289398193359375 94.1779937744140625 92.972625732421875 91.66399383544921875 90.22034454345703125 88.61975860595703125 86.940093994140625 85.1807861328125 83.3592376708984375 81.459075927734375 79.49671173095703125 77.53447723388671875 75.48325347900390625 73.3282928466796875 71.1912689208984375 69.07405853271484375 66.91773223876953125 64.65503692626953125 62.34112548828125 60.044986724853515625 57.707370758056640625 55.26389312744140625 52.70963287353515625 50.1997222900390625 47.608783721923828125 44.81279754638671875 42.020965576171875 39.145877838134765625 36.14940643310546875 33.025424957275390625 29.866344451904296875 26.712266921997070312 23.437435150146484375 -99999 -99999 -99999 -99999
 -99999 -99999 77.91722869873046875 81.45168304443359375 84.69701385498046875 87.8877105712890625 91.1336517333984375 94.4764251708984375 97.964996337890625 101.57091522216796875 105.30115509033203125 109.102630615234375 112.90412139892578125 116.551239013671875 120.02088165283203125 123.231689453125 126.2172393798828125 128.4564666748046875 130.23236083984375 131.3378143310546875 131.3652496337890625 130.3874664306640625 128.2804107666015625 125.23392486572265625 122.7604827880859375 122.71993255615234375 124.94435882568359375 134.239410400390625 139.6261749267578125 140.213165283203125 136.705963134765625 131.2505340576171875 123.8345794677734375 115.05736541748046875 105.58624267578125 95.55194091796875 85.381866455078125 75.8971405029296875 67.46338653564453125 60.8411102294921875 55.87660980224609375 52.3232421875 50.32817840576171875 49.225330352783203125 49.20232391357421875 49.59157562255859375 50.3961334228515625 51.514133453369140625 53.159099578857421875 54.88338470458984375 56.84276580810546875 59.245426177978515625 61.47890472412109375 63.784130096435546875 66.206146240234375 68.2386474609375 70.81652069091796875 73.36644744873046875 77.02394866943359375 80.95494842529296875 83.42032623291015625 84.2124481201171875 85.6251983642578125 85.273223876953125 83.29341888427734375 81.56371307373046875 79.7646026611328125 77.70790863037109375 75.92957305908203125 74.84909820556640625 74.4392852783203125 74.8943939208984375 76.1370849609375 77.7367706298828125 79.6414794921875 81.87625885009765625 84.25893402099609375 86.63942718505859375 88.90582275390625 91.02423858642578125 92.9356689453125 94.586761474609375 95.943115234375 96.94133758544921875 97.61507415771484375 97.9884796142578125 98.059112548828125 97.7963409423828125 97.25344085693359375 96.4931793212890625 95.53319549560546875 94.40212249755859375 93.0898590087890625 91.6159515380859375 90.0704803466796875 88.36798858642578125 86.604400634765625 84.74617767333984375 82.817413330078125 80.8354949951171875 78.81948089599609375 76.7274169921875 74.58495330810546875 72.4958038330078125 70.34189605712890625 68.07128143310546875 65.77126312255859375 63.523494720458984375 61.24968719482421875 58.878253936767578125 56.39105224609375 53.86815643310546875 51.351741790771484375 48.9161376953125 46.188426971435546875 43.471347808837890625 40.659526824951171875 37.75275421142578125 34.7856292724609375 31.7576904296875 28.655145645141601562 25.578601837158203125 -99999 -99999 -99999 -99999 -99999
 -99999 -99999 79.08417510986328125 82.221588134765625 85.2928466796875 88.284698486328125 91.39371490478515625 94.604522705078125 98.021331787109375 101.67285919189453125 105.50304412841796875 109.42508697509765625 113.3741912841796875 117.2665252685546875 120.98972320556640625 124.396484375 127.51738739013671875 130.0643768310546875 132.0177764892578125 133.2932586669921875 133.789794921875 132.8164825439453125 130.2679290771484375 126.75957489013671875 123.0153656005859375 122.60577392578125 124.97875213623046875 130.9606170654296875 136.0696868896484375 137.518707275390625 135.2332305908203125 130.227935791015625 123.86236572265625 116.10201263427734375 107.25685882568359375 98.06505584716796875 88.74936676025390625 80.1651611328125 72.34902191162109375 65.78327178955078125 60.652713775634765625 56.787387847900390625 54.137889862060546875 52.4556427001953125 51.937511444091796875 51.688014984130859375 52.158077239990234375 52.791168212890625 54.09635162353515625 55.50922393798828125 57.07109832763671875 58.982513427734375 60.808696746826171875 62.88329315185546875 64.86908721923828125 66.76856231689453125 69.11309814453125 71.37081146240234375 74.20726776123046875 76.8820343017578125 78.98687744140625 80.39463043212890625 82.563690185546875 82.34558868408203125 81.4507904052734375 80.4495849609375 78.28833770751953125 75.5502777099609375 73.29424285888671875 72.0172576904296875 71.75859832763671875 72.67043304443359375 74.09703826904296875 76.1647796630859375 78.665252685546875 81.31221771240234375 83.97869110107421875 86.6790771484375 89.2435302734375 91.6326751708984375 93.73241424560546875 95.48523712158203125 96.92005157470703125 97.98850250244140625 98.66020965576171875 98.95367431640625 98.8503875732421875 98.50980377197265625 97.8541717529296875 96.9558258056640625 95.838897705078125 94.5330963134765625 93.08585357666015625 91.51961517333984375 89.84108734130859375 88.0499267578125 86.15918731689453125 84.21612548828125 82.22136688232421875 80.17647552490234375 78.07189178466796875 75.9910888671875 73.7853546142578125 71.5186004638671875 69.24335479736328125 67.0313568115234375 64.78583526611328125 62.428600311279296875 60.0141143798828125 57.58963775634765625 55.060825347900390625 52.68221282958984375 50.125217437744140625 47.610446929931640625 44.8671112060546875 42.107608795166015625 39.297473907470703125 36.44475555419921875 33.498779296875 30.488348007202148438 27.533559799194335938 24.34725189208984375 -99999 -99999 -99999 -99999 -99999
 -99999 76.674285888671875 80.0328826904296875 82.991058349609375 85.91719818115234375 88.52605438232421875 91.3172149658203125 94.34508514404296875 97.7317657470703125 101.356658935546875 105.24909210205078125 109.38068389892578125 113.528533935546875 117.55442047119140625 121.408447265625 125.032012939453125 128.3253021240234375 131.004638671875 133.1750640869140625 134.852294921875 135.8683624267578125 135.214508056640625 132.3699493408203125 128.77001953125 125.4027862548828125 124.58448028564453125 126.218902587890625 129.9736785888671875 133.238555908203125 134.3994140625 132.6156005859375 129.0308685302734375 123.2103271484375 116.0636444091796875 108.17853546142578125 99.9949188232421875 91.5785675048828125 83.63641357421875 76.36504364013671875 70.14595794677734375 64.88722991943359375 60.725299835205078125 57.6029205322265625 55.8936004638671875 54.571918487548828125 53.987026214599609375 53.919460296630859375 54.39846038818359375 55.03688812255859375 56.04984283447265625 57.277973175048828125 58.705280303955078125 60.089084625244140625 61.75638580322265625 63.45452880859375 65.156585693359375 67.0552215576171875 68.81401824951171875 70.82697296142578125 72.91936492919921875 74.79280853271484375 76.22464752197265625 77.75213623046875 78.6409149169921875 78.74953460693359375 79.168701171875 76.36977386474609375 72.59067535400390625 69.4597930908203125 68.34310150146484375 68.5718536376953125 69.99185943603515625 72.2006378173828125 74.861297607421875 77.67389678955078125 80.70235443115234375 83.85639190673828125 86.927947998046875 89.7242279052734375 92.34751129150390625 94.66608428955078125 96.61850738525390625 98.07089996337890625 99.08199310302734375 99.749542236328125 99.95932769775390625 99.764190673828125 99.17769622802734375 98.39359283447265625 97.3146514892578125 96.0479736328125 94.62168121337890625 93.05571746826171875 91.32574462890625 89.510772705078125 87.61734771728515625 85.64209747314453125 83.62767791748046875 81.53017425537109375 79.39910125732421875 77.2465667724609375 75.03542327880859375 72.76950836181640625 70.56478118896484375 68.310760498046875 65.95568084716796875 63.560375213623046875 61.217559814453125 58.848148345947265625 56.358768463134765625 53.86773681640625 51.384876251220703125 48.88729095458984375 46.2257080078125 43.49657440185546875 40.782314300537109375 38.018096923828125 35.1553497314453125 32.23731231689453125 29.258134841918945312 26.327074050903320312 23.243320465087890625 -99999 -99999 -99999 -99999 -99999
 -99999 77.8555755615234375 80.94952392578125 83.50878143310546875 86.11638641357421875 88.49089813232421875 91.02899169921875 93.82039642333984375 96.98809814453125 100.61318206787109375 104.65108489990234375 108.90573883056640625 113.2352447509765625 117.4498291015625 121.40308380126953125 125.149261474609375 128.5633087158203125 131.4495849609375 133.6631622314453125 135.13653564453125 136.3855133056640625 136.07562255859375 133.6645660400390625 130.618438720703125 127.7026824951171875 126.452362060546875 127.23290252685546875 129.1878662109375 130.90966796875 131.5121612548828125 130.079345703125 126.98846435546875 121.95189666748046875 115.58618927001953125 108.7265167236328125 101.3813323974609375 93.81809234619140625 86.516632080078125 79.62139892578125 73.64150238037109375 68.5324554443359375 64.30852508544921875 61.090358734130859375 58.882537841796875 57.2539520263671875 56.208770751953125 55.722736358642578125 55.8038330078125 56.0426025390625 56.56301116943359375 57.60369110107421875 58.523693084716796875 59.570217132568359375 60.889324188232421875 62.068630218505859375 63.62310791015625 65.0254058837890625 66.4149932861328125 68.0053558349609375 69.45611572265625 70.7476959228515625 72.06278228759765625 73.1909332275390625 74.1863555908203125 75.3724365234375 75.29228973388671875 72.6375885009765625 67.18564605712890625 64.46553802490234375 63.70645904541015625 65.0056304931640625 67.496185302734375 70.30332183837890625 73.40944671630859375 76.9957122802734375 80.482269287109375 83.93097686767578125 87.2855987548828125 90.47666168212890625 93.41058349609375 95.82476806640625 97.8172149658203125 99.38469696044921875 100.42517852783203125 100.91675567626953125 100.9384765625 100.6704864501953125 99.94257354736328125 98.90073394775390625 97.6648101806640625 96.2242584228515625 94.5861663818359375 92.84694671630859375 91.0139617919921875 89.0987701416015625 87.10279083251953125 85.00115203857421875 82.89882659912109375 80.74637603759765625 78.5567626953125 76.33243560791015625 74.1496429443359375 71.82448577880859375 69.468536376953125 67.128082275390625 64.79958343505859375 62.466968536376953125 60.062023162841796875 57.573093414306640625 55.0698394775390625 52.62265777587890625 50.113128662109375 47.558643341064453125 44.878147125244140625 42.225727081298828125 39.48215484619140625 36.697307586669921875 33.85364532470703125 30.983766555786132812 28.087276458740234375 25.184347152709960938 -99999 -99999 -99999 -99999 -99999 -99999
 -99999 79.0540008544921875 81.99706268310546875 84.36379241943359375 86.3177490234375 88.32158660888671875 90.36322784423828125 92.92353057861328125 95.957794189453125 99.4593658447265625 103.53119659423828125 108.1099090576171875 112.64577484130859375 116.89112091064453125 120.86363983154296875 124.6216278076171875 128.0222320556640625 131.13653564453125 133.3718109130859375 134.896881103515625 135.7122955322265625 135.37640380859375 133.728973388671875 131.356781005859375 129.4742431640625 128.395904541015625 128.4405364990234375 128.641845703125 129.5184783935546875 129.286468505859375 127.712554931640625 124.78740692138671875 120.42176055908203125 115.0354461669921875 108.84491729736328125 102.2649383544921875 95.27362060546875 88.615234375 82.31372833251953125 76.72611236572265625 71.64546966552734375 67.45438385009765625 64.3494110107421875 61.578403472900390625 59.566646575927734375 58.0607757568359375 57.51488494873046875 56.9552001953125 56.939167022705078125 57.2874755859375 57.654674530029296875 58.311794281005859375 59.150768280029296875 59.994915008544921875 60.889801025390625 61.851520538330078125 62.882862091064453125 64.05005645751953125 65.1144866943359375 65.94952392578125 67.07159423828125 67.846343994140625 68.65948486328125 69.432281494140625 69.52362060546875 68.6610260009765625 65.33005523681640625 60.6571197509765625 57.632259368896484375 59.0174102783203125 61.755527496337890625 64.89920806884765625 68.77257537841796875 72.803955078125 76.5904541015625 80.47920989990234375 84.323150634765625 88.00795745849609375 91.43804168701171875 94.5266876220703125 97.2252960205078125 99.413421630859375 100.8869476318359375 101.78884124755859375 102.2057037353515625 102.084869384765625 101.51026153564453125 100.6593170166015625 99.30926513671875 97.86937713623046875 96.2240753173828125 94.42132568359375 92.54277801513671875 90.56683349609375 88.51711273193359375 86.41986846923828125 84.2840423583984375 82.07349395751953125 79.84540557861328125 77.59110260009765625 75.368438720703125 73.01677703857421875 70.67555999755859375 68.36290740966796875 66.0059356689453125 63.62178802490234375 61.2025604248046875 58.746639251708984375 56.31744384765625 53.742069244384765625 51.31769561767578125 48.88112640380859375 46.205951690673828125 43.560306549072265625 40.8727264404296875 38.165081024169921875 35.40378570556640625 32.628021240234375 29.767339706420898438 26.968839645385742188 23.995031356811523438 -99999 -99999 -99999 -99999 -99999 -99999
 -99999 80.521453857421875 83.0864410400390625 85.01685333251953125 86.60540008544921875 88.075103759765625 89.67758941650390625 91.77722930908203125 94.4617919921875 97.95589447021484375 102.112396240234375 106.9129791259765625 111.8404083251953125 116.1240692138671875 119.88925933837890625 123.55675506591796875 127.03221893310546875 130.07861328125 132.4788818359375 133.9301910400390625 134.7203521728515625 134.47998046875 133.3874969482421875 131.92498779296875 130.17242431640625 128.9284820556640625 128.4690704345703125 128.2571868896484375 128.13861083984375 127.37801361083984375 125.62178802490234375 122.92401885986328125 118.98654937744140625 113.970672607421875 108.500335693359375 102.5069732666015625 96.34227752685546875 90.27086639404296875 84.514373779296875 79.08504486083984375 74.102874755859375 70.27680206298828125 66.75510406494140625 64.005035400390625 61.76220703125 60.153331756591796875 59.246646881103515625 58.399150848388671875 57.839588165283203125 57.93462371826171875 57.9636077880859375 58.181491851806640625 58.824249267578125 59.22021484375 59.6758880615234375 60.52657318115234375 61.131214141845703125 61.75751495361328125 62.473361968994140625 63.211505889892578125 63.68695831298828125 64.299407958984375 64.5628204345703125 64.435882568359375 64.0223388671875 61.947795867919921875 58.379100799560546875 54.28551483154296875 52.972362518310546875 55.473476409912109375 59.377399444580078125 63.737628936767578125 68.08472442626953125 72.46576690673828125 76.81352996826171875 80.942657470703125 85.001007080078125 88.94408416748046875 92.70844268798828125 96.07909393310546875 98.86556243896484375 101.020965576171875 102.55643463134765625 103.4589996337890625 103.5841522216796875 103.16603851318359375 102.31348419189453125 101.12631988525390625 99.66841888427734375 97.9758758544921875 96.047607421875 94.0825958251953125 92.0279693603515625 89.92601776123046875 87.78204345703125 85.60132598876953125 83.365570068359375 81.0974273681640625 78.81572723388671875 76.5138397216796875 74.197235107421875 71.87023162841796875 69.49941253662109375 67.1344451904296875 64.7473907470703125 62.33957672119140625 59.918109893798828125 57.4753265380859375 54.996990203857421875 52.49317169189453125 50.02251434326171875 47.450778961181640625 44.82602691650390625 42.21065521240234375 39.57775115966796875 36.8965301513671875 34.123081207275390625 31.321506500244140625 28.562364578247070312 25.735485076904296875 -99999 -99999 -99999 -99999 -99999 -99999 -99999
 -99999 81.9486083984375 84.29164886474609375 85.88849639892578125 86.913177490234375 87.51898956298828125 88.68843841552734375 90.427703857421875 92.977203369140625 96.19326019287109375 99.9659271240234375 105.19781494140625 110.59302520751953125 114.9360198974609375 118.6835784912109375 122.27097320556640625 125.69809722900390625 128.607269287109375 130.8826141357421875 132.4635162353515625 133.3081817626953125 133.3415374755859375 132.574493408203125 131.2961578369140625 130.1768341064453125 129.2620697021484375 128.1488494873046875 127.67432403564453125 126.948089599609375 125.65509796142578125 123.9411163330078125 121.08080291748046875 117.3040313720703125 113.0158233642578125 108.01750946044921875 102.62523651123046875 97.0016326904296875 91.41347503662109375 86.02071380615234375 80.77606964111328125 76.4209747314453125 72.52989959716796875 69.12728118896484375 66.11824798583984375 63.6385955810546875 61.989665985107421875 60.486358642578125 59.436183929443359375 58.6731414794921875 58.325275421142578125 58.194133758544921875 58.04456329345703125 58.25615692138671875 58.56270599365234375 58.812709808349609375 59.21538543701171875 59.5428466796875 59.95551300048828125 60.3427276611328125 60.579860687255859375 60.65940093994140625 60.82680511474609375 60.75296783447265625 60.345195770263671875 59.098602294921875 57.22872161865234375 54.66534423828125 51.948795318603515625 51.85591888427734375 54.732685089111328125 58.4818115234375 63.0098114013671875 68.37682342529296875 73.47077178955078125 77.71706390380859375 81.89012908935546875 86.03774261474609375 90.1916656494140625 94.17145538330078125 97.76990509033203125 100.885162353515625 103.17018890380859375 104.5042572021484375 105.05584716796875 104.9356842041015625 104.24900054931640625 103.10782623291015625 101.49033355712890625 99.6640625 97.709228515625 95.67813873291015625 93.51264190673828125 91.27317047119140625 89.062835693359375 86.82218170166015625 84.55724334716796875 82.274566650390625 79.95549774169921875 77.62175750732421875 75.29160308837890625 72.9886474609375 70.6030426025390625 68.21738433837890625 65.79766082763671875 63.396305084228515625 61.006656646728515625 58.578670501708984375 56.100963592529296875 53.557861328125 51.146793365478515625 48.65411376953125 46.041774749755859375 43.484130859375 40.888851165771484375 38.23450469970703125 35.527095794677734375 32.8354339599609375 30.108945846557617188 27.408460617065429688 -99999 -99999 -99999 -99999 -99999 -99999 -99999 -99999
 -99999 83.72614288330078125 85.832611083984375 86.7901458740234375 87.2118682861328125 87.44913482666015625 87.8691558837890625 88.97461700439453125 91.4522705078125 94.7041015625 98.273681640625 103.12686920166015625 108.84490966796875 113.3118438720703125 117.19603729248046875 120.72013092041015625 124.01071929931640625 126.85039520263671875 129.1431427001953125 130.6905975341796875 131.5697174072265625 131.698028564453125 131.4102325439453125 130.69091796875 129.6398162841796875 128.73052978515625 127.550994873046875 126.65047454833984375 125.6425323486328125 124.17681884765625 122.19073486328125 119.2928924560546875 115.9863433837890625 111.939239501953125 107.4451141357421875 102.3766326904296875 97.317840576171875 92.22669219970703125 87.18201446533203125 82.47454071044921875 78.25457000732421875 74.30762481689453125 70.85005950927734375 67.93589019775390625 65.38665771484375 63.53436279296875 61.873828887939453125 60.53534698486328125 59.64926910400390625 58.998744964599609375 58.45174407958984375 58.26522064208984375 58.06665802001953125 57.914608001708984375 57.946258544921875 58.006923675537109375 58.12047576904296875 58.23069000244140625 58.267307281494140625 58.37311553955078125 58.18874359130859375 58.11895751953125 57.83803558349609375 56.98886871337890625 55.80963897705078125 54.27771759033203125 52.48114776611328125 51.353878021240234375 51.87334442138671875 54.6049346923828125 58.807952880859375 64.1693115234375 70.3238067626953125 75.434326171875 79.441375732421875 83.15901947021484375 87.231231689453125 91.50922393798828125 95.98247528076171875 99.99176025390625 102.99855804443359375 105.364959716796875 106.74504852294921875 106.87902069091796875 106.394073486328125 105.14078521728515625 103.502410888671875 101.5649261474609375 99.4409332275390625 97.200347900390625 94.9494781494140625 92.615570068359375 90.3227691650390625 87.93297576904296875 85.6206512451171875 83.31188201904296875 80.9897308349609375 78.64533233642578125 76.2800750732421875 73.92092132568359375 71.57564544677734375 69.16036224365234375 66.76065826416015625 64.41558837890625 62.0218505859375 59.575836181640625 57.10103607177734375 54.653369903564453125 52.189792633056640625 49.73136138916015625 47.21044921875 44.668560028076171875 42.085971832275390625 39.47104644775390625 36.875423431396484375 34.23020172119140625 31.528415679931640625 -99999 -99999 -99999 -99999 -99999 -99999 -99999 -99999 -99999 -99999
 -99999 85.456634521484375 87.26371002197265625 87.8054351806640625 87.82952880859375 87.48989105224609375 87.3381195068359375 88.06612396240234375 90.46825408935546875 93.75414276123046875 97.4730682373046875 101.9862823486328125 106.87877655029296875 111.38161468505859375 115.2297210693359375 118.91954803466796875 122.17823028564453125 124.91480255126953125 127.0988616943359375 128.6744384765625 129.663116455078125 130.1264190673828125 129.9344482421875 129.471649169921875 128.687744140625 127.4921417236328125 126.6558990478515625 125.6416473388671875 124.25051116943359375 122.5204010009765625 120.51584625244140625 117.75302886962890625 114.5991058349609375 110.77510833740234375 106.616363525390625 102.09194183349609375 97.4921722412109375 92.693603515625 87.9780426025390625 83.693939208984375 79.5263824462890625 75.8246612548828125 72.47918701171875 69.3919525146484375 66.9094390869140625 64.810577392578125 62.965915679931640625 61.42864227294921875 60.36585235595703125 59.415431976318359375 58.674282073974609375 58.176685333251953125 57.81275177001953125 57.54351043701171875 57.36943817138671875 57.262310028076171875 57.12921142578125 56.949420928955078125 56.88910675048828125 56.610973358154296875 56.282970428466796875 55.974575042724609375 55.343265533447265625 54.71710968017578125 53.61327362060546875 52.59716796875 51.678890228271484375 51.50217437744140625 52.663547515869140625 55.616359710693359375 59.791683197021484375 66.318084716796875 72.9752960205078125 78.3645477294921875 81.2778778076171875 84.48140716552734375 88.2613677978515625 93.18526458740234375 97.957122802734375 102.130096435546875 105.4933319091796875 107.66921234130859375 108.61034393310546875 108.5675048828125 107.64284515380859375 105.7249908447265625 103.66118621826171875 101.31072998046875 98.77630615234375 96.23859405517578125 93.745758056640625 91.35686492919921875 88.9533233642578125 86.5454559326171875 84.16960906982421875 81.8342132568359375 79.494232177734375 77.1351318359375 74.77001190185546875 72.39763641357421875 70.069610595703125 67.69953155517578125 65.30257415771484375 62.860675811767578125 60.42901611328125 58.061435699462890625 55.6620635986328125 53.18616485595703125 50.63867950439453125 48.276920318603515625 45.755802154541015625 43.173198699951171875 40.6523284912109375 38.11089324951171875 35.500385284423828125 32.841426849365234375 -99999 -99999 -99999 -99999 -99999 -99999 -99999 -99999 -99999 -99999 -99999
 -99999 87.208740234375 88.7111663818359375 88.65348052978515625 88.41922760009765625 88.0587615966796875 87.6336669921875 88.063751220703125 90.23699188232421875 93.3216094970703125 96.9149627685546875 100.98191070556640625 105.29428863525390625 109.54859161376953125 113.393707275390625 117.05397796630859375 120.1744232177734375 122.81037139892578125 124.9245452880859375 126.59981536865234375 127.64415740966796875 128.112640380859375 128.2971343994140625 127.99077606201171875 127.08606719970703125 126.3157501220703125 125.3921356201171875 124.19277191162109375 122.73535919189453125 121.1037139892578125 118.90673828125 116.23181915283203125 113.1773529052734375 109.6497802734375 105.87053680419921875 101.6325531005859375 97.29767608642578125 92.784820556640625 88.6425628662109375 84.512237548828125 80.595245361328125 77.00716400146484375 73.6108856201171875 70.67739105224609375 68.19647979736328125 65.94327545166015625 64.01306915283203125 62.381908416748046875 61.07994842529296875 59.96193695068359375 59.009883880615234375 58.33221435546875 57.665485382080078125 57.139995574951171875 56.7772674560546875 56.33905792236328125 56.03090667724609375 55.687862396240234375 55.411403656005859375 55.185535430908203125 54.689167022705078125 54.3477325439453125 53.800472259521484375 53.242076873779296875 52.395381927490234375 51.8806610107421875 51.58515167236328125 52.076137542724609375 53.528766632080078125 56.788055419921875 61.678089141845703125 68.2886810302734375 75.188873291015625 80.53943634033203125 82.16550445556640625 84.62348175048828125 88.8986968994140625 94.127288818359375 99.69049835205078125 104.511871337890625 108.2869873046875 110.41628265380859375 111.140869140625 110.19835662841796875 108.2434234619140625 105.942657470703125 103.20069122314453125 100.32916259765625 97.5978240966796875 94.84865570068359375 92.17828369140625 89.63162994384765625 87.2046356201171875 84.9578094482421875 82.4348907470703125 80.1043701171875 77.7767333984375 75.4447784423828125 73.0781707763671875 70.724700927734375 68.40578460693359375 65.96480560302734375 63.597385406494140625 61.26975250244140625 58.910717010498046875 56.47442626953125 53.997646331787109375 51.583652496337890625 49.155063629150390625 46.733489990234375 44.2143402099609375 41.745029449462890625 39.200531005859375 36.639980316162109375 34.0555877685546875 -99999 -99999 -99999 -99999 -99999 -99999 -99999 -99999 -99999 -99999 -99999 -99999
 -99999 -99999 89.4853057861328125 89.27776336669921875 88.96945953369140625 88.60923004150390625 88.4611663818359375 88.96956634521484375 90.5328216552734375 93.05084228515625 96.373138427734375 100.100006103515625 104.01031494140625 107.54669189453125 111.76218414306640625 115.04576873779296875 118.03722381591796875 120.645843505859375 122.72420501708984375 124.33419036865234375 125.4356689453125 126.16454315185546875 126.607269287109375 126.00592803955078125 125.48821258544921875 124.86002349853515625 123.90195465087890625 122.6070556640625 121.1677703857421875 119.4793853759765625 117.19895172119140625 114.63874053955078125 111.76953887939453125 108.58283233642578125 104.84015655517578125 101.07437896728515625 96.96199798583984375 93.01165771484375 89.02147674560546875 85.1111602783203125 81.42465972900390625 77.9264373779296875 74.61435699462890625 71.81268310546875 69.222564697265625 66.89447021484375 64.8179779052734375 63.1783294677734375 61.65412139892578125 60.410549163818359375 59.337345123291015625 58.44879150390625 57.680469512939453125 57.045085906982421875 56.441707611083984375 56.001186370849609375 55.518596649169921875 55.05666351318359375 54.719432830810546875 54.21773529052734375 53.77523040771484375 53.370758056640625 52.768306732177734375 52.263721466064453125 51.873424530029296875 51.717681884765625 51.9529571533203125 53.0064849853515625 54.9693450927734375 58.10770416259765625 62.950580596923828125 68.81729888916015625 74.74709320068359375 78.9074249267578125 80.37451934814453125 84.26389312744140625 88.957550048828125 95.054840087890625 101.3642425537109375 106.88661956787109375 111.1283416748046875 112.954254150390625 112.90328216552734375 111.419830322265625 108.924896240234375 105.63843536376953125 102.2144317626953125 98.854278564453125 95.6950225830078125 92.79425811767578125 90.08026123046875 87.5128021240234375 85.1075286865234375 82.8004608154296875 80.4851531982421875 78.1177825927734375 75.83437347412109375 73.530609130859375 71.2081451416015625 68.87836456298828125 66.57781982421875 64.24042510986328125 61.892276763916015625 59.4989776611328125 57.11639404296875 54.769443511962890625 52.4097137451171875 49.976421356201171875 47.56566619873046875 45.1308441162109375 42.647083282470703125 40.153812408447265625 37.68085479736328125 35.18570709228515625 -99999 -99999 -99999 -99999 -99999 -99999 -99999 -99999 -99999 -99999 -99999 -99999 -99999
 -99999 -99999 89.569427490234375 89.52425384521484375 89.22896575927734375 89.0289154052734375 89.08312225341796875 89.72051239013671875 91.033538818359375 93.17183685302734375 95.92693328857421875 99.1975860595703125 102.86949920654296875 106.4172515869140625 109.9229583740234375 113.17003631591796875 116.01560211181640625 118.400054931640625 120.41991424560546875 122.1248321533203125 123.4474639892578125 124.08768463134765625 124.2611236572265625 124.012054443359375 123.767974853515625 123.0760498046875 122.1171417236328125 120.9291534423828125 119.59494781494140625 117.678436279296875 115.48172760009765625 113.1757965087890625 110.39383697509765625 107.2935943603515625 103.9211578369140625 100.29210662841796875 96.554443359375 92.9398651123046875 89.11296844482421875 85.42932891845703125 81.94972991943359375 78.49854278564453125 75.493927001953125 72.6485137939453125 70.13153076171875 67.7618255615234375 65.6294708251953125 63.860988616943359375 62.2789764404296875 60.837589263916015625 59.647216796875 58.613483428955078125 57.65053558349609375 56.856922149658203125 56.133243560791015625 55.49289703369140625 54.91735076904296875 54.375789642333984375 53.908779144287109375 53.53202056884765625 52.996143341064453125 52.651691436767578125 52.277744293212890625 52.195056915283203125 51.817501068115234375 52.239288330078125 52.92394256591796875 54.0852203369140625 56.119701385498046875 59.42215728759765625 63.593761444091796875 68.29357147216796875 73.2363433837890625 77.17247772216796875 80.16733551025390625 83.92053985595703125 88.84217071533203125 95.34708404541015625 103.0455322265625 109.5631561279296875 113.49646759033203125 115.08631134033203125 114.82173919677734375 112.22054290771484375 108.2939453125 104.1769256591796875 100.06356048583984375 96.34466552734375 93.0878143310546875 90.1020965576171875 87.3695068359375 84.91002655029296875 82.5937042236328125 80.3276519775390625 78.1207733154296875 75.91583251953125 73.67440032958984375 71.43138885498046875 69.16110992431640625 66.8840789794921875 64.6498565673828125 62.27828216552734375 59.95761871337890625 57.6940765380859375 55.3762969970703125 52.992229461669921875 50.59881591796875 48.227603912353515625 45.87166595458984375 43.44622802734375 41.032466888427734375 38.613483428955078125 36.153076171875 -99999 -99999 -99999 -99999 -99999 -99999 -99999 -99999 -99999 -99999 -99999 -99999 -99999 -99999
 -99999 -99999 -99999 88.5613555908203125 88.8121795654296875 88.9004974365234375 89.20709991455078125 89.99736785888671875 91.380859375 93.549468994140625 95.92501068115234375 98.72809600830078125 101.95888519287109375 105.2373199462890625 108.30240631103515625 111.167327880859375 113.8441009521484375 116.26103973388671875 118.40311431884765625 120.08391571044921875 121.03598785400390625 121.78472900390625 121.9442596435546875 122.0559234619140625 121.8358306884765625 121.245635986328125 120.2590789794921875 119.21280670166015625 117.72519683837890625 115.79671478271484375 113.88330841064453125 111.58101654052734375 109.01358795166015625 105.98015594482421875 102.91039276123046875 99.588836669921875 96.172271728515625 92.5757904052734375 89.0875091552734375 85.62683868408203125 82.2895965576171875 79.04543304443359375 76.127532958984375 73.283966064453125 70.7366943359375 68.26676177978515625 66.32407379150390625 64.4618072509765625 62.74200439453125 61.167011260986328125 60.00426483154296875 58.811275482177734375 57.7923431396484375 56.900257110595703125 56.08765411376953125 55.39894866943359375 54.782764434814453125 54.18618011474609375 53.7105255126953125 53.28386688232421875 52.81679534912109375 52.583972930908203125 52.340389251708984375 52.26784515380859375 52.440765380859375 52.883136749267578125 53.77048492431640625 55.427288055419921875 57.807918548583984375 60.903476715087890625 64.58013916015625 68.8217315673828125 73.07663726806640625 76.9788055419921875 80.64089202880859375 84.42913055419921875 88.481048583984375 96.71234130859375 105.44121551513671875 112.409088134765625 115.73967742919921875 117.116485595703125 115.49991607666015625 111.712310791015625 106.97840118408203125 101.65604400634765625 97.03221893310546875 92.893890380859375 89.47095489501953125 86.6421051025390625 84.1344757080078125 81.82224273681640625 79.68669891357421875 77.66420745849609375 75.508758544921875 73.50978851318359375 71.313079833984375 69.13641357421875 66.93579864501953125 64.72208404541015625 62.522594451904296875 60.2396087646484375 57.992095947265625 55.69811248779296875 53.42730712890625 51.122547149658203125 48.806873321533203125 46.4681549072265625 44.1909332275390625 41.749385833740234375 39.362728118896484375 36.958721160888671875 -99999 -99999 -99999 -99999 -99999 -99999 -99999 -99999 -99999 -99999 -99999 -99999 -99999 -99999 -99999
 -99999 -99999 -99999 86.47768402099609375 87.44158935546875 88.1024627685546875 88.840850830078125 89.81034088134765625 91.15000152587890625 93.0696258544921875 95.39154815673828125 98.10469818115234375 101.07698822021484375 103.83332061767578125 106.79654693603515625 109.599029541015625 112.13654327392578125 114.27391815185546875 116.041656494140625 117.53800201416015625 118.68514251708984375 119.38791656494140625 119.8652801513671875 120.07497406005859375 119.687835693359375 119.054656982421875 118.35633087158203125 117.26349639892578125 115.7110137939453125 114.123321533203125 112.2650299072265625 109.9718780517578125 107.439056396484375 104.7116851806640625 101.80389404296875 98.625885009765625 95.46646881103515625 92.17076873779296875 88.87807464599609375 85.5978240966796875 82.3037109375 79.41280364990234375 76.4783782958984375 73.85408782958984375 71.296295166015625 68.955291748046875 66.87195587158203125 64.96253204345703125 63.19806671142578125 61.646961212158203125 60.309261322021484375 59.0259857177734375 57.929523468017578125 57.017597198486328125 56.140331268310546875 55.35501861572265625 54.6360626220703125 54.01535797119140625 53.574260711669921875 53.11669158935546875 52.790042877197265625 52.58463287353515625 52.524433135986328125 52.767913818359375 53.11759185791015625 53.81038665771484375 55.28725433349609375 56.977283477783203125 59.120800018310546875 62.075260162353515625 65.90396881103515625 69.8483123779296875 73.9305572509765625 78.2248687744140625 82.4806671142578125 87.1143646240234375 92.46179962158203125 99.83853912353515625 107.910888671875 113.73494720458984375 117.98706817626953125 118.5005950927734375 115.71717071533203125 110.17324066162109375 103.68160247802734375 97.88320159912109375 92.191131591796875 88.24120330810546875 85.12128448486328125 82.49454498291015625 80.26387786865234375 78.29024505615234375 76.4093475341796875 74.5741424560546875 72.6467742919921875 70.71622467041015625 68.7921600341796875 66.6696929931640625 64.554443359375 62.408390045166015625 60.33855438232421875 58.0803985595703125 55.8662872314453125 53.6668701171875 51.42780303955078125 49.15615081787109375 46.88116455078125 44.644439697265625 42.286159515380859375 39.97174072265625 37.6387481689453125 -99999 -99999 -99999 -99999 -99999 -99999 -99999 -99999 -99999 -99999 -99999 -99999 -99999 -99999 -99999 -99999
 -99999 -99999 -99999 -99999 -99999 -99999 87.64410400390625 89.0563507080078125 90.60739898681640625 92.44754791259765625 94.5998687744140625 97.05719757080078125 99.6780548095703125 102.3450164794921875 104.97386932373046875 107.5760040283203125 109.9166717529296875 111.989715576171875 113.78646087646484375 115.23308563232421875 116.38646697998046875 117.05709075927734375 117.6315460205078125 117.6762847900390625 117.54375457763671875 117.0935516357421875 116.38199615478515625 115.2149810791015625 113.79730987548828125 112.3087615966796875 110.39714813232421875 108.38140106201171875 106.00786590576171875 103.42519378662109375 100.62017822265625 97.66774749755859375 94.73792266845703125 91.626068115234375 88.523895263671875 85.53333282470703125 82.4052886962890625 79.53985595703125 76.75035858154296875 74.1521148681640625 71.62870025634765625 69.331207275390625 67.29467010498046875 65.3389892578125 63.588832855224609375 61.9988250732421875 60.57653045654296875 59.32990264892578125 58.134860992431640625 57.08165740966796875 56.24703216552734375 55.38695526123046875 54.725254058837890625 54.10402679443359375 53.666961669921875 53.373004913330078125 53.0732574462890625 52.95786285400390625 53.168712615966796875 53.40924072265625 53.999736785888671875 54.881877899169921875 56.347164154052734375 58.269001007080078125 60.8603668212890625 63.984378814697265625 67.1703643798828125 71.32880401611328125 75.6766357421875 80.28604888916015625 85.17531585693359375 90.46590423583984375 96.70281982421875 103.85889434814453125 111.180206298828125 113.5288238525390625 117.87062835693359375 117.7158050537109375 113.43255615234375 106.05165863037109375 98.433807373046875 91.19773101806640625 85.98955535888671875 82.30770111083984375 79.5698699951171875 77.59500885009765625 75.93807220458984375 74.39794921875 72.87982177734375 71.345550537109375 69.5421600341796875 67.784881591796875 66.0016632080078125 64.0442047119140625 61.992801666259765625 59.955104827880859375 57.9060211181640625 55.7468109130859375 53.6149444580078125 51.48722076416015625 49.326091766357421875 47.118160247802734375 44.883213043212890625 42.665836334228515625 40.416534423828125 -99999 -99999 -99999 -99999 -99999 -99999 -99999 -99999 -99999 -99999 -99999 -99999 -99999 -99999 -99999 -99999 -99999 -99999
 -99999 -99999 -99999 -99999 -99999 -99999 -99999 -99999 89.46338653564453125 91.4434356689453125 93.6012115478515625 95.9279022216796875 98.35181427001953125 100.89471435546875 103.36370849609375 105.71733856201171875 107.9039459228515625 109.8920745849609375 111.61476898193359375 112.86700439453125 114.08179473876953125 114.84503936767578125 115.36734771728515625 115.50032806396484375 115.41922760009765625 114.968231201171875 114.19097137451171875 113.04638671875 111.953369140625 110.46543121337890625 108.7060089111328125 106.7436065673828125 104.49651336669921875 102.07621002197265625 99.2952728271484375 96.80693817138671875 93.9063720703125 90.99179840087890625 88.09664154052734375 85.157684326171875 82.25264739990234375 79.55297088623046875 76.842529296875 74.378692626953125 71.88164520263671875 69.67990875244140625 67.58544158935546875 65.70703125 63.8752899169921875 62.331890106201171875 60.8652496337890625 59.51663970947265625 58.30865478515625 57.29534912109375 56.407318115234375 55.66024017333984375 54.924907684326171875 54.360107421875 53.977275848388671875 53.601619720458984375 53.44515228271484375 53.388675689697265625 53.588924407958984375 54.17092132568359375 55.097202301025390625 56.143329620361328125 57.576023101806640625 59.830280303955078125 62.238037109375 65.14250946044921875 68.8256072998046875 73.00348663330078125 77.25783538818359375 81.792877197265625 86.85756683349609375 92.80461883544921875 99.118499755859375 105.62615203857421875 109.827972412109375 113.91689300537109375 118.3368988037109375 116.75211334228515625 109.901611328125 100.1636505126953125 90.49045562744140625 82.7494049072265625 77.9938812255859375 75.2145233154296875 73.61147308349609375 72.34246826171875 71.35649871826171875 70.226959228515625 69.06484222412109375 67.8672637939453125 66.34270477294921875 64.7459259033203125 62.994609832763671875 61.18115234375 59.3209686279296875 57.3416748046875 55.40393829345703125 53.34661865234375 51.300533294677734375 49.211700439453125 47.09549713134765625 44.97147369384765625 42.838031768798828125 40.771709442138671875 -99999 -99999 -99999 -99999 -99999 -99999 -99999 -99999 -99999 -99999 -99999 -99999 -99999 -99999 -99999 -99999 -99999 -99999 -99999
 -99999 -99999 -99999 -99999 -99999 -99999 -99999 -99999 -99999 -99999 92.25789642333984375 94.593292236328125 96.94908905029296875 99.29517364501953125 101.6203765869140625 103.83472442626953125 105.93242645263671875 107.7007598876953125 109.0680084228515625 110.724456787109375 111.79792022705078125 112.537017822265625 112.97225189208984375 113.37176513671875 113.08599090576171875 112.69165802001953125 111.975860595703125 111.13934326171875 109.97320556640625 108.48709869384765625 106.95587921142578125 104.99509429931640625 102.9371185302734375 100.57932281494140625 98.2596435546875 95.69936370849609375 93.0116424560546875 90.296905517578125 87.50408172607421875 84.68297576904296875 82.05850982666015625 79.39237213134765625 76.88722991943359375 74.32729339599609375 72.051483154296875 69.90949249267578125 67.83757781982421875 65.95735931396484375 64.19464111328125 62.59515380859375 61.17212677001953125 59.860774993896484375 58.629962921142578125 57.572620391845703125 56.678924560546875 55.76790618896484375 55.1605377197265625 54.5648651123046875 54.20074462890625 53.992828369140625 53.931095123291015625 53.959873199462890625 54.514896392822265625 55.0493316650390625 55.863620758056640625 57.160099029541015625 58.9052886962890625 60.844631195068359375 63.298168182373046875 66.65998077392578125 70.0844573974609375 73.9674530029296875 78.4072418212890625 83.00038909912109375 88.35370635986328125 93.94545745849609375 99.56699371337890625 104.85424041748046875 109.05004119873046875 113.0056304931640625 114.7012939453125 111.2640228271484375 103.3955078125 91.11621856689453125 79.533660888671875 72.4859161376953125 69.326873779296875 67.7326812744140625 67.1098175048828125 66.87769317626953125 66.58153533935546875 66.0758514404296875 65.296661376953125 64.29264068603515625 62.883037567138671875 61.501430511474609375 60.008846282958984375 58.329135894775390625 56.5810546875 54.684192657470703125 52.817348480224609375 50.790699005126953125 48.836334228515625 46.877452850341796875 44.861583709716796875 42.7769012451171875 40.679683685302734375 -99999 -99999 -99999 -99999 -99999 -99999 -99999 -99999 -99999 -99999 -99999 -99999 -99999 -99999 -99999 -99999 -99999 -99999 -99999 -99999
 -99999 -99999 -99999 -99999 -99999 -99999 -99999 -99999 -99999 -99999 -99999 -99999 95.25759124755859375 97.52161407470703125 99.7561798095703125 101.7962646484375 103.5174560546875 105.50506591796875 107.02752685546875 108.37006378173828125 109.3876800537109375 110.2613525390625 110.6947174072265625 110.91907501220703125 110.82730865478515625 110.45508575439453125 109.8138580322265625 109.03185272216796875 108.00148773193359375 106.6433868408203125 105.0781097412109375 103.33139801025390625 101.31970977783203125 99.1353759765625 97.01317596435546875 94.51910400390625 92.0372772216796875 89.48113250732421875 86.83701324462890625 84.2836151123046875 81.72916412353515625 79.20180511474609375 76.79974365234375 74.37933349609375 72.15599822998046875 70.0199432373046875 68.11122894287109375 66.1281890869140625 64.4205474853515625 62.813091278076171875 61.344036102294921875 60.02118682861328125 58.895244598388671875 57.7390289306640625 56.885257720947265625 56.191539764404296875 55.485076904296875 54.97461700439453125 54.726390838623046875 54.425319671630859375 54.378444671630859375 54.567264556884765625 54.991611480712890625 55.708042144775390625 56.808673858642578125 58.175567626953125 59.88182830810546875 62.0004119873046875 64.46408843994140625 67.37250518798828125 70.7516937255859375 74.4169769287109375 78.9552459716796875 83.4600677490234375 88.1586761474609375 92.96134185791015625 97.8380889892578125 102.2291717529296875 105.1084747314453125 106.3320465087890625 105.9005279541015625 101.97174072265625 93.17774200439453125 78.0798492431640625 67.2289886474609375 61.8455810546875 59.486995697021484375 59.68895721435546875 60.776889801025390625 61.684032440185546875 62.04950714111328125 61.96905517578125 61.391513824462890625 60.714672088623046875 59.534221649169921875 58.230693817138671875 56.772930145263671875 55.197223663330078125 53.596858978271484375 51.8281707763671875 50.03314971923828125 48.226993560791015625 46.361011505126953125 44.437175750732421875 42.4551239013671875 40.50170135498046875 -99999 -99999 -99999 -99999 -99999 -99999 -99999 -99999 -99999 -99999 -99999 -99999 -99999 -99999 -99999 -99999 -99999 -99999 -99999 -99999 -99999
 -99999 -99999 -99999 -99999 -99999 -99999 -99999 -99999 -99999 -99999 -99999 -99999 -99999 -99999 97.55266571044921875 99.704315185546875 101.53731536865234375 103.33428955078125 104.88311767578125 106.2404022216796875 107.13744354248046875 107.90456390380859375 108.30283355712890625 108.5434112548828125 108.55712127685546875 108.14166259765625 107.74475860595703125 106.969512939453125 105.9472503662109375 104.691864013671875 103.223480224609375 101.5782928466796875 99.63152313232421875 97.8475341796875 95.5942840576171875 93.36655426025390625 91.03948211669921875 88.594970703125 86.13498687744140625 83.734893798828125 81.288726806640625 78.869110107421875 76.55936431884765625 74.21826171875 72.105377197265625 70.0945587158203125 68.07549285888671875 66.31075286865234375 64.6271209716796875 63.08275604248046875 61.653781890869140625 60.343921661376953125 59.1255340576171875 58.144748687744140625 57.231639862060546875 56.374301910400390625 55.7809906005859375 55.276248931884765625 54.9414825439453125 54.858123779296875 54.983325958251953125 55.17376708984375 55.746105194091796875 56.58737945556640625 57.569393157958984375 58.917636871337890625 60.708324432373046875 62.75043487548828125 65.23104095458984375 68.05876922607421875 71.2915496826171875 74.8217620849609375 78.54996490478515625 82.599945068359375 86.77285003662109375 90.920196533203125 94.33385467529296875 96.8517303466796875 98.1286773681640625 97.88641357421875 94.52913665771484375 88.22345733642578125 78.22369384765625 63.177799224853515625 53.163311004638671875 50.35100555419921875 50.909000396728515625 52.7253265380859375 54.958587646484375 56.953548431396484375 57.827205657958984375 57.996124267578125 57.61536407470703125 56.992511749267578125 55.88137054443359375 54.779247283935546875 53.57294464111328125 52.1034088134765625 50.526149749755859375 49.0727386474609375 47.2618408203125 45.497730255126953125 43.739467620849609375 41.949794769287109375 40.089962005615234375 -99999 -99999 -99999 -99999 -99999 -99999 -99999 -99999 -99999 -99999 -99999 -99999 -99999 -99999 -99999 -99999 -99999 -99999 -99999 -99999 -99999 -99999
 -99999 -99999 -99999 -99999 -99999 -99999 -99999 -99999 -99999 -99999 -99999 -99999 -99999 -99999 -99999 -99999 99.72843170166015625 101.224029541015625 102.56014251708984375 103.7581024169921875 104.71717071533203125 105.45858001708984375 106.00559234619140625 106.27201080322265625 106.137542724609375 105.94364166259765625 105.498565673828125 104.88164520263671875 103.8226470947265625 102.7137908935546875 101.39813232421875 99.750518798828125 98.13964080810546875 96.28397369384765625 94.2490386962890625 92.1492156982421875 89.936370849609375 87.6587677001953125 85.385467529296875 83.0777130126953125 80.76340484619140625 78.4910888671875 76.25579833984375 74.084136962890625 72.04048919677734375 70.05120086669921875 68.18698883056640625 66.30742645263671875 64.72747802734375 63.1930389404296875 61.7449493408203125 60.451404571533203125 59.365673065185546875 58.284397125244140625 57.4311981201171875 56.75827789306640625 56.13637542724609375 55.676815032958984375 55.485790252685546875 55.36186981201171875 55.49111175537109375 55.7169189453125 56.2595062255859375 57.0212860107421875 58.10697174072265625 59.559780120849609375 61.34134674072265625 63.25766754150390625 65.57500457763671875 68.175506591796875 71.038726806640625 74.280548095703125 77.643218994140625 81.09098052978515625 84.2611846923828125 87.176544189453125 89.504791259765625 90.86289215087890625 90.48905181884765625 88.15709686279296875 82.821502685546875 74.41460418701171875 63.247524261474609375 51.62798309326171875 44.0664825439453125 41.52925872802734375 43.293224334716796875 47.445148468017578125 50.721332550048828125 52.60179901123046875 53.6279144287109375 54.096530914306640625 53.811237335205078125 53.385669708251953125 52.374969482421875 51.35155487060546875 50.17629241943359375 48.85059356689453125 47.4691314697265625 46.05750274658203125 44.3871917724609375 42.80157470703125 41.1239166259765625 39.368022918701171875 -99999 -99999 -99999 -99999 -99999 -99999 -99999 -99999 -99999 -99999 -99999 -99999 -99999 -99999 -99999 -99999 -99999 -99999 -99999 -99999 -99999 -99999 -99999
 -99999 -99999 -99999 -99999 -99999 -99999 -99999 -99999 -99999 -99999 -99999 -99999 -99999 -99999 -99999 -99999 -99999 -99999 -99999 101.38588714599609375 102.3996124267578125 103.14156341552734375 103.6504974365234375 103.80846405029296875 103.8216094970703125 103.7765350341796875 103.493560791015625 102.6474151611328125 101.8315582275390625 100.7777099609375 99.43354034423828125 98.0222320556640625 96.565277099609375 94.71675872802734375 92.88010406494140625 90.91412353515625 88.8956756591796875 86.672271728515625 84.55609893798828125 82.36181640625 80.18932342529296875 78.04993438720703125 75.8028564453125 73.8447113037109375 71.803802490234375 69.88961029052734375 68.0862884521484375 66.37982177734375 64.80657196044921875 63.286998748779296875 61.98822021484375 60.701541900634765625 59.543506622314453125 58.58504486083984375 57.75698089599609375 57.001354217529296875 56.4297332763671875 55.986736297607421875 55.76360321044921875 55.676021575927734375 55.89199066162109375 56.21846771240234375 56.662647247314453125 57.585994720458984375 58.67722320556640625 59.922603607177734375 61.525287628173828125 63.41484832763671875 65.55658721923828125 67.94162750244140625 70.50472259521484375 73.20813751220703125 75.96875762939453125 78.67583465576171875 81.135406494140625 83.1628875732421875 84.2984619140625 84.4011993408203125 82.74143218994140625 78.8955078125 72.52993011474609375 64.66656494140625 55.22856903076171875 47.018405914306640625 40.2621307373046875 37.514041900634765625 40.20191192626953125 43.936115264892578125 47.154331207275390625 49.199382781982421875 49.984371185302734375 50.06456756591796875 49.99585723876953125 49.385406494140625 48.661495208740234375 47.8460845947265625 46.805095672607421875 45.557239532470703125 44.26526641845703125 42.981365203857421875 41.464366912841796875 39.969921112060546875 -99999 -99999 -99999 -99999 -99999 -99999 -99999 -99999 -99999 -99999 -99999 -99999 -99999 -99999 -99999 -99999 -99999 -99999 -99999 -99999 -99999 -99999 -99999 -99999 -99999
 -99999 -99999 -99999 -99999 -99999 -99999 -99999 -99999 -99999 -99999 -99999 -99999 -99999 -99999 -99999 -99999 -99999 -99999 -99999 -99999 -99999 -99999 101.19290924072265625 101.51422119140625 101.76345062255859375 101.53279876708984375 101.1135406494140625 100.5246124267578125 99.78171539306640625 98.74431610107421875 97.575439453125 96.4424285888671875 94.82062530517578125 93.18573760986328125 91.45703125 89.616729736328125 87.654571533203125 85.61429595947265625 83.6558685302734375 81.5753631591796875 79.53203582763671875 77.4088592529296875 75.4893341064453125 73.50061798095703125 71.6103973388671875 69.79498291015625 67.9925994873046875 66.33432769775390625 64.7985992431640625 63.332866668701171875 62.033313751220703125 60.7958526611328125 59.728374481201171875 58.753444671630859375 57.930667877197265625 57.247730255126953125 56.69818115234375 56.27523040771484375 56.1310882568359375 56.1243438720703125 56.265247344970703125 56.518718719482421875 57.032917022705078125 57.8347320556640625 58.758197784423828125 60.104946136474609375 61.67646026611328125 63.3704986572265625 65.19379425048828125 67.26543426513671875 69.48095703125 71.6900177001953125 73.92917633056640625 75.9784698486328125 77.62242889404296875 78.61231231689453125 79.01641082763671875 77.9566650390625 75.149932861328125 70.97307586669921875 65.190673828125 58.162601470947265625 49.987316131591796875 43.490428924560546875 39.292659759521484375 37.9103851318359375 39.28014373779296875 43.24010467529296875 45.33870697021484375 45.544097900390625 45.770755767822265625 45.928562164306640625 45.79482269287109375 45.620738983154296875 45.006183624267578125 44.24814605712890625 43.2866363525390625 42.260631561279296875 41.27031707763671875 39.93375396728515625 38.564662933349609375 -99999 -99999 -99999 -99999 -99999 -99999 -99999 -99999 -99999 -99999 -99999 -99999 -99999 -99999 -99999 -99999 -99999 -99999 -99999 -99999 -99999 -99999 -99999 -99999 -99999 -99999
 -99999 -99999 -99999 -99999 -99999 -99999 -99999 -99999 -99999 -99999 -99999 -99999 -99999 -99999 -99999 -99999 -99999 -99999 -99999 -99999 -99999 -99999 -99999 -99999 -99999 99.2123260498046875 98.91089630126953125 98.46240234375 97.7386322021484375 96.69684600830078125 95.82135772705078125 94.53803253173828125 93.12743377685546875 91.6446990966796875 90.028839111328125 88.2953948974609375 86.44361114501953125 84.63071441650390625 82.70728302001953125 80.75040435791015625 78.8778533935546875 76.86441802978515625 74.95729827880859375 73.0810699462890625 71.24810028076171875 69.5306243896484375 67.8266143798828125 66.24073028564453125 64.757080078125 63.374324798583984375 62.045406341552734375 60.86669921875 59.81269073486328125 58.878875732421875 58.12947845458984375 57.48458099365234375 56.907192230224609375 56.54544830322265625 56.352405548095703125 56.206531524658203125 56.41362762451171875 56.780017852783203125 57.136463165283203125 57.950939178466796875 58.96813201904296875 60.05831146240234375 61.28983306884765625 62.910549163818359375 64.5837554931640625 66.29261016845703125 68.09528350830078125 69.90013885498046875 71.5607757568359375 72.94591522216796875 73.964996337890625 74.35602569580078125 73.79792022705078125 72.1173095703125 69.43820953369140625 65.0775604248046875 59.835693359375 53.948314666748046875 47.738372802734375 43.124736785888671875 39.77606201171875 38.688037872314453125 40.2201995849609375 41.46427154541015625 41.31719207763671875 41.656162261962890625 41.222927093505859375 41.41620635986328125 41.759227752685546875 41.7023468017578125 41.350841522216796875 40.729808807373046875 39.89412689208984375 38.94913482666015625 37.974124908447265625 -99999 -99999 -99999 -99999 -99999 -99999 -99999 -99999 -99999 -99999 -99999 -99999 -99999 -99999 -99999 -99999 -99999 -99999 -99999 -99999 -99999 -99999 -99999 -99999 -99999 -99999 -99999 -99999
 -99999 -99999 -99999 -99999 -99999 -99999 -99999 -99999 -99999 -99999 -99999 -99999 -99999 -99999 -99999 -99999 -99999 -99999 -99999 -99999 -99999 -99999 -99999 -99999 -99999 -99999 -99999 -99999 95.5876922607421875 94.87595367431640625 93.91182708740234375 92.74535369873046875 91.4756622314453125 90.0749664306640625 88.5531005859375 86.933441162109375 85.2495574951171875 83.513427734375 81.70156097412109375 79.884033203125 78.0694427490234375 76.152587890625 74.41793060302734375 72.60158538818359375 70.95427703857421875 69.17359161376953125 67.56342315673828125 66.08704376220703125 64.61832427978515625 63.286327362060546875 62.088947296142578125 60.91381072998046875 59.895641326904296875 59.02550506591796875 58.187534332275390625 57.533435821533203125 57.05560302734375 56.640743255615234375 56.4851531982421875 56.4867706298828125 56.631591796875 56.858730316162109375 57.278888702392578125 57.94297027587890625 58.73120880126953125 59.769771575927734375 60.99069976806640625 62.269840240478515625 63.612575531005859375 65.08083343505859375 66.52744293212890625 67.85713958740234375 69.0041961669921875 69.93238067626953125 70.41611480712890625 70.1017608642578125 69.22776031494140625 67.28411865234375 64.26422882080078125 60.516750335693359375 55.95468902587890625 50.944324493408203125 45.96920013427734375 42.20680999755859375 39.947170257568359375 38.9806976318359375 38.714618682861328125 39.009204864501953125 38.694732666015625 36.82846832275390625 36.46442413330078125 37.28028106689453125 38.086612701416015625 38.2070465087890625 37.869781494140625 37.2715606689453125 36.4674835205078125 35.73990631103515625 -99999 -99999 -99999 -99999 -99999 -99999 -99999 -99999 -99999 -99999 -99999 -99999 -99999 -99999 -99999 -99999 -99999 -99999 -99999 -99999 -99999 -99999 -99999 -99999 -99999 -99999 -99999 -99999 -99999
 -99999 -99999 -99999 -99999 -99999 -99999 -99999 -99999 -99999 -99999 -99999 -99999 -99999 -99999 -99999 -99999 -99999 -99999 -99999 -99999 -99999 -99999 -99999 -99999 -99999 -99999 -99999 -99999 -99999 -99999 -99999 90.9463653564453125 89.78436279296875 88.49338531494140625 87.075592041015625 85.56512451171875 84.02349090576171875 82.3874053955078125 80.65877532958984375 78.9809112548828125 77.17498016357421875 75.49907684326171875 73.77242279052734375 72.0969390869140625 70.4104156494140625 68.876556396484375 67.3091278076171875 65.83745574951171875 64.51403045654296875 63.192691802978515625 61.930332183837890625 60.889324188232421875 59.89267730712890625 58.968875885009765625 58.279933929443359375 57.702617645263671875 57.124607086181640625 56.778064727783203125 56.593994140625 56.470977783203125 56.53839874267578125 56.840801239013671875 57.2002105712890625 57.74334716796875 58.514255523681640625 59.344696044921875 60.285846710205078125 61.382038116455078125 62.567882537841796875 63.650051116943359375 64.71672821044921875 65.71788787841796875 66.52785491943359375 67.05376434326171875 66.920989990234375 66.3511810302734375 65.02970123291015625 63.031917572021484375 60.227813720703125 56.693531036376953125 52.760799407958984375 48.73072052001953125 44.6715087890625 41.73259735107421875 39.3670196533203125 38.06006622314453125 37.60460662841796875 36.64129638671875 35.10890960693359375 33.5821685791015625 32.85195159912109375 34.204349517822265625 35.177082061767578125 34.91628265380859375 34.475887298583984375 33.9156951904296875 33.27787017822265625 -99999 -99999 -99999 -99999 -99999 -99999 -99999 -99999 -99999 -99999 -99999 -99999 -99999 -99999 -99999 -99999 -99999 -99999 -99999 -99999 -99999 -99999 -99999 -99999 -99999 -99999 -99999 -99999 -99999 -99999
 -99999 -99999 -99999 -99999 -99999 -99999 -99999 -99999 -99999 -99999 -99999 -99999 -99999 -99999 -99999 -99999 -99999 -99999 -99999 -99999 -99999 -99999 -99999 -99999 -99999 -99999 -99999 -99999 -99999 -99999 -99999 -99999 -99999 -99999 85.5722808837890625 84.19776153564453125 82.7222442626953125 81.17488861083984375 79.6467437744140625 77.94832611083984375 76.33300018310546875 74.7474822998046875 73.1201171875 71.54766082763671875 69.9703826904296875 68.36492919921875 66.95220947265625 65.521759033203125 64.17037200927734375 62.9956817626953125 61.834499359130859375 60.7764129638671875 59.828395843505859375 59.046108245849609375 58.24083709716796875 57.576629638671875 57.122303009033203125 56.720256805419921875 56.50164794921875 56.46869659423828125 56.56388092041015625 56.697845458984375 57.002315521240234375 57.43708038330078125 58.031635284423828125 58.713802337646484375 59.5674591064453125 60.399539947509765625 61.25167083740234375 62.15230560302734375 62.9487457275390625 63.532108306884765625 63.9096221923828125 64.0142822265625 63.63098907470703125 62.804302215576171875 61.417083740234375 59.394092559814453125 56.724651336669921875 53.63802337646484375 50.208393096923828125 46.70599365234375 43.36159515380859375 40.69145965576171875 38.726543426513671875 37.1822509765625 35.572475433349609375 34.331501007080078125 32.93611907958984375 31.383697509765625 31.003965377807617188 32.41002655029296875 32.499233245849609375 31.9463653564453125 31.397657394409179688 -99999 -99999 -99999 -99999 -99999 -99999 -99999 -99999 -99999 -99999 -99999 -99999 -99999 -99999 -99999 -99999 -99999 -99999 -99999 -99999 -99999 -99999 -99999 -99999 -99999 -99999 -99999 -99999 -99999 -99999 -99999 -99999
 -99999 -99999 -99999 -99999 -99999 -99999 -99999 -99999 -99999 -99999 -99999 -99999 -99999 -99999 -99999 -99999 -99999 -99999 -99999 -99999 -99999 -99999 -99999 -99999 -99999 -99999 -99999 -99999 -99999 -99999 -99999 -99999 -99999 -99999 -99999 -99999 -99999 79.98950958251953125 78.54065704345703125 76.93175506591796875 75.4595947265625 73.90776824951171875 72.38401031494140625 70.82216644287109375 69.33808135986328125 67.93182373046875 66.55545806884765625 65.2335662841796875 64.000091552734375 62.7681732177734375 61.64347076416015625 60.614727020263671875 59.64618682861328125 58.807018280029296875 58.1491546630859375 57.56926727294921875 57.042995452880859375 56.66692352294921875 56.47399139404296875 56.31219482421875 56.294902801513671875 56.437259674072265625 56.65753936767578125 56.973888397216796875 57.477367401123046875 58.0101470947265625 58.66126251220703125 59.30481719970703125 60.003139495849609375 60.53037261962890625 60.99828338623046875 61.345733642578125 61.486850738525390625 61.2434539794921875 60.68006134033203125 59.6986541748046875 58.15193939208984375 56.177585601806640625 53.722232818603515625 50.91437530517578125 47.8978118896484375 44.884265899658203125 41.973484039306640625 39.586544036865234375 37.36798095703125 35.543548583984375 34.1173095703125 32.562961578369140625 30.921796798706054688 29.951074600219726562 29.501844406127929688 29.585626602172851562 29.494579315185546875 28.918506622314453125 -99999 -99999 -99999 -99999 -99999 -99999 -99999 -99999 -99999 -99999 -99999 -99999 -99999 -99999 -99999 -99999 -99999 -99999 -99999 -99999 -99999 -99999 -99999 -99999 -99999 -99999 -99999 -99999 -99999 -99999 -99999 -99999 -99999
 -99999 -99999 -99999 -99999 -99999 -99999 -99999 -99999 -99999 -99999 -99999 -99999 -99999 -99999 -99999 -99999 -99999 -99999 -99999 -99999 -99999 -99999 -99999 -99999 -99999 -99999 -99999 -99999 -99999 -99999 -99999 -99999 -99999 -99999 -99999 -99999 -99999 -99999 -99999 -99999 -99999 -99999 -99999 70.220733642578125 68.780609130859375 67.42658233642578125 66.0646209716796875 64.79096221923828125 63.550510406494140625 62.411712646484375 61.3918914794921875 60.412624359130859375 59.487010955810546875 58.741912841796875 58.01531982421875 57.38775634765625 56.88751220703125 56.494991302490234375 56.198741912841796875 56.060527801513671875 56.041545867919921875 56.086643218994140625 56.212574005126953125 56.473354339599609375 56.816341400146484375 57.201618194580078125 57.6367340087890625 58.078006744384765625 58.5593719482421875 58.885951995849609375 59.158100128173828125 59.225250244140625 59.076457977294921875 58.678035736083984375 57.873966217041015625 56.73198699951171875 55.23409271240234375 53.330516815185546875 51.039760589599609375 48.50820159912109375 45.801113128662109375 43.14490509033203125 40.456310272216796875 38.166393280029296875 36.13031005859375 34.22090911865234375 32.458271026611328125 30.719030380249023438 29.264112472534179688 28.069244384765625 -99999 -99999 -99999 -99999 -99999 -99999 -99999 -99999 -99999 -99999 -99999 -99999 -99999 -99999 -99999 -99999 -99999 -99999 -99999 -99999 -99999 -99999 -99999 -99999 -99999 -99999 -99999 -99999 -99999 -99999 -99999 -99999 -99999 -99999 -99999 -99999 -99999
 -99999 -99999 -99999 -99999 -99999 -99999 -99999 -99999 -99999 -99999 -99999 -99999 -99999 -99999 -99999 -99999 -99999 -99999 -99999 -99999 -99999 -99999 -99999 -99999 -99999 -99999 -99999 -99999 -99999 -99999 -99999 -99999 -99999 -99999 -99999 -99999 -99999 -99999 -99999 -99999 -99999 -99999 -99999 -99999 -99999 -99999 -99999 -99999 -99999 -99999 -99999 60.100093841552734375 59.22249603271484375 58.424861907958984375 57.743804931640625 57.17148590087890625 56.61643218994140625 56.24195098876953125 55.9622802734375 55.77494049072265625 55.652011871337890625 55.61745452880859375 55.680950164794921875 55.77198028564453125 56.0056304931640625 56.2720794677734375 56.609714508056640625 56.866443634033203125 57.082851409912109375 57.2248382568359375 57.253231048583984375 57.18717193603515625 56.792980194091796875 56.199489593505859375 55.328601837158203125 54.1270294189453125 52.58588409423828125 50.74047088623046875 48.616016387939453125 46.309497833251953125 43.845249176025390625 41.3277740478515625 38.986476898193359375 36.793521881103515625 -99999 -99999 -99999 -99999 -99999 -99999 -99999 -99999 -99999 -99999 -99999 -99999 -99999 -99999 -99999 -99999 -99999 -99999 -99999 -99999 -99999 -99999 -99999 -99999 -99999 -99999 -99999 -99999 -99999 -99999 -99999 -99999 -99999 -99999 -99999 -99999 -99999 -99999 -99999 -99999 -99999 -99999 -99999
 -99999 -99999 -99999 -99999 -99999 -99999 -99999 -99999 -99999 -99999 -99999 -99999 -99999 -99999 -99999 -99999 -99999 -99999 -99999 -99999 -99999 -99999 -99999 -99999 -99999 -99999 -99999 -99999 -99999 -99999 -99999 -99999 -99999 -99999 -99999 -99999 -99999 -99999 -99999 -99999 -99999 -99999 -99999 -99999 -99999 -99999 -99999 -99999 -99999 -99999 -99999 -99999 -99999 -99999 -99999 -99999 -99999 -99999 55.567600250244140625 55.29648590087890625 -99999 -99999 -99999 -99999 -99999 -99999 -99999 -99999 -99999 -99999 -99999 -99999 -99999 -99999 -99999 -99999 -99999 -99999 -99999 -99999 -99999 -99999 -99999 -99999 -99999 -99999 -99999 -99999 -99999 -99999 -99999 -99999 -99999 -99999 -99999 -99999 -99999 -99999 -99999 -99999 -99999 -99999 -99999 -99999 -99999 -99999 -99999 -99999 -99999 -99999 -99999 -99999 -99999 -99999 -99999 -99999 -99999 -99999 -99999 -99999 -99999 -99999 -99999 -99999 -99999 -99999 -99999
