ncols        123
nrows        111
xllcorner    210961.305011979479
yllcorner    8947338.265427578241
cellsize     50.000000000000
NODATA_value  -99999
 -99999.0 -99999 -99999 -99999 -99999 -99999 -99999 -99999 -99999 -99999 -99999 -99999 -99999 -99999 -99999 -99999 -99999 -99999 -99999 -99999 -99999 -99999 -99999 -99999 -99999 -99999 -99999 -99999 -99999 -99999 -99999 -99999 -99999 -99999 -99999 -99999 -99999 -99999 -99999 -99999 -99999 -99999 -99999 -99999 -99999 -99999 -99999 -99999 -99999 -99999 -99999 -99999 -99999 -99999 -99999 -99999 -99999 -99999 -99999 -99999 -99999 -99999 -99999 -99999 -99999 -99999 -99999 -99999 -99999 -99999 -99999 -99999 -99999 -99999 -99999 -99999 -99999 -99999 -99999 -99999 -99999 -99999 -99999 -99999 -99999 -99999 -99999 -99999 -99999 -99999 -99999 -99999 -99999 -99999 -99999 -99999 -99999 -99999 -99999 -99999 -99999 -99999 -99999 -99999 -99999 -99999 -99999 -99999 -99999 -99999 -99999 -99999 -99999 -99999 -99999 -99999 -99999 -99999 -99999 -99999 -99999 -99999 -99999
 -99999 -99999 -99999 -99999 -99999 -99999 -99999 -99999 -99999 -99999 -99999 -99999 -99999 -99999 -99999 -99999 -99999 -99999 -99999 -99999 -99999 -99999 -99999 -99999 -99999 -99999 -99999 -99999 -99999 -99999 -99999 -99999 -99999 -99999 -99999 -99999 -99999 -99999 -99999 -99999 -99999 -99999 23.269811630249023438 18.588426589965820312 13.179821014404296875 7.0879855155944824219 0.51931816339492797852 -99999 -99999 -99999 -99999 -99999 -99999 -99999 -99999 -99999 -99999 -99999 -99999 -99999 -99999 -99999 -99999 -99999 -99999 -99999 -99999 -99999 -99999 -99999 -99999 -99999 -99999 -99999 -99999 -99999 -99999 -99999 -99999 -99999 -99999 -99999 -99999 -99999 -99999 -99999 -99999 -99999 -99999 -99999 -99999 -99999 -99999 -99999 -99999 -99999 -99999 -99999 -99999 -99999 -99999 -99999 -99999 -99999 -99999 -99999 -99999 -99999 -99999 -99999 -99999 -99999 -99999 -99999 -99999 -99999 -99999 -99999 -99999 -99999 -99999 -99999 -99999
 -99999 -99999 -99999 -99999 -99999 -99999 -99999 -99999 -99999 -99999 -99999 -99999 -99999 -99999 -99999 -99999 -99999 -99999 -99999 -99999 -99999 -99999 -99999 -99999 -99999 -99999 -99999 -99999 -99999 -99999 -99999 -99999 -99999 -99999 -99999 -99999 -99999 -99999 -99999 44.034221649169921875 44.408893585205078125 42.12396240234375 38.1304931640625 32.713275909423828125 26.019445419311523438 19.212507247924804688 11.952821731567382812 4.8555407524108886719 -99999 -99999 -99999 -99999 -99999 -99999 -99999 -99999 -99999 -99999 -99999 -99999 -99999 -99999 -99999 -99999 -99999 -99999 -99999 -99999 -99999 -99999 -99999 -99999 -99999 -99999 -99999 -99999 -99999 -99999 -99999 -99999 -99999 -99999 -99999 -99999 -99999 -99999 -99999 -99999 -99999 -99999 -99999 -99999 -99999 -99999 -99999 -99999 -99999 -99999 -99999 -99999 -99999 -99999 -99999 -99999 -99999 -99999 -99999 -99999 -99999 -99999 -99999 -99999 -99999 -99999 -99999 -99999 -99999 -99999 -99999 -99999 -99999 -99999 -99999
 -99999 -99999 -99999 -99999 -99999 -99999 -99999 -99999 -99999 -99999 -99999 -99999 -99999 -99999 -99999 -99999 -99999 -99999 -99999 -99999 -99999 -99999 -99999 -99999 -99999 -99999 -99999 -99999 -99999 -99999 -99999 -99999 -99999 -99999 -99999 -99999 50.53145599365234375 55.63881683349609375 59.081569671630859375 60.983112335205078125 60.709003448486328125 58.23023223876953125 53.422336578369140625 46.368915557861328125 38.16150665283203125 30.368907928466796875 22.753925323486328125 15.405622482299804688 8.6751337051391601562 2.5122444629669189453 -99999 -99999 -99999 -99999 -99999 -99999 -99999 -99999 -99999 -99999 -99999 -99999 -99999 -99999 -99999 -99999 -99999 -99999 -99999 -99999 0.9677486419677734375 5.0971512794494628906 8.8498525619506835938 12.575003623962402344 16.068876266479492188 19.141027450561523438 21.877435684204101562 23.703889846801757812 -99999 -99999 -99999 -99999 -99999 -99999 -99999 -99999 -99999 -99999 -99999 -99999 -99999 -99999 -99999 -99999 -99999 -99999 -99999 -99999 -99999 -99999 -99999 -99999 -99999 -99999 -99999 -99999 -99999 -99999 -99999 -99999 -99999 -99999 -99999 -99999 -99999 -99999 -99999 -99999 -99999 -99999 -99999 -99999 -99999
 -99999 -99999 -99999 -99999 -99999 -99999 -99999 -99999 -99999 -99999 -99999 -99999 -99999 -99999 -99999 -99999 -99999 -99999 -99999 -99999 -99999 -99999 -99999 -99999 -99999 -99999 -99999 -99999 -99999 -99999 -99999 -99999 -99999 40.6525726318359375 51.53652191162109375 60.457942962646484375 67.43247222900390625 72.59821319580078125 75.85538482666015625 77.49503326416015625 76.78202056884765625 74.32346343994140625 68.9217376708984375 60.493610382080078125 50.5490570068359375 41.46484375 33.77953338623046875 26.307516098022460938 19.422891616821289062 13.55518341064453125 8.1697435379028320312 3.1960501670837402344 -99999 -99999 -99999 -99999 -99999 -99999 -99999 -99999 -99999 -99999 -99999 -99999 -99999 -99999 -99999 3.3690724372863769531 7.7000207901000976562 12.098745346069335938 16.694837570190429688 21.389341354370117188 25.988636016845703125 30.274499893188476562 34.2818450927734375 37.927005767822265625 40.90428924560546875 43.268253326416015625 44.87706756591796875 45.746700286865234375 -99999 -99999 -99999 -99999 -99999 -99999 -99999 -99999 -99999 -99999 -99999 -99999 -99999 -99999 -99999 -99999 -99999 -99999 -99999 -99999 -99999 -99999 -99999 -99999 -99999 -99999 -99999 -99999 -99999 -99999 -99999 -99999 -99999 -99999 -99999 -99999 -99999 -99999 -99999 -99999 -99999 -99999 -99999
 -99999 -99999 -99999 -99999 -99999 -99999 -99999 -99999 -99999 -99999 -99999 -99999 -99999 -99999 -99999 -99999 -99999 -99999 -99999 -99999 -99999 -99999 -99999 -99999 -99999 -99999 -99999 -99999 -99999 -99999 15.265334129333496094 30.025653839111328125 44.307952880859375 57.41761016845703125 68.66188812255859375 77.57457733154296875 84.62694549560546875 89.214324951171875 92.08530426025390625 93.02521514892578125 92.38622283935546875 90.2268524169921875 84.43732452392578125 75.17733001708984375 64.0113677978515625 53.835399627685546875 45.62227630615234375 38.34362030029296875 31.656299591064453125 25.44826507568359375 19.914926528930664062 14.915587425231933594 10.293526649475097656 6.1662626266479492188 2.6113343238830566406 -99999 -99999 -99999 -99999 -99999 -99999 -99999 0.2948583066463470459 2.6560583114624023438 5.7588376998901367188 9.393009185791015625 13.381464958190917969 17.783933639526367188 22.551647186279296875 27.735698699951171875 33.01131439208984375 38.1772308349609375 43.368679046630859375 48.409149169921875 53.084259033203125 57.13767242431640625 60.62015533447265625 63.53802490234375 65.61547088623046875 66.74200439453125 66.85414886474609375 65.9407958984375 63.981822967529296875 -99999 -99999 -99999 -99999 -99999 -99999 -99999 -99999 -99999 -99999 -99999 -99999 -99999 -99999 -99999 -99999 -99999 -99999 -99999 -99999 -99999 -99999 -99999 -99999 -99999 -99999 -99999 -99999 -99999 -99999 -99999 -99999 -99999 -99999 -99999 -99999 -99999 -99999 -99999 -99999
 -99999 -99999 -99999 -99999 -99999 -99999 -99999 -99999 -99999 -99999 -99999 -99999 -99999 -99999 -99999 -99999 -99999 -99999 -99999 -99999 -99999 -99999 -99999 -99999 -99999 -99999 -99999 -99999 -99999 13.418004989624023438 29.270931243896484375 45.4300994873046875 60.617084503173828125 74.4131927490234375 86.3281707763671875 95.44684600830078125 101.54808807373046875 105.66518402099609375 107.28144073486328125 107.1631622314453125 106.55731201171875 104.74277496337890625 101.12430572509765625 90.458831787109375 79.0329132080078125 68.46193695068359375 59.04880523681640625 51.358448028564453125 44.245555877685546875 38.089046478271484375 32.465301513671875 27.192487716674804688 22.458517074584960938 18.122989654541015625 14.361995697021484375 11.338972091674804688 9.0727367401123046875 7.5650949478149414062 7.2073187828063964844 7.4707159996032714844 8.8721179962158203125 10.518892288208007812 13.008157730102539062 15.845307350158691406 19.207323074340820312 23.133287429809570312 27.500268936157226562 32.545665740966796875 37.944057464599609375 43.58626556396484375 49.6623992919921875 55.56072235107421875 61.344722747802734375 66.9407958984375 72.27544403076171875 77.03194427490234375 81.106353759765625 84.45953369140625 86.94409942626953125 88.5624542236328125 88.74868011474609375 88.140045166015625 86.206207275390625 82.95612335205078125 78.6134033203125 -99999 -99999 -99999 -99999 -99999 -99999 -99999 -99999 -99999 -99999 -99999 -99999 -99999 -99999 -99999 -99999 -99999 -99999 -99999 -99999 -99999 -99999 -99999 -99999 -99999 -99999 -99999 -99999 -99999 -99999 -99999 -99999 -99999 -99999 -99999 -99999 -99999 -99999
 -99999 -99999 -99999 -99999 -99999 -99999 -99999 -99999 -99999 -99999 -99999 -99999 -99999 -99999 -99999 -99999 -99999 -99999 -99999 -99999 -99999 -99999 -99999 -99999 -99999 -99999 -99999 -99999 11.385875701904296875 27.004436492919921875 43.9434051513671875 61.234340667724609375 77.46465301513671875 92.29978179931640625 104.453826904296875 113.18819427490234375 119.18836212158203125 122.1329345703125 121.80762481689453125 120.29444122314453125 117.82848358154296875 116.8686065673828125 113.4021148681640625 104.86510467529296875 93.7685089111328125 83.1364898681640625 73.5045623779296875 65.37613677978515625 58.040035247802734375 51.459224700927734375 45.324893951416015625 39.904998779296875 34.95892333984375 30.565465927124023438 26.609714508056640625 23.327606201171875 20.793390274047851562 19.251026153564453125 19.053781509399414062 19.758892059326171875 21.296596527099609375 23.4935760498046875 26.168581008911132812 29.35665130615234375 33.065563201904296875 37.423126220703125 42.1438751220703125 47.60964202880859375 53.5537567138671875 59.81349945068359375 66.3620758056640625 73.0197906494140625 79.6539764404296875 85.93222808837890625 91.8267059326171875 97.297027587890625 102.05895233154296875 105.90216064453125 108.7710723876953125 110.6253204345703125 111.532867431640625 111.0550079345703125 109.22829437255859375 106.17960357666015625 101.64504241943359375 95.80756378173828125 88.44483184814453125 79.7005462646484375 -99999 -99999 -99999 -99999 -99999 -99999 -99999 -99999 -99999 -99999 -99999 -99999 -99999 -99999 -99999 -99999 -99999 -99999 -99999 -99999 -99999 -99999 -99999 -99999 -99999 -99999 -99999 -99999 -99999 -99999 -99999 -99999 -99999 -99999 -99999
 -99999 -99999 -99999 -99999 -99999 -99999 -99999 -99999 -99999 -99999 -99999 -99999 -99999 -99999 -99999 -99999 -99999 -99999 -99999 -99999 -99999 -99999 -99999 -99999 -99999 -99999 -99999 10.303435325622558594 24.166879653930664062 40.923252105712890625 59.10047149658203125 77.47904205322265625 95.27190399169921875 110.79405975341796875 122.92523193359375 131.7671051025390625 137.332244873046875 138.2117156982421875 136.49627685546875 132.7267608642578125 128.3735198974609375 124.91119384765625 122.69486236572265625 115.78481292724609375 106.54116058349609375 96.9383087158203125 87.811248779296875 79.2344818115234375 71.8084564208984375 65.15050506591796875 58.985858917236328125 53.2279052734375 48.2377471923828125 43.471469879150390625 39.270854949951171875 35.915496826171875 33.492527008056640625 32.11341094970703125 31.632360458374023438 32.340297698974609375 34.311107635498046875 36.60208892822265625 39.522037506103515625 43.074493408203125 46.913013458251953125 51.43242645263671875 56.776580810546875 62.745876312255859375 69.29628753662109375 76.40648651123046875 83.7684173583984375 91.16167449951171875 98.5717315673828125 105.6734771728515625 112.289581298828125 118.345977783203125 123.55278778076171875 127.97943878173828125 131.4782257080078125 133.7436370849609375 134.6278228759765625 134.4347076416015625 132.919464111328125 129.9700164794921875 125.14826202392578125 119.14325714111328125 111.622589111328125 102.59162139892578125 92.117523193359375 -99999 -99999 -99999 -99999 -99999 -99999 -99999 -99999 -99999 -99999 -99999 -99999 -99999 -99999 -99999 -99999 -99999 -99999 -99999 -99999 -99999 -99999 -99999 -99999 -99999 -99999 -99999 -99999 -99999 -99999 -99999 -99999 -99999 -99999
 -99999 -99999 -99999 -99999 -99999 -99999 -99999 -99999 -99999 -99999 -99999 -99999 -99999 -99999 -99999 -99999 -99999 -99999 -99999 -99999 -99999 -99999 -99999 -99999 -99999 2.898731231689453125 12.949682235717773438 24.128917694091796875 38.727947235107421875 55.990756988525390625 75.516510009765625 95.27025604248046875 113.8745269775390625 129.7534332275390625 142.5174713134765625 151.514984130859375 155.2189788818359375 155.4500885009765625 151.5204620361328125 146.057830810546875 140.5571441650390625 136.295562744140625 132.121246337890625 126.39669036865234375 118.737945556640625 110.18404388427734375 101.57305145263671875 93.28786468505859375 85.85424041748046875 79.07952880859375 72.75315093994140625 66.94647979736328125 61.634372711181640625 57.05194091796875 52.988140106201171875 49.52333831787109375 46.74312591552734375 45.094329833984375 44.868770599365234375 46.03592681884765625 47.990234375 50.6825103759765625 53.699710845947265625 57.15447235107421875 61.2943572998046875 66.08807373046875 71.700225830078125 78.3343963623046875 85.7938995361328125 93.72376251220703125 101.73142242431640625 109.7283172607421875 117.88967132568359375 125.8585662841796875 133.234283447265625 139.796905517578125 145.609405517578125 150.672760009765625 154.7855377197265625 157.395721435546875 159.0680999755859375 159.01361083984375 157.4742889404296875 154.345062255859375 149.866302490234375 143.5710601806640625 135.60296630859375 126.27434539794921875 115.11959075927734375 102.556732177734375 88.76544189453125 -99999 -99999 -99999 -99999 -99999 -99999 -99999 -99999 -99999 -99999 -99999 -99999 -99999 -99999 -99999 -99999 -99999 -99999 -99999 -99999 -99999 -99999 -99999 -99999 -99999 -99999 -99999 -99999 -99999 -99999 -99999 -99999
 -99999 -99999 -99999 -99999 -99999 -99999 -99999 -99999 -99999 -99999 -99999 -99999 -99999 -99999 -99999 -99999 -99999 -99999 -99999 -99999 -99999 -99999 -99999 -99999 9.3865804672241210938 19.224987030029296875 28.820222854614257812 40.10887908935546875 55.246341705322265625 73.6627655029296875 93.60033416748046875 113.97544097900390625 133.092681884765625 149.4858856201171875 162.1841278076171875 170.1993255615234375 173.5282440185546875 172.6505279541015625 167.7903900146484375 160.6253662109375 154.4404296875 149.0865020751953125 143.838958740234375 138.0716552734375 130.805694580078125 123.01552581787109375 114.9087677001953125 107.36808013916015625 99.88976287841796875 93.13457489013671875 86.922576904296875 81.113311767578125 75.8675689697265625 71.23146820068359375 67.0226593017578125 63.53903961181640625 61.122791290283203125 59.809749603271484375 59.28479766845703125 60.427333831787109375 62.42697906494140625 65.0681610107421875 68.41385650634765625 71.93182373046875 75.97304534912109375 81.01895904541015625 87.20534515380859375 94.44390869140625 102.4689788818359375 111.1766204833984375 120.2018280029296875 129.302825927734375 138.2227630615234375 146.7191925048828125 154.66864013671875 162.186065673828125 168.6485137939453125 174.3171539306640625 178.63916015625 181.7977294921875 183.72760009765625 183.981719970703125 182.79400634765625 179.77117919921875 175.101654052734375 168.59918212890625 160.56512451171875 150.708984375 139.3516082763671875 126.02005767822265625 111.1385040283203125 95.12889862060546875 -99999 -99999 -99999 -99999 -99999 -99999 -99999 -99999 -99999 -99999 -99999 -99999 -99999 -99999 -99999 -99999 -99999 -99999 -99999 -99999 -99999 -99999 -99999 -99999 -99999 -99999 -99999 -99999 -99999 -99999 -99999
 -99999 -99999 -99999 -99999 -99999 -99999 -99999 -99999 -99999 -99999 -99999 -99999 -99999 -99999 -99999 -99999 -99999 -99999 -99999 -99999 -99999 -99999 6.0841450691223144531 16.167423248291015625 26.21068572998046875 36.158519744873046875 46.7671356201171875 59.448177337646484375 74.51363372802734375 92.54235076904296875 112.42292022705078125 132.9769439697265625 152.4703369140625 169.2819061279296875 181.798828125 189.3600921630859375 191.6820068359375 189.22698974609375 183.716949462890625 176.3246917724609375 169.0663604736328125 162.353912353515625 156.3184661865234375 150.03289794921875 142.957305908203125 135.790069580078125 128.26251220703125 120.80694580078125 113.832733154296875 107.2777862548828125 101.17050933837890625 95.51806640625 90.2596282958984375 85.8501739501953125 81.96515655517578125 78.70146942138671875 76.33170318603515625 74.98131561279296875 74.8715362548828125 75.8630523681640625 77.69396209716796875 80.487884521484375 84.19708251953125 87.4566192626953125 91.1787872314453125 96.41683197021484375 103.1537322998046875 111.230712890625 120.18140411376953125 129.8479766845703125 139.6437835693359375 149.5260009765625 158.8139495849609375 168.04254150390625 176.8410186767578125 184.9519500732421875 192.1907501220703125 198.373870849609375 203.5222930908203125 207.0721893310546875 209.2742767333984375 209.845062255859375 208.490142822265625 205.6898040771484375 201.1805877685546875 194.53179931640625 186.118408203125 175.9912872314453125 163.790679931640625 150.1005706787109375 134.4290618896484375 117.43822479248046875 98.7498016357421875 79.1219024658203125 -99999 -99999 -99999 -99999 -99999 -99999 -99999 -99999 -99999 -99999 -99999 -99999 -99999 -99999 -99999 -99999 -99999 -99999 -99999 -99999 -99999 -99999 -99999 -99999 -99999 -99999 -99999 -99999 -99999
 -99999 -99999 -99999 -99999 -99999 -99999 -99999 -99999 -99999 -99999 -99999 -99999 -99999 -99999 -99999 -99999 -99999 -99999 -99999 -99999 0.75899714231491088867 11.961816787719726562 22.76666259765625 32.960735321044921875 43.120143890380859375 53.6132049560546875 65.38536834716796875 78.6141510009765625 93.96630096435546875 111.45471954345703125 131.1606597900390625 151.4598388671875 170.61602783203125 186.9854736328125 199.284088134765625 206.3202056884765625 207.894744873046875 204.6184539794921875 198.47509765625 190.7251739501953125 183.112030029296875 176.064483642578125 168.9429473876953125 162.3976287841796875 155.5248565673828125 148.472808837890625 141.3758087158203125 134.354644775390625 127.5830230712890625 121.28075408935546875 115.4486541748046875 110.1609954833984375 105.24951934814453125 101.06395721435546875 97.398468017578125 94.4246826171875 92.32415771484375 91.254150390625 91.18305206298828125 92.1839599609375 94.1361083984375 97.25884246826171875 100.36238861083984375 102.99445343017578125 106.3642730712890625 112.18883514404296875 119.79058837890625 128.8995208740234375 138.942596435546875 149.0555419921875 159.486907958984375 169.99871826171875 180.3179931640625 190.340789794921875 199.5837249755859375 208.3571624755859375 216.2404327392578125 222.9596099853515625 228.485198974609375 232.680023193359375 235.198272705078125 236.1943817138671875 235.3148193359375 232.2888946533203125 227.51251220703125 220.90167236328125 212.3538360595703125 201.69000244140625 189.2812347412109375 174.7928009033203125 158.690155029296875 140.69305419921875 121.269927978515625 100.4745635986328125 77.9965972900390625 -99999 -99999 -99999 -99999 -99999 -99999 -99999 -99999 -99999 -99999 -99999 -99999 -99999 -99999 -99999 -99999 -99999 -99999 -99999 -99999 -99999 -99999 -99999 -99999 -99999 -99999 -99999 -99999
 -99999 -99999 -99999 -99999 -99999 -99999 -99999 -99999 -99999 -99999 -99999 -99999 -99999 -99999 -99999 -99999 -99999 -99999 -99999 4.7410588264465332031 17.091798782348632812 28.890941619873046875 39.69750213623046875 50.035465240478515625 60.298801422119140625 70.7763214111328125 82.10674285888671875 95.13042449951171875 110.48560333251953125 128.434356689453125 148.1623382568359375 168.7195587158203125 187.414398193359375 203.1807403564453125 214.367156982421875 221.0703125 221.49774169921875 217.3831634521484375 211.3520965576171875 203.789581298828125 196.1196441650390625 188.46343994140625 181.5149993896484375 174.5766448974609375 167.773345947265625 160.85113525390625 154.1775360107421875 147.52978515625 141.1699066162109375 135.3857269287109375 129.960052490234375 124.9443359375 120.3708648681640625 116.45053863525390625 113.2246856689453125 110.69603729248046875 109.03664398193359375 108.0827178955078125 108.03497314453125 108.91713714599609375 110.7646942138671875 113.6370391845703125 116.3154296875 118.25018310546875 122.197479248046875 128.855560302734375 138.0181121826171875 147.813079833984375 158.42987060546875 169.562591552734375 180.6744842529296875 191.7314300537109375 202.4500274658203125 213.0293426513671875 223.1644744873046875 232.3614654541015625 240.879608154296875 248.3763275146484375 254.638885498046875 259.195526123046875 261.92474365234375 262.85638427734375 262.239349365234375 259.613555908203125 254.9692840576171875 248.0381317138671875 239.2774200439453125 228.3671417236328125 215.4962158203125 200.4742584228515625 183.771087646484375 165.0302581787109375 144.51068115234375 122.280059814453125 98.66484832763671875 73.7462158203125 48.09386444091796875 -99999 -99999 -99999 -99999 -99999 -99999 -99999 -99999 -99999 -99999 -99999 -99999 -99999 -99999 -99999 -99999 -99999 -99999 -99999 -99999 -99999 -99999 -99999 -99999 -99999 -99999
 -99999 -99999 -99999 -99999 -99999 -99999 -99999 -99999 -99999 -99999 -99999 -99999 -99999 -99999 -99999 -99999 -99999 -99999 6.8339018821716308594 20.687397003173828125 33.7397918701171875 45.85340118408203125 56.9223175048828125 67.4479827880859375 77.380218505859375 87.3775787353515625 98.0893402099609375 110.28482818603515625 125.5399627685546875 143.17816162109375 163.6053466796875 183.9949188232421875 202.7019195556640625 216.5552520751953125 225.8711395263671875 230.794281005859375 231.149139404296875 227.746307373046875 221.93536376953125 215.0236053466796875 207.5550384521484375 200.2183380126953125 193.068023681640625 186.219482421875 179.628509521484375 172.9630889892578125 166.58294677734375 160.5651092529296875 154.6893310546875 149.1809234619140625 144.210357666015625 139.76702880859375 135.6942596435546875 132.1011962890625 129.5182037353515625 127.33022308349609375 125.9132537841796875 125.3036651611328125 125.52506256103515625 126.6591644287109375 128.539459228515625 130.9051666259765625 133.1644287109375 135.5502471923828125 139.88677978515625 148.403167724609375 157.952117919921875 168.513519287109375 180.0158233642578125 191.2914276123046875 202.541900634765625 213.65386962890625 224.8828125 236.0646209716796875 246.67340087890625 256.64129638671875 265.7491455078125 273.84039306640625 280.68084716796875 285.740570068359375 288.93316650390625 290.623138427734375 289.9111328125 287.077056884765625 282.48358154296875 275.5870361328125 266.282318115234375 255.2974395751953125 241.946685791015625 226.826263427734375 209.4146575927734375 190.091949462890625 168.7145233154296875 145.685028076171875 121.13562774658203125 94.81267547607421875 67.38329315185546875 39.320049285888671875 -99999 -99999 -99999 -99999 -99999 -99999 -99999 -99999 -99999 -99999 -99999 -99999 -99999 -99999 -99999 -99999 -99999 -99999 -99999 -99999 -99999 -99999 -99999 -99999 -99999
 -99999 -99999 -99999 -99999 -99999 -99999 -99999 -99999 -99999 -99999 -99999 -99999 -99999 -99999 -99999 -99999 -99999 6.5727415084838867188 22.318279266357421875 36.903354644775390625 50.667438507080078125 63.271259307861328125 74.6169586181640625 85.06578826904296875 94.34377288818359375 103.53847503662109375 113.36064910888671875 124.8944091796875 138.84429931640625 156.817535400390625 177.385711669921875 197.1340179443359375 214.586761474609375 228.252899169921875 234.8787078857421875 238.016265869140625 237.75 235.25482177734375 230.3094482421875 224.0582733154296875 216.9840545654296875 210.3987579345703125 203.6635894775390625 197.241607666015625 190.84014892578125 184.6230926513671875 178.8030853271484375 173.2156219482421875 167.7751312255859375 163.009521484375 158.541778564453125 154.57476806640625 151.0209808349609375 147.9915313720703125 145.683502197265625 144.0646820068359375 143.2476959228515625 143.1459197998046875 143.6112518310546875 144.89129638671875 146.8017425537109375 149.11187744140625 152.1205291748046875 155.96441650390625 161.9084320068359375 170.5329742431640625 180.1145782470703125 190.969451904296875 202.1157073974609375 213.389801025390625 224.772430419921875 236.32965087890625 247.7932586669921875 259.2352294921875 270.62164306640625 281.48968505859375 291.3470458984375 300.176788330078125 307.39788818359375 312.739837646484375 316.5692138671875 318.40191650390625 317.926727294921875 315.55535888671875 310.29498291015625 303.3272705078125 294.283172607421875 282.6220703125 269.259979248046875 253.5005645751953125 235.6571502685546875 215.8833770751953125 194.1905517578125 170.6385650634765625 145.1944427490234375 118.028472900390625 88.91393280029296875 59.204631805419921875 27.06064605712890625 2.6401720046997070312 -99999 -99999 -99999 -99999 -99999 -99999 -99999 -99999 -99999 -99999 -99999 -99999 -99999 -99999 -99999 -99999 -99999 -99999 -99999 -99999 -99999 -99999 -99999
 -99999 -99999 -99999 -99999 -99999 -99999 -99999 -99999 -99999 -99999 -99999 -99999 -99999 -99999 -99999 -99999 3.8608498573303222656 21.16788482666015625 37.985408782958984375 53.53316497802734375 68.07295989990234375 80.9481353759765625 92.42610931396484375 102.78143310546875 111.6638946533203125 120.07354736328125 128.2430877685546875 136.85772705078125 150.401336669921875 169.3081512451171875 189.0547637939453125 207.458465576171875 222.964202880859375 233.782470703125 239.7643890380859375 242.0609130859375 242.4746856689453125 240.09832763671875 236.2894134521484375 230.8702850341796875 225.1637115478515625 219.187164306640625 212.8405914306640625 207.11761474609375 201.2917327880859375 195.7559661865234375 190.3779296875 185.36810302734375 180.67120361328125 176.4687652587890625 172.630645751953125 169.233367919921875 166.2942657470703125 163.9001617431640625 162.356109619140625 161.153411865234375 160.626190185546875 160.9229888916015625 161.9569854736328125 163.7728271484375 166.0332794189453125 168.9763641357421875 172.85546875 178.2009429931640625 184.8247528076171875 193.370452880859375 202.905487060546875 213.8524322509765625 226.142578125 236.9357147216796875 247.3511962890625 258.553375244140625 270.498382568359375 282.59136962890625 294.58001708984375 306.252655029296875 317.10882568359375 326.516693115234375 334.208648681640625 340.210479736328125 344.4971923828125 346.47698974609375 346.0469970703125 343.69970703125 338.86260986328125 331.35247802734375 322.17926025390625 310.516387939453125 296.57635498046875 280.51385498046875 262.393768310546875 242.3060455322265625 220.2150726318359375 196.36041259765625 170.654998779296875 143.3788604736328125 114.18552398681640625 84.026641845703125 53.823886871337890625 26.831171035766601562 14.9460296630859375 -99999 -99999 -99999 -99999 -99999 -99999 -99999 -99999 -99999 -99999 -99999 -99999 -99999 -99999 -99999 -99999 -99999 -99999 -99999 -99999 -99999 -99999
 -99999 -99999 -99999 -99999 -99999 -99999 -99999 -99999 -99999 -99999 -99999 -99999 -99999 -99999 -99999 -99999 17.21947479248046875 35.946048736572265625 53.90566253662109375 70.49295806884765625 85.5311737060546875 98.61148834228515625 110.55571746826171875 120.7451934814453125 129.6331634521484375 137.8131561279296875 145.391632080078125 153.5486907958984375 166.048614501953125 182.81243896484375 199.695831298828125 214.9764404296875 226.9965362548828125 235.8484039306640625 241.2889251708984375 244.5151824951171875 245.063720703125 243.551513671875 240.4647216796875 236.3749847412109375 231.6468505859375 226.396270751953125 221.03497314453125 215.995635986328125 210.8719940185546875 206.0097503662109375 201.4845123291015625 197.3814239501953125 193.084259033203125 189.65252685546875 186.443695068359375 183.7010650634765625 181.3592376708984375 179.5877227783203125 178.5445709228515625 178.05804443359375 178.2813262939453125 179.108062744140625 180.550384521484375 182.6839752197265625 185.7524871826171875 189.53521728515625 194.3564453125 200.466827392578125 207.8627777099609375 216.6116943359375 226.8684234619140625 238.857208251953125 250.5166015625 258.785858154296875 269.02789306640625 280.728424072265625 292.93994140625 305.92999267578125 319.0308837890625 331.41607666015625 342.960174560546875 353.108001708984375 361.759613037109375 368.322174072265625 372.5927734375 374.603271484375 374.531158447265625 371.887115478515625 366.726806640625 359.628387451171875 349.893585205078125 337.87310791015625 323.872039794921875 307.42034912109375 289.187042236328125 268.90264892578125 246.7080230712890625 222.82598876953125 197.432769775390625 170.30950927734375 142.494232177734375 113.15435028076171875 85.7778778076171875 60.93614959716796875 45.8806915283203125 36.865116119384765625 -99999 -99999 -99999 -99999 -99999 -99999 -99999 -99999 -99999 -99999 -99999 -99999 -99999 -99999 -99999 -99999 -99999 -99999 -99999 -99999 -99999
 -99999 -99999 -99999 -99999 -99999 -99999 -99999 -99999 -99999 -99999 -99999 -99999 -99999 -99999 -99999 10.031458854675292969 30.788282394409179688 51.49188232421875 70.2733154296875 87.80776214599609375 102.79052734375 116.5106964111328125 128.4588623046875 138.71453857421875 147.57513427734375 155.740875244140625 163.8436126708984375 173.6243438720703125 184.7533721923828125 195.0420989990234375 207.1544189453125 218.4835968017578125 228.201873779296875 235.9485931396484375 241.2306671142578125 244.3720550537109375 245.53948974609375 244.97882080078125 242.961395263671875 240.1905059814453125 236.5713348388671875 232.4653778076171875 228.42657470703125 224.0670623779296875 219.5973358154296875 215.77838134765625 211.948333740234375 208.367523193359375 205.2613983154296875 202.4501190185546875 199.8875732421875 197.90325927734375 196.3875579833984375 195.2149505615234375 194.8374481201171875 194.9616546630859375 195.6392974853515625 197.0059661865234375 199.075103759765625 201.998626708984375 205.649658203125 210.2553558349609375 215.689910888671875 222.23236083984375 230.1348419189453125 239.4360504150390625 249.254150390625 260.739959716796875 269.996826171875 279.322113037109375 290.1942138671875 302.42431640625 315.617034912109375 329.40936279296875 343.248443603515625 356.769195556640625 369.126678466796875 379.954833984375 389.18463134765625 396.46636962890625 400.99322509765625 403.121002197265625 402.808197021484375 400.04510498046875 395.00225830078125 387.356964111328125 377.5125732421875 365.35577392578125 350.753936767578125 334.332061767578125 315.83367919921875 295.499114990234375 273.35595703125 249.555511474609375 224.4181365966796875 198.1659088134765625 171.0428314208984375 144.144287109375 117.8423919677734375 95.8944549560546875 78.13095855712890625 66.23224639892578125 -99999 -99999 -99999 -99999 -99999 -99999 -99999 -99999 -99999 -99999 -99999 -99999 -99999 -99999 -99999 -99999 -99999 -99999 -99999 -99999 -99999
 -99999 -99999 -99999 -99999 -99999 -99999 -99999 -99999 -99999 -99999 -99999 -99999 -99999 -99999 0.76480984687805175781 23.044542312622070312 45.908443450927734375 67.63030242919921875 87.05780792236328125 104.80240631103515625 119.99051666259765625 133.7626800537109375 145.2786102294921875 155.3487091064453125 164.227813720703125 172.101318359375 179.2512359619140625 185.92254638671875 194.09185791015625 201.919647216796875 210.6565704345703125 219.2772369384765625 227.196685791015625 234.1339111328125 239.3537139892578125 242.820037841796875 244.6991119384765625 245.2459716796875 244.3994903564453125 242.86065673828125 240.3343505859375 237.48114013671875 234.4490509033203125 231.0888824462890625 228.057373046875 224.84600830078125 221.9744873046875 219.345306396484375 216.770355224609375 214.9195556640625 213.1874237060546875 211.8004913330078125 210.865692138671875 210.540496826171875 210.781280517578125 211.4138641357421875 212.881256103515625 214.917724609375 217.6110992431640625 221.11944580078125 225.3051300048828125 230.3018341064453125 236.502716064453125 243.7413177490234375 251.66265869140625 260.87628173828125 270.728759765625 280.673065185546875 290.15570068359375 299.88250732421875 311.5980224609375 324.263275146484375 337.819915771484375 352.51434326171875 367.71697998046875 382.3267822265625 395.491607666015625 406.9923095703125 416.588165283203125 423.870452880859375 428.7332763671875 431.222015380859375 430.812591552734375 428.1419677734375 422.624847412109375 414.727874755859375 404.565093994140625 392.103240966796875 377.38995361328125 360.781524658203125 341.959228515625 321.5684814453125 299.36083984375 275.97528076171875 251.180145263671875 225.798553466796875 199.701690673828125 174.3241119384765625 150.300048828125 128.37689208984375 110.16687774658203125 95.73706817626953125 84.20703887939453125 -99999 -99999 -99999 -99999 -99999 -99999 -99999 -99999 -99999 -99999 -99999 -99999 -99999 -99999 -99999 -99999 -99999 -99999 -99999 -99999
 -99999 -99999 -99999 -99999 -99999 -99999 -99999 -99999 -99999 -99999 -99999 -99999 -99999 -99999 12.319479942321777344 38.507122039794921875 63.0669403076171875 84.94651031494140625 104.5672760009765625 121.6038665771484375 136.5639190673828125 149.482574462890625 160.592254638671875 170.2177276611328125 178.240234375 185.0389556884765625 191.1031951904296875 195.6688995361328125 197.310638427734375 203.5135498046875 210.058197021484375 217.3115692138671875 224.569793701171875 230.9156036376953125 236.29718017578125 240.275115966796875 243.159271240234375 244.6228179931640625 245.135009765625 244.6067047119140625 243.3847503662109375 241.7219390869140625 239.89459228515625 237.740509033203125 235.5299224853515625 233.53753662109375 231.51226806640625 229.5125732421875 228.1930694580078125 226.8586273193359375 225.8939056396484375 225.2597198486328125 225.1935577392578125 225.3763427734375 226.367431640625 227.8015899658203125 229.7921905517578125 232.377349853515625 235.6626129150390625 239.6563873291015625 244.5676422119140625 250.3371124267578125 256.72705078125 264.241973876953125 272.559356689453125 281.57427978515625 291.2742919921875 300.9908447265625 311.1551513671875 321.940093994140625 333.42999267578125 346.31622314453125 360.162506103515625 376.12896728515625 392.85333251953125 408.083587646484375 422.083892822265625 434.14312744140625 443.842071533203125 451.228485107421875 456.35137939453125 458.4658203125 458.19268798828125 455.405487060546875 449.2064208984375 441.127685546875 430.78387451171875 417.938934326171875 403.22503662109375 385.987884521484375 367.25653076171875 346.656219482421875 324.763946533203125 301.431915283203125 277.40545654296875 252.508331298828125 227.933837890625 203.179779052734375 180.1357269287109375 158.7398681640625 140.4704437255859375 124.6104736328125 111.8402099609375 100.4439239501953125 -99999 -99999 -99999 -99999 -99999 -99999 -99999 -99999 -99999 -99999 -99999 -99999 -99999 -99999 -99999 -99999 -99999 -99999 -99999
 -99999 -99999 -99999 -99999 -99999 -99999 -99999 -99999 -99999 -99999 -99999 -99999 -99999 16.687173843383789062 35.408336639404296875 58.9331207275390625 82.70748138427734375 103.32781219482421875 122.1225433349609375 138.068328857421875 152.049163818359375 163.730804443359375 173.7447357177734375 182.200103759765625 188.7015533447265625 193.9482269287109375 197.0902557373046875 198.3124847412109375 197.9531402587890625 201.53558349609375 206.9807891845703125 213.6542816162109375 220.400146484375 226.92962646484375 232.5430755615234375 237.167510986328125 240.90716552734375 243.3537750244140625 244.95233154296875 245.753997802734375 245.6447906494140625 245.4005126953125 244.6922760009765625 243.49395751953125 242.571441650390625 241.4631195068359375 240.404510498046875 239.6138458251953125 238.7798919677734375 238.362884521484375 238.3693084716796875 238.5027008056640625 238.9473114013671875 240.0514984130859375 241.5799713134765625 243.5485076904296875 246.1136016845703125 249.398681640625 253.308258056640625 257.947906494140625 263.167694091796875 269.3829345703125 276.349761962890625 284.21759033203125 292.625640869140625 301.80377197265625 311.5218505859375 321.87872314453125 332.3621826171875 343.607635498046875 355.78765869140625 368.719818115234375 383.19598388671875 400.590240478515625 418.39776611328125 433.77178955078125 447.752838134765625 460.102874755859375 470.43035888671875 478.38946533203125 483.356475830078125 485.46014404296875 484.494232177734375 481.246826171875 475.113616943359375 466.860626220703125 455.90679931640625 442.881622314453125 427.5572509765625 410.41021728515625 391.379180908203125 370.771270751953125 348.907470703125 325.997802734375 302.3323974609375 278.27398681640625 253.9940032958984375 230.478057861328125 207.778411865234375 187.3203887939453125 168.4583282470703125 152.3122406005859375 137.923065185546875 125.21033477783203125 114.1569976806640625 -99999 -99999 -99999 -99999 -99999 -99999 -99999 -99999 -99999 -99999 -99999 -99999 -99999 -99999 -99999 -99999 -99999 -99999
 -99999 -99999 -99999 -99999 -99999 -99999 -99999 -99999 -99999 -99999 -99999 -99999 27.8058013916015625 42.11156463623046875 60.540691375732421875 81.9466552734375 102.68950653076171875 122.137847900390625 138.7592010498046875 153.49005126953125 165.52496337890625 175.54302978515625 184.01751708984375 190.52606201171875 194.9894561767578125 197.5994110107421875 198.5512237548828125 196.4991455078125 195.532806396484375 197.9781494140625 202.7451019287109375 208.77783203125 215.4278411865234375 221.9332275390625 227.9114532470703125 233.35479736328125 237.968902587890625 241.688934326171875 244.2915496826171875 246.3554534912109375 247.676177978515625 248.6319122314453125 248.94586181640625 249.136260986328125 249.2054901123046875 249.0464324951171875 248.8610382080078125 249.058807373046875 249.2876129150390625 249.682159423828125 250.172576904296875 250.9969024658203125 252.2739715576171875 254.00189208984375 256.124603271484375 258.880645751953125 262.06488037109375 265.86273193359375 270.206390380859375 275.365814208984375 281.23858642578125 287.89459228515625 295.12109375 303.09088134765625 312.058685302734375 321.6859130859375 331.7021484375 342.1363525390625 353.291229248046875 365.49468994140625 378.225616455078125 392.0589599609375 407.73455810546875 426.54901123046875 443.705780029296875 458.517364501953125 472.291656494140625 484.982879638671875 495.90301513671875 504.27862548828125 509.1259765625 510.713043212890625 509.83087158203125 505.79522705078125 499.43536376953125 490.78955078125 479.51129150390625 466.076202392578125 450.548828125 433.238250732421875 413.984771728515625 393.578704833984375 371.73797607421875 348.94354248046875 325.60845947265625 302.060760498046875 278.622161865234375 255.8023529052734375 234.1229095458984375 213.5925140380859375 194.90167236328125 178.0877532958984375 162.74267578125 149.465667724609375 136.93292236328125 125.589874267578125 -99999 -99999 -99999 -99999 -99999 -99999 -99999 -99999 -99999 -99999 -99999 -99999 -99999 -99999 -99999 -99999 -99999
 -99999 -99999 -99999 -99999 -99999 -99999 -99999 -99999 -99999 -99999 -99999 35.966548919677734375 51.110134124755859375 67.63152313232421875 85.46158599853515625 104.4488067626953125 122.89466094970703125 139.8242950439453125 154.6654205322265625 166.8729248046875 177.0017547607421875 185.3186492919921875 191.4807586669921875 195.578582763671875 197.93341064453125 198.0563201904296875 196.103607177734375 193.5813446044921875 192.534271240234375 193.7224273681640625 197.666351318359375 203.441192626953125 209.8426666259765625 216.8440399169921875 223.4791107177734375 229.9068145751953125 235.2766265869140625 239.9955596923828125 243.9207305908203125 246.75787353515625 249.4992218017578125 251.48712158203125 253.083343505859375 254.3550262451171875 255.4703826904296875 256.20916748046875 257.366058349609375 258.1124267578125 259.3089599609375 260.1934814453125 261.696533203125 263.1812744140625 265.198455810546875 267.589202880859375 270.3311767578125 273.520599365234375 277.233978271484375 281.58038330078125 286.542236328125 292.200897216796875 298.37249755859375 305.301025390625 313.193817138671875 321.669464111328125 330.770294189453125 340.45111083984375 350.83343505859375 362.1397705078125 373.902496337890625 386.633148193359375 400.582672119140625 415.3912353515625 432.166259765625 449.90936279296875 466.298065185546875 480.7298583984375 495.04278564453125 508.9949951171875 520.50750732421875 528.6219482421875 533.474609375 535.03021240234375 533.02410888671875 529.117431640625 522.135009765625 512.7279052734375 501.331085205078125 487.665496826171875 472.242767333984375 454.30572509765625 435.324371337890625 414.4080810546875 392.615264892578125 370.04595947265625 347.318389892578125 324.259490966796875 301.53375244140625 279.20379638671875 257.91510009765625 237.7143402099609375 219.191802978515625 201.797637939453125 186.059173583984375 171.7983551025390625 158.573883056640625 146.3011016845703125 134.643646240234375 -99999 -99999 -99999 -99999 -99999 -99999 -99999 -99999 -99999 -99999 -99999 -99999 -99999 -99999 -99999 -99999
 -99999 -99999 -99999 -99999 -99999 -99999 -99999 -99999 -99999 -99999 -99999 56.731578826904296875 73.35984039306640625 90.41391754150390625 108.0508575439453125 125.46050262451171875 141.652618408203125 156.1688079833984375 168.8138885498046875 178.7527313232421875 186.8125 192.469390869140625 195.5483856201171875 197.8397064208984375 197.457244873046875 195.670928955078125 192.4492340087890625 189.459564208984375 187.774017333984375 188.4601898193359375 192.42510986328125 197.6771392822265625 204.6463470458984375 212.0537109375 219.4545135498046875 226.281280517578125 232.6050262451171875 238.1809844970703125 243.090911865234375 247.4857330322265625 250.9190826416015625 254.352752685546875 256.9112548828125 259.224456787109375 261.365234375 263.304718017578125 265.111541748046875 266.851806640625 268.69879150390625 270.681365966796875 272.69927978515625 274.844757080078125 277.561737060546875 280.492950439453125 283.692718505859375 287.522735595703125 291.804046630859375 296.65521240234375 301.98651123046875 307.990753173828125 314.759063720703125 322.124298095703125 330.253143310546875 338.9827880859375 348.346466064453125 358.673553466796875 369.485748291015625 381.34063720703125 393.79339599609375 407.280487060546875 421.52545166015625 437.150390625 453.833953857421875 470.84661865234375 486.61578369140625 501.464813232421875 516.77081298828125 531.8133544921875 543.878173828125 552.0401611328125 555.74530029296875 555.9114990234375 554.17779541015625 549.672607421875 542.76806640625 533.27081298828125 521.5640869140625 507.33123779296875 491.465606689453125 473.460601806640625 454.04095458984375 433.293670654296875 411.6678466796875 389.550384521484375 366.920562744140625 344.2288818359375 321.967041015625 300.23553466796875 279.5294189453125 259.6785888671875 241.2771453857421875 224.0218353271484375 207.8823394775390625 192.840301513671875 179.205963134765625 166.1304473876953125 153.816375732421875 142.11859130859375 -99999 -99999 -99999 -99999 -99999 -99999 -99999 -99999 -99999 -99999 -99999 -99999 -99999 -99999 -99999
 -99999 -99999 -99999 -99999 -99999 -99999 -99999 -99999 -99999 -99999 58.5127410888671875 75.96627044677734375 93.6981353759765625 111.01538848876953125 128.155975341796875 143.7435455322265625 158.1432647705078125 170.9923095703125 180.7794342041015625 188.3456878662109375 194.1280059814453125 196.9524383544921875 197.9565887451171875 197.7557373046875 195.9853363037109375 192.33526611328125 187.9167327880859375 183.6672515869140625 181.5323333740234375 182.4098663330078125 186.3073272705078125 192.518310546875 199.5968475341796875 207.636138916015625 215.428558349609375 223.1780242919921875 230.277008056640625 237.0521087646484375 242.942779541015625 248.1967315673828125 253.135833740234375 257.209625244140625 260.779083251953125 264.29010009765625 267.296875 269.993072509765625 272.70623779296875 275.39532470703125 277.8468017578125 280.307586669921875 283.210174560546875 286.084625244140625 289.20599365234375 292.69525146484375 296.566680908203125 300.830718994140625 305.561370849609375 310.77264404296875 316.59716796875 323.063323974609375 330.1763916015625 337.8514404296875 346.179962158203125 355.3731689453125 365.030242919921875 375.73687744140625 387.052490234375 399.270843505859375 412.090911865234375 425.8504638671875 440.934295654296875 456.60748291015625 473.188262939453125 489.764862060546875 505.937957763671875 521.709716796875 537.59674072265625 552.75335693359375 565.29156494140625 572.615234375 575.024658203125 574.6888427734375 571.8890380859375 567.17767333984375 560.2301025390625 550.6759033203125 539.0067138671875 525.03924560546875 508.602935791015625 490.549835205078125 471.064483642578125 450.31268310546875 428.673004150390625 406.49090576171875 384.28314208984375 362.1934814453125 340.59912109375 319.455841064453125 299.25848388671875 279.76580810546875 261.363677978515625 243.922882080078125 227.9875030517578125 212.835357666015625 198.4604949951171875 184.8390350341796875 171.9742279052734375 159.6374359130859375 147.8294677734375 -99999 -99999 -99999 -99999 -99999 -99999 -99999 -99999 -99999 -99999 -99999 -99999 -99999 -99999
 -99999 -99999 -99999 -99999 -99999 -99999 -99999 -99999 -99999 56.203922271728515625 75.08820343017578125 93.68463897705078125 111.651397705078125 129.2133941650390625 145.3341217041015625 159.8899078369140625 172.67694091796875 182.592315673828125 189.8869171142578125 195.6479644775390625 199.222137451171875 200.299102783203125 199.7284088134765625 197.67242431640625 194.014007568359375 188.8412017822265625 183.379241943359375 178.3902740478515625 175.9134521484375 176.7679443359375 181.4617767333984375 187.880462646484375 195.840240478515625 204.23748779296875 212.6800689697265625 221.00701904296875 228.90728759765625 236.068817138671875 243.0172576904296875 249.10809326171875 254.848114013671875 260.0228271484375 264.8199462890625 269.14599609375 272.895477294921875 276.77960205078125 280.134857177734375 283.2130126953125 286.63116455078125 289.888519287109375 293.080047607421875 296.614837646484375 300.3306884765625 304.355743408203125 308.61309814453125 313.1820068359375 318.41796875 324.202789306640625 330.416107177734375 337.085205078125 344.381988525390625 352.452178955078125 361.0877685546875 370.636810302734375 380.757415771484375 391.627685546875 403.223358154296875 415.556396484375 428.7161865234375 442.993560791015625 458.05743408203125 473.8697509765625 490.14178466796875 506.808380126953125 523.3173828125 539.68963623046875 555.84185791015625 571.59417724609375 583.3131103515625 589.70513916015625 589.759033203125 588.42535400390625 585.9197998046875 582.03021240234375 575.18609619140625 565.9449462890625 554.2208251953125 539.95086669921875 523.31500244140625 505.19586181640625 485.179351806640625 464.216827392578125 442.9384765625 421.001617431640625 399.19500732421875 377.896392822265625 356.65179443359375 336.1339111328125 316.39385986328125 297.6959228515625 279.474090576171875 262.5245361328125 246.14013671875 230.738067626953125 216.1485748291015625 202.285125732421875 188.947235107421875 176.0874786376953125 163.64312744140625 151.607330322265625 -99999 -99999 -99999 -99999 -99999 -99999 -99999 -99999 -99999 -99999 -99999 -99999 -99999
 -99999 -99999 -99999 -99999 -99999 -99999 -99999 -99999 -99999 70.4405975341796875 89.93918609619140625 109.10363006591796875 127.38901519775390625 144.4891204833984375 159.994171142578125 173.20220947265625 183.820281982421875 191.5778350830078125 197.3406524658203125 200.6650848388671875 201.9356842041015625 202.2340087890625 200.290679931640625 196.7381591796875 192.0516510009765625 186.189422607421875 179.7281494140625 173.794677734375 170.821319580078125 172.5753173828125 177.73681640625 185.139923095703125 193.706451416015625 202.44091796875 211.18658447265625 220.0274505615234375 228.283538818359375 236.3503265380859375 243.625640869140625 250.7725982666015625 257.214508056640625 263.273895263671875 268.82330322265625 274.123809814453125 278.752471923828125 282.901519775390625 287.327728271484375 291.16583251953125 294.8560791015625 298.813323974609375 302.782196044921875 306.716217041015625 310.69293212890625 315.060394287109375 319.953582763671875 325.229827880859375 330.709228515625 336.487091064453125 342.978607177734375 350.07623291015625 357.76654052734375 366.05511474609375 375.097808837890625 384.731842041015625 394.98321533203125 405.982025146484375 417.9183349609375 430.5162353515625 443.9063720703125 458.150726318359375 473.07904052734375 488.623291015625 504.97430419921875 521.26983642578125 537.7332763671875 554.011474609375 569.83868408203125 584.11822509765625 595.26593017578125 599.027099609375 597.75244140625 597.62603759765625 597.234130859375 593.52691650390625 587.2647705078125 578.0888671875 566.127685546875 551.910888671875 535.16778564453125 516.73187255859375 496.644989013671875 475.945892333984375 454.692352294921875 433.104949951171875 411.924163818359375 390.920196533203125 370.65325927734375 350.805328369140625 331.769134521484375 313.4561767578125 295.794769287109375 279.228271484375 263.06317138671875 247.4809722900390625 232.5639495849609375 218.3713836669921875 204.6846923828125 191.3068695068359375 178.5712738037109375 166.026580810546875 154.02008056640625 -99999 -99999 -99999 -99999 -99999 -99999 -99999 -99999 -99999 -99999 -99999 -99999
 -99999 -99999 -99999 -99999 -99999 -99999 -99999 -99999 61.6175079345703125 82.61368560791015625 102.9878997802734375 122.2389068603515625 140.023345947265625 156.8153076171875 171.6766357421875 183.5305938720703125 192.896392822265625 198.975921630859375 202.2335052490234375 203.54803466796875 203.9022674560546875 202.7539520263671875 199.97039794921875 195.9010467529296875 190.687957763671875 184.6371917724609375 178.239227294921875 172.5754241943359375 169.128143310546875 171.606414794921875 177.5879058837890625 185.07000732421875 193.1652984619140625 201.6128082275390625 210.6742706298828125 219.44842529296875 228.1290283203125 236.708160400390625 244.8014373779296875 252.7648468017578125 260.298095703125 267.016143798828125 273.2664794921875 279.057342529296875 284.454254150390625 289.48681640625 294.026702880859375 298.723388671875 303.2498779296875 307.412261962890625 311.457275390625 315.890625 320.75140380859375 325.68597412109375 330.635589599609375 335.923828125 341.84716796875 348.181304931640625 354.9835205078125 362.228973388671875 370.30078125 378.736358642578125 387.65142822265625 397.37640380859375 408.08697509765625 419.234039306640625 431.046905517578125 443.766021728515625 457.03729248046875 471.18829345703125 485.904571533203125 501.32928466796875 517.0833740234375 532.9722900390625 548.8359375 564.25848388671875 578.73199462890625 590.85699462890625 599.564453125 602.39178466796875 601.67138671875 604.67364501953125 605.5244140625 602.3890380859375 595.898681640625 587.0194091796875 575.4940185546875 561.31695556640625 544.39404296875 525.7860107421875 505.662384033203125 484.784942626953125 463.577423095703125 442.496612548828125 421.969482421875 401.721466064453125 382.212890625 363.16204833984375 345.062286376953125 327.4189453125 310.3450927734375 293.912261962890625 277.94622802734375 262.547882080078125 247.6945037841796875 233.1154327392578125 219.2175750732421875 205.638427734375 192.292755126953125 179.477935791015625 166.8896331787109375 154.53955078125 -99999 -99999 -99999 -99999 -99999 -99999 -99999 -99999 -99999 -99999 -99999
 -99999 -99999 -99999 -99999 -99999 -99999 -99999 48.908267974853515625 71.4780731201171875 93.23638153076171875 113.95475006103515625 132.7417755126953125 150.2584075927734375 166.311370849609375 179.931610107421875 191.4190673828125 199.419281005859375 203.2768402099609375 204.9095916748046875 205.42626953125 204.695343017578125 202.5448150634765625 199.303192138671875 194.9644927978515625 189.8563385009765625 184.427734375 179.5447845458984375 174.9556732177734375 173.3595123291015625 175.196197509765625 180.380645751953125 186.7843780517578125 194.3141937255859375 202.6170501708984375 211.2227935791015625 220.1402587890625 229.04827880859375 237.71405029296875 246.6305389404296875 255.0150146484375 263.133544921875 270.770263671875 277.863067626953125 284.19525146484375 290.178955078125 295.94091796875 301.309417724609375 305.90435791015625 310.382720947265625 315.319793701171875 320.279937744140625 325.0986328125 329.864227294921875 334.953460693359375 340.555145263671875 346.384063720703125 352.381072998046875 358.964508056640625 366.094451904296875 373.459564208984375 381.30096435546875 389.98406982421875 399.331207275390625 409.218292236328125 419.6697998046875 430.68316650390625 442.708038330078125 455.215850830078125 468.40435791015625 482.1466064453125 496.528900146484375 511.486968994140625 526.445068359375 541.634033203125 556.59197998046875 570.8721923828125 583.54095458984375 594.2872314453125 601.25482177734375 604.87957763671875 607.36224365234375 610.64727783203125 610.93707275390625 606.9300537109375 601.23956298828125 592.9273681640625 581.62432861328125 567.22021484375 550.47625732421875 530.944091796875 510.71533203125 490.04925537109375 469.58453369140625 449.248260498046875 429.53790283203125 410.31915283203125 391.837249755859375 374.06903076171875 356.54571533203125 339.794097900390625 323.4365234375 307.31256103515625 291.677886962890625 276.39630126953125 261.54815673828125 246.9937896728515625 232.71417236328125 218.83514404296875 205.143829345703125 191.8291473388671875 178.953521728515625 166.287506103515625 153.8412322998046875 -99999 -99999 -99999 -99999 -99999 -99999 -99999 -99999 -99999 -99999
 -99999 -99999 -99999 -99999 -99999 -99999 -99999 56.646381378173828125 80.292449951171875 102.72821044921875 122.71024322509765625 141.135711669921875 157.275634765625 171.6776885986328125 184.439727783203125 195.9688720703125 202.829559326171875 205.4768218994140625 206.0114593505859375 205.642822265625 204.0406951904296875 201.3000640869140625 197.8741607666015625 193.9785308837890625 189.6858367919921875 185.3798675537109375 181.6871795654296875 179.697845458984375 179.6352081298828125 181.584197998046875 185.30230712890625 190.3873138427734375 196.81585693359375 204.6030731201171875 212.8324432373046875 221.7343902587890625 230.90472412109375 240.087554931640625 249.524200439453125 258.20062255859375 266.84210205078125 275.00701904296875 282.7598876953125 289.849761962890625 296.80206298828125 302.007354736328125 307.235382080078125 312.8717041015625 318.253997802734375 323.267303466796875 328.13531494140625 333.217987060546875 338.56878662109375 344.126068115234375 349.811798095703125 355.7862548828125 362.0797119140625 368.783050537109375 375.844512939453125 383.54742431640625 391.80548095703125 400.49029541015625 409.529449462890625 419.38739013671875 429.85107421875 441.035308837890625 452.6885986328125 464.926849365234375 477.813690185546875 491.1962890625 505.257049560546875 519.3359375 533.5767822265625 547.8250732421875 561.4609375 574.27630615234375 585.80792236328125 595.1998291015625 601.98858642578125 606.4539794921875 610.06005859375 612.38262939453125 611.588623046875 607.46600341796875 602.6429443359375 595.63446044921875 584.74725341796875 570.3148193359375 552.81756591796875 533.2291259765625 513.13629150390625 492.57965087890625 472.69818115234375 453.0732421875 434.63262939453125 416.398162841796875 399.360595703125 382.5245361328125 366.241302490234375 350.273284912109375 334.569305419921875 319.290435791015625 304.0399169921875 289.047576904296875 274.04962158203125 259.338104248046875 244.9188385009765625 230.702239990234375 216.78753662109375 203.4261932373046875 189.95965576171875 176.9113922119140625 164.28741455078125 -99999 -99999 -99999 -99999 -99999 -99999 -99999 -99999 -99999 -99999
 -99999 -99999 -99999 -99999 -99999 -99999 37.878665924072265625 63.789920806884765625 88.67127227783203125 110.58255767822265625 129.792724609375 146.1197357177734375 160.186126708984375 172.824493408203125 184.4842681884765625 194.974517822265625 202.2861785888671875 204.5321197509765625 204.685577392578125 203.6726531982421875 201.6519317626953125 199.0125579833984375 196.0654754638671875 192.5292205810546875 189.1217193603515625 186.2973480224609375 184.564910888671875 184.2902374267578125 185.8686676025390625 187.763214111328125 190.2382354736328125 194.2600860595703125 199.88946533203125 206.7093963623046875 214.8216705322265625 223.7069244384765625 232.93115234375 242.646514892578125 252.0878143310546875 261.61187744140625 271.038848876953125 280.203277587890625 288.5936279296875 295.333526611328125 301.884918212890625 308.050506591796875 313.96771240234375 319.709686279296875 325.068603515625 330.395050048828125 335.84112548828125 341.180511474609375 346.728668212890625 352.414794921875 358.333953857421875 364.546112060546875 370.9893798828125 377.890716552734375 385.160308837890625 392.79736328125 400.9173583984375 409.524322509765625 418.83599853515625 428.54852294921875 438.823333740234375 449.7109375 461.178375244140625 473.076080322265625 485.519775390625 498.399566650390625 511.561767578125 525.046142578125 538.49298095703125 551.661865234375 564.0634765625 575.68975830078125 586.26025390625 594.5048828125 601.056640625 605.7269287109375 608.55291748046875 610.00433349609375 608.40869140625 605.2850341796875 601.51080322265625 595.51959228515625 584.7320556640625 568.9759521484375 550.92724609375 531.2257080078125 511.23333740234375 491.448760986328125 472.657135009765625 454.419769287109375 437.280975341796875 420.63006591796875 404.90185546875 389.497039794921875 374.419158935546875 359.619171142578125 344.758392333984375 329.91046142578125 315.077239990234375 300.215911865234375 285.415130615234375 270.667083740234375 255.9833984375 241.7444610595703125 227.5095977783203125 213.4179229736328125 199.985504150390625 186.691680908203125 173.6934661865234375 161.0332489013671875 -99999 -99999 -99999 -99999 -99999 -99999 -99999 -99999 -99999
 -99999 -99999 -99999 -99999 -99999 14.9272918701171875 43.651859283447265625 71.1741790771484375 96.123565673828125 117.170623779296875 134.8570709228515625 148.704833984375 160.5076141357421875 171.25537109375 180.8820037841796875 189.8211822509765625 196.5502471923828125 199.48406982421875 200.2651519775390625 199.5292510986328125 197.999114990234375 195.8061370849609375 193.054840087890625 190.4951019287109375 188.06982421875 186.616424560546875 186.6505889892578125 187.9241180419921875 189.9907684326171875 192.2603912353515625 194.4384002685546875 197.6738128662109375 202.8472442626953125 209.1888275146484375 217.47747802734375 226.3876800537109375 235.78448486328125 245.9914398193359375 255.7720947265625 265.83367919921875 276.0595703125 284.865325927734375 293.646240234375 300.780426025390625 307.37115478515625 314.094482421875 320.376556396484375 326.3006591796875 331.89703369140625 337.451995849609375 343.00262451171875 348.591339111328125 354.267486572265625 360.22808837890625 366.31085205078125 372.611541748046875 379.14642333984375 386.036651611328125 393.304443359375 401.01177978515625 409.167938232421875 417.709075927734375 426.7789306640625 436.406646728515625 446.502410888671875 457.10052490234375 468.074066162109375 479.5592041015625 491.5113525390625 503.732269287109375 516.1929931640625 528.70538330078125 541.072021484375 553.09515380859375 564.4317626953125 575.14117431640625 584.27203369140625 591.81396484375 597.6981201171875 601.83447265625 604.552978515625 605.2764892578125 604.19464111328125 601.54266357421875 598.5931396484375 591.35064697265625 579.4814453125 563.48126220703125 544.682373046875 524.6141357421875 505.563873291015625 486.898712158203125 469.5562744140625 453.073455810546875 437.73065185546875 422.728515625 408.76763916015625 395.0450439453125 381.3253173828125 367.458953857421875 353.53173828125 339.59942626953125 325.088409423828125 310.57275390625 295.63824462890625 280.67694091796875 266.019134521484375 251.4039459228515625 236.9954376220703125 222.8935546875 208.84912109375 195.2529754638671875 182.1024017333984375 169.231597900390625 156.7468109130859375 -99999 -99999 -99999 -99999 -99999 -99999 -99999 -99999
 -99999 -99999 -99999 -99999 -99999 22.2573699951171875 51.8396453857421875 81.0125732421875 104.209716796875 123.59766387939453125 138.24310302734375 150.1142425537109375 159.4268035888671875 166.2709197998046875 175.0470428466796875 182.710174560546875 188.6848602294921875 192.494415283203125 194.0227813720703125 193.6542816162109375 192.68927001953125 191.1138153076171875 189.285247802734375 187.4334259033203125 186.0980682373046875 185.9392852783203125 186.9122314453125 189.0077362060546875 192.3190460205078125 194.7318115234375 196.4770355224609375 200.1115570068359375 204.9146270751953125 211.8831634521484375 220.39300537109375 229.5310211181640625 240.0776214599609375 249.774169921875 260.882476806640625 271.022613525390625 280.57965087890625 290.254669189453125 298.472381591796875 306.93426513671875 313.689544677734375 320.08245849609375 326.3448486328125 332.3604736328125 338.441650390625 343.979949951171875 349.712615966796875 355.478057861328125 361.361572265625 367.38092041015625 373.519378662109375 379.819976806640625 386.437408447265625 393.312744140625 400.651397705078125 408.265106201171875 416.277130126953125 424.73736572265625 433.655975341796875 442.933197021484375 452.7275390625 462.96240234375 473.51458740234375 484.50634765625 495.828094482421875 507.4091796875 518.97607421875 530.5552978515625 541.9090576171875 552.870849609375 563.294677734375 572.5413818359375 580.5672607421875 587.408203125 592.7325439453125 596.2674560546875 598.2943115234375 598.56695556640625 597.01568603515625 594.15533447265625 589.68170166015625 581.6807861328125 570.1676025390625 552.5518798828125 533.09075927734375 513.931640625 495.67901611328125 479.45367431640625 464.08416748046875 449.395263671875 436.118377685546875 423.124267578125 411.1578369140625 398.795989990234375 386.99554443359375 374.4954833984375 361.443023681640625 348.00115966796875 333.74365234375 319.421844482421875 304.86541748046875 290.09344482421875 274.9620361328125 260.07818603515625 245.311676025390625 230.655792236328125 216.75634765625 202.9686279296875 189.3036956787109375 176.298553466796875 163.751251220703125 151.4771728515625 -99999 -99999 -99999 -99999 -99999 -99999 -99999
 -99999 -99999 -99999 -99999 -99999 38.387203216552734375 66.06447601318359375 90.77349853515625 111.54645538330078125 127.32744598388671875 139.5816802978515625 149.2433929443359375 156.12939453125 162.425018310546875 169.0103302001953125 175.451812744140625 180.8630218505859375 183.998016357421875 186.027984619140625 186.6389312744140625 186.2679443359375 185.6041717529296875 184.58251953125 183.427703857421875 183.0131072998046875 183.2362518310546875 184.805694580078125 187.8058319091796875 192.73712158203125 194.50250244140625 196.1495361328125 200.018768310546875 205.6331024169921875 213.560394287109375 223.0783538818359375 233.1023101806640625 244.169891357421875 254.8012542724609375 265.822540283203125 276.5784912109375 287.00189208984375 296.85260009765625 305.778839111328125 311.834808349609375 318.73773193359375 325.403656005859375 331.985595703125 338.37255859375 344.37322998046875 350.177978515625 356.01995849609375 361.84423828125 367.8057861328125 373.88555908203125 380.027374267578125 386.37127685546875 392.944580078125 399.87701416015625 407.053131103515625 414.471221923828125 422.3262939453125 430.502716064453125 439.282501220703125 448.29150390625 457.7398681640625 467.44024658203125 477.55255126953125 488.03338623046875 498.644287109375 509.35919189453125 520.1478271484375 530.82086181640625 541.27374267578125 551.108154296875 560.248046875 568.3916015625 575.62701416015625 581.461669921875 585.8167724609375 588.61322021484375 589.6160888671875 589.0712890625 587.00787353515625 582.7802734375 576.5452880859375 567.56707763671875 553.90087890625 536.55120849609375 516.50787353515625 498.323150634765625 483.13555908203125 469.69488525390625 456.483551025390625 444.35919189453125 433.218597412109375 422.62139892578125 412.583099365234375 402.318084716796875 391.85760498046875 380.66412353515625 368.5806884765625 355.67608642578125 342.047119140625 327.859893798828125 313.059051513671875 297.77166748046875 282.748931884765625 267.5382080078125 252.4530487060546875 237.53106689453125 223.11627197265625 209.027435302734375 195.60858154296875 182.35595703125 169.4751434326171875 157.43408203125 145.6573486328125 -99999 -99999 -99999 -99999 -99999 -99999
 -99999 -99999 -99999 -99999 37.104122161865234375 57.062450408935546875 79.39537811279296875 99.58779144287109375 116.369537353515625 129.01959228515625 138.7372283935546875 145.6345977783203125 151.2219696044921875 156.7791595458984375 162.4498291015625 167.6933135986328125 172.0312652587890625 175.222625732421875 177.31036376953125 178.73529052734375 179.2936553955078125 179.3029022216796875 178.996063232421875 178.9403076171875 179.056732177734375 179.6230926513671875 180.8827362060546875 183.6161956787109375 186.822052001953125 190.2942962646484375 193.5860443115234375 199.0120697021484375 206.56805419921875 215.9856414794921875 226.7861328125 237.8403472900390625 249.353729248046875 260.64654541015625 271.903167724609375 282.532684326171875 293.37738037109375 303.100189208984375 309.676483154296875 317.784027099609375 324.409698486328125 330.97381591796875 337.571624755859375 344.022552490234375 350.127685546875 356.005462646484375 361.863555908203125 367.784698486328125 373.793182373046875 379.806243896484375 385.99700927734375 392.370391845703125 398.847900390625 405.520538330078125 412.529022216796875 419.76153564453125 427.562835693359375 435.585845947265625 443.824310302734375 452.420379638671875 461.442474365234375 470.813690185546875 480.322784423828125 490.048919677734375 499.90911865234375 509.982879638671875 519.9578857421875 529.589111328125 538.92108154296875 547.754638671875 555.99481201171875 563.31695556640625 569.422607421875 574.1175537109375 577.46075439453125 579.25384521484375 579.65087890625 578.15374755859375 574.73089599609375 569.12396240234375 561.02264404296875 549.75628662109375 535.59674072265625 517.45892333984375 497.68865966796875 481.571502685546875 470.53955078125 458.708099365234375 447.976593017578125 438.003387451171875 429.314666748046875 421.129913330078125 413.1044921875 405.081024169921875 396.17041015625 386.242706298828125 375.1806640625 362.815338134765625 349.407196044921875 335.106048583984375 320.2506103515625 304.879638671875 289.590179443359375 273.98687744140625 258.518463134765625 243.4229278564453125 228.8514404296875 214.474609375 200.5037078857421875 187.1199951171875 174.3516082763671875 162.225341796875 150.4903106689453125 139.2632598876953125 -99999 -99999 -99999 -99999 -99999
 -99999 -99999 -99999 -99999 52.841938018798828125 71.1656951904296875 88.913482666015625 105.2136077880859375 118.10533905029296875 128.005096435546875 133.7151031494140625 138.7205810546875 144.15313720703125 149.1874542236328125 154.2870025634765625 158.754241943359375 162.4885406494140625 165.811248779296875 168.2647247314453125 170.143646240234375 171.67071533203125 172.8787384033203125 173.5764923095703125 174.336578369140625 174.9443511962890625 175.3803863525390625 176.28961181640625 177.0867767333984375 179.0956268310546875 182.3313751220703125 189.0659942626953125 197.5571441650390625 207.844940185546875 219.357574462890625 230.9834747314453125 243.0523834228515625 255.212799072265625 266.951324462890625 278.736053466796875 289.102264404296875 299.549530029296875 307.99017333984375 316.739501953125 322.75201416015625 329.73675537109375 336.898651123046875 343.484100341796875 349.54638671875 355.632293701171875 361.540283203125 367.43463134765625 373.39617919921875 379.291961669921875 385.343841552734375 391.384063720703125 397.4791259765625 403.82659912109375 410.56976318359375 417.3687744140625 424.433746337890625 431.810455322265625 439.412841796875 447.41558837890625 455.672821044921875 464.133026123046875 472.81024169921875 481.807525634765625 491.04254150390625 500.23370361328125 509.3355712890625 518.38739013671875 527.16937255859375 535.61676025390625 543.534912109375 550.66876220703125 556.76153564453125 561.779052734375 565.51141357421875 568.10723876953125 569.01361083984375 568.384765625 565.6533203125 561.03228759765625 554.47296142578125 544.67236328125 532.44464111328125 517.18096923828125 499.683502197265625 480.68475341796875 468.577911376953125 458.305450439453125 448.51312255859375 438.6651611328125 430.66650390625 424.4652099609375 419.1807861328125 413.713531494140625 407.831451416015625 400.571502685546875 391.795135498046875 381.259307861328125 369.58331298828125 356.084075927734375 341.82537841796875 326.71307373046875 311.29010009765625 295.352630615234375 279.318084716796875 263.455078125 248.1883544921875 233.1329345703125 218.454925537109375 204.455535888671875 191.0689239501953125 178.3251800537109375 166.1170196533203125 154.6946868896484375 143.5922393798828125 132.737091064453125 -99999 -99999 -99999 -99999
 -99999 -99999 -99999 -99999 64.1645965576171875 80.524139404296875 94.21822357177734375 107.08463287353515625 116.72071075439453125 121.23876953125 124.53783416748046875 128.052734375 134.3414154052734375 140.6544647216796875 145.39691162109375 149.2155914306640625 152.7081298828125 155.7881317138671875 158.6869049072265625 161.4833984375 164.001922607421875 166.3145904541015625 168.3437347412109375 169.8370819091796875 171.158905029296875 172.177032470703125 173.099212646484375 173.1776885986328125 173.695098876953125 178.2511749267578125 187.95355224609375 199.1497802734375 211.384185791015625 224.1624755859375 237.0449981689453125 249.61090087890625 262.02471923828125 273.716217041015625 285.3175048828125 295.762786865234375 305.399322509765625 314.2315673828125 321.704986572265625 329.444549560546875 336.065185546875 342.42144775390625 348.865234375 354.98480224609375 360.9498291015625 366.819976806640625 372.714324951171875 378.563720703125 384.35101318359375 390.189453125 396.125213623046875 402.22357177734375 408.463287353515625 414.766021728515625 421.306854248046875 428.189727783203125 435.2366943359375 442.533355712890625 449.999725341796875 457.72845458984375 465.905242919921875 474.147369384765625 482.51641845703125 490.886199951171875 499.290496826171875 507.6126708984375 515.79595947265625 523.635986328125 531.1395263671875 538.0357666015625 544.05255126953125 549.19378662109375 553.41717529296875 556.3509521484375 558.02789306640625 557.87548828125 556.20306396484375 552.62591552734375 547.16900634765625 539.305908203125 529.02996826171875 516.49945068359375 501.4136962890625 485.09234619140625 469.775299072265625 458.563873291015625 448.437255859375 437.67034912109375 429.45599365234375 423.56585693359375 420.610443115234375 417.712066650390625 414.766693115234375 410.8853759765625 404.894561767578125 397.4210205078125 387.30645751953125 375.4600830078125 362.020294189453125 347.45068359375 331.999267578125 315.936798095703125 299.68939208984375 283.47747802734375 267.537109375 251.6884918212890625 236.4240264892578125 221.7789764404296875 207.47344970703125 193.6432647705078125 180.97894287109375 169.040496826171875 157.5070953369140625 146.9237518310546875 136.71856689453125 126.43975067138671875 -99999 -99999 -99999
 -99999 -99999 -99999 -99999 70.8501739501953125 84.11251068115234375 95.37799835205078125 104.6237945556640625 109.88918304443359375 111.858154296875 111.17987823486328125 117.44611358642578125 126.04801177978515625 131.85662841796875 136.3248291015625 139.2746124267578125 142.2123260498046875 145.36419677734375 148.9245758056640625 152.7168121337890625 156.280914306640625 159.759979248046875 163.1316375732421875 166.3696746826171875 168.912200927734375 171.1316680908203125 172.696502685546875 173.568267822265625 175.346038818359375 181.1804656982421875 192.305389404296875 204.756439208984375 217.9658660888671875 231.4266510009765625 244.4636993408203125 257.175079345703125 269.60833740234375 281.264556884765625 292.4652099609375 302.416900634765625 311.69140625 320.083526611328125 327.854736328125 334.929473876953125 341.50457763671875 348.10577392578125 354.206146240234375 360.260894775390625 366.097564697265625 371.89007568359375 377.6466064453125 383.305694580078125 388.9984130859375 394.711669921875 400.450469970703125 406.25994873046875 412.214324951171875 418.35272216796875 424.696563720703125 431.153533935546875 437.757080078125 444.684600830078125 451.892791748046875 459.22760009765625 466.687713623046875 474.31463623046875 481.95916748046875 489.6322021484375 497.299224853515625 504.897186279296875 512.3577880859375 519.3232421875 525.72625732421875 531.6756591796875 536.94989013671875 541.258056640625 544.522705078125 546.5543212890625 547.2314453125 546.31744384765625 543.9453125 539.5732421875 533.3587646484375 525.11639404296875 514.78570556640625 502.21844482421875 488.265838623046875 473.91131591796875 460.518707275390625 448.48846435546875 437.944793701171875 427.8516845703125 420.209564208984375 417.147216796875 416.551239013671875 416.88861083984375 416.66009521484375 414.454559326171875 409.86114501953125 402.607330322265625 392.9033203125 380.94073486328125 367.44622802734375 352.33917236328125 336.13946533203125 319.78955078125 303.18939208984375 286.675323486328125 270.1612548828125 254.26727294921875 238.9272003173828125 223.666107177734375 209.2919769287109375 195.3563385009765625 182.79144287109375 170.82366943359375 159.9697418212890625 149.49542236328125 139.5734405517578125 129.8522186279296875 119.9015350341796875 -99999 -99999
 -99999 -99999 -99999 -99999 72.31034088134765625 83.35514068603515625 92.536651611328125 99.4614715576171875 102.71277618408203125 103.4436187744140625 104.8088531494140625 111.5705718994140625 119.84040069580078125 124.9021148681640625 127.23726654052734375 128.6204986572265625 130.930419921875 134.4425048828125 138.7715301513671875 143.666961669921875 148.692047119140625 154.1193695068359375 158.920135498046875 163.780914306640625 168.184814453125 172.05133056640625 175.67913818359375 179.1374053955078125 183.8756866455078125 192.0816192626953125 202.363037109375 214.8296966552734375 227.554931640625 241.034149169921875 253.7528228759765625 266.0250244140625 277.73248291015625 288.927978515625 299.308258056640625 308.998931884765625 318.399932861328125 325.877288818359375 333.750457763671875 340.670562744140625 347.258636474609375 353.373626708984375 359.468841552734375 365.302398681640625 371.04083251953125 376.689605712890625 382.2537841796875 387.7459716796875 393.2340087890625 398.5797119140625 404.13958740234375 409.77838134765625 415.5391845703125 421.259246826171875 427.2333984375 433.368499755859375 439.731109619140625 446.205291748046875 452.891937255859375 459.6478271484375 466.540496826171875 473.500152587890625 480.521728515625 487.67138671875 494.662078857421875 501.377288818359375 507.837921142578125 514.05523681640625 519.7646484375 524.8685302734375 529.16510009765625 532.6220703125 535.083740234375 536.16534423828125 536.150390625 534.7264404296875 531.46551513671875 526.717529296875 520.327880859375 511.9122314453125 501.703460693359375 490.110443115234375 477.391143798828125 464.52581787109375 451.97265625 440.592193603515625 430.031646728515625 420.823028564453125 414.716552734375 413.092926025390625 415.315704345703125 418.09405517578125 419.859375 418.678375244140625 414.943023681640625 407.87591552734375 398.180511474609375 385.896728515625 371.595550537109375 356.070770263671875 339.538726806640625 322.66851806640625 305.474761962890625 288.373626708984375 271.949188232421875 255.76434326171875 240.07647705078125 224.7853851318359375 210.3112335205078125 196.539794921875 183.74395751953125 171.8708953857421875 160.907684326171875 151.121978759765625 142.0680084228515625 132.8202056884765625 123.1328125 112.79016876220703125 -99999
 -99999 -99999 -99999 57.6010894775390625 70.1417083740234375 80.0499725341796875 87.5337677001953125 92.80173492431640625 96.24877166748046875 98.17395782470703125 101.63713836669921875 108.062347412109375 114.97330474853515625 117.93546295166015625 116.82171630859375 116.87274169921875 118.983642578125 122.98938751220703125 128.5722808837890625 134.8212738037109375 141.502349853515625 148.5382537841796875 155.2199554443359375 161.96728515625 168.4702911376953125 175.0848541259765625 181.7398681640625 188.525421142578125 196.2715911865234375 205.74615478515625 216.0482025146484375 227.5012969970703125 239.7869720458984375 251.7745361328125 264.075286865234375 275.3433837890625 286.396575927734375 296.793426513671875 306.623626708984375 316.10595703125 324.331146240234375 332.236663818359375 339.879302978515625 346.12750244140625 352.6177978515625 358.794189453125 364.51165771484375 370.212921142578125 375.768646240234375 381.20843505859375 386.55462646484375 391.7191162109375 396.90582275390625 402.1710205078125 407.500762939453125 412.72760009765625 418.105072021484375 423.593505859375 429.2230224609375 434.938812255859375 440.88580322265625 446.9002685546875 453.046875 459.3175048828125 465.663970947265625 472.09283447265625 478.47412109375 484.775909423828125 490.979034423828125 497.11822509765625 502.81842041015625 508.2218017578125 513.0313720703125 517.42291259765625 520.95733642578125 523.4998779296875 525.23095703125 525.8739013671875 525.1221923828125 523.0496826171875 519.72662353515625 514.7471923828125 508.062164306640625 500.11236572265625 490.46759033203125 479.588836669921875 468.20367431640625 456.584930419921875 445.310028076171875 435.045196533203125 425.697723388671875 418.375640869140625 413.885955810546875 413.43426513671875 416.643402099609375 421.025299072265625 423.542388916015625 423.772735595703125 419.930450439453125 412.711517333984375 402.579620361328125 389.82769775390625 375.0318603515625 358.462554931640625 341.5059814453125 323.767486572265625 305.95147705078125 289.15252685546875 272.38299560546875 256.279083251953125 240.3146820068359375 225.315643310546875 210.8267974853515625 196.9192657470703125 183.7853546142578125 171.7423553466796875 161.29632568359375 151.9569549560546875 143.4644317626953125 135.185546875 126.14394378662109375 115.74625396728515625 104.45168304443359375
 -99999 -99999 -99999 53.20192718505859375 65.705169677734375 73.94084930419921875 80.6057281494140625 85.38872528076171875 88.96646881103515625 92.07222747802734375 95.49640655517578125 100.7371063232421875 104.93447113037109375 105.17227935791015625 103.73748016357421875 103.317901611328125 106.38280487060546875 111.603302001953125 118.67485809326171875 126.52115631103515625 134.8756256103515625 143.483306884765625 152.252655029296875 160.9732818603515625 169.8639984130859375 179.3056793212890625 188.9735260009765625 199.255157470703125 209.6180267333984375 220.2108917236328125 231.4463653564453125 241.9294586181640625 252.8131561279296875 263.760406494140625 274.459075927734375 284.859161376953125 295.24871826171875 304.80328369140625 314.248779296875 322.7471923828125 330.8089599609375 338.072052001953125 344.77484130859375 351.797515869140625 357.847869873046875 363.759796142578125 369.44964599609375 374.838653564453125 380.11761474609375 385.259521484375 390.28765869140625 395.392608642578125 400.284637451171875 405.188385009765625 410.10528564453125 415.139434814453125 420.173248291015625 425.2784423828125 430.563720703125 435.876800537109375 441.347747802734375 446.91937255859375 452.56439208984375 458.293182373046875 463.983917236328125 469.813323974609375 475.59442138671875 481.24603271484375 486.78314208984375 492.1239013671875 497.10302734375 501.817657470703125 505.96832275390625 509.4012451171875 512.3145751953125 514.32867431640625 515.318359375 515.4390869140625 514.37860107421875 512.07989501953125 508.222198486328125 503.27166748046875 496.851470947265625 489.1175537109375 480.25018310546875 470.61767578125 460.460418701171875 450.225555419921875 440.376434326171875 431.474212646484375 424.19488525390625 418.751922607421875 416.21209716796875 416.9093017578125 420.262359619140625 425.357147216796875 428.9537353515625 428.5655517578125 424.028472900390625 416.4073486328125 405.458770751953125 392.179412841796875 376.496002197265625 359.517669677734375 341.485809326171875 323.26763916015625 305.662567138671875 288.45550537109375 271.804901123046875 255.577911376953125 239.9655914306640625 225.2085113525390625 210.6731414794921875 196.4626922607421875 183.29986572265625 171.3488616943359375 160.7023468017578125 151.8828125 144.4537811279296875 136.7652435302734375 128.029571533203125 117.9466400146484375 106.8347015380859375
 -99999 -99999 -99999 44.236621856689453125 56.242557525634765625 65.40305328369140625 71.7711334228515625 76.99582672119140625 80.99578857421875 84.3176116943359375 87.68665313720703125 90.743072509765625 92.8019256591796875 92.608154296875 90.378509521484375 89.32628631591796875 93.366485595703125 101.167236328125 109.69647979736328125 118.89937591552734375 129.0166778564453125 138.9672698974609375 149.1484527587890625 159.626068115234375 171.0311126708984375 183.1686248779296875 195.6154022216796875 209.45782470703125 222.618438720703125 235.2993621826171875 246.557861328125 256.32818603515625 265.7080078125 275.07440185546875 284.64422607421875 294.11676025390625 303.39111328125 312.74884033203125 320.967681884765625 329.259765625 336.941864013671875 344.12103271484375 350.819122314453125 356.9639892578125 362.900970458984375 368.640625 373.88629150390625 379.04327392578125 384.1697998046875 389.149505615234375 393.879974365234375 398.443206787109375 403.07763671875 407.762176513671875 412.371337890625 417.013916015625 421.718231201171875 426.4678955078125 431.287200927734375 436.177001953125 441.171234130859375 446.2325439453125 451.340484619140625 456.54150390625 461.73822021484375 466.909576416015625 472.080169677734375 477.02685546875 481.8963623046875 486.65228271484375 490.938079833984375 494.849639892578125 498.388214111328125 501.27618408203125 503.480804443359375 504.95794677734375 505.6461181640625 505.2843017578125 503.829437255859375 501.1614990234375 497.47760009765625 492.6368408203125 486.500457763671875 479.357757568359375 471.29290771484375 462.556793212890625 453.749908447265625 444.87103271484375 436.5262451171875 429.430389404296875 423.439422607421875 419.8028564453125 418.658966064453125 419.950439453125 424.00360107421875 428.953277587890625 432.404876708984375 430.547454833984375 425.427276611328125 417.803955078125 407.18560791015625 393.0189208984375 376.160308837890625 358.39593505859375 339.72393798828125 321.154266357421875 303.44793701171875 286.22686767578125 269.80242919921875 253.8325653076171875 239.0243072509765625 224.34625244140625 210.1399078369140625 195.8816986083984375 182.421600341796875 170.028076171875 159.613189697265625 150.9153289794921875 144.241485595703125 137.6497955322265625 129.087310791015625 118.92474365234375 -99999
 -99999 -99999 -99999 33.45517730712890625 45.492870330810546875 54.8915557861328125 62.12050628662109375 67.71759796142578125 72.15599822998046875 75.6744384765625 78.65868377685546875 80.67934417724609375 81.80121612548828125 81.29180145263671875 79.51728057861328125 80.00093841552734375 84.7921295166015625 93.179718017578125 102.293182373046875 112.48560333251953125 123.38141632080078125 134.7404937744140625 146.07049560546875 157.8690643310546875 170.538665771484375 184.53387451171875 200.5099945068359375 217.682098388671875 234.3527374267578125 249.6773834228515625 260.25225830078125 268.37677001953125 276.64178466796875 285.17474365234375 294.0123291015625 302.787445068359375 311.622467041015625 319.97113037109375 328.226715087890625 335.480194091796875 342.97283935546875 349.630157470703125 355.929443359375 362.072052001953125 367.56256103515625 372.911529541015625 378.2310791015625 383.244537353515625 387.9298095703125 392.3800048828125 396.888427734375 401.35198974609375 405.686981201171875 409.9183349609375 414.19866943359375 418.4595947265625 422.754852294921875 427.00921630859375 431.44158935546875 435.955047607421875 440.459930419921875 444.98516845703125 449.628143310546875 454.2283935546875 458.882843017578125 463.36444091796875 467.915924072265625 472.44256591796875 476.596435546875 480.574554443359375 484.29400634765625 487.645172119140625 490.500518798828125 492.863311767578125 494.621337890625 495.65045166015625 495.87103271484375 495.210906982421875 493.5316162109375 490.8834228515625 487.27557373046875 482.474761962890625 476.843658447265625 470.3629150390625 463.082183837890625 455.547943115234375 447.67218017578125 440.13958740234375 433.2015380859375 427.2320556640625 422.811737060546875 420.20648193359375 419.76385498046875 421.7291259765625 424.96697998046875 428.871490478515625 430.41741943359375 428.85015869140625 423.89312744140625 416.835540771484375 405.752166748046875 390.85626220703125 373.7515869140625 355.078643798828125 335.722381591796875 317.1903076171875 299.201141357421875 282.624908447265625 266.752471923828125 251.69012451171875 237.6131439208984375 223.5837860107421875 209.4819488525390625 195.2141876220703125 181.5925140380859375 169.277008056640625 158.61761474609375 149.7244873046875 143.3391265869140625 136.459014892578125 128.260498046875 118.641082763671875 -99999
 -99999 -99999 -99999 24.13057708740234375 34.91297149658203125 44.600879669189453125 51.988925933837890625 58.0364837646484375 62.7017059326171875 66.39385986328125 69.2543487548828125 71.2621612548828125 72.21788787841796875 72.45577239990234375 72.8548736572265625 74.34880828857421875 79.79802703857421875 87.516693115234375 96.26871490478515625 106.6714935302734375 118.6722869873046875 130.99700927734375 142.58245849609375 154.716644287109375 168.11737060546875 183.4285888671875 201.4298248291015625 220.966094970703125 241.1497039794921875 258.202239990234375 267.8690185546875 276.518310546875 284.542388916015625 292.861724853515625 301.46795654296875 309.98785400390625 318.146026611328125 326.377838134765625 333.981964111328125 341.41796875 348.451385498046875 354.945556640625 361.0469970703125 366.82177734375 372.27655029296875 377.37396240234375 382.1829833984375 386.78155517578125 391.2376708984375 395.593719482421875 399.78607177734375 403.769500732421875 407.72650146484375 411.671844482421875 415.531158447265625 419.372772216796875 423.263336181640625 427.256256103515625 431.2132568359375 435.12811279296875 439.169036865234375 443.22186279296875 447.27301025390625 451.27325439453125 455.45074462890625 459.538330078125 463.4071044921875 467.16375732421875 470.827850341796875 474.15863037109375 477.316741943359375 480.100128173828125 482.521026611328125 484.36285400390625 485.69720458984375 486.345306396484375 486.21307373046875 485.369873046875 483.6715087890625 481.10833740234375 477.61114501953125 473.146697998046875 467.94158935546875 462.023040771484375 455.43560791015625 448.6839599609375 442.072662353515625 435.442901611328125 429.768035888671875 424.939056396484375 421.51702880859375 419.493133544921875 419.223846435546875 420.570709228515625 422.945037841796875 425.09600830078125 425.9173583984375 423.434112548828125 419.50152587890625 413.001953125 401.8394775390625 386.571990966796875 368.215606689453125 348.52691650390625 329.20220947265625 310.970977783203125 293.801483154296875 277.4029541015625 262.47747802734375 248.41619873046875 234.74346923828125 222.163177490234375 209.2962646484375 195.133880615234375 181.05548095703125 168.87469482421875 158.3866119384765625 149.6177215576171875 142.15301513671875 135.040069580078125 126.85205841064453125 -99999 -99999
 -99999 -99999 -99999 15.274316787719726562 25.240530014038085938 34.190242767333984375 41.991847991943359375 48.355785369873046875 53.380222320556640625 57.416187286376953125 60.475688934326171875 62.606533050537109375 64.30628204345703125 65.50875091552734375 67.1680908203125 70.26155853271484375 75.673309326171875 82.83319854736328125 91.230712890625 101.9572601318359375 114.91147613525390625 127.4593353271484375 138.365692138671875 149.43756103515625 162.4333038330078125 178.5273590087890625 197.4074859619140625 218.0830841064453125 238.7735595703125 255.89532470703125 268.786041259765625 279.3924560546875 289.188140869140625 298.5052490234375 307.230224609375 316.006561279296875 324.544036865234375 332.2364501953125 339.861602783203125 347.074981689453125 353.608551025390625 359.906036376953125 365.760223388671875 371.29437255859375 376.398040771484375 381.2325439453125 385.803802490234375 390.24139404296875 394.467681884765625 398.405181884765625 402.220550537109375 405.906005859375 409.51104736328125 412.980865478515625 416.436309814453125 420.00518798828125 423.48236083984375 426.874267578125 430.33099365234375 433.873809814453125 437.397216796875 440.945953369140625 444.555572509765625 448.18048095703125 451.595703125 455.033905029296875 458.4072265625 461.572723388671875 464.655303955078125 467.524322509765625 470.177398681640625 472.410064697265625 474.305572509765625 475.7763671875 476.68121337890625 477.068450927734375 476.85699462890625 475.855194091796875 474.149078369140625 471.554168701171875 468.258453369140625 464.134002685546875 459.379730224609375 454.063629150390625 448.36883544921875 442.380279541015625 436.537109375 430.9669189453125 425.98577880859375 421.945831298828125 418.97613525390625 417.23193359375 416.88226318359375 417.361480712890625 418.642181396484375 419.18682861328125 418.783447265625 416.614044189453125 412.606658935546875 406.22674560546875 394.944610595703125 378.978179931640625 359.189697265625 339.706634521484375 320.747406005859375 302.48504638671875 285.984222412109375 271.07080078125 257.29608154296875 244.00030517578125 231.167877197265625 219.55755615234375 208.5570068359375 194.8030548095703125 181.1092681884765625 169.1686553955078125 158.5891571044921875 149.4720611572265625 141.20440673828125 133.40509033203125 125.22504425048828125 -99999 -99999
 -99999 -99999 -99999 7.50435638427734375 16.703989028930664062 25.399190902709960938 32.86060333251953125 39.276111602783203125 44.49877166748046875 48.74567413330078125 52.101287841796875 54.85744476318359375 57.200927734375 59.31044769287109375 62.066314697265625 66.0084381103515625 71.5933990478515625 78.76090240478515625 87.4794464111328125 98.42234039306640625 112.50736236572265625 124.1902923583984375 132.5094757080078125 141.0425872802734375 152.6470489501953125 168.6897430419921875 188.7656097412109375 210.3011474609375 230.6702117919921875 249.093963623046875 265.80126953125 280.079864501953125 291.6768798828125 302.06390380859375 311.8265380859375 320.78717041015625 329.109832763671875 337.246917724609375 344.74346923828125 351.817291259765625 358.345703125 364.391937255859375 370.08551025390625 375.46392822265625 380.427154541015625 385.03851318359375 389.358917236328125 393.502716064453125 397.2911376953125 400.94476318359375 404.401092529296875 407.590850830078125 410.832183837890625 414.03826904296875 417.117279052734375 420.07098388671875 423.05804443359375 426.1551513671875 429.19659423828125 432.217010498046875 435.30206298828125 438.354095458984375 441.3297119140625 444.356689453125 447.356048583984375 450.2548828125 453.04656982421875 455.769805908203125 458.3370361328125 460.59185791015625 462.695892333984375 464.477264404296875 465.984130859375 467.078948974609375 467.786407470703125 467.97735595703125 467.55694580078125 466.604705810546875 464.971649169921875 462.553863525390625 459.49737548828125 455.707916259765625 451.447052001953125 446.5882568359375 441.418914794921875 436.1077880859375 430.894317626953125 425.973968505859375 421.609649658203125 418.034881591796875 415.2996826171875 413.541290283203125 412.615936279296875 412.329132080078125 411.851165771484375 411.36163330078125 409.80462646484375 406.9410400390625 402.092742919921875 394.690185546875 382.779052734375 366.782073974609375 347.36004638671875 327.041534423828125 308.72369384765625 291.705780029296875 276.728546142578125 263.13983154296875 251.2374420166015625 239.44635009765625 227.1240081787109375 216.1371612548828125 205.49298095703125 193.237762451171875 180.6492462158203125 168.8047332763671875 158.307708740234375 148.89599609375 139.983642578125 130.9453887939453125 122.0956573486328125 -99999 -99999
 -99999 -99999 -99999 0.44701644778251647949 9.1960620880126953125 17.339990615844726562 24.595018386840820312 30.961866378784179688 36.44768524169921875 40.840850830078125 44.65192413330078125 47.73160552978515625 50.595737457275390625 53.571872711181640625 57.175323486328125 61.69278717041015625 67.455169677734375 74.80522918701171875 83.816558837890625 95.80666351318359375 109.60352325439453125 119.4723968505859375 123.5472564697265625 128.6326446533203125 138.607635498046875 155.1212310791015625 176.094970703125 199.68603515625 223.019195556640625 243.6154022216796875 262.6009521484375 279.33868408203125 292.55865478515625 304.172882080078125 314.64447021484375 324.441864013671875 333.303375244140625 341.34033203125 348.84149169921875 356.1002197265625 362.71783447265625 368.635009765625 374.2601318359375 379.31622314453125 384.03857421875 388.4503173828125 392.56195068359375 396.3323974609375 399.795867919921875 402.9747314453125 406.144317626953125 409.186309814453125 411.94158935546875 414.613494873046875 417.22381591796875 419.891143798828125 422.44122314453125 424.972900390625 427.582000732421875 430.090484619140625 432.6822509765625 435.225128173828125 437.835052490234375 440.323577880859375 442.79791259765625 445.207244873046875 447.47039794921875 449.60968017578125 451.58856201171875 453.433349609375 455.034637451171875 456.47607421875 457.639129638671875 458.438934326171875 458.931243896484375 459.025054931640625 458.65179443359375 457.619476318359375 456.12322998046875 453.9737548828125 451.1241455078125 447.656341552734375 443.735382080078125 439.260650634765625 434.561676025390625 429.781890869140625 424.936187744140625 420.501861572265625 416.500091552734375 413.16119384765625 410.56243896484375 408.49072265625 406.90936279296875 405.49847412109375 404.012725830078125 401.9886474609375 398.976715087890625 394.769866943359375 388.48211669921875 379.909149169921875 367.096405029296875 350.415313720703125 329.930206298828125 312.29241943359375 294.766571044921875 279.05718994140625 265.944580078125 254.0326080322265625 243.355926513671875 232.9705352783203125 222.21356201171875 211.9113922119140625 201.4657745361328125 190.3440704345703125 178.5550079345703125 167.1873779296875 156.732513427734375 146.846832275390625 137.454315185546875 128.238525390625 -99999 -99999 -99999
 -99999 -99999 -99999 -99999 2.4849240779876708984 10.368893623352050781 17.34899139404296875 23.54402923583984375 28.873376846313476562 33.6262359619140625 37.617237091064453125 41.2338409423828125 44.6498565673828125 48.197345733642578125 52.23004913330078125 56.88556671142578125 62.747722625732421875 70.08240509033203125 78.99446868896484375 89.29711151123046875 99.89240264892578125 106.3102264404296875 108.22493743896484375 110.64983367919921875 120.2530059814453125 137.188201904296875 160.7775726318359375 187.574920654296875 215.3297576904296875 240.18695068359375 261.746612548828125 278.8187255859375 292.668243408203125 305.280914306640625 316.731536865234375 327.000396728515625 336.524658203125 344.82135009765625 352.681732177734375 359.89886474609375 366.563720703125 372.220123291015625 377.934906005859375 382.91827392578125 387.564453125 391.69635009765625 395.3568115234375 398.74578857421875 402.07501220703125 405.157012939453125 407.79425048828125 410.236419677734375 412.579376220703125 414.917877197265625 417.127227783203125 419.2919921875 421.39739990234375 423.510009765625 425.58026123046875 427.693115234375 429.82257080078125 431.868011474609375 433.98785400390625 435.991363525390625 437.972625732421875 439.796142578125 441.580230712890625 443.251190185546875 444.7452392578125 446.13555908203125 447.348846435546875 448.401824951171875 449.21588134765625 449.883880615234375 450.1968994140625 450.220977783203125 449.86639404296875 449.008880615234375 447.619842529296875 445.579315185546875 443.18157958984375 440.059600830078125 436.369415283203125 432.3443603515625 427.908935546875 423.44354248046875 418.975616455078125 414.791046142578125 410.975494384765625 407.69384765625 404.879730224609375 402.449859619140625 400.271392822265625 397.875946044921875 395.041778564453125 391.456787109375 387.105194091796875 381.521148681640625 374.274871826171875 364.102142333984375 350.435089111328125 332.639862060546875 312.863067626953125 294.477325439453125 278.70684814453125 264.3927001953125 252.4179534912109375 242.741943359375 234.3493804931640625 225.6878509521484375 216.59375 206.9762420654296875 196.85369873046875 186.246734619140625 175.365142822265625 164.6260223388671875 154.1132965087890625 144.087158203125 134.4925689697265625 125.1848297119140625 -99999 -99999 -99999
 -99999 -99999 -99999 -99999 -99999 3.9397170543670654297 10.71672821044921875 16.865571975708007812 22.3887176513671875 27.121751785278320312 31.408054351806640625 35.330463409423828125 39.04180908203125 42.83554840087890625 47.09935760498046875 51.9015960693359375 57.481952667236328125 63.82001495361328125 70.98084259033203125 78.7720489501953125 85.207427978515625 88.6005096435546875 89.01795196533203125 91.1488189697265625 99.3069305419921875 117.0967559814453125 143.75384521484375 174.4976043701171875 206.933624267578125 237.1333465576171875 259.729827880859375 276.597015380859375 291.670074462890625 305.238616943359375 317.424774169921875 328.709320068359375 338.569976806640625 347.587371826171875 355.900787353515625 363.255615234375 369.63360595703125 375.800506591796875 381.46966552734375 386.219451904296875 390.443939208984375 394.356292724609375 398.076629638671875 401.460601806640625 404.131866455078125 406.6378173828125 408.97869873046875 411.098358154296875 413.105377197265625 414.893096923828125 416.6636962890625 418.35601806640625 419.89776611328125 421.589813232421875 423.225250244140625 424.94232177734375 426.5946044921875 428.250946044921875 429.849822998046875 431.41339111328125 432.904937744140625 434.295654296875 435.609283447265625 436.747772216796875 437.80743408203125 438.764801025390625 439.6285400390625 440.271514892578125 440.86676025390625 441.295806884765625 441.57806396484375 441.599884033203125 441.273040771484375 440.642852783203125 439.559295654296875 437.8890380859375 435.73919677734375 432.782135009765625 429.379119873046875 425.603118896484375 421.4005126953125 417.13104248046875 412.83013916015625 408.75823974609375 404.805633544921875 401.550689697265625 398.5728759765625 395.874267578125 393.0826416015625 389.9061279296875 385.853607177734375 380.92529296875 375.081146240234375 368.0284423828125 359.832183837890625 349.33905029296875 335.279541015625 316.255706787109375 296.095062255859375 275.274810791015625 257.622039794921875 246.006866455078125 238.1458282470703125 231.388946533203125 225.03155517578125 217.874755859375 210.036529541015625 201.291015625 191.8993682861328125 181.714630126953125 171.2350311279296875 160.7086334228515625 150.519195556640625 140.6815643310546875 130.970611572265625 -99999 -99999 -99999 -99999
 -99999 -99999 -99999 -99999 -99999 -99999 5.2378530502319335938 11.193239212036132812 16.648944854736328125 21.531850814819335938 25.88513946533203125 29.977273941040039062 33.9531097412109375 38.013553619384765625 42.174213409423828125 46.548152923583984375 51.579105377197265625 56.890354156494140625 62.427642822265625 67.42252349853515625 70.73664093017578125 72.38526153564453125 72.1717987060546875 71.8833465576171875 80.51053619384765625 99.700897216796875 127.2488555908203125 159.4508209228515625 194.6785125732421875 227.7273712158203125 252.43499755859375 272.093048095703125 289.119476318359375 303.687408447265625 317.36407470703125 329.55352783203125 340.404205322265625 349.933319091796875 358.514801025390625 366.177825927734375 373.127349853515625 379.025390625 384.244171142578125 388.96142578125 393.434478759765625 397.356719970703125 400.477813720703125 403.203704833984375 405.862335205078125 408.118072509765625 410.09930419921875 411.6710205078125 413.231689453125 414.587188720703125 415.7509765625 416.998291015625 418.231689453125 419.449920654296875 420.670989990234375 421.884857177734375 423.115325927734375 424.330718994140625 425.51043701171875 426.65460205078125 427.731719970703125 428.70361328125 429.46539306640625 430.270263671875 430.81060791015625 431.414306640625 431.78570556640625 432.165863037109375 432.487396240234375 432.8157958984375 433.04534912109375 433.134857177734375 433.133575439453125 432.6429443359375 431.811065673828125 430.48870849609375 428.5233154296875 425.878173828125 422.793731689453125 419.117095947265625 415.147216796875 411.02203369140625 406.55157470703125 402.38018798828125 398.50604248046875 395.023284912109375 391.725311279296875 388.811431884765625 385.83453369140625 382.071258544921875 377.184478759765625 370.754669189453125 362.984405517578125 355.02069091796875 346.8292236328125 336.867431640625 321.287689208984375 302.573150634765625 281.826812744140625 260.263519287109375 242.367034912109375 232.9423675537109375 226.6556854248046875 221.461273193359375 216.535247802734375 210.998504638671875 204.1698455810546875 195.8005523681640625 186.474212646484375 176.57220458984375 166.3682861328125 156.17059326171875 146.10797119140625 136.202117919921875 126.522613525390625 -99999 -99999 -99999 -99999
 -99999 -99999 -99999 -99999 -99999 -99999 0.37947931885719299316 6.2871026992797851562 11.723052978515625 16.596109390258789062 21.237333297729492188 25.465343475341796875 29.399370193481445312 33.350521087646484375 37.326904296875 41.43364715576171875 45.808197021484375 50.042999267578125 53.966136932373046875 57.423946380615234375 59.766719818115234375 60.42942047119140625 60.367977142333984375 62.32831573486328125 70.62529754638671875 88.93042755126953125 114.121734619140625 145.3614959716796875 180.6245880126953125 214.8366241455078125 243.8858642578125 266.44818115234375 285.510467529296875 302.483184814453125 317.36724853515625 330.32818603515625 341.932769775390625 352.01043701171875 361.107391357421875 368.969573974609375 375.571533203125 381.679107666015625 387.24639892578125 391.99420166015625 396.036376953125 399.44891357421875 402.63848876953125 405.416351318359375 407.607421875 409.263885498046875 410.74212646484375 412.0474853515625 413.022064208984375 413.832244873046875 414.745941162109375 415.4844970703125 416.18121337890625 416.98486328125 417.78216552734375 418.551055908203125 419.414520263671875 420.242401123046875 421.0308837890625 421.768829345703125 422.506866455078125 423.025115966796875 423.376220703125 423.6849365234375 423.888671875 423.980621337890625 423.9302978515625 424.084259033203125 424.192108154296875 424.456298828125 424.622314453125 424.870574951171875 424.997711181640625 425.01995849609375 424.53814697265625 423.467559814453125 421.8702392578125 419.543609619140625 416.665252685546875 413.04339599609375 409.14837646484375 404.7374267578125 400.428314208984375 395.9874267578125 391.972930908203125 388.30059814453125 385.05877685546875 381.81854248046875 378.62225341796875 374.787139892578125 369.529296875 361.67047119140625 352.433624267578125 343.1463623046875 334.33251953125 323.7088623046875 309.793975830078125 291.27337646484375 271.6671142578125 252.5665283203125 236.5512542724609375 225.7777557373046875 218.96697998046875 213.8227691650390625 209.9627685546875 205.535308837890625 198.80859375 190.3736572265625 180.9774322509765625 170.9832000732421875 160.7655029296875 150.8156890869140625 140.782257080078125 131.15234375 -99999 -99999 -99999 -99999 -99999
 -99999 -99999 -99999 -99999 -99999 -99999 -99999 2.2988057136535644531 7.7170085906982421875 12.541583061218261719 17.096742630004882812 21.37985992431640625 25.428670883178710938 29.370822906494140625 33.20552825927734375 37.0133514404296875 40.688690185546875 44.224361419677734375 47.478515625 49.8964996337890625 51.569927215576171875 52.873687744140625 54.180206298828125 58.1740264892578125 67.1529083251953125 82.71698760986328125 104.98200225830078125 132.584136962890625 170.292266845703125 209.616546630859375 238.772979736328125 262.387298583984375 282.7314453125 300.777984619140625 316.78863525390625 330.94598388671875 343.537445068359375 354.162445068359375 363.309173583984375 371.195526123046875 378.42974853515625 384.667449951171875 389.8170166015625 394.302825927734375 398.453643798828125 401.95751953125 404.87408447265625 407.039031982421875 408.830841064453125 410.340728759765625 411.384124755859375 412.098419189453125 412.686767578125 413.1204833984375 413.308380126953125 413.612945556640625 413.8956298828125 414.18865966796875 414.54833984375 415.0587158203125 415.57806396484375 416.05816650390625 416.561248779296875 416.99163818359375 417.25262451171875 417.4107666015625 417.388031005859375 417.26788330078125 417.00604248046875 416.672393798828125 416.347503662109375 416.075714111328125 415.995849609375 415.99932861328125 416.22406005859375 416.8455810546875 417.326202392578125 417.71875 417.654449462890625 417.10302734375 415.810577392578125 413.57843017578125 410.80621337890625 407.319366455078125 403.33953857421875 398.9014892578125 394.522979736328125 390.223602294921875 385.777587890625 381.710662841796875 378.156707763671875 374.879913330078125 371.656890869140625 368.19580078125 363.237457275390625 354.327667236328125 343.894012451171875 333.721099853515625 324.092864990234375 312.79730224609375 298.71527099609375 282.34588623046875 264.408721923828125 246.8655548095703125 232.3280487060546875 221.8526763916015625 214.1505584716796875 209.0244140625 206.0743408203125 201.9277496337890625 194.5175323486328125 185.258392333984375 174.9903717041015625 164.7239837646484375 154.579498291015625 144.685089111328125 135.064483642578125 125.5904083251953125 -99999 -99999 -99999 -99999 -99999
 -99999 -99999 -99999 -99999 -99999 -99999 -99999 -99999 4.2548146247863769531 9.2326326370239257812 13.882166862487792969 18.195316314697265625 22.279909133911132812 26.185657501220703125 29.884847640991210938 33.461376190185546875 36.839202880859375 39.99383544921875 42.64968109130859375 45.11186981201171875 47.027133941650390625 48.932857513427734375 51.974346160888671875 57.24533843994140625 66.350341796875 81.113525390625 99.83528900146484375 125.17108917236328125 162.542633056640625 205.0599822998046875 236.32080078125 259.275146484375 280.251617431640625 299.419677734375 316.87872314453125 332.007171630859375 344.93267822265625 356.116363525390625 365.8486328125 373.89129638671875 380.686767578125 386.67547607421875 392.31317138671875 397.044891357421875 400.97686767578125 404.0364990234375 406.622100830078125 408.70782470703125 410.325653076171875 411.20855712890625 411.816131591796875 412.079254150390625 412.055999755859375 411.8284912109375 411.70574951171875 411.441925048828125 411.257843017578125 411.258758544921875 411.326873779296875 411.332275390625 411.623931884765625 411.8304443359375 411.982879638671875 412.134796142578125 412.097625732421875 411.898956298828125 411.556640625 411.11431884765625 410.279205322265625 409.586029052734375 408.707122802734375 408.1414794921875 407.698028564453125 407.72357177734375 408.122589111328125 408.868927001953125 409.844757080078125 410.630615234375 411.184356689453125 411.13519287109375 409.947906494140625 408.255157470703125 405.514801025390625 402.004791259765625 398.0732421875 393.752105712890625 389.051361083984375 384.30902099609375 379.755645751953125 375.809722900390625 371.712554931640625 368.1727294921875 364.918212890625 361.2882080078125 356.03564453125 347.602447509765625 337.1412353515625 326.793731689453125 315.71917724609375 303.804534912109375 290.02032470703125 274.448272705078125 258.354644775390625 243.1674346923828125 229.919891357421875 219.36505126953125 211.9554443359375 206.84454345703125 204.87384033203125 199.574249267578125 189.6360931396484375 178.996307373046875 168.401153564453125 157.9082794189453125 147.743621826171875 138.25836181640625 128.74420166015625 -99999 -99999 -99999 -99999 -99999 -99999
 -99999 -99999 -99999 -99999 -99999 -99999 -99999 -99999 1.7418874502182006836 6.7442989349365234375 11.475710868835449219 15.839400291442871094 20.023563385009765625 23.912628173828125 27.626710891723632812 31.096050262451171875 34.327259063720703125 37.44622039794921875 40.12555694580078125 42.68531036376953125 45.218639373779296875 48.1690826416015625 52.436588287353515625 59.155216217041015625 69.0093536376953125 83.3047332763671875 101.67810821533203125 126.1294097900390625 159.86151123046875 199.9681396484375 231.3256988525390625 255.5128936767578125 278.067626953125 299.00848388671875 317.62322998046875 333.503387451171875 346.92669677734375 358.44683837890625 367.811279296875 375.739959716796875 383.0086669921875 389.39227294921875 394.579437255859375 399.08380126953125 402.965362548828125 406.274383544921875 408.81097412109375 410.364501953125 411.590728759765625 412.10479736328125 411.966644287109375 411.698028564453125 411.17205810546875 410.596649169921875 409.79010009765625 409.090362548828125 408.539947509765625 407.96600341796875 407.7281494140625 407.55767822265625 407.493865966796875 407.4737548828125 407.563751220703125 407.421295166015625 407.2100830078125 406.8184814453125 406.048736572265625 405.10552978515625 403.916259765625 402.68426513671875 401.468475341796875 400.549530029296875 399.7030029296875 399.572174072265625 399.891326904296875 401.04351806640625 402.3603515625 404.234375 405.284637451171875 405.7396240234375 405.04193115234375 403.492523193359375 400.505706787109375 397.082977294921875 392.9429931640625 388.57275390625 383.97064208984375 379.44110107421875 375.030975341796875 370.705596923828125 366.0771484375 362.13018798828125 358.466156005859375 354.09002685546875 348.3690185546875 340.2525634765625 330.637786865234375 319.772308349609375 308.44781494140625 296.24188232421875 282.875823974609375 268.553497314453125 253.902618408203125 239.9927520751953125 227.7157440185546875 217.718994140625 210.225311279296875 205.3145904541015625 201.0576934814453125 193.912933349609375 183.04315185546875 171.9005279541015625 160.866668701171875 150.367431640625 140.6685943603515625 131.215362548828125 122.29492950439453125 -99999 -99999 -99999 -99999 -99999 -99999
 -99999 -99999 -99999 -99999 -99999 -99999 -99999 -99999 0.066164672374725341797 5.19156646728515625 9.922031402587890625 14.484137535095214844 18.70147705078125 22.670831680297851562 26.406366348266601562 30.068967819213867188 33.445934295654296875 36.5188751220703125 39.585590362548828125 42.69042205810546875 45.994503021240234375 50.13051605224609375 55.574710845947265625 63.123538970947265625 73.9609832763671875 88.17841339111328125 106.93039703369140625 131.12481689453125 162.7928924560546875 197.5037078857421875 226.17059326171875 251.4649200439453125 275.96392822265625 298.7008056640625 318.56964111328125 335.3748779296875 349.54351806640625 360.6341552734375 370.04486083984375 378.20550537109375 385.066925048828125 391.102783203125 396.606109619140625 401.474853515625 405.463165283203125 408.397064208984375 410.636871337890625 412.132110595703125 412.680511474609375 412.651702880859375 412.272705078125 411.46484375 410.2073974609375 408.98077392578125 407.58966064453125 406.381988525390625 405.292022705078125 404.561004638671875 403.907073974609375 403.5745849609375 403.443939208984375 403.28228759765625 403.23297119140625 402.991455078125 402.60687255859375 401.8800048828125 400.853118896484375 399.567962646484375 398.070404052734375 396.245880126953125 394.62786865234375 393.01898193359375 391.762939453125 391.426971435546875 391.730865478515625 393.294158935546875 395.484832763671875 397.985687255859375 400.1639404296875 401.266326904296875 400.5672607421875 398.75286865234375 395.780792236328125 392.212249755859375 388.451416015625 384.044464111328125 379.62158203125 375.190704345703125 370.745452880859375 366.241058349609375 361.481536865234375 357.03955078125 352.7159423828125 347.64581298828125 341.19708251953125 333.25408935546875 323.754791259765625 313.287261962890625 301.933929443359375 289.7227783203125 276.830718994140625 263.311767578125 249.809417724609375 237.098297119140625 225.6000518798828125 215.8224029541015625 207.8694915771484375 201.3991851806640625 194.81292724609375 185.8736114501953125 175.105712890625 163.7637176513671875 152.8974609375 142.4839935302734375 132.97601318359375 124.0541229248046875 -99999 -99999 -99999 -99999 -99999 -99999 -99999
 -99999 -99999 -99999 -99999 -99999 -99999 -99999 -99999 -99999 4.4393134117126464844 9.2987155914306640625 13.990887641906738281 18.456956863403320312 22.565458297729492188 26.555253982543945312 30.24065399169921875 33.88263702392578125 37.377593994140625 40.941852569580078125 44.593265533447265625 48.7420806884765625 53.963069915771484375 60.345813751220703125 68.827545166015625 80.42176055908203125 95.4187469482421875 113.8948211669921875 137.7438812255859375 165.1883087158203125 195.180419921875 221.8156890869140625 248.07366943359375 274.422943115234375 298.953277587890625 321.02801513671875 338.58856201171875 352.24169921875 363.16455078125 371.9818115234375 379.69268798828125 386.817352294921875 393.138885498046875 398.87451171875 403.58258056640625 407.539459228515625 410.62347412109375 412.66033935546875 413.6802978515625 413.970611572265625 413.596038818359375 412.32891845703125 410.8341064453125 409.012786865234375 406.97784423828125 405.100372314453125 403.432373046875 401.9552001953125 400.78857421875 400.04119873046875 399.6058349609375 399.206268310546875 399.18487548828125 399.008087158203125 398.768157958984375 398.4508056640625 397.4979248046875 396.42034912109375 394.70526123046875 392.723114013671875 390.520782470703125 388.080596923828125 385.91253662109375 384.1640625 383.268463134765625 383.530364990234375 385.509521484375 388.69097900390625 392.32073974609375 395.31231689453125 397.042388916015625 396.4208984375 394.393707275390625 391.466644287109375 387.961090087890625 384.051422119140625 379.81793212890625 375.52288818359375 371.169281005859375 366.743011474609375 362.11395263671875 357.374969482421875 352.4056396484375 347.25506591796875 341.42108154296875 334.65631103515625 326.797515869140625 317.399383544921875 307.013031005859375 295.832000732421875 284.147003173828125 271.60491943359375 258.931304931640625 246.3172454833984375 234.321044921875 223.1749725341796875 213.27752685546875 204.7185211181640625 196.3764190673828125 187.80029296875 178.0242767333984375 167.1155853271484375 155.7865142822265625 144.57257080078125 134.598114013671875 125.7086181640625 117.09645843505859375 -99999 -99999 -99999 -99999 -99999 -99999 -99999
 -99999 -99999 -99999 -99999 -99999 -99999 -99999 -99999 -99999 4.5516257286071777344 9.6697702407836914062 14.503226280212402344 19.120548248291015625 23.5472412109375 27.782587051391601562 31.922557830810546875 35.8833770751953125 39.84222412109375 43.900196075439453125 48.439453125 53.3665313720703125 59.275455474853515625 66.815460205078125 76.10071563720703125 87.85910797119140625 102.1360321044921875 120.4803314208984375 141.5587615966796875 166.051422119140625 191.807830810546875 218.0644989013671875 244.368560791015625 271.90325927734375 299.975677490234375 323.540985107421875 341.10162353515625 354.69390869140625 364.92840576171875 373.49652099609375 381.247955322265625 388.23797607421875 394.72052001953125 400.644134521484375 405.847412109375 410.16229248046875 413.2056884765625 414.894073486328125 415.7669677734375 415.359527587890625 414.15203857421875 412.4112548828125 410.06976318359375 407.4677734375 404.922332763671875 402.49359130859375 400.173492431640625 398.360626220703125 396.895660400390625 395.922515869140625 395.29388427734375 395.1048583984375 395.099212646484375 395.137176513671875 395.125335693359375 394.7474365234375 393.87176513671875 392.4261474609375 390.535736083984375 388.174072265625 385.186126708984375 382.457275390625 379.4923095703125 377.032257080078125 375.635498046875 375.49493408203125 377.75701904296875 381.873779296875 386.702728271484375 391.663818359375 393.522796630859375 393.125946044921875 390.568450927734375 387.28369140625 383.71917724609375 379.944580078125 376.037200927734375 371.859588623046875 367.522735595703125 362.977783203125 358.335113525390625 353.272247314453125 347.772003173828125 342.19964599609375 335.940643310546875 328.802337646484375 320.453216552734375 311.3182373046875 301.252288818359375 290.521820068359375 278.93682861328125 267.004486083984375 254.87237548828125 242.818603515625 231.16961669921875 220.298858642578125 209.972381591796875 200.5534210205078125 191.178955078125 181.474212646484375 171.12396240234375 159.9889068603515625 148.618682861328125 137.5117340087890625 127.764617919921875 119.077789306640625 110.85912322998046875 -99999 -99999 -99999 -99999 -99999 -99999 -99999
 -99999 -99999 -99999 -99999 -99999 -99999 -99999 -99999 -99999 5.5243778228759765625 10.8612060546875 16.00499725341796875 20.958818435668945312 25.729452133178710938 30.290821075439453125 34.863384246826171875 39.319122314453125 43.9307708740234375 48.627288818359375 53.67363739013671875 59.483699798583984375 66.24456787109375 74.008514404296875 83.4771728515625 95.3358306884765625 109.16237640380859375 125.9301300048828125 144.9278106689453125 165.8477325439453125 188.3623199462890625 212.6646881103515625 240.607147216796875 270.876800537109375 302.223785400390625 328.064453125 344.940826416015625 357.27288818359375 366.510162353515625 374.4061279296875 381.67510986328125 388.9959716796875 396.19757080078125 402.9010009765625 408.5382080078125 413.105133056640625 416.11676025390625 417.58966064453125 417.778289794921875 416.874298095703125 415.017547607421875 412.35650634765625 409.216644287109375 405.944244384765625 402.54888916015625 399.338897705078125 396.58978271484375 394.271575927734375 392.57965087890625 391.541412353515625 390.9810791015625 391.003204345703125 391.253814697265625 391.60284423828125 391.865997314453125 391.657073974609375 390.956817626953125 389.5714111328125 387.349456787109375 384.52764892578125 381.16796875 377.757659912109375 374.124786376953125 370.795745849609375 368.251617431640625 367.6617431640625 369.668548583984375 374.962860107421875 381.80865478515625 388.693878173828125 391.930633544921875 390.1888427734375 387.2529296875 383.93756103515625 380.384765625 376.625244140625 372.625457763671875 368.4400634765625 364.0457763671875 359.4434814453125 354.576324462890625 349.0372314453125 343.521697998046875 337.41241455078125 330.6551513671875 323.259368896484375 315.037628173828125 305.94793701171875 295.969085693359375 285.331512451171875 274.281219482421875 262.7943115234375 251.060699462890625 239.48968505859375 228.19073486328125 217.2255096435546875 206.8623046875 196.552886962890625 186.4649658203125 176.222198486328125 165.2335205078125 154.1044921875 142.825225830078125 131.9930419921875 122.55341339111328125 113.62496185302734375 -99999 -99999 -99999 -99999 -99999 -99999 -99999 -99999
 -99999 -99999 -99999 -99999 -99999 -99999 -99999 -99999 1.5059993267059326172 7.3579912185668945312 13.058472633361816406 18.462587356567382812 23.708768844604492188 28.95638275146484375 33.991397857666015625 39.03725433349609375 44.000667572021484375 49.157657623291015625 54.5496978759765625 60.35565185546875 66.72969818115234375 73.8402862548828125 82.39459228515625 92.0569915771484375 103.51711273193359375 116.78316497802734375 131.8041839599609375 148.4891510009765625 166.1966705322265625 185.4823455810546875 209.3561859130859375 237.6186981201171875 269.666595458984375 302.0242919921875 327.247283935546875 344.9300537109375 357.84130859375 366.63629150390625 373.802947998046875 381.3414306640625 389.547393798828125 397.644500732421875 405.25384521484375 411.757293701171875 416.466552734375 419.375518798828125 420.640655517578125 420.491485595703125 418.705352783203125 415.966552734375 412.38165283203125 408.26190185546875 403.994659423828125 399.90069580078125 395.941131591796875 392.675506591796875 389.92584228515625 388.0667724609375 386.97735595703125 386.67236328125 386.8817138671875 387.488250732421875 388.3875732421875 389.25457763671875 389.5762939453125 389.152557373046875 387.840362548828125 385.317626953125 382.01715087890625 378.26654052734375 374.407928466796875 370.18023681640625 366.00787353515625 362.2076416015625 360.090423583984375 362.369842529296875 368.01556396484375 376.2418212890625 384.737701416015625 389.120880126953125 387.405670166015625 384.46173095703125 381.074737548828125 377.448455810546875 373.5946044921875 369.545684814453125 365.283294677734375 360.621002197265625 355.9510498046875 350.825286865234375 345.236724853515625 339.320709228515625 332.908599853515625 326.01873779296875 318.477752685546875 310.00762939453125 300.899322509765625 291.160125732421875 280.950775146484375 269.984100341796875 258.836517333984375 247.5571136474609375 236.2296905517578125 225.0522308349609375 214.09063720703125 203.3648681640625 192.890899658203125 182.3271636962890625 171.5505828857421875 160.61187744140625 149.4725799560546875 138.2394256591796875 127.79409027099609375 118.2103118896484375 109.4265594482421875 -99999 -99999 -99999 -99999 -99999 -99999 -99999 -99999
 -99999 -99999 -99999 -99999 -99999 -99999 -99999 -99999 3.8183760643005371094 9.940532684326171875 15.911176681518554688 21.757875442504882812 27.493406295776367188 33.151123046875 38.657657623291015625 44.2443389892578125 49.843860626220703125 55.591968536376953125 61.652008056640625 68.00827789306640625 75.07920074462890625 82.9053955078125 91.5620880126953125 101.400726318359375 112.380157470703125 124.894287109375 138.7122039794921875 153.2495574951171875 169.306610107421875 186.6855010986328125 209.3097991943359375 237.8025665283203125 268.66876220703125 298.972137451171875 324.757171630859375 343.727691650390625 357.101593017578125 365.2720947265625 372.276092529296875 380.53387451171875 389.73345947265625 399.562835693359375 408.642974853515625 415.52734375 420.71856689453125 423.6656494140625 424.42181396484375 423.138031005859375 420.57177734375 416.798858642578125 412.143310546875 407.05682373046875 401.954681396484375 396.876068115234375 392.27838134765625 388.3271484375 385.14892578125 383.160675048828125 382.1832275390625 381.989227294921875 382.639495849609375 383.955322265625 385.5557861328125 387.02020263671875 388.24859619140625 388.1331787109375 386.716522216796875 384.30694580078125 380.5126953125 376.741241455078125 372.58514404296875 368.42437744140625 363.0987548828125 357.967193603515625 354.1773681640625 355.761993408203125 361.54638671875 370.240966796875 378.40435791015625 383.389556884765625 383.04742431640625 381.043731689453125 378.093536376953125 374.557220458984375 370.732208251953125 366.53204345703125 362.206024169921875 357.677947998046875 352.658233642578125 347.25970458984375 341.537261962890625 335.403656005859375 328.7647705078125 321.69134521484375 313.734405517578125 305.397918701171875 296.451263427734375 286.858123779296875 276.637054443359375 266.126312255859375 255.2205657958984375 244.125762939453125 233.0836029052734375 221.9664154052734375 211.083038330078125 200.2415618896484375 189.4664306640625 178.6690216064453125 167.7922210693359375 156.7618560791015625 145.6449127197265625 134.900726318359375 124.56299591064453125 114.89661407470703125 -99999 -99999 -99999 -99999 -99999 -99999 -99999 -99999 -99999
 -99999 -99999 -99999 -99999 -99999 -99999 -99999 0.080621384084224700928 6.7358636856079101562 13.255170822143554688 19.6293182373046875 25.865049362182617188 32.071422576904296875 38.1725311279296875 44.2790374755859375 50.38745880126953125 56.589191436767578125 62.99909210205078125 69.735870361328125 76.85417938232421875 84.39084625244140625 92.58107757568359375 101.5804595947265625 111.65103912353515625 122.59056854248046875 134.5847625732421875 147.42022705078125 161.3012542724609375 176.4295501708984375 193.8905792236328125 215.587860107421875 241.84539794921875 270.469757080078125 298.339385986328125 322.320953369140625 340.997100830078125 354.508148193359375 362.43121337890625 369.366058349609375 378.7498779296875 390.86529541015625 402.922821044921875 413.040191650390625 421.015350341796875 426.147857666015625 428.3809814453125 428.4305419921875 426.41949462890625 422.63983154296875 417.6141357421875 412.0257568359375 405.8916015625 399.618621826171875 393.5693359375 388.2266845703125 383.62432861328125 380.20965576171875 378.092742919921875 377.076385498046875 377.403106689453125 378.718841552734375 380.5675048828125 383.076202392578125 385.608642578125 387.5791015625 388.536590576171875 387.545806884765625 384.796417236328125 380.5380859375 376.18878173828125 372.02984619140625 367.77838134765625 363.1986083984375 356.71502685546875 351.7484130859375 352.80926513671875 358.288330078125 365.704132080078125 372.66046142578125 377.04425048828125 378.382720947265625 377.108489990234375 374.69830322265625 371.521759033203125 367.7403564453125 363.854522705078125 359.466766357421875 354.627716064453125 349.47283935546875 343.996185302734375 338.0625 331.68939208984375 324.930694580078125 317.57110595703125 309.784637451171875 301.298583984375 292.24615478515625 282.849822998046875 272.811981201171875 262.466461181640625 251.810821533203125 241.012481689453125 230.103240966796875 219.1358795166015625 208.32464599609375 197.343475341796875 186.470428466796875 175.582794189453125 164.7386474609375 153.7103118896484375 142.7874298095703125 132.09625244140625 122.01331329345703125 112.4817657470703125 -99999 -99999 -99999 -99999 -99999 -99999 -99999 -99999 -99999
 -99999 -99999 -99999 -99999 -99999 -99999 -99999 3.3813424110412597656 10.328068733215332031 17.203477859497070312 23.97968292236328125 30.717763900756835938 37.397006988525390625 44.051605224609375 50.64217376708984375 57.41072845458984375 64.367584228515625 71.426544189453125 78.70738983154296875 86.32468414306640625 94.41780853271484375 103.33209991455078125 112.72205352783203125 122.8380584716796875 133.6512298583984375 145.5223236083984375 158.1715850830078125 171.8907470703125 186.94146728515625 204.119232177734375 225.120697021484375 248.8945770263671875 274.68701171875 299.65203857421875 321.427459716796875 339.090576171875 352.086883544921875 360.443756103515625 367.560089111328125 379.533111572265625 394.031341552734375 408.11212158203125 419.504364013671875 427.655914306640625 432.2164306640625 434.1572265625 433.3302001953125 429.9176025390625 424.7562255859375 418.646820068359375 411.59637451171875 404.325439453125 397.0244140625 390.117828369140625 383.85784912109375 378.507354736328125 374.833953857421875 372.503570556640625 371.75152587890625 372.682373046875 374.411529541015625 377.33099365234375 380.48162841796875 384.145904541015625 387.5408935546875 389.873931884765625 389.717498779296875 386.41802978515625 381.083465576171875 376.199981689453125 372.27044677734375 368.482757568359375 364.32806396484375 358.270751953125 353.803985595703125 353.557647705078125 357.718048095703125 363.075286865234375 368.59014892578125 372.282470703125 373.8306884765625 373.3509521484375 371.411407470703125 368.624176025390625 365.13494873046875 361.208831787109375 356.657623291015625 351.819183349609375 346.552459716796875 340.882049560546875 334.792816162109375 328.3643798828125 321.467529296875 313.892730712890625 305.902557373046875 297.453521728515625 288.601287841796875 279.147003173828125 269.32489013671875 259.184661865234375 248.7249755859375 238.045806884765625 227.367706298828125 216.4562225341796875 205.595306396484375 194.742431640625 183.849456787109375 172.9703216552734375 162.092071533203125 151.1871337890625 140.508453369140625 130.1257476806640625 120.088775634765625 -99999 -99999 -99999 -99999 -99999 -99999 -99999 -99999 -99999 -99999
 -99999 -99999 -99999 -99999 -99999 -99999 -99999 7.0806765556335449219 14.409509658813476562 21.745336532592773438 28.980953216552734375 36.20858001708984375 43.35524749755859375 50.568683624267578125 57.889301300048828125 65.216033935546875 72.70227813720703125 80.3719024658203125 88.3905029296875 96.7176513671875 105.4976806640625 114.767120361328125 124.5637969970703125 135.0516510009765625 146.2623291015625 158.127838134765625 170.847686767578125 184.49835205078125 199.947723388671875 217.207794189453125 236.97076416015625 258.873291015625 281.93768310546875 303.752532958984375 323.914337158203125 340.28717041015625 352.876861572265625 362.89813232421875 372.09515380859375 384.630096435546875 401.3597412109375 416.10565185546875 427.54931640625 435.660064697265625 439.927764892578125 440.36065673828125 437.590179443359375 432.979888916015625 426.37457275390625 419.000213623046875 410.85931396484375 402.7237548828125 394.4329833984375 386.359619140625 379.47412109375 373.46966552734375 369.22772216796875 366.797637939453125 366.45269775390625 367.651763916015625 370.50115966796875 373.983062744140625 378.335968017578125 383.06915283203125 387.7371826171875 391.781585693359375 392.83544921875 390.062286376953125 382.27386474609375 377.23284912109375 373.843475341796875 369.980621337890625 365.733978271484375 361.159912109375 357.7069091796875 357.053314208984375 359.011871337890625 362.920013427734375 366.384307861328125 369.229461669921875 370.42950439453125 370.033477783203125 368.502044677734375 365.9320068359375 362.72113037109375 358.65191650390625 354.1651611328125 349.19647216796875 343.812591552734375 338.03900146484375 331.876373291015625 325.283721923828125 318.063079833984375 310.57586669921875 302.586944580078125 294.1243896484375 285.24114990234375 275.863433837890625 266.1278076171875 256.117919921875 245.82830810546875 235.43426513671875 224.66595458984375 213.9584503173828125 203.2318878173828125 192.4256591796875 181.569976806640625 170.74798583984375 160.02923583984375 149.2547760009765625 138.683258056640625 128.40576171875 118.49813079833984375 -99999 -99999 -99999 -99999 -99999 -99999 -99999 -99999 -99999 -99999
 -99999 -99999 -99999 -99999 -99999 -99999 3.5506224632263183594 11.326844215393066406 19.07408905029296875 26.795389175415039062 34.476108551025390625 42.174839019775390625 49.91625213623046875 57.660472869873046875 65.56109619140625 73.58138275146484375 81.73187255859375 90.07012176513671875 98.75762176513671875 107.80010986328125 117.2010498046875 127.03192901611328125 137.3573760986328125 148.2301483154296875 159.7083740234375 171.8004608154296875 184.8598480224609375 198.9459686279296875 214.1672515869140625 231.0335235595703125 249.63421630859375 269.738800048828125 290.291351318359375 310.5096435546875 328.698089599609375 344.377105712890625 357.833404541015625 369.586181640625 381.32867431640625 395.51898193359375 411.27166748046875 425.841522216796875 437.390869140625 444.1400146484375 446.8868408203125 446.015655517578125 442.217041015625 435.68194580078125 427.75604248046875 419.03515625 410.088653564453125 400.865631103515625 391.6942138671875 383.159271240234375 374.845428466796875 368.078765869140625 363.2442626953125 360.94580078125 361.164794921875 362.987945556640625 366.553253173828125 370.93328857421875 375.9990234375 381.52972412109375 387.3218994140625 392.4998779296875 396.0482177734375 393.25567626953125 385.978790283203125 380.38104248046875 376.41754150390625 372.430267333984375 368.398651123046875 364.517974853515625 361.75726318359375 360.7110595703125 361.668121337890625 363.585968017578125 365.900970458984375 367.616058349609375 368.381072998046875 367.801544189453125 366.236572265625 363.877655029296875 360.4444580078125 356.386199951171875 351.848724365234375 346.857513427734375 341.42327880859375 335.484771728515625 329.251220703125 322.399993896484375 315.191680908203125 307.567596435546875 299.463653564453125 290.982025146484375 282.190673828125 272.8660888671875 263.31195068359375 253.3534698486328125 243.1837921142578125 232.8441925048828125 222.3692779541015625 211.7863311767578125 201.098480224609375 190.33489990234375 179.6127777099609375 168.9719390869140625 158.1860198974609375 147.6361236572265625 137.2542266845703125 127.1247100830078125 117.3117218017578125 -99999 -99999 -99999 -99999 -99999 -99999 -99999 -99999 -99999 -99999
 -99999 -99999 -99999 -99999 -99999 -99999 7.7979607582092285156 15.941831588745117188 24.088296890258789062 32.2603607177734375 40.4221343994140625 48.605869293212890625 56.908908843994140625 65.32532501220703125 73.80481719970703125 82.402679443359375 91.25574493408203125 100.3598175048828125 109.70252227783203125 119.351654052734375 129.3152008056640625 139.8059234619140625 150.6613922119140625 162.0111846923828125 174.006744384765625 186.59197998046875 199.89593505859375 214.0939483642578125 229.429931640625 245.9776763916015625 263.823699951171875 282.144073486328125 301.073028564453125 319.497772216796875 336.255767822265625 351.86053466796875 365.519989013671875 378.433349609375 391.749725341796875 406.043670654296875 421.164398193359375 434.789520263671875 445.2364501953125 451.577117919921875 453.767059326171875 451.344757080078125 445.61468505859375 437.19085693359375 427.68536376953125 418.13458251953125 408.607513427734375 399.157623291015625 389.7669677734375 380.0914306640625 370.619659423828125 362.83685302734375 357.937774658203125 355.57916259765625 355.912994384765625 358.77813720703125 363.160797119140625 368.220977783203125 373.84320068359375 379.78485107421875 386.088226318359375 392.381805419921875 395.720855712890625 394.982452392578125 389.3021240234375 384.66314697265625 380.071441650390625 376.00982666015625 372.121612548828125 368.871551513671875 366.553863525390625 365.36639404296875 365.1680908203125 365.79754638671875 366.796783447265625 367.48870849609375 367.429412841796875 366.589813232421875 364.723602294921875 362.04168701171875 358.570709228515625 354.566741943359375 349.9833984375 344.799713134765625 339.192779541015625 333.25311279296875 326.786102294921875 319.831390380859375 312.528656005859375 304.817047119140625 296.72149658203125 288.2979736328125 279.39923095703125 270.1539306640625 260.619873046875 250.824951171875 240.810943603515625 230.6189727783203125 220.164947509765625 209.654632568359375 199.1339111328125 188.5240020751953125 177.931488037109375 167.357666015625 156.7884063720703125 146.323822021484375 136.0343475341796875 126.0403289794921875 -99999 -99999 -99999 -99999 -99999 -99999 -99999 -99999 -99999 -99999 -99999
 -99999 -99999 -99999 -99999 -99999 3.8086743354797363281 12.3364715576171875 20.8851165771484375 29.444583892822265625 38.008136749267578125 46.74108123779296875 55.482208251953125 64.32464599609375 73.2571868896484375 82.38144683837890625 91.6680145263671875 101.19240570068359375 110.94393157958984375 120.89551544189453125 131.253662109375 141.947509765625 153.0026092529296875 164.5125885009765625 176.45941162109375 188.8827056884765625 201.8398590087890625 215.43072509765625 229.85186767578125 245.2186126708984375 261.32647705078125 277.999755859375 295.443939208984375 312.720367431640625 329.80926513671875 345.85479736328125 360.59564208984375 374.532684326171875 387.8955078125 401.25518798828125 414.94659423828125 428.476226806640625 440.970458984375 451.484283447265625 455.95758056640625 457.404388427734375 454.564971923828125 446.4385986328125 436.223663330078125 425.86798095703125 416.509857177734375 407.288818359375 397.9937744140625 388.641998291015625 378.076507568359375 367.521697998046875 358.565704345703125 352.259185791015625 350.14892578125 351.599761962890625 355.4783935546875 360.660369873046875 366.410186767578125 372.40435791015625 378.89044189453125 385.591217041015625 391.422821044921875 395.078460693359375 394.55499267578125 392.12548828125 388.214508056640625 384.331573486328125 380.757568359375 377.14453125 374.118133544921875 371.811798095703125 369.96533203125 369.052642822265625 368.840728759765625 368.70941162109375 368.3433837890625 367.613372802734375 366.088409423828125 363.98687744140625 361.02581787109375 357.416473388671875 353.142425537109375 348.35888671875 343.114471435546875 337.43560791015625 331.27783203125 324.613250732421875 317.60968017578125 310.23797607421875 302.466400146484375 294.351318359375 285.840667724609375 276.914947509765625 267.7672119140625 258.357696533203125 248.5787811279296875 238.676910400390625 228.4995269775390625 218.2663116455078125 207.9200286865234375 197.4756317138671875 186.936126708984375 176.430084228515625 165.9373931884765625 155.516632080078125 145.2516326904296875 135.1082000732421875 125.16119384765625 -99999 -99999 -99999 -99999 -99999 -99999 -99999 -99999 -99999 -99999 -99999
 -99999 -99999 -99999 -99999 -99999 8.2272167205810546875 17.084688186645507812 26.044622421264648438 35.066253662109375 44.101898193359375 53.2890472412109375 62.524444580078125 71.95439910888671875 81.4980010986328125 91.23078155517578125 101.1844940185546875 111.25173187255859375 121.67752838134765625 132.4611663818359375 143.4591064453125 154.787750244140625 166.539703369140625 178.63275146484375 191.0552520751953125 203.949310302734375 217.4276275634765625 231.434051513671875 246.0234222412109375 260.93023681640625 276.6322021484375 292.769775390625 308.9573974609375 325.5494384765625 341.49420166015625 356.469970703125 370.90313720703125 384.324981689453125 397.011962890625 409.4451904296875 421.6883544921875 433.717437744140625 443.9984130859375 451.825408935546875 456.814300537109375 458.74664306640625 453.533355712890625 443.388519287109375 432.04339599609375 422.22552490234375 413.451446533203125 405.303924560546875 397.46270751953125 388.621307373046875 378.353424072265625 366.018890380859375 354.64495849609375 348.418304443359375 347.013824462890625 348.990509033203125 353.768798828125 359.62396240234375 365.8731689453125 372.406982421875 379.25811767578125 386.003265380859375 391.38134765625 395.028045654296875 396.13336181640625 394.572296142578125 392.289642333984375 388.910614013671875 385.595184326171875 382.52349853515625 379.7138671875 377.043670654296875 375.10650634765625 373.58978271484375 372.38031005859375 371.374542236328125 370.144256591796875 368.577178955078125 366.649749755859375 363.913909912109375 360.54046630859375 356.636993408203125 352.208831787109375 347.270172119140625 341.799652099609375 335.92462158203125 329.53741455078125 322.799468994140625 315.7178955078125 308.21795654296875 300.3333740234375 292.19830322265625 283.619842529296875 274.7589111328125 265.5977783203125 256.174957275390625 246.546630859375 236.737152099609375 226.6923065185546875 216.5030517578125 206.220794677734375 195.9199676513671875 185.5652618408203125 175.19317626953125 164.8418426513671875 154.5101470947265625 144.3051605224609375 134.2881622314453125 -99999 -99999 -99999 -99999 -99999 -99999 -99999 -99999 -99999 -99999 -99999 -99999
 -99999 -99999 -99999 -99999 3.5788426399230957031 12.84658050537109375 22.12989044189453125 31.468631744384765625 40.8211669921875 50.33618927001953125 59.9968414306640625 69.72835540771484375 79.68207550048828125 89.79583740234375 100.0656585693359375 110.6686553955078125 121.542724609375 132.58587646484375 143.950103759765625 155.609375 167.6636810302734375 179.9493865966796875 192.732574462890625 205.8267974853515625 219.31298828125 233.03619384765625 247.32421875 261.952545166015625 276.801177978515625 292.045806884765625 307.73883056640625 323.5772705078125 339.1407470703125 353.783843994140625 368.062835693359375 381.362579345703125 393.8065185546875 405.62835693359375 416.939727783203125 427.148712158203125 436.097747802734375 443.5421142578125 449.96484375 453.447540283203125 453.70159912109375 446.695281982421875 434.578826904296875 425.03466796875 416.359405517578125 409.0933837890625 403.22906494140625 398.023345947265625 391.149932861328125 382.5045166015625 368.570587158203125 352.8929443359375 345.4498291015625 346.032012939453125 348.544769287109375 353.7435302734375 360.17724609375 366.789642333984375 373.959869384765625 381.07415771484375 387.444915771484375 392.935791015625 396.56512451171875 398.1170654296875 398.00640869140625 396.207275390625 393.873809814453125 391.13189697265625 388.295684814453125 385.454986572265625 382.80340576171875 380.367889404296875 378.328643798828125 376.415283203125 374.532806396484375 372.69378662109375 370.44622802734375 367.637298583984375 364.378936767578125 360.688446044921875 356.480133056640625 351.705963134765625 346.426971435546875 340.8089599609375 334.7332763671875 328.201568603515625 321.28619384765625 314.010894775390625 306.38800048828125 298.473541259765625 290.2833251953125 281.63958740234375 272.76861572265625 263.67071533203125 254.2869110107421875 244.697265625 234.985137939453125 224.9671630859375 214.9476776123046875 204.7864227294921875 194.5356903076171875 184.2909698486328125 174.0560150146484375 163.7547149658203125 153.6001739501953125 143.5723419189453125 133.5976104736328125 -99999 -99999 -99999 -99999 -99999 -99999 -99999 -99999 -99999 -99999 -99999 -99999
 -99999 -99999 -99999 -99999 8.1014242172241210938 17.619188308715820312 27.166925430297851562 36.842624664306640625 46.668598175048828125 56.59360504150390625 66.68509674072265625 76.9932098388671875 87.35645294189453125 98.12872314453125 109.0909881591796875 120.2351531982421875 131.6455535888671875 143.368988037109375 155.4278717041015625 167.7644195556640625 180.4720916748046875 193.4469146728515625 206.80712890625 220.350799560546875 234.2256011962890625 248.5092315673828125 263.11090087890625 277.65130615234375 292.5484619140625 307.79931640625 322.628082275390625 337.599517822265625 352.31671142578125 366.161407470703125 379.569549560546875 392.279876708984375 403.99774169921875 414.077606201171875 422.95751953125 430.666412353515625 437.4456787109375 442.40679931640625 445.22998046875 445.364013671875 441.591888427734375 433.343719482421875 424.33929443359375 416.646484375 409.587799072265625 404.546844482421875 401.45855712890625 398.28436279296875 394.3909912109375 388.473236083984375 379.668853759765625 356.9534912109375 347.094207763671875 348.8525390625 351.624359130859375 356.799774169921875 363.277557373046875 370.263702392578125 377.451324462890625 384.57537841796875 390.7381591796875 395.947601318359375 399.865753173828125 401.60943603515625 402.059234619140625 401.191741943359375 399.44769287109375 396.99462890625 394.38995361328125 391.526885986328125 388.75262451171875 385.979278564453125 383.45367431640625 381.00445556640625 378.391387939453125 375.592132568359375 372.589080810546875 369.28057861328125 365.568267822265625 361.3233642578125 356.594085693359375 351.527679443359375 346.049835205078125 340.198455810546875 333.7515869140625 327.020355224609375 319.969635009765625 312.594940185546875 304.8948974609375 296.84515380859375 288.53082275390625 279.887939453125 271.008056640625 261.896270751953125 252.55609130859375 243.07855224609375 233.326995849609375 223.47052001953125 213.4927825927734375 203.4424285888671875 193.315826416015625 183.157867431640625 173.0373687744140625 162.8881988525390625 152.8047637939453125 142.8128509521484375 -99999 -99999 -99999 -99999 -99999 -99999 -99999 -99999 -99999 -99999 -99999 -99999 -99999
 -99999 -99999 -99999 2.7970211505889892578 12.51731109619140625 22.298871994018554688 32.291225433349609375 42.279499053955078125 52.5233306884765625 62.87282562255859375 73.380462646484375 84.16741943359375 95.18509674072265625 106.37165069580078125 117.780487060546875 129.5704498291015625 141.62200927734375 154.005035400390625 166.677154541015625 179.5551605224609375 192.9556121826171875 206.5407562255859375 220.3748321533203125 234.67437744140625 249.1697540283203125 263.7557373046875 278.39874267578125 293.233917236328125 307.896240234375 322.635406494140625 337.3388671875 351.74041748046875 365.468658447265625 379.130401611328125 391.882781982421875 403.15240478515625 413.267822265625 422.055633544921875 429.39605712890625 434.700347900390625 437.990325927734375 439.501922607421875 438.383209228515625 434.817962646484375 429.25970458984375 421.16845703125 413.166290283203125 407.468994140625 402.129852294921875 400.259033203125 399.8427734375 398.96343994140625 397.145111083984375 392.899078369140625 384.993194580078125 367.8740234375 358.140899658203125 355.774017333984375 358.07183837890625 363.000885009765625 369.006622314453125 375.989776611328125 383.178192138671875 389.770294189453125 395.880523681640625 401.086456298828125 404.566009521484375 406.838623046875 407.494903564453125 406.98919677734375 405.462615966796875 403.5045166015625 400.901580810546875 397.991180419921875 395.03045654296875 392.03582763671875 388.899810791015625 385.644073486328125 382.433349609375 379.099761962890625 375.414337158203125 371.364471435546875 366.954681396484375 362.3067626953125 357.257476806640625 351.80474853515625 345.91363525390625 339.664642333984375 333.067779541015625 326.173309326171875 318.92901611328125 311.33941650390625 303.486297607421875 295.428558349609375 286.980316162109375 278.3211669921875 269.431060791015625 260.31732177734375 250.98199462890625 241.5433807373046875 231.8610076904296875 222.072296142578125 212.1870574951171875 202.2046966552734375 192.177947998046875 182.183074951171875 172.1217193603515625 162.0501251220703125 152.112274169921875 142.24249267578125 -99999 -99999 -99999 -99999 -99999 -99999 -99999 -99999 -99999 -99999 -99999 -99999 -99999
 -99999 -99999 -99999 6.9762969017028808594 17.002134323120117188 27.131254196166992188 37.323394775390625 47.7323455810546875 58.25737762451171875 68.9750823974609375 80.0022735595703125 91.1780853271484375 102.61345672607421875 114.36322784423828125 126.34946441650390625 138.7121429443359375 151.315643310546875 164.2100982666015625 177.456939697265625 191.114959716796875 204.9189300537109375 219.2173309326171875 233.7881317138671875 248.4655303955078125 263.379302978515625 278.416351318359375 293.3839111328125 308.209259033203125 323.0013427734375 337.47210693359375 351.591064453125 365.322357177734375 378.906158447265625 391.401336669921875 403.198974609375 414.112579345703125 423.346435546875 430.66864013671875 435.47320556640625 438.350128173828125 438.27569580078125 436.096893310546875 432.2581787109375 426.6595458984375 418.683837890625 409.744415283203125 402.66497802734375 399.29620361328125 398.205810546875 398.43548583984375 399.66571044921875 400.068603515625 398.58856201171875 394.436553955078125 386.612518310546875 377.115966796875 369.018829345703125 366.03704833984375 367.29010009765625 371.821929931640625 377.497467041015625 384.0216064453125 390.791900634765625 397.255157470703125 402.9140625 407.645050048828125 411.0582275390625 413.194366455078125 413.86920166015625 413.780853271484375 412.454986572265625 410.412109375 407.88299560546875 404.951873779296875 401.612396240234375 398.11260986328125 394.50244140625 390.770263671875 386.963409423828125 382.74871826171875 378.3565673828125 373.80438232421875 368.947265625 363.72357177734375 358.100067138671875 352.218841552734375 346.07720947265625 339.536651611328125 332.635162353515625 325.446044921875 318.0123291015625 310.313629150390625 302.373138427734375 294.12054443359375 285.608154296875 276.897613525390625 267.978240966796875 258.860076904296875 249.5650177001953125 240.150054931640625 230.4893035888671875 220.778411865234375 210.983428955078125 201.1017608642578125 191.1533050537109375 181.2187957763671875 171.260986328125 161.3093414306640625 151.4377593994140625 -99999 -99999 -99999 -99999 -99999 -99999 -99999 -99999 -99999 -99999 -99999 -99999 -99999 -99999
 -99999 -99999 0.98345744609832763672 11.14499664306640625 21.415788650512695312 31.793161392211914062 42.285175323486328125 53.00311279296875 63.857250213623046875 74.9770660400390625 86.29338836669921875 97.9544525146484375 109.9141845703125 122.0427398681640625 134.5826263427734375 147.3137969970703125 160.4996337890625 174.06121826171875 187.82421875 201.95550537109375 216.434356689453125 231.316680908203125 246.26361083984375 261.70343017578125 277.098785400390625 292.469146728515625 307.762969970703125 322.7864990234375 337.30047607421875 351.596466064453125 365.291107177734375 378.360260009765625 391.274993896484375 403.58721923828125 414.931427001953125 425.128082275390625 433.241546630859375 439.05133056640625 442.2291259765625 441.8651123046875 439.52886962890625 434.881378173828125 428.436065673828125 420.402252197265625 411.406494140625 401.920989990234375 394.83868408203125 393.857208251953125 396.30084228515625 399.012298583984375 400.91143798828125 401.750213623046875 400.680572509765625 396.528411865234375 390.618438720703125 384.0037841796875 378.866912841796875 377.050872802734375 378.431396484375 382.126007080078125 387.730712890625 393.925262451171875 400.197418212890625 406.193450927734375 411.66265869140625 415.804412841796875 418.92718505859375 421.054351806640625 421.74761962890625 421.352203369140625 420.12371826171875 418.129791259765625 415.31475830078125 412.0191650390625 408.42327880859375 404.573883056640625 400.4251708984375 395.9996337890625 391.49456787109375 386.755096435546875 381.7913818359375 376.532928466796875 371.01385498046875 365.2720947265625 359.26593017578125 353.001251220703125 346.407379150390625 339.475341796875 332.35107421875 324.969024658203125 317.3251953125 309.40606689453125 301.3134765625 292.97021484375 284.371978759765625 275.633697509765625 266.666046142578125 257.512237548828125 248.26422119140625 238.8314208984375 229.262115478515625 219.6000518798828125 209.8452606201171875 200.01776123046875 190.178924560546875 180.3701934814453125 170.5009765625 160.6112518310546875 150.8533935546875 -99999 -99999 -99999 -99999 -99999 -99999 -99999 -99999 -99999 -99999 -99999 -99999 -99999 -99999
 -99999 -99999 4.8390421867370605469 15.231165885925292969 25.706211090087890625 36.31800079345703125 47.155773162841796875 58.087047576904296875 69.238433837890625 80.69341278076171875 92.441009521484375 104.43386077880859375 116.70101165771484375 129.26300048828125 142.2935791015625 155.59765625 169.2664642333984375 183.173309326171875 197.50018310546875 212.13201904296875 227.1151275634765625 242.4921112060546875 258.26025390625 274.02667236328125 289.991912841796875 305.851226806640625 321.38763427734375 336.574066162109375 351.055389404296875 364.9193115234375 378.015777587890625 390.87884521484375 403.309539794921875 414.97698974609375 425.831085205078125 435.4031982421875 443.218597412109375 448.478302001953125 449.280120849609375 447.53106689453125 442.352020263671875 435.349578857421875 427.1531982421875 418.021331787109375 408.54638671875 399.461334228515625 393.003662109375 392.043609619140625 396.376129150390625 399.913665771484375 402.8125 404.08447265625 403.395477294921875 399.652618408203125 394.94317626953125 390.492340087890625 387.89080810546875 387.413665771484375 389.605133056640625 393.841644287109375 399.26104736328125 405.20489501953125 411.2535400390625 416.768585205078125 421.615325927734375 425.50634765625 428.35040283203125 429.97467041015625 430.541748046875 430.044830322265625 428.546539306640625 426.11895751953125 423.160064697265625 419.63525390625 415.565887451171875 411.1190185546875 406.400970458984375 401.469879150390625 396.349029541015625 390.864715576171875 385.226959228515625 379.395416259765625 373.361175537109375 367.10565185546875 360.56585693359375 353.87860107421875 346.859039306640625 339.64459228515625 332.22735595703125 324.56915283203125 316.698272705078125 308.63470458984375 300.42474365234375 291.917022705078125 283.24365234375 274.412689208984375 265.421630859375 256.288360595703125 247.0394439697265625 237.5867156982421875 228.0559844970703125 218.4624176025390625 208.78411865234375 199.0534515380859375 189.279083251953125 179.5150909423828125 169.687652587890625 159.9287567138671875 150.221588134765625 -99999 -99999 -99999 -99999 -99999 -99999 -99999 -99999 -99999 -99999 -99999 -99999 -99999 -99999
 -99999 -99999 8.6180372238159179688 19.17650604248046875 29.846406936645507812 40.73128509521484375 51.720897674560546875 62.95902252197265625 74.42662811279296875 86.08974456787109375 98.07849884033203125 110.36367034912109375 123.056243896484375 136.1667938232421875 149.454620361328125 163.1935577392578125 177.184295654296875 191.6600341796875 206.3710174560546875 221.464111328125 236.9760589599609375 252.7613983154296875 268.87738037109375 285.323150634765625 302.0443115234375 318.404388427734375 334.303314208984375 349.679779052734375 363.90228271484375 377.4056396484375 390.20556640625 402.150115966796875 413.6953125 424.77392578125 435.58721923828125 445.55560302734375 452.9326171875 457.905609130859375 458.19561767578125 453.507537841796875 446.230010986328125 437.698028564453125 428.414520263671875 419.101348876953125 410.2666015625 402.009796142578125 396.84210205078125 396.07025146484375 398.692230224609375 401.7034912109375 404.761383056640625 406.6488037109375 405.91363525390625 402.986419677734375 399.47418212890625 396.960418701171875 396.10125732421875 397.954925537109375 401.38531494140625 406.224884033203125 411.866729736328125 417.826934814453125 423.49468994140625 428.7279052734375 433.184539794921875 436.607818603515625 438.970794677734375 440.1650390625 440.3316650390625 439.357666015625 437.5982666015625 434.974334716796875 431.545928955078125 427.419464111328125 422.84295654296875 417.87652587890625 412.559967041015625 407.0194091796875 401.223052978515625 395.0821533203125 388.818389892578125 382.376617431640625 375.782379150390625 368.933746337890625 361.91827392578125 354.81085205078125 347.46917724609375 339.889373779296875 332.167999267578125 324.260162353515625 316.16961669921875 307.95477294921875 299.53955078125 290.91937255859375 282.18487548828125 273.317535400390625 264.27667236328125 255.10113525390625 245.8727569580078125 236.431732177734375 226.958221435546875 217.38995361328125 207.75531005859375 198.0612945556640625 188.4298553466796875 178.6621551513671875 168.951202392578125 159.3207855224609375 -99999 -99999 -99999 -99999 -99999 -99999 -99999 -99999 -99999 -99999 -99999 -99999 -99999 -99999 -99999
 -99999 1.6240799427032470703 12.269328117370605469 22.99475860595703125 33.92193603515625 44.90277099609375 56.070842742919921875 67.46607208251953125 79.07994842529296875 91.0455169677734375 103.28778076171875 115.86548614501953125 128.8792877197265625 142.1864013671875 155.996185302734375 170.0829010009765625 184.5238494873046875 199.250213623046875 214.29339599609375 229.926849365234375 245.6017608642578125 261.714080810546875 278.37091064453125 295.590362548828125 312.677825927734375 329.710357666015625 346.344757080078125 361.913055419921875 376.155792236328125 388.857391357421875 400.540618896484375 411.779022216796875 422.718505859375 433.480621337890625 443.858001708984375 453.181304931640625 461.589019775390625 467.006866455078125 466.213653564453125 460.742431640625 451.689666748046875 441.80120849609375 432.34466552734375 423.25811767578125 415.045806884765625 407.884765625 403.344696044921875 401.820404052734375 403.029632568359375 405.494842529296875 407.757415771484375 409.0030517578125 408.55609130859375 406.048126220703125 403.9237060546875 403.375701904296875 404.900299072265625 408.239898681640625 413.410064697265625 419.2666015625 425.3521728515625 431.307647705078125 436.894012451171875 441.7474365234375 445.631103515625 448.48675537109375 450.40399169921875 451.149261474609375 450.939849853515625 449.62274169921875 447.3419189453125 444.05059814453125 440.180694580078125 435.510772705078125 430.334381103515625 424.735992431640625 418.8323974609375 412.658477783203125 406.072967529296875 399.32342529296875 392.4029541015625 385.410888671875 378.231842041015625 370.864501953125 363.368072509765625 355.8427734375 348.0035400390625 340.13348388671875 332.12762451171875 323.993011474609375 315.692626953125 307.265167236328125 298.7373046875 290.0050048828125 281.17803955078125 272.21661376953125 263.139923095703125 253.9798126220703125 244.7176055908203125 235.30181884765625 225.84033203125 216.3305206298828125 206.763427734375 197.1397247314453125 187.5097198486328125 177.858612060546875 168.2228546142578125 158.5995941162109375 -99999 -99999 -99999 -99999 -99999 -99999 -99999 -99999 -99999 -99999 -99999 -99999 -99999 -99999 -99999
 -99999 4.9872231483459472656 15.716129302978515625 26.740604400634765625 37.615604400634765625 48.7854766845703125 60.101589202880859375 71.6220550537109375 83.48644256591796875 95.58697509765625 107.96805572509765625 120.90987396240234375 134.1240692138671875 147.7801666259765625 161.864959716796875 176.206695556640625 190.939483642578125 205.9867095947265625 221.59368896484375 237.1317596435546875 253.1272735595703125 269.510589599609375 286.47235107421875 304.132659912109375 322.032958984375 340.014556884765625 357.14697265625 373.179473876953125 387.552947998046875 399.5372314453125 410.270843505859375 420.348602294921875 430.025665283203125 440.0933837890625 449.97296142578125 459.40521240234375 468.1339111328125 474.5611572265625 474.3570556640625 467.436187744140625 457.699371337890625 447.848480224609375 438.313995361328125 429.4130859375 421.476959228515625 414.920745849609375 410.67584228515625 409.070343017578125 409.323394775390625 410.622772216796875 412.0814208984375 412.719635009765625 412.39825439453125 411.09844970703125 410.444854736328125 411.172698974609375 414.15814208984375 419.6046142578125 426.4246826171875 433.00750732421875 439.461334228515625 445.64886474609375 450.784912109375 455.219085693359375 458.716461181640625 461.212646484375 462.687774658203125 462.925628662109375 461.9388427734375 460.184051513671875 457.3453369140625 453.474334716796875 448.891845703125 443.680816650390625 437.983551025390625 431.71893310546875 425.01544189453125 418.064849853515625 410.84344482421875 403.547760009765625 395.9981689453125 388.29388427734375 380.48809814453125 372.6446533203125 364.7869873046875 356.75567626953125 348.550811767578125 340.37945556640625 332.079010009765625 323.660614013671875 315.154754638671875 306.61834716796875 297.889312744140625 289.056488037109375 280.149322509765625 271.14703369140625 262.034820556640625 252.8454132080078125 243.5575103759765625 234.181488037109375 224.7685089111328125 215.27935791015625 205.73126220703125 196.1921844482421875 186.6783599853515625 177.0340576171875 167.4585723876953125 -99999 -99999 -99999 -99999 -99999 -99999 -99999 -99999 -99999 -99999 -99999 -99999 -99999 -99999 -99999 -99999
 -99999 8.1855440139770507812 19.062847137451171875 30.0488433837890625 41.19297027587890625 52.45203399658203125 63.835079193115234375 75.48253631591796875 87.41048431396484375 99.5579833984375 112.28125 125.13880157470703125 138.5351715087890625 152.55682373046875 166.7491302490234375 181.56500244140625 196.6113739013671875 212.046600341796875 227.6002960205078125 243.3482818603515625 259.288330078125 275.76641845703125 293.1156005859375 310.941864013671875 329.587371826171875 348.4150390625 367.358184814453125 383.616790771484375 397.542449951171875 408.84716796875 418.146759033203125 426.601409912109375 435.5008544921875 444.906829833984375 454.190643310546875 463.198638916015625 471.433074951171875 477.53839111328125 477.87353515625 471.65625 463.38470458984375 454.0867919921875 444.774444580078125 436.26953125 429.000030517578125 422.78179931640625 419.01959228515625 417.062957763671875 416.57269287109375 417.0535888671875 417.815277099609375 418.53167724609375 418.397735595703125 418.339447021484375 418.890716552734375 420.392181396484375 424.2720947265625 432.089080810546875 440.06256103515625 447.477020263671875 454.106536865234375 460.011962890625 464.975128173828125 469.239166259765625 472.41845703125 474.4432373046875 475.173248291015625 475.000152587890625 473.525238037109375 470.961822509765625 467.44390869140625 463.028472900390625 457.928192138671875 451.997802734375 445.392181396484375 438.383148193359375 431.091156005859375 423.56597900390625 415.567291259765625 407.4345703125 399.20196533203125 391.020294189453125 382.750732421875 374.333831787109375 365.904296875 357.472137451171875 349.007476806640625 340.46978759765625 331.906402587890625 323.2855224609375 314.59332275390625 305.87060546875 296.9842529296875 288.08685302734375 279.117767333984375 270.03662109375 260.887847900390625 251.7117919921875 242.418365478515625 233.039886474609375 223.6459503173828125 214.2199249267578125 204.7381134033203125 195.234954833984375 185.7129669189453125 176.1904449462890625 166.7024993896484375 -99999 -99999 -99999 -99999 -99999 -99999 -99999 -99999 -99999 -99999 -99999 -99999 -99999 -99999 -99999 -99999
 -99999 11.198984146118164062 22.173374176025390625 33.299900054931640625 44.540699005126953125 55.805633544921875 67.421356201171875 78.9459075927734375 90.88916015625 103.0532989501953125 115.66576385498046875 128.8629608154296875 142.4432525634765625 156.5063629150390625 171.1205596923828125 186.1281890869140625 201.4378509521484375 217.053985595703125 232.726898193359375 248.5892333984375 264.395416259765625 280.786956787109375 297.527587890625 315.75311279296875 335.146453857421875 355.351898193359375 375.122955322265625 392.77398681640625 406.986785888671875 417.7095947265625 424.83673095703125 431.490264892578125 439.7293701171875 448.475433349609375 457.267547607421875 465.663238525390625 473.208831787109375 478.195587158203125 478.633087158203125 474.411529541015625 467.356964111328125 459.174041748046875 451.0672607421875 443.44091796875 436.52520751953125 431.2374267578125 427.508636474609375 425.317901611328125 424.332550048828125 424.424224853515625 425.12652587890625 425.633026123046875 426.121917724609375 427.09039306640625 428.938079833984375 431.727386474609375 437.9713134765625 446.374053955078125 454.7271728515625 462.099456787109375 468.56060791015625 474.31982421875 479.299224853515625 483.391448974609375 486.087249755859375 487.773284912109375 488.03643798828125 487.072601318359375 484.960601806640625 481.9033203125 477.787078857421875 472.64996337890625 466.636383056640625 459.93951416015625 452.771240234375 445.132293701171875 436.9007568359375 428.44744873046875 419.838287353515625 411.162933349609375 402.400726318359375 393.44097900390625 384.507476806640625 375.709991455078125 366.94097900390625 358.0909423828125 349.2232666015625 340.388397216796875 331.57940673828125 322.746307373046875 313.8939208984375 305.056396484375 296.0556640625 287.04290771484375 277.99627685546875 268.876739501953125 259.70703125 250.511810302734375 241.210662841796875 231.8843536376953125 222.5177459716796875 213.09832763671875 203.6598663330078125 194.250640869140625 184.7912750244140625 175.3147125244140625 -99999 -99999 -99999 -99999 -99999 -99999 -99999 -99999 -99999 -99999 -99999 -99999 -99999 -99999 -99999 -99999 -99999
 -99999 14.02642822265625 25.272125244140625 36.324993133544921875 47.594974517822265625 58.8856658935546875 70.36724090576171875 82.012847900390625 93.8870697021484375 106.0308685302734375 118.68738555908203125 131.7618255615234375 145.3745880126953125 159.776885986328125 174.52130126953125 189.7298431396484375 205.4978790283203125 221.252471923828125 237.1942291259765625 252.775726318359375 268.56927490234375 283.912322998046875 300.405059814453125 318.10333251953125 337.77520751953125 359.51898193359375 381.654388427734375 400.747100830078125 415.257415771484375 425.618377685546875 431.02606201171875 435.868011474609375 443.507049560546875 451.769287109375 460.063079833984375 467.52459716796875 473.791900634765625 478.012359619140625 478.465606689453125 475.489227294921875 470.42181396484375 463.87860107421875 456.6007080078125 449.934356689453125 444.135284423828125 439.349761962890625 435.9356689453125 433.594696044921875 432.740386962890625 432.629486083984375 433.159454345703125 433.967529296875 435.4029541015625 437.553070068359375 440.309173583984375 445.40966796875 452.087646484375 460.50048828125 469.157562255859375 476.197174072265625 482.39031982421875 488.2235107421875 493.11468505859375 497.132232666015625 499.726593017578125 500.872314453125 500.650238037109375 499.2147216796875 496.602508544921875 492.832763671875 487.978485107421875 482.0689697265625 475.326141357421875 467.8863525390625 459.8111572265625 451.15423583984375 442.3126220703125 433.225250244140625 423.864471435546875 414.330108642578125 404.8995361328125 395.51861572265625 386.1448974609375 376.794830322265625 367.528411865234375 358.34759521484375 349.2313232421875 340.178924560546875 331.15692138671875 322.078277587890625 313.05035400390625 304.05859375 294.97198486328125 285.90020751953125 276.805145263671875 267.645111083984375 258.453094482421875 249.283538818359375 239.957489013671875 230.6458892822265625 221.3246917724609375 211.977996826171875 202.5769195556640625 193.236175537109375 183.7728729248046875 174.38641357421875 -99999 -99999 -99999 -99999 -99999 -99999 -99999 -99999 -99999 -99999 -99999 -99999 -99999 -99999 -99999 -99999 -99999
 -99999 16.69417572021484375 27.858739852905273438 39.08902740478515625 50.4096832275390625 61.7115936279296875 73.20676422119140625 84.70269012451171875 96.46474456787109375 108.588134765625 120.93359375 134.07562255859375 147.8749847412109375 162.0034942626953125 177.0867462158203125 192.6375885009765625 208.599945068359375 224.34051513671875 240.535430908203125 256.50146484375 271.681671142578125 286.305755615234375 301.102813720703125 317.884490966796875 338.034027099609375 360.077667236328125 384.69561767578125 406.196197509765625 420.722412109375 430.448455810546875 436.295623779296875 440.739044189453125 447.46295166015625 454.654022216796875 462.025146484375 468.74932861328125 474.227081298828125 477.54193115234375 478.38134765625 476.352294921875 472.69036865234375 467.26812744140625 461.605499267578125 456.2669677734375 451.134552001953125 447.032684326171875 444.026336669921875 441.988250732421875 441.20098876953125 441.26318359375 441.85125732421875 443.282684326171875 445.395660400390625 448.204010009765625 452.366973876953125 458.05706787109375 465.019256591796875 473.187103271484375 481.660400390625 488.57574462890625 494.899078369140625 501.001739501953125 506.476043701171875 510.357147216796875 512.89404296875 513.690185546875 512.84722900390625 510.7783203125 507.65863037109375 503.284698486328125 497.57342529296875 491.00140380859375 483.5966796875 475.43316650390625 466.39959716796875 457.00616455078125 447.3734130859375 437.299591064453125 427.211273193359375 417.156402587890625 407.09991455078125 397.079071044921875 387.16705322265625 377.4549560546875 367.89947509765625 358.318572998046875 348.888458251953125 339.590728759765625 330.356964111328125 321.16082763671875 312.04107666015625 302.95709228515625 293.764984130859375 284.631561279296875 275.488739013671875 266.307373046875 257.132659912109375 247.912109375 238.6400604248046875 229.3698883056640625 220.072235107421875 210.7326507568359375 201.4044342041015625 192.102874755859375 182.7394866943359375 173.414337158203125 -99999 -99999 -99999 -99999 -99999 -99999 -99999 -99999 -99999 -99999 -99999 -99999 -99999 -99999 -99999 -99999 -99999
 -99999 19.08455657958984375 30.417974472045898438 41.63727569580078125 52.9628448486328125 64.37200927734375 75.58985137939453125 87.02181243896484375 98.5991363525390625 110.33895111083984375 122.65827178955078125 135.480194091796875 149.0554046630859375 163.5814971923828125 178.7660369873046875 194.27337646484375 210.136688232421875 226.9591522216796875 243.708465576171875 259.443389892578125 274.474029541015625 287.66107177734375 300.96160888671875 316.19622802734375 335.064453125 357.987213134765625 384.5262451171875 406.031463623046875 421.56884765625 431.260101318359375 438.340728759765625 444.286773681640625 450.32305908203125 456.995269775390625 463.5853271484375 469.47235107421875 474.160858154296875 477.351043701171875 478.05181884765625 477.08624267578125 474.500823974609375 470.2950439453125 466.05267333984375 461.7047119140625 457.612884521484375 454.17462158203125 451.643218994140625 450.274932861328125 449.606719970703125 449.7410888671875 450.749481201171875 452.750030517578125 455.29193115234375 459.086395263671875 463.858123779296875 469.8094482421875 477.08685302734375 485.222991943359375 492.752838134765625 499.80853271484375 506.579864501953125 513.0855712890625 518.74957275390625 523.1094970703125 525.06585693359375 525.48126220703125 524.40362548828125 521.857177734375 517.9605712890625 512.94683837890625 506.8299560546875 499.754791259765625 491.392486572265625 482.239105224609375 472.46258544921875 462.213409423828125 451.622161865234375 440.790435791015625 430.01641845703125 419.20220947265625 408.592376708984375 398.1124267578125 387.785675048828125 377.57208251953125 367.650421142578125 357.872100830078125 348.23614501953125 338.761322021484375 329.4078369140625 320.031829833984375 310.789093017578125 301.571868896484375 292.380950927734375 283.212982177734375 274.042510986328125 264.853515625 255.6595001220703125 246.4749755859375 237.2198486328125 227.9922332763671875 218.736053466796875 209.4652252197265625 200.18792724609375 190.955169677734375 181.61981201171875 -99999 -99999 -99999 -99999 -99999 -99999 -99999 -99999 -99999 -99999 -99999 -99999 -99999 -99999 -99999 -99999 -99999 -99999
 -99999 21.423460006713867188 32.63756561279296875 43.950714111328125 55.26590728759765625 66.51949310302734375 77.81151580810546875 89.06655120849609375 100.28324127197265625 111.85174560546875 123.578460693359375 136.174530029296875 149.741180419921875 164.0206298828125 179.4063720703125 195.5177459716796875 211.3994598388671875 227.89129638671875 244.7868499755859375 262.301513671875 277.675994873046875 290.32989501953125 300.76806640625 313.2685546875 332.718597412109375 354.537353515625 379.467529296875 401.566070556640625 417.920074462890625 429.54632568359375 438.2926025390625 445.146087646484375 451.78515625 458.150360107421875 464.205291748046875 469.656646728515625 473.983612060546875 476.839080810546875 478.089111328125 477.6397705078125 475.911834716796875 473.158294677734375 469.89874267578125 466.55322265625 463.3499755859375 460.566925048828125 458.89923095703125 457.78448486328125 457.637115478515625 458.144805908203125 459.72967529296875 462.06903076171875 465.197357177734375 469.394622802734375 474.483001708984375 480.888763427734375 487.81561279296875 495.37005615234375 503.15777587890625 510.5133056640625 517.6376953125 524.27996826171875 530.27191162109375 534.73748779296875 536.77850341796875 536.1280517578125 534.3277587890625 531.49163818359375 527.4542236328125 522.1712646484375 515.338623046875 507.36199951171875 498.3634033203125 488.395355224609375 477.839141845703125 466.595062255859375 455.11517333984375 443.499298095703125 431.987762451171875 420.590057373046875 409.345367431640625 398.344268798828125 387.63177490234375 377.187530517578125 367.013153076171875 356.9090576171875 347.10693359375 337.4730224609375 327.95391845703125 318.57220458984375 309.296173095703125 300.083892822265625 290.79791259765625 281.618377685546875 272.435577392578125 263.254547119140625 254.122467041015625 244.9305267333984375 235.7064666748046875 226.508270263671875 217.2991180419921875 208.0779876708984375 198.90435791015625 189.637847900390625 180.4263916015625 -99999 -99999 -99999 -99999 -99999 -99999 -99999 -99999 -99999 -99999 -99999 -99999 -99999 -99999 -99999 -99999 -99999 -99999
 -99999 -99999 34.560337066650390625 45.96685791015625 57.316669464111328125 68.74160003662109375 79.75739288330078125 90.86013031005859375 101.80474090576171875 112.6428985595703125 124.05687713623046875 136.06842041015625 149.0796966552734375 163.742431640625 179.3314971923828125 195.0881805419921875 210.8522491455078125 227.4705810546875 245.7335662841796875 263.913726806640625 279.86273193359375 292.895233154296875 303.36175537109375 314.525177001953125 331.5352783203125 353.052947998046875 376.082855224609375 396.2601318359375 413.226837158203125 425.7281494140625 435.779144287109375 444.174407958984375 451.434326171875 457.96612548828125 464.113006591796875 469.2366943359375 473.434967041015625 476.429931640625 477.925689697265625 478.127227783203125 477.203857421875 475.28375244140625 473.22015380859375 470.73095703125 468.4150390625 466.663543701171875 465.509735107421875 465.038330078125 465.17919921875 466.277435302734375 468.1298828125 470.803863525390625 474.421142578125 478.86248779296875 484.20184326171875 490.564727783203125 497.670013427734375 505.0684814453125 512.5736083984375 520.09130859375 527.18927001953125 534.28765869140625 540.73699951171875 544.73016357421875 545.352294921875 544.71881103515625 542.9500732421875 540.03875732421875 536.00616455078125 530.20489501953125 523.004638671875 514.3408203125 504.590667724609375 493.682220458984375 482.057586669921875 469.94500732421875 457.663818359375 445.310638427734375 432.89276123046875 420.96612548828125 409.267791748046875 397.867889404296875 386.794769287109375 375.967498779296875 365.6202392578125 355.46368408203125 345.534423828125 335.79248046875 326.267120361328125 316.8388671875 307.517669677734375 298.211578369140625 288.995880126953125 279.821807861328125 270.658538818359375 261.499176025390625 252.371002197265625 243.1942291259765625 234.059814453125 224.9304656982421875 215.77978515625 206.5933380126953125 197.4534759521484375 188.300811767578125 -99999 -99999 -99999 -99999 -99999 -99999 -99999 -99999 -99999 -99999 -99999 -99999 -99999 -99999 -99999 -99999 -99999 -99999 -99999
 -99999 -99999 36.28295135498046875 47.690746307373046875 59.02093505859375 70.38189697265625 81.535736083984375 92.50113677978515625 103.1457977294921875 113.43611907958984375 123.96209716796875 135.2046966552734375 147.7352752685546875 162.38385009765625 178.507781982421875 195.1586456298828125 210.1166229248046875 224.51312255859375 243.3844757080078125 263.399139404296875 279.70458984375 293.750152587890625 304.376617431640625 317.0272216796875 333.426025390625 352.20233154296875 372.4276123046875 391.42236328125 407.8656005859375 421.77386474609375 432.966461181640625 442.07037353515625 449.95184326171875 456.890655517578125 462.991546630859375 468.1859130859375 472.490020751953125 475.56121826171875 477.572113037109375 478.406341552734375 478.226409912109375 477.334564208984375 476.0267333984375 474.613739013671875 473.09930419921875 472.102630615234375 471.491729736328125 471.443328857421875 472.16046142578125 473.7113037109375 475.856719970703125 478.926513671875 482.904205322265625 487.54388427734375 492.95928955078125 499.48095703125 506.1171875 513.33966064453125 520.9051513671875 528.1715087890625 535.23309326171875 541.9478759765625 547.65167236328125 551.37939453125 551.87847900390625 551.095947265625 549.506103515625 546.7071533203125 542.67828369140625 536.83203125 529.302734375 520.3099365234375 509.406890869140625 497.7039794921875 485.401153564453125 472.3438720703125 459.036712646484375 445.80279541015625 432.970855712890625 420.327789306640625 408.109527587890625 396.396331787109375 385.099517822265625 374.205963134765625 363.73089599609375 353.42156982421875 343.42657470703125 333.752105712890625 324.16864013671875 314.706817626953125 305.44757080078125 296.183746337890625 286.97747802734375 277.837158203125 268.693756103515625 259.57568359375 250.5349884033203125 241.4244842529296875 232.298736572265625 223.2021636962890625 214.1038970947265625 205.0306243896484375 196.0281524658203125 186.8423309326171875 -99999 -99999 -99999 -99999 -99999 -99999 -99999 -99999 -99999 -99999 -99999 -99999 -99999 -99999 -99999 -99999 -99999 -99999 -99999
 -99999 -99999 37.520900726318359375 49.02530670166015625 60.49590301513671875 72.0181121826171875 83.065460205078125 94.050079345703125 104.5658111572265625 114.48107147216796875 124.17560577392578125 133.966094970703125 145.53570556640625 160.051666259765625 177.2475738525390625 195.02435302734375 209.44378662109375 222.8777618408203125 240.978759765625 260.773773193359375 277.700775146484375 291.73211669921875 305.23358154296875 318.735870361328125 333.751220703125 351.7427978515625 370.10693359375 387.971405029296875 403.818450927734375 417.70989990234375 429.2994384765625 438.97393798828125 447.529449462890625 455.000823974609375 461.4371337890625 466.788055419921875 471.364227294921875 474.6756591796875 477.0030517578125 478.460540771484375 478.9715576171875 478.9903564453125 478.413543701171875 477.69830322265625 477.090087890625 476.796295166015625 476.803558349609375 477.349212646484375 478.59771728515625 480.47064208984375 482.98486328125 486.36395263671875 490.419464111328125 495.233184814453125 500.68072509765625 506.910003662109375 513.5098876953125 520.53082275390625 527.6363525390625 534.72845458984375 541.28753662109375 547.43145751953125 552.35308837890625 555.2200927734375 556.19989013671875 555.50335693359375 554.04351806640625 552.0430908203125 548.437744140625 542.540771484375 534.6824951171875 524.78570556640625 513.3525390625 500.675750732421875 487.039764404296875 473.01983642578125 459.092559814453125 445.11907958984375 431.52850341796875 418.58935546875 406.093719482421875 394.084014892578125 382.58489990234375 371.602935791015625 361.098541259765625 350.83697509765625 340.912139892578125 331.21697998046875 321.73162841796875 312.378173828125 303.148773193359375 293.875 284.7235107421875 275.636627197265625 266.55694580078125 257.49603271484375 248.46728515625 239.388214111328125 230.4004364013671875 221.41644287109375 212.36370849609375 203.3138427734375 194.3270263671875 -99999 -99999 -99999 -99999 -99999 -99999 -99999 -99999 -99999 -99999 -99999 -99999 -99999 -99999 -99999 -99999 -99999 -99999 -99999 -99999
 -99999 -99999 38.52716064453125 49.97374725341796875 61.40648651123046875 72.75539398193359375 84.2996673583984375 95.48028564453125 105.95542144775390625 115.67775726318359375 124.31906890869140625 132.8702239990234375 142.372467041015625 156.989410400390625 174.7531280517578125 193.3277587890625 208.97540283203125 223.1078643798828125 239.97491455078125 258.099334716796875 275.06396484375 290.129058837890625 304.359619140625 319.085418701171875 334.395233154296875 351.11627197265625 367.80242919921875 384.2701416015625 399.61712646484375 413.415618896484375 425.27490234375 435.76953125 444.7408447265625 452.440460205078125 459.109527587890625 465.057403564453125 469.622955322265625 473.383453369140625 476.258392333984375 478.234527587890625 479.395111083984375 480.125732421875 480.380889892578125 480.508941650390625 480.6009521484375 480.928558349609375 481.492431640625 482.620391845703125 484.2242431640625 486.416748046875 489.2525634765625 492.79534912109375 497.019378662109375 501.8980712890625 507.281890869140625 513.36199951171875 519.73651123046875 526.37164306640625 533.11474609375 539.72412109375 545.71044921875 551.3031005859375 555.33935546875 558.17864990234375 559.27655029296875 558.93389892578125 557.73968505859375 556.07763671875 552.90301513671875 546.63995361328125 538.32611083984375 527.76995849609375 515.80059814453125 501.847686767578125 487.5130615234375 472.66815185546875 457.63873291015625 443.159759521484375 429.017547607421875 415.5426025390625 402.827972412109375 390.7406005859375 379.209686279296875 368.2716064453125 357.8836669921875 347.66522216796875 337.915008544921875 328.390045166015625 318.951873779296875 309.614837646484375 300.487579345703125 291.3463134765625 282.27593994140625 273.25396728515625 264.225921630859375 255.231475830078125 246.3605499267578125 237.3388214111328125 228.366180419921875 219.4023895263671875 210.4651336669921875 201.5639495849609375 192.6530914306640625 -99999 -99999 -99999 -99999 -99999 -99999 -99999 -99999 -99999 -99999 -99999 -99999 -99999 -99999 -99999 -99999 -99999 -99999 -99999 -99999
 -99999 -99999 38.981174468994140625 50.362293243408203125 61.86869049072265625 73.41602325439453125 85.10016632080078125 96.452880859375 107.39308929443359375 117.18392181396484375 125.54877471923828125 132.7687530517578125 141.243988037109375 155.0711517333984375 172.227783203125 190.2136383056640625 207.1327667236328125 222.4295806884765625 238.9176788330078125 255.797271728515625 272.654815673828125 288.307159423828125 303.460113525390625 318.52166748046875 333.810882568359375 349.814849853515625 365.95306396484375 381.573211669921875 396.2447509765625 409.57757568359375 421.50616455078125 432.275177001953125 441.594512939453125 449.70855712890625 456.80657958984375 462.803558349609375 467.85186767578125 471.998748779296875 475.262786865234375 477.861053466796875 479.6343994140625 480.9656982421875 481.9329833984375 482.63720703125 483.504852294921875 484.426177978515625 485.457000732421875 487.09515380859375 489.1239013671875 491.601409912109375 494.670745849609375 498.4339599609375 502.580596923828125 507.422607421875 512.7789306640625 518.52789306640625 524.613037109375 530.885498046875 537.030029296875 543.08294677734375 548.5677490234375 553.55322265625 557.349365234375 559.86102294921875 561.05914306640625 561.2353515625 560.64111328125 559.31817626953125 554.8843994140625 548.61614990234375 540.2760009765625 529.40802001953125 516.03985595703125 501.531982421875 485.782073974609375 470.037750244140625 454.617431640625 439.398284912109375 424.970245361328125 411.326324462890625 398.408050537109375 386.334320068359375 374.99127197265625 364.1395263671875 354.015594482421875 344.1181640625 334.48516845703125 325.0450439453125 315.788543701171875 306.68505859375 297.649017333984375 288.57464599609375 279.5830078125 270.66204833984375 261.733489990234375 252.8398284912109375 243.946441650390625 235.0303955078125 226.20440673828125 217.3702545166015625 208.4732208251953125 199.6198577880859375 190.7495574951171875 -99999 -99999 -99999 -99999 -99999 -99999 -99999 -99999 -99999 -99999 -99999 -99999 -99999 -99999 -99999 -99999 -99999 -99999 -99999 -99999
 -99999 -99999 -99999 50.271915435791015625 61.694316864013671875 73.20771026611328125 85.040283203125 96.988983154296875 108.12917327880859375 118.12148284912109375 126.7886505126953125 134.648040771484375 143.1612548828125 155.9041900634765625 171.766387939453125 188.4908447265625 205.2815704345703125 221.4691162109375 237.983612060546875 254.365875244140625 270.798126220703125 286.812103271484375 302.219207763671875 317.3021240234375 332.97418212890625 348.41741943359375 363.775115966796875 378.61785888671875 392.805145263671875 406.09979248046875 418.095977783203125 428.732757568359375 438.168975830078125 446.583587646484375 454.031585693359375 460.24432373046875 465.716461181640625 470.2218017578125 474.086761474609375 477.04364013671875 479.510040283203125 481.446014404296875 483.037445068359375 484.369537353515625 485.799896240234375 487.28460693359375 488.810333251953125 490.862396240234375 493.209747314453125 495.82745361328125 499.204986572265625 502.9794921875 507.136505126953125 511.968170166015625 517.03924560546875 522.5096435546875 528.239013671875 534.10943603515625 539.8895263671875 545.3599853515625 550.2462158203125 554.73260498046875 558.0654296875 560.68096923828125 561.736572265625 562.00946044921875 561.152587890625 559.00555419921875 554.85858154296875 548.47125244140625 540.368896484375 528.6246337890625 514.4173583984375 498.67169189453125 482.45361328125 465.87548828125 449.698028564453125 434.143096923828125 419.349700927734375 405.576507568359375 392.920013427734375 381.07476806640625 369.912994384765625 359.499664306640625 349.628143310546875 339.9210205078125 330.601318359375 321.511016845703125 312.44140625 303.3961181640625 294.527923583984375 285.592041015625 276.7305908203125 267.8931884765625 259.029388427734375 250.2274017333984375 241.5389404296875 232.677978515625 223.88238525390625 215.102752685546875 206.341339111328125 197.6189727783203125 -99999 -99999 -99999 -99999 -99999 -99999 -99999 -99999 -99999 -99999 -99999 -99999 -99999 -99999 -99999 -99999 -99999 -99999 -99999 -99999 -99999
 -99999 -99999 -99999 49.649448394775390625 60.79668426513671875 72.36498260498046875 84.24310302734375 96.25934600830078125 107.9824981689453125 118.01219940185546875 126.85378265380859375 135.4852447509765625 145.386962890625 157.566192626953125 172.140472412109375 188.054473876953125 204.39874267578125 220.6772003173828125 236.45355224609375 253.3001556396484375 269.438751220703125 285.273773193359375 301.084197998046875 316.4329833984375 331.56329345703125 346.63385009765625 361.48736572265625 375.9781494140625 389.8787841796875 402.533447265625 414.2288818359375 425.137237548828125 434.8475341796875 443.55078125 451.029693603515625 457.79034423828125 463.505218505859375 468.35821533203125 472.647247314453125 476.098052978515625 479.05059814453125 481.553253173828125 483.783660888671875 485.66619873046875 487.569732666015625 489.529632568359375 491.55938720703125 493.926177978515625 496.575897216796875 499.520599365234375 502.911590576171875 506.798004150390625 511.011749267578125 515.5003662109375 520.4224853515625 525.7197265625 530.87652587890625 536.23223876953125 541.3338623046875 546.32281494140625 550.6861572265625 554.4876708984375 557.422119140625 559.5284423828125 560.45391845703125 560.62249755859375 559.78765869140625 556.9803466796875 552.5394287109375 546.80328369140625 538.69287109375 526.3021240234375 510.227569580078125 493.7091064453125 476.582733154296875 459.430328369140625 442.790924072265625 427.134033203125 412.382904052734375 398.786346435546875 386.11968994140625 374.63262939453125 364.1705322265625 354.138397216796875 344.7977294921875 335.515594482421875 326.527130126953125 317.594390869140625 308.709747314453125 299.99395751953125 291.218963623046875 282.394927978515625 273.674713134765625 264.9619140625 256.210723876953125 247.5266571044921875 238.7974090576171875 230.1141815185546875 221.4738922119140625 212.801300048828125 204.0977020263671875 195.5335235595703125 -99999 -99999 -99999 -99999 -99999 -99999 -99999 -99999 -99999 -99999 -99999 -99999 -99999 -99999 -99999 -99999 -99999 -99999 -99999 -99999 -99999
 -99999 -99999 -99999 48.7978363037109375 59.786525726318359375 70.98294830322265625 82.93640899658203125 94.94140625 106.3934326171875 117.03682708740234375 126.90790557861328125 136.718780517578125 147.14642333984375 159.3529510498046875 173.149627685546875 188.254150390625 204.1142120361328125 219.8629150390625 236.22216796875 252.1845855712890625 268.23699951171875 284.058563232421875 299.52337646484375 314.822662353515625 330.137359619140625 344.799896240234375 359.26519775390625 373.23760986328125 386.556121826171875 399.297271728515625 411.106475830078125 421.759307861328125 431.684906005859375 440.2652587890625 447.995330810546875 454.931671142578125 461.013427734375 466.396240234375 470.95123291015625 474.910430908203125 478.354339599609375 481.266204833984375 483.935302734375 486.421630859375 488.76617431640625 491.075958251953125 493.546295166015625 496.2232666015625 499.065032958984375 502.16912841796875 505.723114013671875 509.472808837890625 513.5738525390625 518.06036376953125 522.5286865234375 527.40692138671875 532.31298828125 537.10467529296875 541.78173828125 546.1185302734375 549.7783203125 553.13824462890625 555.60211181640625 557.443603515625 557.8958740234375 557.36444091796875 555.59942626953125 552.5665283203125 548.064208984375 542.037109375 532.607177734375 519.03515625 502.7294921875 485.859710693359375 468.4669189453125 450.999267578125 434.50494384765625 418.539459228515625 403.719451904296875 390.350860595703125 378.338714599609375 367.602264404296875 357.718292236328125 348.40625 339.537872314453125 330.773681640625 322.05645751953125 313.53759765625 304.9635009765625 296.34796142578125 287.82196044921875 279.076324462890625 270.446685791015625 261.83447265625 253.2022247314453125 244.60150146484375 236.022613525390625 227.4380645751953125 218.8820648193359375 210.3137664794921875 201.7733917236328125 -99999 -99999 -99999 -99999 -99999 -99999 -99999 -99999 -99999 -99999 -99999 -99999 -99999 -99999 -99999 -99999 -99999 -99999 -99999 -99999 -99999 -99999
 -99999 -99999 -99999 -99999 58.806133270263671875 70.11978912353515625 81.8159942626953125 93.61217498779296875 105.21100616455078125 116.145599365234375 126.6061859130859375 137.146728515625 148.522216796875 160.8717193603515625 174.18487548828125 188.6701507568359375 204.095855712890625 220.0226898193359375 236.004180908203125 251.4676361083984375 267.24798583984375 282.95867919921875 298.05657958984375 313.2615966796875 328.1636962890625 342.943756103515625 357.03582763671875 370.780975341796875 383.877655029296875 396.24072265625 407.869537353515625 418.368988037109375 427.99365234375 436.916778564453125 445.021728515625 452.201873779296875 458.432403564453125 464.130615234375 469.05267333984375 473.31304931640625 477.209381103515625 480.70025634765625 483.690093994140625 486.625091552734375 489.40631103515625 492.0250244140625 494.870391845703125 497.73907470703125 500.753662109375 504.01904296875 507.535980224609375 511.324188232421875 515.362548828125 519.47515869140625 523.7685546875 528.32568359375 532.61102294921875 536.9488525390625 541.00994873046875 544.7557373046875 547.96868896484375 550.56512451171875 552.3309326171875 553.31878662109375 553.34381103515625 552.13690185546875 549.9588623046875 546.13604736328125 540.44970703125 532.72900390625 522.5167236328125 508.434661865234375 492.65411376953125 476.009368896484375 458.40582275390625 440.963043212890625 423.978790283203125 408.2701416015625 393.700164794921875 381.09393310546875 370.02734375 360.05255126953125 350.939666748046875 342.316558837890625 334.032073974609375 325.8673095703125 317.7698974609375 309.45257568359375 301.035858154296875 292.564605712890625 284.11566162109375 275.5882568359375 267.087158203125 258.561065673828125 250.0317535400390625 241.651336669921875 233.079803466796875 224.6525115966796875 216.1913909912109375 207.70648193359375 199.2685089111328125 -99999 -99999 -99999 -99999 -99999 -99999 -99999 -99999 -99999 -99999 -99999 -99999 -99999 -99999 -99999 -99999 -99999 -99999 -99999 -99999 -99999 -99999
 -99999 -99999 -99999 -99999 -99999 69.47582244873046875 80.98697662353515625 92.78444671630859375 104.0001068115234375 115.584014892578125 126.67014312744140625 137.85498046875 149.6613006591796875 162.12841796875 175.7145233154296875 189.956024169921875 204.9798583984375 220.0496826171875 235.391082763671875 251.1826171875 266.46783447265625 281.6572265625 296.86749267578125 311.865936279296875 326.382568359375 340.60809326171875 354.486572265625 367.964324951171875 380.914520263671875 392.904571533203125 404.31182861328125 414.960601806640625 424.81622314453125 433.711639404296875 441.8592529296875 449.138275146484375 455.85888671875 461.737548828125 466.968414306640625 471.758575439453125 475.86993408203125 479.690460205078125 483.17706298828125 486.3782958984375 489.463165283203125 492.55694580078125 495.504638671875 498.62445068359375 501.869720458984375 505.108154296875 508.683929443359375 512.27764892578125 516.125732421875 520.09332275390625 523.98345947265625 528.1177978515625 532.06719970703125 535.81866455078125 539.25225830078125 542.40966796875 544.90496826171875 546.99310302734375 548.20849609375 548.3739013671875 547.7406005859375 545.999755859375 542.73333740234375 537.83184814453125 531.4281005859375 522.6915283203125 511.085968017578125 497.446624755859375 481.678497314453125 464.922882080078125 447.21453857421875 429.536895751953125 412.737274169921875 397.021209716796875 383.279052734375 371.400238037109375 361.0401611328125 351.988861083984375 343.843475341796875 336.3624267578125 328.915679931640625 321.2596435546875 313.28509521484375 305.295318603515625 297.123291015625 288.837310791015625 280.462310791015625 271.980743408203125 263.573211669921875 255.149078369140625 246.7403106689453125 238.3819580078125 229.985931396484375 221.658905029296875 213.356048583984375 205.0316619873046875 -99999 -99999 -99999 -99999 -99999 -99999 -99999 -99999 -99999 -99999 -99999 -99999 -99999 -99999 -99999 -99999 -99999 -99999 -99999 -99999 -99999 -99999 -99999
 -99999 -99999 -99999 -99999 -99999 -99999 -99999 92.1656494140625 103.98891448974609375 115.64493560791015625 127.2288360595703125 138.74810791015625 150.883087158203125 163.5739288330078125 176.8846282958984375 190.953277587890625 205.3269805908203125 220.2579345703125 235.36981201171875 250.7281341552734375 265.66461181640625 280.644989013671875 295.598541259765625 310.198760986328125 324.599334716796875 338.487274169921875 352.273956298828125 365.328887939453125 377.90655517578125 389.897552490234375 401.1552734375 411.678436279296875 421.424102783203125 430.435821533203125 438.73614501953125 446.257415771484375 453.115020751953125 459.156036376953125 464.697479248046875 469.6663818359375 474.238800048828125 478.33624267578125 482.14971923828125 485.757293701171875 489.117431640625 492.381683349609375 495.67144775390625 498.84173583984375 502.108062744140625 505.46002197265625 508.95306396484375 512.53125 516.1348876953125 519.8189697265625 523.44384765625 527.15545654296875 530.53631591796875 533.85076904296875 536.779296875 539.2427978515625 541.2056884765625 542.46343994140625 542.8250732421875 542.34161376953125 540.87811279296875 538.3172607421875 534.083740234375 528.2528076171875 520.94122314453125 511.322296142578125 499.348358154296875 485.31585693359375 469.7327880859375 452.765869140625 435.113800048828125 417.3658447265625 400.4285888671875 385.457061767578125 372.173919677734375 360.88226318359375 351.684326171875 344.261993408203125 337.5321044921875 330.7896728515625 323.93536376953125 316.683135986328125 309.221527099609375 301.4298095703125 293.228485107421875 284.930938720703125 276.663299560546875 268.27362060546875 259.963165283203125 251.5951690673828125 243.267181396484375 235.0587921142578125 226.8272247314453125 218.660736083984375 210.4152374267578125 202.1779937744140625 -99999 -99999 -99999 -99999 -99999 -99999 -99999 -99999 -99999 -99999 -99999 -99999 -99999 -99999 -99999 -99999 -99999 -99999 -99999 -99999 -99999 -99999 -99999
 -99999 -99999 -99999 -99999 -99999 -99999 -99999 -99999 -99999 115.815185546875 127.599578857421875 139.6950836181640625 151.91400146484375 164.68359375 177.9893798828125 191.821685791015625 206.0772857666015625 220.6250152587890625 235.3134613037109375 250.12493896484375 264.933441162109375 279.72857666015625 294.308197021484375 308.628753662109375 322.7431640625 336.45526123046875 349.831878662109375 362.699005126953125 375.079986572265625 386.7886962890625 397.94219970703125 408.453216552734375 418.0965576171875 427.16204833984375 435.4697265625 443.142852783203125 450.08612060546875 456.44537353515625 462.234344482421875 467.53961181640625 472.302093505859375 476.6986083984375 480.808349609375 484.5889892578125 488.164337158203125 491.69696044921875 495.063934326171875 498.458526611328125 501.857818603515625 505.166229248046875 508.60845947265625 512.05322265625 515.4188232421875 518.87921142578125 522.1163330078125 525.43109130859375 528.39178466796875 531.07818603515625 533.32489013671875 535.275146484375 536.40081787109375 537.0413818359375 536.8824462890625 535.73785400390625 533.369140625 529.76953125 524.86541748046875 518.3057861328125 510.115020751953125 499.764251708984375 487.5518798828125 473.44512939453125 457.6334228515625 440.56121826171875 422.928619384765625 405.288543701171875 388.88739013671875 374.086090087890625 361.079498291015625 350.80633544921875 343.123138427734375 337.015899658203125 331.477203369140625 325.91754150390625 319.77142333984375 312.8526611328125 305.31036376953125 297.46417236328125 289.345245361328125 281.13568115234375 272.802703857421875 264.42877197265625 256.140472412109375 247.885986328125 239.7625885009765625 231.6162567138671875 223.4814453125 215.4291839599609375 207.3843536376953125 -99999 -99999 -99999 -99999 -99999 -99999 -99999 -99999 -99999 -99999 -99999 -99999 -99999 -99999 -99999 -99999 -99999 -99999 -99999 -99999 -99999 -99999 -99999 -99999
 -99999 -99999 -99999 -99999 -99999 -99999 -99999 -99999 -99999 -99999 128.3498382568359375 140.436492919921875 152.8556671142578125 165.654815673828125 178.9273223876953125 192.5494232177734375 206.6055908203125 220.7284393310546875 235.2426300048828125 249.631378173828125 264.313446044921875 278.74847412109375 293.13775634765625 307.120849609375 320.84881591796875 334.302947998046875 347.42913818359375 360.1162109375 372.123809814453125 383.811920166015625 394.719085693359375 405.0728759765625 414.82012939453125 423.93194580078125 432.238861083984375 439.965057373046875 447.085113525390625 453.58367919921875 459.53851318359375 465.020355224609375 470.11474609375 474.6925048828125 479.050872802734375 483.148193359375 486.900604248046875 490.5643310546875 494.120574951171875 497.524261474609375 500.90478515625 504.250701904296875 507.51873779296875 510.79278564453125 513.9912109375 517.083740234375 520.01422119140625 522.88958740234375 525.3609619140625 527.6160888671875 529.42547607421875 530.62286376953125 531.3009033203125 531.20849609375 530.17279052734375 528.2340087890625 525.2357177734375 520.97943115234375 515.4263916015625 508.054168701171875 499.027618408203125 488.2496337890625 475.81976318359375 461.556488037109375 445.806732177734375 428.925079345703125 411.5914306640625 394.34527587890625 378.252593994140625 363.649169921875 350.605438232421875 340.769622802734375 334.844757080078125 331.006103515625 326.847747802734375 322.01446533203125 316.055938720703125 309.273223876953125 301.7838134765625 293.828582763671875 285.50384521484375 277.130279541015625 268.741241455078125 260.43658447265625 252.2147979736328125 244.0427703857421875 235.9595947265625 227.9849395751953125 220.103057861328125 212.1976165771484375 204.2324371337890625 -99999 -99999 -99999 -99999 -99999 -99999 -99999 -99999 -99999 -99999 -99999 -99999 -99999 -99999 -99999 -99999 -99999 -99999 -99999 -99999 -99999 -99999 -99999 -99999
 -99999 -99999 -99999 -99999 -99999 -99999 -99999 -99999 -99999 -99999 -99999 -99999 153.8520965576171875 166.6646728515625 179.7987518310546875 193.281097412109375 207.1624603271484375 221.12127685546875 235.177154541015625 249.315277099609375 263.58416748046875 277.71917724609375 291.867919921875 305.587646484375 318.887939453125 332.201812744140625 344.988616943359375 357.377685546875 369.258209228515625 380.755462646484375 391.62078857421875 401.8359375 411.5982666015625 420.617462158203125 428.949554443359375 436.697662353515625 443.963958740234375 450.652801513671875 456.828094482421875 462.490142822265625 467.676849365234375 472.52374267578125 476.992706298828125 481.169036865234375 485.2144775390625 488.905670166015625 492.5135498046875 496.003570556640625 499.39508056640625 502.63739013671875 505.88055419921875 508.994537353515625 511.91534423828125 514.751708984375 517.412353515625 519.8150634765625 521.876220703125 523.476318359375 524.7413330078125 525.33221435546875 525.4776611328125 524.7603759765625 523.05438232421875 520.5826416015625 516.88165283203125 511.839935302734375 505.39923095703125 497.662872314453125 488.4635009765625 477.440338134765625 464.592529296875 450.462493896484375 435.010711669921875 418.493133544921875 401.761627197265625 385.022216796875 369.167694091796875 354.35443115234375 340.488800048828125 332.286407470703125 329.200103759765625 327.56927490234375 324.452667236328125 319.603515625 313.23681640625 306.30084228515625 298.3856201171875 290.1085205078125 281.5589599609375 273.008697509765625 264.568267822265625 256.272308349609375 248.0760650634765625 240.0090484619140625 232.12579345703125 224.297454833984375 216.529815673828125 208.780975341796875 -99999 -99999 -99999 -99999 -99999 -99999 -99999 -99999 -99999 -99999 -99999 -99999 -99999 -99999 -99999 -99999 -99999 -99999 -99999 -99999 -99999 -99999 -99999 -99999 -99999
 -99999 -99999 -99999 -99999 -99999 -99999 -99999 -99999 -99999 -99999 -99999 -99999 -99999 -99999 180.5688323974609375 193.9271240234375 207.54608154296875 221.187408447265625 234.829437255859375 248.9918212890625 262.90826416015625 276.662017822265625 290.3851318359375 303.725311279296875 317.147430419921875 330.159210205078125 342.624298095703125 354.816650390625 366.54534912109375 377.834869384765625 388.508270263671875 398.610382080078125 408.106292724609375 417.0833740234375 425.54364013671875 433.482421875 440.725372314453125 447.4266357421875 453.7789306640625 459.575469970703125 464.911041259765625 469.934173583984375 474.5841064453125 478.92974853515625 482.99798583984375 486.872772216796875 490.5577392578125 494.05023193359375 497.419158935546875 500.60223388671875 503.651702880859375 506.593017578125 509.2896728515625 511.837493896484375 514.05889892578125 516.1409912109375 517.7596435546875 518.9300537109375 519.7115478515625 519.857177734375 519.24200439453125 517.8525390625 515.86181640625 512.4886474609375 508.152923583984375 502.70751953125 496.035888671875 487.974853515625 478.28369140625 467.02325439453125 454.142364501953125 440.19354248046875 425.15997314453125 409.48468017578125 393.342437744140625 377.058624267578125 361.929046630859375 347.59564208984375 334.839569091796875 328.172393798828125 328.724212646484375 326.983795166015625 323.281158447265625 317.93939208984375 311.23486328125 303.24542236328125 295.1275634765625 286.311004638671875 277.435150146484375 268.875579833984375 260.11865234375 251.832855224609375 243.7490234375 235.97674560546875 228.1450347900390625 220.509979248046875 212.9569244384765625 205.3468780517578125 -99999 -99999 -99999 -99999 -99999 -99999 -99999 -99999 -99999 -99999 -99999 -99999 -99999 -99999 -99999 -99999 -99999 -99999 -99999 -99999 -99999 -99999 -99999 -99999 -99999
 -99999 -99999 -99999 -99999 -99999 -99999 -99999 -99999 -99999 -99999 -99999 -99999 -99999 -99999 -99999 194.4294281005859375 207.7877655029296875 221.141204833984375 234.8550872802734375 248.4807586669921875 262.04986572265625 275.68695068359375 289.003082275390625 302.240966796875 315.182403564453125 327.74163818359375 340.143096923828125 352.027618408203125 363.6597900390625 374.6634521484375 385.16748046875 395.2236328125 404.850250244140625 413.814666748046875 422.163116455078125 429.997833251953125 437.36993408203125 444.280426025390625 450.6192626953125 456.506561279296875 462.023284912109375 467.1278076171875 471.85650634765625 476.336334228515625 480.498199462890625 484.404296875 488.0802001953125 491.535064697265625 494.829803466796875 497.958953857421875 500.883697509765625 503.647430419921875 506.116912841796875 508.330780029296875 510.3575439453125 511.965362548828125 513.25994873046875 513.98638916015625 514.1492919921875 513.77044677734375 512.69622802734375 510.933685302734375 508.2261962890625 504.445709228515625 499.6666259765625 493.82269287109375 486.705230712890625 478.143341064453125 468.215667724609375 456.9951171875 444.638702392578125 431.21417236328125 416.86419677734375 401.7724609375 386.521636962890625 371.538299560546875 357.598480224609375 345.027374267578125 335.679168701171875 331.594268798828125 329.487518310546875 327.295684814453125 323.075775146484375 316.98516845703125 309.3385009765625 300.60791015625 291.477874755859375 282.172454833984375 272.83197021484375 263.9246826171875 255.4007720947265625 247.162139892578125 239.18060302734375 231.461639404296875 224.0211639404296875 216.622772216796875 209.228515625 -99999 -99999 -99999 -99999 -99999 -99999 -99999 -99999 -99999 -99999 -99999 -99999 -99999 -99999 -99999 -99999 -99999 -99999 -99999 -99999 -99999 -99999 -99999 -99999 -99999 -99999
 -99999 -99999 -99999 -99999 -99999 -99999 -99999 -99999 -99999 -99999 -99999 -99999 -99999 -99999 -99999 -99999 -99999 221.2435455322265625 234.7399444580078125 247.9122772216796875 261.2943115234375 274.577178955078125 287.57159423828125 300.4932861328125 313.265106201171875 325.765533447265625 337.769287109375 349.448516845703125 360.75799560546875 371.660003662109375 382.12420654296875 392.002227783203125 401.342071533203125 410.322174072265625 418.7369384765625 426.64288330078125 433.953155517578125 440.96173095703125 447.28839111328125 453.225433349609375 458.7955322265625 464.009002685546875 468.856597900390625 473.363372802734375 477.595611572265625 481.492279052734375 485.187774658203125 488.65478515625 491.893585205078125 494.877471923828125 497.698883056640625 500.2064208984375 502.470733642578125 504.368011474609375 506.055877685546875 507.318634033203125 508.22283935546875 508.5667724609375 508.301788330078125 507.580169677734375 506.088409423828125 503.658294677734375 500.445831298828125 496.40216064453125 491.364501953125 485.034698486328125 477.52386474609375 468.924346923828125 459.211639404296875 448.2283935546875 436.039337158203125 423.087158203125 409.398162841796875 395.211639404296875 381.07757568359375 367.515411376953125 354.837982177734375 343.94036865234375 336.4659423828125 331.805938720703125 329.84747314453125 328.155303955078125 322.581146240234375 315.08319091796875 306.543182373046875 297.166473388671875 287.289947509765625 277.25030517578125 267.607666015625 258.546600341796875 250.2043304443359375 242.05743408203125 234.436859130859375 226.99249267578125 219.8116455078125 212.716552734375 205.5720672607421875 -99999 -99999 -99999 -99999 -99999 -99999 -99999 -99999 -99999 -99999 -99999 -99999 -99999 -99999 -99999 -99999 -99999 -99999 -99999 -99999 -99999 -99999 -99999 -99999 -99999 -99999
 -99999 -99999 -99999 -99999 -99999 -99999 -99999 -99999 -99999 -99999 -99999 -99999 -99999 -99999 -99999 -99999 -99999 -99999 -99999 247.33282470703125 260.478302001953125 273.23760986328125 286.163970947265625 298.93841552734375 311.28521728515625 323.388763427734375 335.194122314453125 346.81787109375 357.951995849609375 368.63323974609375 378.786163330078125 388.706329345703125 398.077789306640625 406.848052978515625 415.14019775390625 423.032470703125 430.431610107421875 437.296875 443.766632080078125 449.832366943359375 455.46771240234375 460.626983642578125 465.565093994140625 470.11114501953125 474.373199462890625 478.31170654296875 481.99505615234375 485.32196044921875 488.559173583984375 491.391448974609375 493.975341796875 496.31787109375 498.409423828125 500.0540771484375 501.50726318359375 502.507293701171875 502.93377685546875 502.944000244140625 502.3104248046875 500.996002197265625 499.1431884765625 496.46270751953125 492.9859619140625 488.43511962890625 482.942596435546875 476.504364013671875 469.0118408203125 460.316192626953125 450.64373779296875 439.87481689453125 428.2950439453125 415.9342041015625 402.938690185546875 389.8226318359375 376.692718505859375 364.235076904296875 353.094940185546875 343.4188232421875 336.41363525390625 331.785064697265625 328.248046875 324.462249755859375 319.277740478515625 311.5560302734375 302.6705322265625 292.428192138671875 282.0997314453125 271.857421875 262.055450439453125 252.9373626708984375 244.39227294921875 236.8470306396484375 229.523529052734375 222.5039825439453125 215.6049652099609375 208.7672271728515625 -99999 -99999 -99999 -99999 -99999 -99999 -99999 -99999 -99999 -99999 -99999 -99999 -99999 -99999 -99999 -99999 -99999 -99999 -99999 -99999 -99999 -99999 -99999 -99999 -99999 -99999 -99999
 -99999 -99999 -99999 -99999 -99999 -99999 -99999 -99999 -99999 -99999 -99999 -99999 -99999 -99999 -99999 -99999 -99999 -99999 -99999 -99999 -99999 272.123321533203125 284.700714111328125 297.03955078125 309.2725830078125 321.181549072265625 332.83929443359375 344.12335205078125 355.00909423828125 365.51971435546875 375.675079345703125 385.308990478515625 394.47283935546875 403.284332275390625 411.650726318359375 419.481689453125 426.818359375 433.654388427734375 440.169189453125 446.209625244140625 451.85650634765625 457.20599365234375 462.03662109375 466.5736083984375 470.85247802734375 474.725006103515625 478.32659912109375 481.710662841796875 484.743408203125 487.5098876953125 490.031890869140625 492.181793212890625 494.019256591796875 495.5450439453125 496.54241943359375 497.135223388671875 497.31591796875 497.1058349609375 496.036834716796875 494.459686279296875 492.299896240234375 489.205535888671875 485.292694091796875 480.575592041015625 475.00555419921875 468.327728271484375 460.759368896484375 452.210479736328125 442.739593505859375 432.2569580078125 421.121856689453125 409.343414306640625 397.024261474609375 384.80706787109375 372.70489501953125 361.46539306640625 351.09686279296875 342.123504638671875 335.201690673828125 329.60491943359375 324.86505126953125 320.246612548828125 314.092071533203125 306.200042724609375 296.527435302734375 286.672882080078125 276.18658447265625 265.43463134765625 255.5542755126953125 246.504119873046875 238.422607421875 231.3129119873046875 224.5354156494140625 218.003692626953125 211.505584716796875 204.9485015869140625 -99999 -99999 -99999 -99999 -99999 -99999 -99999 -99999 -99999 -99999 -99999 -99999 -99999 -99999 -99999 -99999 -99999 -99999 -99999 -99999 -99999 -99999 -99999 -99999 -99999 -99999 -99999
 -99999 -99999 -99999 -99999 -99999 -99999 -99999 -99999 -99999 -99999 -99999 -99999 -99999 -99999 -99999 -99999 -99999 -99999 -99999 -99999 -99999 -99999 283.24371337890625 295.36224365234375 307.208984375 318.795989990234375 330.238922119140625 341.3472900390625 352.089080810546875 362.408935546875 372.36016845703125 381.97442626953125 391.127105712890625 399.743560791015625 408.00115966796875 415.667633056640625 422.973175048828125 429.902313232421875 436.36810302734375 442.407958984375 448.0740966796875 453.3377685546875 458.253448486328125 462.81134033203125 467.0418701171875 470.931304931640625 474.574127197265625 477.745697021484375 480.7623291015625 483.368896484375 485.657958984375 487.578857421875 489.336090087890625 490.425262451171875 491.29095458984375 491.717071533203125 491.609283447265625 490.899658203125 489.735809326171875 487.815460205078125 485.2137451171875 481.927978515625 477.863616943359375 472.966766357421875 467.12469482421875 460.44866943359375 452.90625 444.44403076171875 435.144622802734375 425.125030517578125 414.34765625 403.19024658203125 391.835357666015625 380.325958251953125 369.018463134765625 358.373443603515625 348.847381591796875 340.195220947265625 332.729888916015625 326.676483154296875 320.91668701171875 314.966888427734375 308.09271240234375 299.5733642578125 290.305145263671875 280.43475341796875 269.384674072265625 258.259674072265625 248.3311920166015625 240.1294097900390625 232.5157012939453125 226.1569671630859375 219.834930419921875 213.716156005859375 207.5554046630859375 -99999 -99999 -99999 -99999 -99999 -99999 -99999 -99999 -99999 -99999 -99999 -99999 -99999 -99999 -99999 -99999 -99999 -99999 -99999 -99999 -99999 -99999 -99999 -99999 -99999 -99999 -99999 -99999
 -99999 -99999 -99999 -99999 -99999 -99999 -99999 -99999 -99999 -99999 -99999 -99999 -99999 -99999 -99999 -99999 -99999 -99999 -99999 -99999 -99999 -99999 -99999 -99999 305.203338623046875 316.527313232421875 327.815399169921875 338.64959716796875 349.170684814453125 359.350433349609375 369.1348876953125 378.542877197265625 387.466583251953125 395.977508544921875 404.144683837890625 411.878509521484375 419.218109130859375 425.997589111328125 432.449554443359375 438.5008544921875 444.153472900390625 449.3765869140625 454.273468017578125 458.7965087890625 462.99468994140625 466.7816162109375 470.290283203125 473.474365234375 476.348785400390625 478.829864501953125 481.050018310546875 482.876556396484375 484.2613525390625 485.368988037109375 485.899505615234375 485.98602294921875 485.58990478515625 484.683380126953125 483.28265380859375 481.134979248046875 478.335601806640625 474.789337158203125 470.49676513671875 465.41790771484375 459.523834228515625 452.88916015625 445.384979248046875 437.133941650390625 428.07647705078125 418.485198974609375 408.23486328125 397.531463623046875 386.616668701171875 375.712799072265625 365.365234375 355.36376953125 346.054656982421875 337.635345458984375 329.8843994140625 322.841583251953125 316.364532470703125 309.3631591796875 301.50018310546875 293.130889892578125 283.3809814453125 272.94580078125 261.85595703125 250.3729248046875 240.9042205810546875 233.24749755859375 226.756317138671875 221.1208953857421875 215.4202423095703125 209.7534332275390625 203.88409423828125 -99999 -99999 -99999 -99999 -99999 -99999 -99999 -99999 -99999 -99999 -99999 -99999 -99999 -99999 -99999 -99999 -99999 -99999 -99999 -99999 -99999 -99999 -99999 -99999 -99999 -99999 -99999 -99999
 -99999 -99999 -99999 -99999 -99999 -99999 -99999 -99999 -99999 -99999 -99999 -99999 -99999 -99999 -99999 -99999 -99999 -99999 -99999 -99999 -99999 -99999 -99999 -99999 -99999 -99999 325.021392822265625 335.809722900390625 346.156463623046875 356.037139892578125 365.68585205078125 374.959930419921875 383.85601806640625 392.315765380859375 400.35223388671875 407.941986083984375 415.129669189453125 422.014404296875 428.400146484375 434.447601318359375 440.026031494140625 445.20794677734375 450.0689697265625 454.569610595703125 458.70172119140625 462.4833984375 465.94525146484375 469.007110595703125 471.819183349609375 474.1787109375 476.108734130859375 477.728302001953125 479.014862060546875 479.87457275390625 480.20379638671875 480.143341064453125 479.6234130859375 478.39288330078125 476.646148681640625 474.278564453125 471.458648681640625 467.715118408203125 463.1824951171875 458.11614990234375 452.199249267578125 445.5870361328125 438.118194580078125 430.14019775390625 421.459625244140625 411.9527587890625 402.15045166015625 392.056365966796875 381.897308349609375 371.57403564453125 361.53594970703125 351.88818359375 342.786285400390625 334.323333740234375 326.39923095703125 318.657470703125 311.308441162109375 303.508636474609375 295.18408203125 286.051422119140625 276.043121337890625 265.42254638671875 253.9647979736328125 242.3692779541015625 233.93658447265625 227.7615966796875 222.0150299072265625 216.782928466796875 211.5101776123046875 206.1333160400390625 -99999 -99999 -99999 -99999 -99999 -99999 -99999 -99999 -99999 -99999 -99999 -99999 -99999 -99999 -99999 -99999 -99999 -99999 -99999 -99999 -99999 -99999 -99999 -99999 -99999 -99999 -99999 -99999 -99999
 -99999 -99999 -99999 -99999 -99999 -99999 -99999 -99999 -99999 -99999 -99999 -99999 -99999 -99999 -99999 -99999 -99999 -99999 -99999 -99999 -99999 -99999 -99999 -99999 -99999 -99999 -99999 332.788909912109375 342.85626220703125 352.820220947265625 362.308013916015625 371.4027099609375 380.10418701171875 388.436431884765625 396.430816650390625 404.017608642578125 411.116790771484375 417.82757568359375 424.236846923828125 430.191131591796875 435.715484619140625 440.903350830078125 445.75286865234375 450.14349365234375 454.223785400390625 457.940826416015625 461.28570556640625 464.239990234375 466.91656494140625 469.13787841796875 471.044189453125 472.5274658203125 473.63702392578125 474.320953369140625 474.51019287109375 474.1661376953125 473.3128662109375 472.00946044921875 470.091461181640625 467.6270751953125 464.422027587890625 460.57733154296875 456.17193603515625 451.08660888671875 445.204132080078125 438.631591796875 431.259857177734375 423.260406494140625 414.831756591796875 405.9149169921875 396.48272705078125 386.775238037109375 377.040069580078125 367.166839599609375 357.571044921875 348.235870361328125 339.288330078125 330.697021484375 322.459930419921875 314.49932861328125 305.997802734375 297.98114013671875 289.0501708984375 279.513824462890625 269.464691162109375 258.769622802734375 247.6217803955078125 237.642852783203125 229.7271270751953125 223.28887939453125 217.9255523681640625 213.127410888671875 208.307159423828125 203.2720794677734375 -99999 -99999 -99999 -99999 -99999 -99999 -99999 -99999 -99999 -99999 -99999 -99999 -99999 -99999 -99999 -99999 -99999 -99999 -99999 -99999 -99999 -99999 -99999 -99999 -99999 -99999 -99999 -99999 -99999
 -99999 -99999 -99999 -99999 -99999 -99999 -99999 -99999 -99999 -99999 -99999 -99999 -99999 -99999 -99999 -99999 -99999 -99999 -99999 -99999 -99999 -99999 -99999 -99999 -99999 -99999 -99999 -99999 -99999 349.529937744140625 358.805908203125 367.76556396484375 376.35919189453125 384.639923095703125 392.4107666015625 399.849639892578125 406.984710693359375 413.695831298828125 419.8880615234375 425.77923583984375 431.328216552734375 436.412109375 441.1373291015625 445.51824951171875 449.56103515625 453.173126220703125 456.451995849609375 459.37933349609375 461.918731689453125 464.0078125 465.732940673828125 467.089630126953125 467.981475830078125 468.516632080078125 468.5386962890625 468.0142822265625 467.09613037109375 465.5955810546875 463.477081298828125 460.799560546875 457.529998779296875 453.6968994140625 449.158538818359375 443.916748046875 438.005828857421875 431.5609130859375 424.532745361328125 416.82110595703125 408.55908203125 399.88238525390625 390.892242431640625 381.664337158203125 372.230926513671875 362.81353759765625 353.480804443359375 344.337738037109375 335.398651123046875 326.75860595703125 318.429168701171875 309.963623046875 301.29437255859375 292.34967041015625 283.34027099609375 273.883636474609375 263.90032958984375 253.4831695556640625 243.4685211181640625 234.11163330078125 226.23565673828125 219.9284515380859375 214.969818115234375 210.436279296875 205.6842498779296875 -99999 -99999 -99999 -99999 -99999 -99999 -99999 -99999 -99999 -99999 -99999 -99999 -99999 -99999 -99999 -99999 -99999 -99999 -99999 -99999 -99999 -99999 -99999 -99999 -99999 -99999 -99999 -99999 -99999 -99999
 -99999 -99999 -99999 -99999 -99999 -99999 -99999 -99999 -99999 -99999 -99999 -99999 -99999 -99999 -99999 -99999 -99999 -99999 -99999 -99999 -99999 -99999 -99999 -99999 -99999 -99999 -99999 -99999 -99999 -99999 -99999 364.10418701171875 372.49749755859375 380.638580322265625 388.403167724609375 395.74761962890625 402.75384521484375 409.322723388671875 415.47967529296875 421.28082275390625 426.742706298828125 431.77081298828125 436.482818603515625 440.765869140625 444.791839599609375 448.277130126953125 451.427764892578125 454.18756103515625 456.654937744140625 458.694976806640625 460.27313232421875 461.516021728515625 462.328765869140625 462.6199951171875 462.610565185546875 461.92169189453125 460.73974609375 459.104705810546875 456.92510986328125 454.214385986328125 450.818572998046875 446.81854248046875 442.243743896484375 437.094757080078125 431.35565185546875 424.921875 417.93017578125 410.465301513671875 402.5679931640625 394.18829345703125 385.47186279296875 376.568359375 367.45880126953125 358.33526611328125 349.21307373046875 340.254913330078125 331.411834716796875 322.765838623046875 314.11419677734375 305.3984375 296.725921630859375 287.759307861328125 278.4412841796875 268.90191650390625 259.1993408203125 249.1938934326171875 239.6512603759765625 230.9059600830078125 223.845001220703125 217.8699493408203125 212.712677001953125 208.237823486328125 203.6574859619140625 -99999 -99999 -99999 -99999 -99999 -99999 -99999 -99999 -99999 -99999 -99999 -99999 -99999 -99999 -99999 -99999 -99999 -99999 -99999 -99999 -99999 -99999 -99999 -99999 -99999 -99999 -99999 -99999 -99999 -99999
 -99999 -99999 -99999 -99999 -99999 -99999 -99999 -99999 -99999 -99999 -99999 -99999 -99999 -99999 -99999 -99999 -99999 -99999 -99999 -99999 -99999 -99999 -99999 -99999 -99999 -99999 -99999 -99999 -99999 -99999 -99999 -99999 -99999 -99999 -99999 -99999 -99999 -99999 -99999 416.736572265625 422.08770751953125 427.024261474609375 431.624176025390625 435.871368408203125 439.70391845703125 443.140228271484375 446.263763427734375 448.993438720703125 451.300384521484375 453.17626953125 454.7164306640625 455.7789306640625 456.413848876953125 456.632171630859375 456.421051025390625 455.628753662109375 454.388824462890625 452.6800537109375 450.338043212890625 447.4959716796875 444.082000732421875 440.147979736328125 435.574188232421875 430.442230224609375 424.649932861328125 418.429351806640625 411.68499755859375 404.34747314453125 396.5860595703125 388.52386474609375 380.09423828125 371.47406005859375 362.665435791015625 353.79974365234375 344.941650390625 336.09259033203125 327.319427490234375 318.651824951171875 309.89031982421875 301.202362060546875 292.3101806640625 283.25042724609375 274.127532958984375 264.71832275390625 255.028289794921875 245.6904144287109375 236.8009185791015625 228.9601898193359375 221.881805419921875 215.778045654296875 210.65277099609375 206.2392425537109375 -99999 -99999 -99999 -99999 -99999 -99999 -99999 -99999 -99999 -99999 -99999 -99999 -99999 -99999 -99999 -99999 -99999 -99999 -99999 -99999 -99999 -99999 -99999 -99999 -99999 -99999 -99999 -99999 -99999 -99999 -99999
 -99999 -99999 -99999 -99999 -99999 -99999 -99999 -99999 -99999 -99999 -99999 -99999 -99999 -99999 -99999 -99999 -99999 -99999 -99999 -99999 -99999 -99999 -99999 -99999 -99999 -99999 -99999 -99999 -99999 -99999 -99999 -99999 -99999 -99999 -99999 -99999 -99999 -99999 -99999 -99999 -99999 -99999 -99999 -99999 -99999 -99999 440.9466552734375 443.533660888671875 445.755767822265625 447.629119873046875 448.942779541015625 449.94781494140625 450.47076416015625 450.597808837890625 450.22601318359375 449.45855712890625 448.012664794921875 446.15045166015625 443.813720703125 440.924591064453125 437.462371826171875 433.423431396484375 428.91290283203125 423.846710205078125 418.20855712890625 412.041351318359375 405.388427734375 398.337677001953125 390.89312744140625 383.04730224609375 374.814544677734375 366.44647216796875 357.924072265625 349.30157470703125 340.5689697265625 331.8541259765625 323.291259765625 314.53070068359375 -99999 -99999 -99999 -99999 -99999 -99999 -99999 -99999 -99999 -99999 -99999 -99999 -99999 -99999 -99999 -99999 -99999 -99999 -99999 -99999 -99999 -99999 -99999 -99999 -99999 -99999 -99999 -99999 -99999 -99999 -99999 -99999 -99999 -99999 -99999 -99999 -99999 -99999 -99999 -99999 -99999 -99999 -99999 -99999 -99999
 -99999 -99999 -99999 -99999 -99999 -99999 -99999 -99999 -99999 -99999 -99999 -99999 -99999 -99999 -99999 -99999 -99999 -99999 -99999 -99999 -99999 -99999 -99999 -99999 -99999 -99999 -99999 -99999 -99999 -99999 -99999 -99999 -99999 -99999 -99999 -99999 -99999 -99999 -99999 -99999 -99999 -99999 -99999 -99999 -99999 -99999 -99999 -99999 -99999 -99999 -99999 -99999 -99999 -99999 443.990142822265625 443.147430419921875 441.639373779296875 439.701019287109375 437.3037109375 434.329803466796875 430.875885009765625 426.906005859375 422.387481689453125 417.323211669921875 411.801239013671875 -99999 -99999 -99999 -99999 -99999 -99999 -99999 -99999 -99999 -99999 -99999 -99999 -99999 -99999 -99999 -99999 -99999 -99999 -99999 -99999 -99999 -99999 -99999 -99999 -99999 -99999 -99999 -99999 -99999 -99999 -99999 -99999 -99999 -99999 -99999 -99999 -99999 -99999 -99999 -99999 -99999 -99999 -99999 -99999 -99999 -99999 -99999 -99999 -99999 -99999 -99999 -99999 -99999 -99999 -99999 -99999 -99999 -99999
