ncols        127
nrows        98
xllcorner    210896.761122183612
yllcorner    8947317.961928261444
cellsize     50.000000000000
NODATA_value  -99999
 -99999.0 -99999 -99999 -99999 -99999 -99999 -99999 -99999 -99999 -99999 -99999 -99999 -99999 -99999 -99999 -99999 -99999 -99999 -99999 -99999 -99999 -99999 -99999 -99999 -99999 -99999 -99999 -99999 -99999 -99999 -99999 -99999 -99999 -99999 -99999 -99999 -99999 -99999 -99999 -99999 -99999 -99999 -99999 -99999 -99999 -99999 -99999 -99999 -99999 -99999 -99999 -99999 -99999 -99999 -99999 -99999 -99999 -99999 -99999 -99999 -99999 -99999 -99999 -99999 -99999 -99999 -99999 -99999 -99999 -99999 -99999 -99999 -99999 -99999 -99999 -99999 -99999 -99999 -99999 -99999 -99999 -99999 -99999 -99999 -99999 -99999 -99999 -99999 -99999 -99999 -99999 -99999 -99999 -99999 -99999 -99999 -99999 -99999 -99999 -99999 -99999 -99999 -99999 -99999 -99999 -99999 -99999 -99999 -99999 -99999 -99999 -99999 -99999 -99999 -99999 -99999 -99999 -99999 -99999 -99999 -99999 -99999 -99999 -99999 -99999 -99999 -99999
 -99999 -99999 -99999 -99999 -99999 -99999 -99999 -99999 -99999 -99999 -99999 -99999 -99999 -99999 -99999 -99999 -99999 -99999 -99999 -99999 -99999 -99999 -99999 -99999 -99999 -99999 -99999 -99999 -99999 -99999 -99999 -99999 -99999 -99999 -99999 -99999 -99999 -99999 -99999 -99999 -99999 -99999 -99999 -99999 -99999 -1380.18505859375 -1389.37939453125 -1398.153564453125 -1406.472900390625 -1414.17236328125 -1421.4134521484375 -1428.100830078125 -1434.255615234375 -1439.7381591796875 -1444.7464599609375 -1449.0982666015625 -1452.7764892578125 -1455.8150634765625 -1458.292724609375 -1460.104248046875 -1461.1512451171875 -1461.5440673828125 -1461.34423828125 -1460.5816650390625 -1459.21728515625 -1457.43310546875 -1455.2354736328125 -1451.843994140625 -1444.96142578125 -1435.05126953125 -1424.69970703125 -1413.911865234375 -1402.3858642578125 -1389.8104248046875 -1375.88916015625 -1360.82373046875 -1344.980224609375 -1328.7352294921875 -1312.136474609375 -1295.6600341796875 -1279.0792236328125 -1262.7799072265625 -1246.7230224609375 -99999 -99999 -99999 -99999 -99999 -99999 -99999 -99999 -99999 -99999 -99999 -99999 -99999 -99999 -99999 -99999 -99999 -99999 -99999 -99999 -99999 -99999 -99999 -99999 -99999 -99999 -99999 -99999 -99999 -99999 -99999 -99999 -99999 -99999 -99999 -99999 -99999 -99999 -99999 -99999 -99999 -99999 -99999 -99999
 -99999 -99999 -99999 -99999 -99999 -99999 -99999 -99999 -99999 -99999 -99999 -99999 -99999 -99999 -99999 -99999 -99999 -99999 -99999 -99999 -99999 -99999 -99999 -99999 -99999 -99999 -99999 -99999 -99999 -99999 -99999 -99999 -99999 -99999 -99999 -99999 -99999 -99999 -99999 -99999 -99999 -99999 -1345.3472900390625 -1355.9837646484375 -1366.129638671875 -1375.8695068359375 -1385.1309814453125 -1393.91552734375 -1402.2255859375 -1409.8221435546875 -1416.979736328125 -1423.5020751953125 -1429.4345703125 -1434.847412109375 -1439.6612548828125 -1443.9039306640625 -1447.587158203125 -1450.5433349609375 -1452.8526611328125 -1454.5224609375 -1455.66015625 -1456.2049560546875 -1456.1162109375 -1455.4462890625 -1454.40185546875 -1452.829833984375 -1450.686279296875 -1447.032470703125 -1438.19482421875 -1427.1124267578125 -1416.072998046875 -1405.9525146484375 -1395.134033203125 -1382.1873779296875 -1367.532470703125 -1351.7484130859375 -1335.1260986328125 -1318.164306640625 -1301.281005859375 -1284.3221435546875 -1267.58740234375 -1251.210205078125 -1234.9810791015625 -1218.968994140625 -1203.3603515625 -1187.8504638671875 -99999 -99999 -99999 -99999 -99999 -99999 -99999 -99999 -99999 -99999 -99999 -99999 -99999 -99999 -99999 -99999 -99999 -99999 -99999 -99999 -99999 -99999 -99999 -99999 -99999 -99999 -99999 -99999 -99999 -99999 -99999 -99999 -99999 -99999 -99999 -99999 -99999 -99999 -99999 -99999 -99999
 -99999 -99999 -99999 -99999 -99999 -99999 -99999 -99999 -99999 -99999 -99999 -99999 -99999 -99999 -99999 -99999 -99999 -99999 -99999 -99999 -99999 -99999 -99999 -99999 -99999 -99999 -99999 -99999 -99999 -99999 -99999 -99999 -99999 -99999 -99999 -99999 -99999 -99999 -99999 -1307.1490478515625 -1318.6424560546875 -1329.9425048828125 -1340.9791259765625 -1351.7149658203125 -1361.9793701171875 -1371.7314453125 -1380.9888916015625 -1389.6578369140625 -1397.8157958984375 -1405.372314453125 -1412.2943115234375 -1418.6890869140625 -1424.4991455078125 -1429.7235107421875 -1434.2662353515625 -1438.25634765625 -1441.6746826171875 -1444.680908203125 -1446.882080078125 -1448.435791015625 -1449.582275390625 -1450.2109375 -1450.1246337890625 -1449.2996826171875 -1447.9482421875 -1446.223876953125 -1443.3812255859375 -1437.91064453125 -1427.6746826171875 -1415.69482421875 -1406.4285888671875 -1398.3092041015625 -1387.4310302734375 -1373.87109375 -1358.192138671875 -1341.3096923828125 -1323.921875 -1306.58642578125 -1289.224609375 -1271.9820556640625 -1255.2603759765625 -1238.8232421875 -1222.566650390625 -1206.72265625 -1191.0223388671875 -1175.58984375 -1160.4964599609375 -1145.6019287109375 -1130.9833984375 -99999 -99999 -99999 -99999 -99999 -99999 -99999 -99999 -99999 -99999 -99999 -99999 -99999 -99999 -99999 -99999 -99999 -99999 -99999 -99999 -99999 -99999 -99999 -99999 -99999 -99999 -99999 -99999 -99999 -99999 -99999 -99999 -99999 -99999 -99999 -99999 -99999 -99999
 -99999 -99999 -99999 -99999 -99999 -99999 -99999 -99999 -99999 -99999 -99999 -99999 -99999 -99999 -99999 -99999 -99999 -99999 -99999 -99999 -99999 -99999 -99999 -99999 -99999 -99999 -99999 -99999 -99999 -99999 -99999 -99999 -99999 -99999 -99999 -1256.08447265625 -1267.1416015625 -1278.7491455078125 -1290.502197265625 -1302.3477783203125 -1314.1602783203125 -1325.653076171875 -1336.8800048828125 -1347.708984375 -1357.9903564453125 -1367.7537841796875 -1376.92041015625 -1385.535400390625 -1393.554443359375 -1400.9302978515625 -1407.6343994140625 -1413.7880859375 -1419.283203125 -1424.1966552734375 -1428.5643310546875 -1432.342529296875 -1435.5047607421875 -1438.044189453125 -1440.03515625 -1441.534912109375 -1442.4425048828125 -1442.698974609375 -1442.368896484375 -1441.422119140625 -1439.63623046875 -1437.112060546875 -1432.68310546875 -1425.86767578125 -1415.367919921875 -1404.485595703125 -1398.1318359375 -1390.8363037109375 -1380.0516357421875 -1364.7720947265625 -1347.4000244140625 -1329.650146484375 -1311.5731201171875 -1293.709716796875 -1275.9246826171875 -1258.7890625 -1242.0577392578125 -1225.4205322265625 -1209.672119140625 -1193.87109375 -1178.21337890625 -1162.9439697265625 -1147.8424072265625 -1133.0150146484375 -1118.628173828125 -1104.5296630859375 -1090.704833984375 -1077.3123779296875 -99999 -99999 -99999 -99999 -99999 -99999 -99999 -99999 -99999 -99999 -99999 -99999 -99999 -99999 -99999 -99999 -99999 -99999 -99999 -99999 -99999 -99999 -99999 -99999 -99999 -99999 -99999 -99999 -99999 -99999 -99999 -99999 -99999 -99999 -99999
 -99999 -99999 -99999 -99999 -99999 -99999 -99999 -99999 -99999 -99999 -99999 -99999 -99999 -99999 -99999 -99999 -99999 -99999 -99999 -99999 -99999 -99999 -99999 -99999 -99999 -99999 -99999 -99999 -99999 -99999 -99999 -99999 -1220.6583251953125 -1229.5260009765625 -1239.6258544921875 -1250.495849609375 -1262.098388671875 -1273.9197998046875 -1285.9765625 -1298.10009765625 -1310.034423828125 -1321.8177490234375 -1333.0980224609375 -1343.9561767578125 -1354.347900390625 -1363.9644775390625 -1373.131591796875 -1381.540771484375 -1389.2825927734375 -1396.3680419921875 -1402.890625 -1408.6669921875 -1413.9002685546875 -1418.578125 -1422.584716796875 -1425.968017578125 -1428.76513671875 -1431.081298828125 -1432.8406982421875 -1433.93701171875 -1434.447265625 -1434.387451171875 -1433.708251953125 -1432.3927001953125 -1430.0391845703125 -1426.6153564453125 -1421.49755859375 -1414.4102783203125 -1405.5211181640625 -1397.5517578125 -1391.599609375 -1384.5870361328125 -1371.0421142578125 -1353.01318359375 -1334.4139404296875 -1315.8807373046875 -1297.5902099609375 -1279.2998046875 -1261.49169921875 -1244.5789794921875 -1227.9794921875 -1212.0421142578125 -1196.2464599609375 -1180.52001953125 -1165.083251953125 -1149.81396484375 -1134.78759765625 -1120.169677734375 -1105.870361328125 -1091.9049072265625 -1078.3974609375 -1065.1802978515625 -1052.21875 -1039.5799560546875 -1027.2286376953125 -99999 -99999 -99999 -99999 -99999 -99999 -99999 -99999 -99999 -99999 -99999 -99999 -99999 -99999 -99999 -99999 -99999 -99999 -99999 -99999 -99999 -99999 -99999 -99999 -99999 -99999 -99999 -99999 -99999 -99999 -99999 -99999
 -99999 -99999 -99999 -99999 -99999 -99999 -99999 -99999 -99999 -99999 -99999 -99999 -99999 -99999 -99999 -99999 -99999 -99999 -99999 -99999 -99999 -99999 -99999 -99999 -99999 -99999 -99999 -99999 -99999 -99999 -99999 -1207.4112548828125 -1215.3179931640625 -1224.07666015625 -1234.4732666015625 -1245.6497802734375 -1257.415771484375 -1269.5762939453125 -1281.9515380859375 -1294.27587890625 -1306.56884765625 -1318.2955322265625 -1329.814208984375 -1340.6572265625 -1350.8646240234375 -1360.5882568359375 -1369.440185546875 -1377.6351318359375 -1385.1746826171875 -1392.0491943359375 -1398.1041259765625 -1403.6473388671875 -1408.4259033203125 -1412.59716796875 -1416.212890625 -1419.27978515625 -1421.8115234375 -1423.64697265625 -1424.919921875 -1425.63916015625 -1425.824462890625 -1425.4293212890625 -1424.205078125 -1422.18115234375 -1419.316162109375 -1415.375 -1410.2052001953125 -1403.58447265625 -1395.871337890625 -1388.693603515625 -1382.36181640625 -1373.406494140625 -1357.0234375 -1337.53369140625 -1319.0794677734375 -1300.6793212890625 -1282.1072998046875 -1263.720947265625 -1246.206787109375 -1229.4127197265625 -1213.4864501953125 -1197.885986328125 -1182.37060546875 -1166.919677734375 -1151.5565185546875 -1136.3060302734375 -1121.4691162109375 -1106.916015625 -1092.7227783203125 -1079.0982666015625 -1065.76171875 -1052.7711181640625 -1040.21533203125 -1027.8817138671875 -1015.8125 -1003.80224609375 -992.0322265625 -980.34222412109375 -99999 -99999 -99999 -99999 -99999 -99999 -99999 -99999 -99999 -99999 -99999 -99999 -99999 -99999 -99999 -99999 -99999 -99999 -99999 -99999 -99999 -99999 -99999 -99999 -99999 -99999 -99999 -99999 -99999
 -99999 -99999 -99999 -99999 -99999 -99999 -99999 -99999 -99999 -99999 -99999 -99999 -99999 -99999 -99999 -99999 -99999 -99999 -99999 -99999 -99999 -99999 -99999 -99999 -99999 -99999 -99999 -99999 -99999 -99999 -1196.5870361328125 -1202.594482421875 -1210.3321533203125 -1219.747314453125 -1230.044921875 -1241.431884765625 -1253.5367431640625 -1265.84521484375 -1278.5687255859375 -1291.123779296875 -1303.4620361328125 -1315.5164794921875 -1326.84619140625 -1337.7286376953125 -1348.008544921875 -1357.4837646484375 -1366.1014404296875 -1374.0902099609375 -1381.208984375 -1387.5897216796875 -1393.34326171875 -1398.4617919921875 -1402.8914794921875 -1406.52490234375 -1409.7816162109375 -1412.2628173828125 -1414.2142333984375 -1415.6317138671875 -1416.5084228515625 -1416.8023681640625 -1416.3717041015625 -1415.33447265625 -1413.6309814453125 -1411.2310791015625 -1407.984375 -1403.62548828125 -1397.96240234375 -1391.46923828125 -1384.32373046875 -1376.5372314453125 -1367.9552001953125 -1356.027587890625 -1338.5054931640625 -1319.940673828125 -1302.5120849609375 -1284.2647705078125 -1265.3214111328125 -1246.992919921875 -1229.6273193359375 -1213.8128662109375 -1198.6815185546875 -1183.6656494140625 -1168.4840087890625 -1153.1070556640625 -1137.6219482421875 -1122.474609375 -1107.67578125 -1093.1514892578125 -1079.3270263671875 -1065.9654541015625 -1052.89208984375 -1040.348876953125 -1028.13232421875 -1016.1356201171875 -1004.28216552734375 -992.62799072265625 -981.1297607421875 -969.6341552734375 -958.18524169921875 -946.84033203125 -935.466552734375 -99999 -99999 -99999 -99999 -99999 -99999 -99999 -99999 -99999 -99999 -99999 -99999 -99999 -99999 -99999 -99999 -99999 -99999 -99999 -99999 -99999 -99999 -99999 -99999 -99999 -99999
 -99999 -99999 -99999 -99999 -99999 -99999 -99999 -99999 -99999 -99999 -99999 -99999 -99999 -99999 -99999 -99999 -99999 -99999 -99999 -99999 -99999 -99999 -99999 -99999 -99999 -99999 -99999 -99999 -99999 -1188.197021484375 -1192.5302734375 -1198.9615478515625 -1206.8255615234375 -1216.0538330078125 -1226.52587890625 -1238.2254638671875 -1250.359130859375 -1263.112060546875 -1275.888671875 -1288.596923828125 -1301.146240234375 -1313.1243896484375 -1324.6937255859375 -1335.4219970703125 -1345.35498046875 -1354.6488037109375 -1363.054443359375 -1370.583740234375 -1377.4063720703125 -1383.4490966796875 -1388.7357177734375 -1393.2276611328125 -1397.0863037109375 -1400.3463134765625 -1403.0709228515625 -1405.0091552734375 -1406.48681640625 -1407.3480224609375 -1407.568359375 -1407.312255859375 -1406.41796875 -1404.8856201171875 -1402.58935546875 -1399.533447265625 -1395.5968017578125 -1390.645263671875 -1384.77294921875 -1378.025390625 -1370.352783203125 -1361.692138671875 -1350.853759765625 -1337.554931640625 -1320.66845703125 -1303.28076171875 -1285.8438720703125 -1267.2132568359375 -1247.7108154296875 -1228.5458984375 -1212.600830078125 -1198.1175537109375 -1183.9573974609375 -1169.77783203125 -1154.579833984375 -1138.9222412109375 -1123.529052734375 -1108.35009765625 -1093.4583740234375 -1079.328857421875 -1065.7421875 -1052.534912109375 -1039.914794921875 -1027.8067626953125 -1015.90936279296875 -1004.2490234375 -992.82830810546875 -981.55487060546875 -970.29925537109375 -958.95263671875 -947.8604736328125 -936.64208984375 -925.43145751953125 -914.197021484375 -903.00299072265625 -99999 -99999 -99999 -99999 -99999 -99999 -99999 -99999 -99999 -99999 -99999 -99999 -99999 -99999 -99999 -99999 -99999 -99999 -99999 -99999 -99999 -99999 -99999 -99999
 -99999 -99999 -99999 -99999 -99999 -99999 -99999 -99999 -99999 -99999 -99999 -99999 -99999 -99999 -99999 -99999 -99999 -99999 -99999 -99999 -99999 -99999 -99999 -99999 -99999 -99999 -99999 -99999 -1182.6868896484375 -1185.8641357421875 -1190.4259033203125 -1196.4466552734375 -1204.0648193359375 -1213.5177001953125 -1223.8385009765625 -1235.74853515625 -1248.14697265625 -1260.9425048828125 -1273.9798583984375 -1286.86328125 -1299.4044189453125 -1311.58056640625 -1322.9449462890625 -1333.5689697265625 -1343.3690185546875 -1352.4530029296875 -1360.46875 -1367.6566162109375 -1373.933349609375 -1379.3797607421875 -1384.0655517578125 -1388.1171875 -1391.5098876953125 -1394.099853515625 -1396.0699462890625 -1397.477783203125 -1398.335205078125 -1398.6937255859375 -1398.317626953125 -1397.37744140625 -1395.7867431640625 -1393.6265869140625 -1390.837890625 -1387.002197265625 -1382.503662109375 -1377.1083984375 -1370.7523193359375 -1363.5589599609375 -1355.1087646484375 -1345.0936279296875 -1333.197998046875 -1319.25927734375 -1303.0635986328125 -1285.88818359375 -1268.206787109375 -1249.37939453125 -1228.450439453125 -1210.14794921875 -1195.6944580078125 -1183.155029296875 -1170.240234375 -1156.207763671875 -1140.7000732421875 -1124.8284912109375 -1108.98974609375 -1093.5977783203125 -1078.9876708984375 -1065.02099609375 -1051.63525390625 -1038.9656982421875 -1026.861083984375 -1015.08770751953125 -1003.51263427734375 -992.5672607421875 -981.51080322265625 -970.57293701171875 -959.58447265625 -948.61846923828125 -937.6475830078125 -926.59332275390625 -915.51220703125 -904.36846923828125 -893.310302734375 -882.21014404296875 -871.1126708984375 -99999 -99999 -99999 -99999 -99999 -99999 -99999 -99999 -99999 -99999 -99999 -99999 -99999 -99999 -99999 -99999 -99999 -99999 -99999 -99999 -99999 -99999
 -99999 -99999 -99999 -99999 -99999 -99999 -99999 -99999 -99999 -99999 -99999 -99999 -99999 -99999 -99999 -99999 -99999 -99999 -99999 -99999 -99999 -99999 -99999 -99999 -99999 -99999 -99999 -1179.104736328125 -1181.6082763671875 -1184.8023681640625 -1189.158935546875 -1195.025390625 -1202.6800537109375 -1212.050537109375 -1222.465576171875 -1234.345947265625 -1246.794677734375 -1259.8323974609375 -1272.8150634765625 -1285.9097900390625 -1298.503662109375 -1310.588134765625 -1321.982666015625 -1332.4334716796875 -1341.944091796875 -1350.5413818359375 -1358.2144775390625 -1364.8046875 -1370.572509765625 -1375.5440673828125 -1379.7493896484375 -1383.05322265625 -1385.6646728515625 -1387.6580810546875 -1389.0924072265625 -1389.9652099609375 -1390.034423828125 -1389.61376953125 -1388.6156005859375 -1387.1407470703125 -1385.0115966796875 -1382.0406494140625 -1378.4420166015625 -1374.04833984375 -1369.0240478515625 -1363.0914306640625 -1356.0218505859375 -1347.8775634765625 -1338.4794921875 -1327.697021484375 -1315.3551025390625 -1300.906494140625 -1285.016357421875 -1267.8033447265625 -1249.38720703125 -1229.5106201171875 -1208.7359619140625 -1191.257568359375 -1179.682861328125 -1170.2681884765625 -1158.529052734375 -1143.4852294921875 -1126.7266845703125 -1109.966064453125 -1093.7100830078125 -1078.4825439453125 -1063.9932861328125 -1050.2249755859375 -1037.4591064453125 -1025.234375 -1013.67822265625 -1002.43206787109375 -991.60418701171875 -980.975341796875 -970.3760986328125 -959.768798828125 -949.09906005859375 -938.45135498046875 -927.61419677734375 -916.67755126953125 -905.72491455078125 -894.74542236328125 -883.72265625 -872.6474609375 -861.67755126953125 -850.730224609375 -99999 -99999 -99999 -99999 -99999 -99999 -99999 -99999 -99999 -99999 -99999 -99999 -99999 -99999 -99999 -99999 -99999 -99999 -99999 -99999 -99999
 -99999 -99999 -99999 -99999 -99999 -99999 -99999 -99999 -99999 -99999 -99999 -99999 -99999 -99999 -99999 -99999 -99999 -99999 -99999 -99999 -99999 -99999 -99999 -99999 -99999 -99999 -1176.6875 -1178.329345703125 -1180.8497314453125 -1184.25341796875 -1188.6865234375 -1194.358154296875 -1201.8563232421875 -1211.197265625 -1221.65771484375 -1233.7161865234375 -1246.262451171875 -1259.435302734375 -1272.571533203125 -1285.6656494140625 -1298.295166015625 -1310.3853759765625 -1321.600341796875 -1331.795166015625 -1341.012451171875 -1349.296630859375 -1356.416259765625 -1362.4219970703125 -1367.700927734375 -1371.8525390625 -1375.2440185546875 -1377.941162109375 -1379.9405517578125 -1381.3582763671875 -1381.9505615234375 -1381.968505859375 -1381.47900390625 -1380.504638671875 -1378.82958984375 -1376.496337890625 -1373.52001953125 -1369.963623046875 -1365.84228515625 -1360.9326171875 -1355.016357421875 -1348.261962890625 -1340.4141845703125 -1331.6611328125 -1321.813232421875 -1310.458984375 -1297.3594970703125 -1283.0374755859375 -1267.08984375 -1249.6282958984375 -1231.3284912109375 -1211.7071533203125 -1192.2530517578125 -1176.3487548828125 -1168.997802734375 -1162.5299072265625 -1148.0567626953125 -1130.2637939453125 -1111.770751953125 -1094.1802978515625 -1077.9462890625 -1062.8077392578125 -1048.357177734375 -1035.4437255859375 -1023.16436767578125 -1011.52618408203125 -1000.49566650390625 -989.99493408203125 -979.83270263671875 -969.6103515625 -959.41912841796875 -949.23638916015625 -938.89471435546875 -928.42999267578125 -917.756591796875 -907.0562744140625 -896.19927978515625 -885.27471923828125 -874.24505615234375 -863.28277587890625 -852.33380126953125 -841.40338134765625 -830.55621337890625 -99999 -99999 -99999 -99999 -99999 -99999 -99999 -99999 -99999 -99999 -99999 -99999 -99999 -99999 -99999 -99999 -99999 -99999 -99999 -99999
 -99999 -99999 -99999 -99999 -99999 -99999 -99999 -99999 -99999 -99999 -99999 -99999 -99999 -99999 -99999 -99999 -99999 -99999 -99999 -99999 -99999 -99999 -99999 -99999 -99999 -99999 -1176.5689697265625 -1178.094482421875 -1180.52294921875 -1183.826904296875 -1188.323974609375 -1194.0933837890625 -1201.8282470703125 -1211.3043212890625 -1221.8519287109375 -1233.9676513671875 -1246.5963134765625 -1259.8485107421875 -1273.0615234375 -1286.2374267578125 -1298.859130859375 -1310.894287109375 -1321.9375 -1331.968505859375 -1340.7801513671875 -1348.3848876953125 -1354.868408203125 -1360.33935546875 -1364.7264404296875 -1368.2843017578125 -1371.07568359375 -1373.0262451171875 -1374.1531982421875 -1374.68115234375 -1374.6376953125 -1374.08544921875 -1372.840087890625 -1370.94091796875 -1368.544189453125 -1365.6209716796875 -1362.0531005859375 -1357.874755859375 -1352.8580322265625 -1347.122802734375 -1340.5159912109375 -1333.072021484375 -1324.78271484375 -1315.4300537109375 -1304.813232421875 -1292.929931640625 -1279.751708984375 -1265.19873046875 -1249.29345703125 -1232.3603515625 -1214.7320556640625 -1196.822509765625 -1180.1114501953125 -1167.6978759765625 -1163.424560546875 -1155.3319091796875 -1134.8909912109375 -1114.0057373046875 -1094.708740234375 -1077.38818359375 -1061.5091552734375 -1046.6783447265625 -1033.125244140625 -1020.56378173828125 -1008.70831298828125 -997.72198486328125 -987.658447265625 -977.72357177734375 -968.10357666015625 -958.300048828125 -948.890380859375 -939.05987548828125 -929.0400390625 -918.70184326171875 -908.2698974609375 -897.62286376953125 -886.8291015625 -875.9554443359375 -864.9781494140625 -854.0709228515625 -843.11773681640625 -832.22589111328125 -821.33984375 -810.64434814453125 -800.046875 -99999 -99999 -99999 -99999 -99999 -99999 -99999 -99999 -99999 -99999 -99999 -99999 -99999 -99999 -99999 -99999 -99999 -99999
 -99999 -99999 -99999 -99999 -99999 -99999 -99999 -99999 -99999 -99999 -99999 -99999 -99999 -99999 -99999 -99999 -99999 -99999 -99999 -99999 -99999 -99999 -99999 -99999 -99999 -1176.6070556640625 -1177.29248046875 -1178.6195068359375 -1180.7987060546875 -1183.7725830078125 -1188.2523193359375 -1194.575927734375 -1202.589599609375 -1212.2451171875 -1222.9111328125 -1235.048828125 -1247.739013671875 -1261.05224609375 -1274.4229736328125 -1287.52490234375 -1300.253662109375 -1312.1090087890625 -1323.048095703125 -1332.614013671875 -1340.9327392578125 -1348.0892333984375 -1354.06201171875 -1358.7325439453125 -1362.3094482421875 -1365.005859375 -1366.76025390625 -1367.87060546875 -1368.3525390625 -1368.2291259765625 -1367.328125 -1365.8084716796875 -1363.872802734375 -1361.3759765625 -1358.267822265625 -1354.5760498046875 -1350.2203369140625 -1345.2396240234375 -1339.52392578125 -1333.0792236328125 -1325.967041015625 -1317.9613037109375 -1309.0513916015625 -1298.97509765625 -1288.0047607421875 -1275.780517578125 -1262.369873046875 -1247.8831787109375 -1232.5166015625 -1216.37255859375 -1199.9942626953125 -1184.28759765625 -1170.12353515625 -1160.4022216796875 -1153.297607421875 -1138.6878662109375 -1115.1126708984375 -1095.1412353515625 -1076.9554443359375 -1059.9830322265625 -1044.5623779296875 -1030.6485595703125 -1017.579833984375 -1005.39892578125 -994.39599609375 -984.26318359375 -974.8052978515625 -965.8740234375 -956.92755126953125 -947.98480224609375 -938.84210205078125 -929.26953125 -919.4609375 -909.1939697265625 -898.96759033203125 -888.390625 -877.675048828125 -866.78265380859375 -855.9246826171875 -844.9898681640625 -834.019775390625 -823.1484375 -812.33331298828125 -801.648681640625 -791.037353515625 -780.5810546875 -99999 -99999 -99999 -99999 -99999 -99999 -99999 -99999 -99999 -99999 -99999 -99999 -99999 -99999 -99999 -99999 -99999
 -99999 -99999 -99999 -99999 -99999 -99999 -99999 -99999 -99999 -99999 -99999 -99999 -99999 -99999 -99999 -99999 -99999 -99999 -99999 -99999 -99999 -99999 -99999 -99999 -99999 -1178.1807861328125 -1178.7989501953125 -1180.1923828125 -1181.9957275390625 -1185.0185546875 -1189.7083740234375 -1196.11083984375 -1204.157958984375 -1213.9183349609375 -1224.59521484375 -1236.838623046875 -1249.6494140625 -1262.826416015625 -1276.341552734375 -1289.531005859375 -1302.20458984375 -1314.1370849609375 -1324.6749267578125 -1334.04638671875 -1341.90625 -1348.2733154296875 -1353.204833984375 -1356.998046875 -1359.81689453125 -1361.6087646484375 -1362.66845703125 -1363.02734375 -1362.4886474609375 -1361.43408203125 -1359.8507080078125 -1357.6390380859375 -1354.895751953125 -1351.5826416015625 -1347.7454833984375 -1343.2457275390625 -1338.190673828125 -1332.4595947265625 -1326.1597900390625 -1319.153564453125 -1311.3909912109375 -1302.6209716796875 -1293.1588134765625 -1282.6217041015625 -1271.3275146484375 -1258.842529296875 -1245.397705078125 -1231.20361328125 -1216.2921142578125 -1200.838134765625 -1185.5009765625 -1171.0711669921875 -1158.001953125 -1146.7352294921875 -1134.424072265625 -1115.6280517578125 -1094.510498046875 -1076.84765625 -1058.6290283203125 -1041.7720947265625 -1028.08740234375 -1014.89251708984375 -1001.93048095703125 -990.60748291015625 -980.1781005859375 -971.1710205078125 -962.5205078125 -954.49163818359375 -946.388671875 -937.96630859375 -929.1256103515625 -919.9727783203125 -910.2529296875 -900.285888671875 -889.968994140625 -879.4134521484375 -868.69183349609375 -857.863037109375 -846.9876708984375 -836.03985595703125 -825.13177490234375 -814.290283203125 -803.49615478515625 -792.787841796875 -782.13006591796875 -771.80908203125 -761.5592041015625 -99999 -99999 -99999 -99999 -99999 -99999 -99999 -99999 -99999 -99999 -99999 -99999 -99999 -99999 -99999 -99999
 -99999 -99999 -99999 -99999 -99999 -99999 -99999 -99999 -99999 -99999 -99999 -99999 -99999 -99999 -99999 -99999 -99999 -99999 -99999 -99999 -99999 -99999 -99999 -99999 -1180.4888916015625 -1180.7601318359375 -1181.38330078125 -1182.7806396484375 -1184.9298095703125 -1188.065673828125 -1192.57421875 -1199.0296630859375 -1207.1104736328125 -1216.635986328125 -1227.445068359375 -1239.5206298828125 -1252.209228515625 -1265.48193359375 -1278.901123046875 -1292.2208251953125 -1305.04248046875 -1316.9080810546875 -1327.3935546875 -1336.135986328125 -1343.136474609375 -1348.8111572265625 -1353.029052734375 -1355.875244140625 -1357.4449462890625 -1358.4024658203125 -1358.5341796875 -1357.9500732421875 -1356.5968017578125 -1354.690185546875 -1352.220703125 -1349.2506103515625 -1345.78466796875 -1341.6285400390625 -1337.0535888671875 -1331.810791015625 -1326.1107177734375 -1319.76953125 -1312.8104248046875 -1304.9901123046875 -1296.5931396484375 -1287.318603515625 -1277.297607421875 -1266.4993896484375 -1254.69482421875 -1242.080810546875 -1228.79931640625 -1214.67626953125 -1200.0982666015625 -1185.3701171875 -1170.681884765625 -1156.6077880859375 -1143.112548828125 -1129.904541015625 -1114.5560302734375 -1096.28369140625 -1077.521240234375 -1058.761962890625 -1037.81640625 -1024.50146484375 -1013.053955078125 -1000.0057373046875 -987.15374755859375 -975.974853515625 -966.38006591796875 -958.2255859375 -950.8826904296875 -943.8350830078125 -936.4744873046875 -928.69775390625 -920.1844482421875 -911.162109375 -901.541015625 -891.51251220703125 -881.17205810546875 -870.64288330078125 -859.885009765625 -849.0958251953125 -838.1893310546875 -827.257080078125 -816.428466796875 -805.573974609375 -794.8040771484375 -784.07525634765625 -773.548095703125 -763.1644287109375 -752.95263671875 -742.935302734375 -733.15966796875 -99999 -99999 -99999 -99999 -99999 -99999 -99999 -99999 -99999 -99999 -99999 -99999 -99999 -99999
 -99999 -99999 -99999 -99999 -99999 -99999 -99999 -99999 -99999 -99999 -99999 -99999 -99999 -99999 -99999 -99999 -99999 -99999 -99999 -99999 -99999 -99999 -99999 -99999 -1183.6015625 -1184.0465087890625 -1184.943603515625 -1186.3734130859375 -1188.6162109375 -1192.138427734375 -1196.8948974609375 -1202.87255859375 -1210.6201171875 -1220.0604248046875 -1230.9293212890625 -1242.6353759765625 -1255.34912109375 -1268.3626708984375 -1281.9097900390625 -1295.347412109375 -1308.15380859375 -1320.051513671875 -1330.2825927734375 -1338.8209228515625 -1345.4097900390625 -1349.9505615234375 -1352.8284912109375 -1354.55078125 -1355.2901611328125 -1355.1947021484375 -1354.28271484375 -1352.66064453125 -1350.4859619140625 -1347.78466796875 -1344.5911865234375 -1340.7308349609375 -1336.473388671875 -1331.5811767578125 -1326.27880859375 -1320.4356689453125 -1314.0269775390625 -1306.86865234375 -1299.1771240234375 -1290.854248046875 -1281.7857666015625 -1272.1497802734375 -1261.67919921875 -1250.4039306640625 -1238.451904296875 -1225.835205078125 -1212.38037109375 -1198.5069580078125 -1184.2149658203125 -1169.7008056640625 -1155.2432861328125 -1141.0701904296875 -1126.6954345703125 -1111.859130859375 -1095.887451171875 -1078.3721923828125 -1060.05419921875 -1041.0245361328125 -1024.2950439453125 -1012.45953369140625 -1000.15045166015625 -985.63958740234375 -972.24114990234375 -961.176513671875 -952.83184814453125 -946.37872314453125 -940.30938720703125 -934.1953125 -927.5177001953125 -920.068603515625 -911.766845703125 -902.693603515625 -893.13409423828125 -883.03765869140625 -872.67108154296875 -862.01226806640625 -851.28948974609375 -840.44500732421875 -829.5269775390625 -818.69769287109375 -807.843505859375 -797.0374755859375 -786.27496337890625 -775.62750244140625 -765.1268310546875 -754.72015380859375 -744.51971435546875 -734.4266357421875 -724.8175048828125 -715.37701416015625 -99999 -99999 -99999 -99999 -99999 -99999 -99999 -99999 -99999 -99999 -99999 -99999 -99999
 -99999 -99999 -99999 -99999 -99999 -99999 -99999 -99999 -99999 -99999 -99999 -99999 -99999 -99999 -99999 -99999 -99999 -99999 -99999 -99999 -99999 -99999 -99999 -99999 -1187.455322265625 -1188.090576171875 -1189.2486572265625 -1191.0164794921875 -1193.4022216796875 -1196.5789794921875 -1201.05908203125 -1207.498779296875 -1215.4173583984375 -1224.33984375 -1234.879150390625 -1246.393798828125 -1258.7598876953125 -1271.791748046875 -1285.315185546875 -1298.84228515625 -1311.98291015625 -1323.974365234375 -1334.5216064453125 -1342.3931884765625 -1347.6871337890625 -1351.034423828125 -1352.824462890625 -1353.471923828125 -1352.97265625 -1351.6767578125 -1349.7694091796875 -1347.3056640625 -1344.3936767578125 -1340.713623046875 -1336.685791015625 -1332.0697021484375 -1327.048828125 -1321.5615234375 -1315.541748046875 -1308.870361328125 -1301.73779296875 -1293.987548828125 -1285.6678466796875 -1276.8375244140625 -1267.3133544921875 -1257.020263671875 -1246.244384765625 -1234.665771484375 -1222.5118408203125 -1209.5933837890625 -1196.227294921875 -1182.4083251953125 -1168.1907958984375 -1153.841552734375 -1139.406005859375 -1124.824951171875 -1109.9974365234375 -1094.673583984375 -1078.357177734375 -1061.3916015625 -1044.0413818359375 -1027.3387451171875 -1012.61517333984375 -999.91363525390625 -985.628662109375 -969.72222900390625 -956.242431640625 -947.2095947265625 -940.2568359375 -935.31048583984375 -930.87469482421875 -925.83984375 -919.8253173828125 -912.61395263671875 -904.08038330078125 -894.96392822265625 -885.13330078125 -874.79931640625 -864.2210693359375 -853.537841796875 -842.75738525390625 -831.88238525390625 -821.04644775390625 -810.238525390625 -799.435546875 -788.68011474609375 -777.91827392578125 -767.412353515625 -756.8870849609375 -746.5782470703125 -736.31573486328125 -726.40777587890625 -716.7059326171875 -707.29034423828125 -698.17498779296875 -99999 -99999 -99999 -99999 -99999 -99999 -99999 -99999 -99999 -99999 -99999 -99999
 -99999 -99999 -99999 -99999 -99999 -99999 -99999 -99999 -99999 -99999 -99999 -99999 -99999 -99999 -99999 -99999 -99999 -99999 -99999 -99999 -99999 -99999 -99999 -1191.2275390625 -1191.7906494140625 -1192.839111328125 -1194.362060546875 -1196.4034423828125 -1198.9407958984375 -1202.318359375 -1207.0677490234375 -1213.116455078125 -1220.4423828125 -1229.1973876953125 -1239.053955078125 -1250.1790771484375 -1262.27490234375 -1275.121337890625 -1288.566650390625 -1302.2032470703125 -1315.6051025390625 -1328.09375 -1338.715087890625 -1346.1611328125 -1350.44140625 -1352.52880859375 -1352.61328125 -1351.72265625 -1350.0975341796875 -1347.8958740234375 -1345.216064453125 -1341.705810546875 -1337.814208984375 -1333.434326171875 -1328.6329345703125 -1323.3790283203125 -1317.5908203125 -1311.2955322265625 -1304.5540771484375 -1297.183349609375 -1289.408203125 -1281.1043701171875 -1272.3150634765625 -1262.8250732421875 -1252.8070068359375 -1242.1617431640625 -1230.9091796875 -1219.0733642578125 -1206.5849609375 -1193.6243896484375 -1180.23486328125 -1166.3779296875 -1152.2613525390625 -1137.927001953125 -1123.3792724609375 -1108.6427001953125 -1093.6627197265625 -1078.0751953125 -1062.0709228515625 -1045.658935546875 -1029.28369140625 -1013.34100341796875 -998.810546875 -984.76678466796875 -969.55084228515625 -953.57958984375 -941.27789306640625 -933.70147705078125 -929.4681396484375 -926.50543212890625 -923.53515625 -919.23284912109375 -913.31695556640625 -905.75079345703125 -896.90545654296875 -887.32537841796875 -877.127197265625 -866.61785888671875 -855.8909912109375 -845.10430908203125 -834.254638671875 -823.40142822265625 -812.66802978515625 -801.885986328125 -791.19110107421875 -780.460693359375 -769.9312744140625 -759.40631103515625 -748.9984130859375 -738.64984130859375 -728.49462890625 -718.58038330078125 -708.8458251953125 -699.45709228515625 -690.16943359375 -681.7506103515625 -99999 -99999 -99999 -99999 -99999 -99999 -99999 -99999 -99999 -99999 -99999
 -99999 -99999 -99999 -99999 -99999 -99999 -99999 -99999 -99999 -99999 -99999 -99999 -99999 -99999 -99999 -99999 -99999 -99999 -99999 -99999 -99999 -99999 -99999 -1195.7008056640625 -1196.57373046875 -1197.9249267578125 -1199.7586669921875 -1202.36083984375 -1205.52099609375 -1209.3472900390625 -1213.89306640625 -1219.5618896484375 -1226.0880126953125 -1234.2725830078125 -1243.579833984375 -1254.0679931640625 -1265.5289306640625 -1278.1854248046875 -1291.3651123046875 -1305.023681640625 -1318.84619140625 -1332.5067138671875 -1343.44287109375 -1350.748779296875 -1352.7880859375 -1352.686279296875 -1351.4403076171875 -1349.5504150390625 -1346.986572265625 -1343.6619873046875 -1339.8731689453125 -1335.7059326171875 -1331.0501708984375 -1325.99755859375 -1320.3446044921875 -1314.3458251953125 -1307.8995361328125 -1300.8358154296875 -1293.4222412109375 -1285.564208984375 -1277.25244140625 -1268.355224609375 -1258.87548828125 -1248.893310546875 -1238.3333740234375 -1227.3570556640625 -1215.7337646484375 -1203.5638427734375 -1190.955322265625 -1177.9053955078125 -1164.3580322265625 -1150.512939453125 -1136.3961181640625 -1122.0262451171875 -1107.430419921875 -1092.6534423828125 -1077.578125 -1062.1324462890625 -1046.56640625 -1030.526123046875 -1014.8787841796875 -999.61907958984375 -984.90496826171875 -970.27703857421875 -955.255615234375 -940.8021240234375 -929.9449462890625 -923.5438232421875 -920.92974853515625 -919.63262939453125 -917.96112060546875 -913.87249755859375 -907.82684326171875 -899.27960205078125 -889.92803955078125 -879.75604248046875 -869.0948486328125 -858.28515625 -847.45703125 -836.56500244140625 -825.6796875 -814.9947509765625 -804.31134033203125 -793.708984375 -783.08734130859375 -772.56903076171875 -762.13226318359375 -751.7098388671875 -741.356201171875 -731.03125 -721.0135498046875 -711.05438232421875 -701.4119873046875 -691.89642333984375 -682.908935546875 -674.28228759765625 -666.06683349609375 -99999 -99999 -99999 -99999 -99999 -99999 -99999 -99999 -99999 -99999
 -99999 -99999 -99999 -99999 -99999 -99999 -99999 -99999 -99999 -99999 -99999 -99999 -99999 -99999 -99999 -99999 -99999 -99999 -99999 -99999 -99999 -99999 -99999 -1200.2872314453125 -1201.4075927734375 -1203.1810302734375 -1205.5067138671875 -1208.482421875 -1212.0194091796875 -1216.238037109375 -1220.9569091796875 -1225.8643798828125 -1231.8203125 -1238.996337890625 -1247.631591796875 -1257.56591796875 -1268.387451171875 -1280.572509765625 -1293.3826904296875 -1306.7916259765625 -1320.7325439453125 -1334.9781494140625 -1347.056640625 -1353.0614013671875 -1353.43310546875 -1351.919677734375 -1349.4736328125 -1346.3076171875 -1342.639404296875 -1338.73388671875 -1334.3033447265625 -1329.3846435546875 -1323.9053955078125 -1318.1236572265625 -1311.90380859375 -1305.1788330078125 -1298.0159912109375 -1290.49072265625 -1282.488525390625 -1273.942138671875 -1264.9676513671875 -1255.44921875 -1245.4412841796875 -1234.99560546875 -1224.115966796875 -1212.631591796875 -1200.696044921875 -1188.35400390625 -1175.5484619140625 -1162.2579345703125 -1148.6800537109375 -1134.8758544921875 -1120.621337890625 -1106.246337890625 -1091.78125 -1076.900634765625 -1061.952880859375 -1046.772216796875 -1031.4483642578125 -1016.2779541015625 -1001.12701416015625 -986.36834716796875 -972.08636474609375 -958.03216552734375 -944.37725830078125 -932.10882568359375 -922.52398681640625 -916.95751953125 -915.201416015625 -916.0155029296875 -914.91473388671875 -910.10345458984375 -902.28839111328125 -893.2459716796875 -882.8448486328125 -871.82684326171875 -860.75408935546875 -849.72222900390625 -838.738037109375 -827.84844970703125 -817.135498046875 -806.579345703125 -796.0755615234375 -785.6082763671875 -775.20263671875 -764.91259765625 -754.56793212890625 -744.31646728515625 -733.9912109375 -723.9150390625 -713.86260986328125 -703.99920654296875 -694.2789306640625 -684.8333740234375 -675.81634521484375 -667.1383056640625 -658.98431396484375 -651.45806884765625 -99999 -99999 -99999 -99999 -99999 -99999 -99999 -99999 -99999
 -99999 -99999 -99999 -99999 -99999 -99999 -99999 -99999 -99999 -99999 -99999 -99999 -99999 -99999 -99999 -99999 -99999 -99999 -99999 -99999 -99999 -99999 -99999 -1204.9443359375 -1206.3607177734375 -1208.3370361328125 -1210.8743896484375 -1214.0975341796875 -1218.015869140625 -1222.4967041015625 -1227.0323486328125 -1231.3807373046875 -1236.7664794921875 -1243.458984375 -1251.3917236328125 -1260.4222412109375 -1270.61083984375 -1282.1749267578125 -1294.265625 -1307.052490234375 -1320.3587646484375 -1334.0260009765625 -1345.3634033203125 -1351.0611572265625 -1350.9539794921875 -1348.6837158203125 -1345.5682373046875 -1341.93408203125 -1337.876220703125 -1333.19140625 -1327.9544677734375 -1322.4161376953125 -1316.493896484375 -1310.0440673828125 -1303.116455078125 -1295.9189453125 -1288.1949462890625 -1279.87060546875 -1271.300048828125 -1262.212890625 -1252.592529296875 -1242.6064453125 -1232.20703125 -1221.28857421875 -1209.9012451171875 -1198.1119384765625 -1185.894775390625 -1173.2413330078125 -1160.205078125 -1146.809814453125 -1133.1483154296875 -1119.18505859375 -1105.0281982421875 -1090.6939697265625 -1076.1649169921875 -1061.5103759765625 -1046.790771484375 -1031.93115234375 -1017.0809326171875 -1002.39813232421875 -987.9796142578125 -973.8638916015625 -960.28912353515625 -947.4302978515625 -935.31866455078125 -925.01019287109375 -917.80889892578125 -913.24365234375 -912.60601806640625 -914.322509765625 -912.93450927734375 -906.11126708984375 -896.87933349609375 -886.0057373046875 -874.56610107421875 -863.05291748046875 -851.74237060546875 -840.6566162109375 -829.65472412109375 -818.86395263671875 -808.47857666015625 -798.0947265625 -787.843505859375 -777.590576171875 -767.57379150390625 -757.47088623046875 -747.417724609375 -737.2535400390625 -727.15728759765625 -717.1455078125 -707.18780517578125 -697.3619384765625 -687.6103515625 -678.30224609375 -669.13885498046875 -660.49212646484375 -652.18548583984375 -644.69012451171875 -637.784423828125 -99999 -99999 -99999 -99999 -99999 -99999 -99999 -99999
 -99999 -99999 -99999 -99999 -99999 -99999 -99999 -99999 -99999 -99999 -99999 -99999 -99999 -99999 -99999 -99999 -99999 -99999 -99999 -99999 -99999 -99999 -1208.5516357421875 -1209.530517578125 -1211.0040283203125 -1213.0823974609375 -1215.8052978515625 -1219.1314697265625 -1222.9403076171875 -1227.2418212890625 -1231.4112548828125 -1235.720947265625 -1240.6932373046875 -1246.741943359375 -1254.2010498046875 -1262.7763671875 -1272.19140625 -1282.8829345703125 -1294.1878662109375 -1306.0235595703125 -1317.877685546875 -1329.6810302734375 -1339.1263427734375 -1344.309326171875 -1344.8104248046875 -1343.139404296875 -1340.252685546875 -1336.4642333984375 -1331.8848876953125 -1326.7962646484375 -1321.281005859375 -1315.2305908203125 -1308.7105712890625 -1301.7437744140625 -1294.313720703125 -1286.361572265625 -1278.0599365234375 -1269.31298828125 -1260.0572509765625 -1250.436279296875 -1240.3577880859375 -1229.9290771484375 -1219.0216064453125 -1207.6575927734375 -1195.870849609375 -1183.719970703125 -1171.213623046875 -1158.271484375 -1145.044921875 -1131.57177734375 -1117.769287109375 -1103.77490234375 -1089.6412353515625 -1075.3250732421875 -1060.9049072265625 -1046.455078125 -1031.973388671875 -1017.46551513671875 -1003.14459228515625 -989.09100341796875 -975.26068115234375 -961.9932861328125 -949.5347900390625 -937.7740478515625 -927.64453125 -919.41552734375 -913.176025390625 -910.3319091796875 -910.40277099609375 -911.7813720703125 -908.80206298828125 -900.09710693359375 -889.20867919921875 -877.14398193359375 -864.93231201171875 -853.33099365234375 -842.05377197265625 -830.9837646484375 -820.2064208984375 -809.830078125 -799.588134765625 -789.667236328125 -779.70184326171875 -769.971435546875 -760.20806884765625 -750.38494873046875 -740.51690673828125 -730.576171875 -720.73455810546875 -710.81463623046875 -701.02294921875 -691.22808837890625 -681.6339111328125 -672.18670654296875 -663.0963134765625 -654.327392578125 -646.07635498046875 -638.6087646484375 -631.78546142578125 -625.67254638671875 -99999 -99999 -99999 -99999 -99999 -99999 -99999
 -99999 -99999 -99999 -99999 -99999 -99999 -99999 -99999 -99999 -99999 -99999 -99999 -99999 -99999 -99999 -99999 -99999 -99999 -99999 -99999 -99999 -99999 -1212.8707275390625 -1213.8314208984375 -1215.4066162109375 -1217.5245361328125 -1220.1802978515625 -1223.3475341796875 -1227.06494140625 -1230.7093505859375 -1234.5318603515625 -1238.8807373046875 -1243.834716796875 -1249.5662841796875 -1256.285888671875 -1263.998291015625 -1272.87890625 -1282.6844482421875 -1292.943115234375 -1303.5948486328125 -1313.962890625 -1323.3751220703125 -1331.0037841796875 -1335.738525390625 -1337.3612060546875 -1336.340576171875 -1333.5789794921875 -1329.7777099609375 -1325.21044921875 -1319.9720458984375 -1314.078125 -1307.593505859375 -1300.6370849609375 -1293.124755859375 -1285.1341552734375 -1276.787353515625 -1267.9090576171875 -1258.559814453125 -1248.913330078125 -1238.7618408203125 -1228.21337890625 -1217.2327880859375 -1205.83740234375 -1194.0477294921875 -1181.9776611328125 -1169.4532470703125 -1156.626953125 -1143.52587890625 -1130.1395263671875 -1116.4637451171875 -1102.5919189453125 -1088.60302734375 -1074.45947265625 -1060.2066650390625 -1045.9564208984375 -1031.69482421875 -1017.46734619140625 -1003.39276123046875 -989.5711669921875 -976.0732421875 -963.02386474609375 -950.59295654296875 -939.1080322265625 -928.72735595703125 -919.614013671875 -912.47259521484375 -907.791015625 -905.0701904296875 -904.33685302734375 -903.4678955078125 -899.0721435546875 -890.70538330078125 -878.19329833984375 -865.4478759765625 -853.64862060546875 -842.38201904296875 -831.5079345703125 -820.81024169921875 -810.5125732421875 -800.4447021484375 -790.71484375 -781.0936279296875 -771.72515869140625 -762.4581298828125 -753.0799560546875 -743.6583251953125 -733.98333740234375 -724.4617919921875 -714.7696533203125 -705.091064453125 -695.31304931640625 -685.71063232421875 -676.21026611328125 -666.78912353515625 -657.66156005859375 -648.8948974609375 -640.65740966796875 -632.89105224609375 -626.054931640625 -620.22772216796875 -615.34735107421875 -99999 -99999 -99999 -99999 -99999 -99999
 -99999 -99999 -99999 -99999 -99999 -99999 -99999 -99999 -99999 -99999 -99999 -99999 -99999 -99999 -99999 -99999 -99999 -99999 -99999 -99999 -99999 -99999 -1217.145263671875 -1218.05078125 -1219.4246826171875 -1221.3165283203125 -1223.942138671875 -1226.9716796875 -1230.3577880859375 -1233.837646484375 -1237.5435791015625 -1241.5863037109375 -1246.028076171875 -1251.34521484375 -1257.640380859375 -1264.656494140625 -1272.83203125 -1281.849609375 -1291.1171875 -1300.520263671875 -1309.54833984375 -1317.291748046875 -1323.933837890625 -1327.63427734375 -1329.0260009765625 -1328.4619140625 -1326.2625732421875 -1322.7352294921875 -1317.9862060546875 -1312.6207275390625 -1306.4517822265625 -1299.5389404296875 -1292.247802734375 -1284.30126953125 -1275.978515625 -1267.076171875 -1257.686279296875 -1247.9267578125 -1237.6334228515625 -1227.0499267578125 -1216.0145263671875 -1204.548583984375 -1192.774169921875 -1180.6453857421875 -1168.149658203125 -1155.3707275390625 -1142.3194580078125 -1128.9505615234375 -1115.356689453125 -1101.595947265625 -1087.68017578125 -1073.6029052734375 -1059.491943359375 -1045.34765625 -1031.2139892578125 -1017.18359375 -1003.26458740234375 -989.6065673828125 -976.253173828125 -963.26751708984375 -950.90374755859375 -939.33709716796875 -928.66925048828125 -918.82073974609375 -910.74810791015625 -904.34844970703125 -899.63104248046875 -896.60223388671875 -894.18585205078125 -891.21820068359375 -885.85540771484375 -876.11090087890625 -864.02984619140625 -851.80804443359375 -840.896240234375 -830.58428955078125 -820.5626220703125 -810.43865966796875 -800.40948486328125 -790.6817626953125 -781.4798583984375 -772.6390380859375 -764.01806640625 -755.2672119140625 -746.36712646484375 -737.2998046875 -728.0833740234375 -718.7637939453125 -709.36016845703125 -699.91473388671875 -690.42742919921875 -680.97186279296875 -671.4844970703125 -662.115234375 -653.028076171875 -644.06378173828125 -635.73284912109375 -628.02496337890625 -621.097412109375 -615.18438720703125 -610.5057373046875 -607.0577392578125 -99999 -99999 -99999 -99999 -99999
 -99999 -99999 -99999 -99999 -99999 -99999 -99999 -99999 -99999 -99999 -99999 -99999 -99999 -99999 -99999 -99999 -99999 -99999 -99999 -99999 -99999 -99999 -1221.195556640625 -1221.8739013671875 -1223.0438232421875 -1224.785888671875 -1227.0284423828125 -1229.889404296875 -1233.220458984375 -1236.8082275390625 -1240.27001953125 -1243.996337890625 -1247.8299560546875 -1252.3951416015625 -1257.9085693359375 -1264.5684814453125 -1271.927734375 -1280.28662109375 -1288.8209228515625 -1297.1546630859375 -1304.85302734375 -1311.67529296875 -1316.8023681640625 -1320.087890625 -1321.61669921875 -1321.01611328125 -1318.67529296875 -1315.20654296875 -1310.58740234375 -1304.921630859375 -1298.5380859375 -1291.51416015625 -1283.821533203125 -1275.417724609375 -1266.6094970703125 -1257.27099609375 -1247.406005859375 -1237.09033203125 -1226.460693359375 -1215.3328857421875 -1203.86376953125 -1192.0325927734375 -1179.8936767578125 -1167.33349609375 -1154.54345703125 -1141.486083984375 -1128.097900390625 -1114.5452880859375 -1100.7906494140625 -1086.88623046875 -1072.8765869140625 -1058.8154296875 -1044.7239990234375 -1030.649658203125 -1016.68927001953125 -1002.85333251953125 -989.22149658203125 -975.922119140625 -962.93017578125 -950.52239990234375 -938.6834716796875 -927.56683349609375 -917.36273193359375 -908.56610107421875 -900.75701904296875 -894.662353515625 -889.57061767578125 -885.2738037109375 -881.6756591796875 -876.880615234375 -870.16790771484375 -860.52117919921875 -848.6195068359375 -837.71441650390625 -827.91949462890625 -819.0137939453125 -809.46234130859375 -799.54193115234375 -789.6888427734375 -780.4564208984375 -772.4605712890625 -764.446533203125 -756.5579833984375 -748.4962158203125 -740.096923828125 -731.52789306640625 -722.675048828125 -713.67822265625 -704.58984375 -695.5133056640625 -686.3096923828125 -676.9962158203125 -667.6656494140625 -658.43701171875 -649.2310791015625 -640.25848388671875 -631.8760986328125 -623.78265380859375 -616.8135986328125 -611.044677734375 -606.576171875 -603.1129150390625 -601.07269287109375 -99999 -99999 -99999 -99999
 -99999 -99999 -99999 -99999 -99999 -99999 -99999 -99999 -99999 -99999 -99999 -99999 -99999 -99999 -99999 -99999 -99999 -99999 -99999 -99999 -99999 -99999 -1225.2738037109375 -1225.7139892578125 -1226.4345703125 -1227.6387939453125 -1229.355224609375 -1231.8040771484375 -1235.165771484375 -1239.0579833984375 -1243.0792236328125 -1245.5401611328125 -1248.3160400390625 -1252.2579345703125 -1257.5732421875 -1263.8629150390625 -1270.9158935546875 -1278.6717529296875 -1286.338134765625 -1293.8023681640625 -1300.7706298828125 -1306.44287109375 -1310.586181640625 -1313.4310302734375 -1314.4158935546875 -1313.69189453125 -1311.4266357421875 -1307.6973876953125 -1302.995361328125 -1297.3026123046875 -1290.693603515625 -1283.2115478515625 -1275.1541748046875 -1266.4542236328125 -1257.1119384765625 -1247.3692626953125 -1237.0821533203125 -1226.4462890625 -1215.2445068359375 -1203.7821044921875 -1191.880615234375 -1179.628173828125 -1167.0908203125 -1154.1842041015625 -1141.0439453125 -1127.6959228515625 -1114.0673828125 -1100.29833984375 -1086.4139404296875 -1072.376708984375 -1058.293212890625 -1044.219482421875 -1030.155517578125 -1016.1527099609375 -1002.30615234375 -988.69677734375 -975.27227783203125 -962.23712158203125 -949.63531494140625 -937.58740234375 -926.25640869140625 -915.6300048828125 -905.812744140625 -897.25726318359375 -889.576904296875 -883.0150146484375 -877.4407958984375 -872.63873291015625 -867.59539794921875 -861.5535888671875 -853.88348388671875 -844.8460693359375 -834.70166015625 -824.5538330078125 -816.02667236328125 -807.73614501953125 -798.345703125 -788.14544677734375 -778.53387451171875 -770.326416015625 -763.380126953125 -756.6124267578125 -749.81158447265625 -742.2451171875 -734.44244384765625 -726.20458984375 -717.6807861328125 -709.092041015625 -700.49298095703125 -691.71807861328125 -682.811767578125 -673.98199462890625 -664.873046875 -655.72723388671875 -646.56658935546875 -637.7353515625 -629.0859375 -620.93475341796875 -613.58441162109375 -607.34564208984375 -602.9503173828125 -600.097412109375 -599.019287109375 -99999 -99999 -99999 -99999
 -99999 -99999 -99999 -99999 -99999 -99999 -99999 -99999 -99999 -99999 -99999 -99999 -99999 -99999 -99999 -99999 -99999 -99999 -99999 -99999 -99999 -99999 -1229.43994140625 -1229.3358154296875 -1229.42822265625 -1230.035888671875 -1231.216796875 -1232.932861328125 -1235.511962890625 -1239.1470947265625 -1243.717529296875 -1245.1328125 -1247.3565673828125 -1251.1390380859375 -1256.3704833984375 -1262.7054443359375 -1269.5537109375 -1276.958740234375 -1284.220703125 -1290.8392333984375 -1296.7467041015625 -1301.6851806640625 -1305.336669921875 -1307.5330810546875 -1307.8731689453125 -1306.8023681640625 -1304.3773193359375 -1300.5653076171875 -1295.5792236328125 -1289.5802001953125 -1282.58251953125 -1274.9637451171875 -1266.5513916015625 -1257.3817138671875 -1247.78076171875 -1237.6397705078125 -1226.936279296875 -1215.74755859375 -1204.19677734375 -1192.193115234375 -1179.9205322265625 -1167.2529296875 -1154.3133544921875 -1141.13134765625 -1127.6746826171875 -1114.01953125 -1100.2027587890625 -1086.2525634765625 -1072.173095703125 -1058.047607421875 -1043.9078369140625 -1029.78271484375 -1015.72930908203125 -1001.817138671875 -988.0810546875 -974.5811767578125 -961.4378662109375 -948.62109375 -936.349853515625 -924.61260986328125 -913.4942626953125 -903.17974853515625 -893.625244140625 -885.01544189453125 -877.28765869140625 -870.52459716796875 -864.3046875 -858.39508056640625 -852.29473876953125 -845.6905517578125 -838.1864013671875 -829.53936767578125 -820.53662109375 -811.7021484375 -803.71868896484375 -795.66217041015625 -786.32135009765625 -775.61224365234375 -766.85107421875 -760.2408447265625 -754.628173828125 -749.1534423828125 -743.37066650390625 -736.5994873046875 -729.24200439453125 -721.327880859375 -713.244873046875 -705.13446044921875 -696.925048828125 -688.65631103515625 -680.48223876953125 -671.8597412109375 -663.08355712890625 -654.21160888671875 -645.18585205078125 -636.3656005859375 -627.63983154296875 -619.24554443359375 -611.5810546875 -605.01348876953125 -600.10711669921875 -598.30133056640625 -597.75238037109375 -596.92474365234375 -99999 -99999 -99999
 -99999 -99999 -99999 -99999 -99999 -99999 -99999 -99999 -99999 -99999 -99999 -99999 -99999 -99999 -99999 -99999 -99999 -99999 -99999 -99999 -99999 -99999 -1233.737060546875 -1233.2574462890625 -1232.8890380859375 -1232.5369873046875 -1232.376708984375 -1232.8656005859375 -1234.26318359375 -1236.55078125 -1238.71044921875 -1241.356201171875 -1244.270751953125 -1248.82421875 -1254.8265380859375 -1261.6273193359375 -1268.4996337890625 -1275.6746826171875 -1282.2938232421875 -1288.3360595703125 -1293.6585693359375 -1297.8779296875 -1300.57568359375 -1301.984130859375 -1301.9713134765625 -1300.5577392578125 -1297.7406005859375 -1293.5582275390625 -1288.3248291015625 -1282.0037841796875 -1274.8463134765625 -1266.7562255859375 -1257.9326171875 -1248.5350341796875 -1238.3909912109375 -1227.778564453125 -1216.709716796875 -1205.0723876953125 -1193.0811767578125 -1180.779541015625 -1168.0274658203125 -1155.0291748046875 -1141.8035888671875 -1128.2216796875 -1114.5035400390625 -1100.6256103515625 -1086.5303955078125 -1072.3812255859375 -1058.1605224609375 -1043.8956298828125 -1029.6689453125 -1015.52630615234375 -1001.46405029296875 -987.60443115234375 -973.9815673828125 -960.6004638671875 -947.6085205078125 -935.03875732421875 -922.93402099609375 -911.345947265625 -900.51153564453125 -890.29510498046875 -880.7861328125 -872.1787109375 -864.25958251953125 -856.95196533203125 -850.1383056640625 -843.50579833984375 -836.9547119140625 -829.9378662109375 -822.44366455078125 -814.22576904296875 -805.8919677734375 -797.79425048828125 -789.9158935546875 -781.9144287109375 -772.2530517578125 -761.71820068359375 -754.21417236328125 -749.7088623046875 -746.81103515625 -743.21661376953125 -738.06005859375 -731.87310791015625 -724.6112060546875 -716.90887451171875 -709.1468505859375 -701.5118408203125 -694.11016845703125 -686.57147216796875 -679.01275634765625 -671.05194091796875 -662.56103515625 -653.87005615234375 -644.997802734375 -636.375 -627.76641845703125 -619.4796142578125 -611.25653076171875 -603.44378662109375 -598.48345947265625 -597.2593994140625 -597.10211181640625 -596.5399169921875 -595.56494140625 -99999 -99999
 -99999 -99999 -99999 -99999 -99999 -99999 -99999 -99999 -99999 -99999 -99999 -99999 -99999 -99999 -99999 -99999 -99999 -99999 -99999 -99999 -99999 -1239.3673095703125 -1238.5850830078125 -1237.589111328125 -1236.4725341796875 -1235.3804931640625 -1234.3472900390625 -1233.33056640625 -1232.2686767578125 -1232.0126953125 -1233.3648681640625 -1235.8963623046875 -1240.7562255859375 -1246.9951171875 -1253.865478515625 -1261.0357666015625 -1268.1363525390625 -1275.015869140625 -1281.2850341796875 -1286.77880859375 -1291.1148681640625 -1294.4581298828125 -1296.571533203125 -1297.4232177734375 -1296.820068359375 -1294.74365234375 -1291.4622802734375 -1286.945068359375 -1281.397705078125 -1274.6881103515625 -1267.151123046875 -1258.716552734375 -1249.4552001953125 -1239.5435791015625 -1229.130615234375 -1218.05517578125 -1206.4906005859375 -1194.51708984375 -1182.1705322265625 -1169.3739013671875 -1156.344970703125 -1142.9539794921875 -1129.367431640625 -1115.522705078125 -1101.4434814453125 -1087.3114013671875 -1073.0152587890625 -1058.639892578125 -1044.3026123046875 -1029.90576171875 -1015.59405517578125 -1001.42523193359375 -987.34747314453125 -973.5501708984375 -959.95440673828125 -946.6822509765625 -933.83502197265625 -921.35089111328125 -909.41107177734375 -898.00970458984375 -887.221435546875 -877.07257080078125 -867.56182861328125 -858.687255859375 -850.51470947265625 -842.8682861328125 -835.6427001953125 -828.55743408203125 -821.49493408203125 -814.11962890625 -806.51361083984375 -798.7374267578125 -790.87249755859375 -782.99810791015625 -775.21630859375 -766.82318115234375 -757.51397705078125 -748.2462158203125 -743.55731201171875 -741.7740478515625 -740.46990966796875 -738.24609375 -733.67315673828125 -727.50323486328125 -720.27899169921875 -712.6456298828125 -705.370361328125 -698.43817138671875 -691.79034423828125 -685.4202880859375 -678.5706787109375 -671.22381591796875 -663.29241943359375 -654.918701171875 -646.1890869140625 -637.85858154296875 -629.65093994140625 -621.501708984375 -613.344970703125 -605.07177734375 -599.375732421875 -597.7042236328125 -597.284912109375 -596.84771728515625 -595.95745849609375 -99999 -99999
 -99999 -99999 -99999 -99999 -99999 -99999 -99999 -99999 -99999 -99999 -99999 -99999 -99999 -99999 -99999 -99999 -99999 -99999 -99999 -99999 -99999 -1244.9259033203125 -1243.946533203125 -1242.7021484375 -1241.2000732421875 -1239.35498046875 -1237.1077880859375 -1234.7674560546875 -1232.4027099609375 -1230.3011474609375 -1229.1285400390625 -1233.0792236328125 -1239.29541015625 -1246.46142578125 -1254.1649169921875 -1261.85546875 -1268.7550048828125 -1275.5067138671875 -1281.087890625 -1285.7889404296875 -1289.493896484375 -1292.181396484375 -1293.4818115234375 -1293.3731689453125 -1292.091796875 -1289.4954833984375 -1285.851806640625 -1280.802001953125 -1274.702880859375 -1267.6446533203125 -1259.5902099609375 -1250.677734375 -1241.049560546875 -1230.872314453125 -1219.935302734375 -1208.44873046875 -1196.4879150390625 -1184.1217041015625 -1171.327880859375 -1158.1756591796875 -1144.6953125 -1131.02099609375 -1117.0159912109375 -1102.8736572265625 -1088.612060546875 -1074.1529541015625 -1059.6678466796875 -1045.153076171875 -1030.6085205078125 -1016.13134765625 -1001.7410888671875 -987.5057373046875 -973.43060302734375 -959.5899658203125 -946.08355712890625 -932.85491943359375 -920.022705078125 -907.7132568359375 -895.81756591796875 -884.497314453125 -873.75384521484375 -863.55877685546875 -854.010498046875 -845.05352783203125 -836.62103271484375 -828.58709716796875 -820.91497802734375 -813.39752197265625 -805.9212646484375 -798.408447265625 -790.824951171875 -783.18572998046875 -775.6148681640625 -768.00006103515625 -760.42156982421875 -752.6734619140625 -745.509521484375 -738.74859619140625 -735.40411376953125 -735.07049560546875 -736.54522705078125 -734.98919677734375 -730.26739501953125 -723.4608154296875 -715.9127197265625 -708.4630126953125 -701.4888916015625 -695.3604736328125 -689.8917236328125 -684.82177734375 -679.42645263671875 -672.94390869140625 -665.53985595703125 -657.34295654296875 -648.7823486328125 -640.72418212890625 -632.83184814453125 -625.07720947265625 -617.06903076171875 -609.4027099609375 -603.028076171875 -600.29656982421875 -599.100341796875 -598.30487060546875 -597.300048828125 -99999 -99999
 -99999 -99999 -99999 -99999 -99999 -99999 -99999 -99999 -99999 -99999 -99999 -99999 -99999 -99999 -99999 -99999 -99999 -99999 -99999 -99999 -99999 -1251.017822265625 -1250.1129150390625 -1248.771728515625 -1246.9752197265625 -1244.8336181640625 -1242.231689453125 -1239.1229248046875 -1235.7093505859375 -1233.0081787109375 -1232.5516357421875 -1235.501953125 -1241.47021484375 -1249.0355224609375 -1256.9337158203125 -1264.330078125 -1271.130615234375 -1277.057373046875 -1282.0482177734375 -1286.099365234375 -1288.85595703125 -1290.435546875 -1290.874267578125 -1290.1641845703125 -1288.2886962890625 -1284.9510498046875 -1280.4532470703125 -1274.951904296875 -1268.392333984375 -1260.7169189453125 -1252.2767333984375 -1242.9693603515625 -1232.9417724609375 -1222.280029296875 -1210.8697509765625 -1198.9405517578125 -1186.5538330078125 -1173.787841796875 -1160.5455322265625 -1147.02685546875 -1133.2392578125 -1119.15087890625 -1104.892333984375 -1090.462158203125 -1075.8968505859375 -1061.240966796875 -1046.53076171875 -1031.8408203125 -1017.146240234375 -1002.523681640625 -988.0819091796875 -973.7459716796875 -959.62158203125 -945.82965087890625 -932.28033447265625 -919.1292724609375 -906.3668212890625 -894.0916748046875 -882.31683349609375 -870.943359375 -860.20123291015625 -850.015869140625 -840.37969970703125 -831.15081787109375 -822.47381591796875 -814.1773681640625 -806.11309814453125 -798.32452392578125 -790.61944580078125 -782.96600341796875 -775.3651123046875 -767.8262939453125 -760.3994140625 -753.2042236328125 -746.416015625 -739.7901611328125 -734.30828857421875 -730.59735107421875 -729.420166015625 -730.54437255859375 -733.66290283203125 -731.58294677734375 -725.96173095703125 -718.90234375 -711.22442626953125 -703.70941162109375 -697.63116455078125 -692.5963134765625 -689.097412109375 -685.5157470703125 -681.29248046875 -676.073486328125 -669.6787109375 -661.3658447265625 -652.957763671875 -644.91644287109375 -637.3365478515625 -629.653564453125 -621.96514892578125 -614.6973876953125 -608.90216064453125 -605.172607421875 -602.57330322265625 -601.06024169921875 -599.627685546875 -99999 -99999
 -99999 -99999 -99999 -99999 -99999 -99999 -99999 -99999 -99999 -99999 -99999 -99999 -99999 -99999 -99999 -99999 -99999 -99999 -99999 -99999 -99999 -1257.801513671875 -1257.0672607421875 -1255.9078369140625 -1254.32275390625 -1252.3575439453125 -1249.7362060546875 -1246.654541015625 -1243.420654296875 -1240.905517578125 -1240.903076171875 -1243.4144287109375 -1248.3126220703125 -1255.2110595703125 -1262.5821533203125 -1269.4664306640625 -1275.2197265625 -1280.3282470703125 -1284.2291259765625 -1287.07861328125 -1288.90478515625 -1289.677978515625 -1289.3741455078125 -1287.587158203125 -1284.7080078125 -1280.7564697265625 -1275.7939453125 -1269.7047119140625 -1262.3707275390625 -1254.3609619140625 -1245.334228515625 -1235.393310546875 -1224.9962158203125 -1213.700927734375 -1201.90673828125 -1189.618896484375 -1176.820068359375 -1163.544921875 -1149.9752197265625 -1136.1103515625 -1121.9083251953125 -1107.519775390625 -1092.9718017578125 -1078.2362060546875 -1063.39794921875 -1048.5472412109375 -1033.6221923828125 -1018.717529296875 -1003.88934326171875 -989.159423828125 -974.6103515625 -960.197998046875 -946.07684326171875 -932.23944091796875 -918.68536376953125 -905.55621337890625 -892.84716796875 -880.56549072265625 -868.71807861328125 -857.50250244140625 -846.6614990234375 -836.36749267578125 -826.5897216796875 -817.31640625 -808.45208740234375 -799.89971923828125 -791.6527099609375 -783.56451416015625 -775.69635009765625 -767.92169189453125 -760.2615966796875 -752.7822265625 -745.6820068359375 -738.85137939453125 -732.72760009765625 -727.5465087890625 -723.74871826171875 -721.62213134765625 -721.83575439453125 -724.78607177734375 -726.45843505859375 -725.118896484375 -720.22723388671875 -713.40472412109375 -705.82537841796875 -698.93548583984375 -693.301513671875 -690.1650390625 -688.7159423828125 -687.1280517578125 -684.53948974609375 -681.0096435546875 -674.83392333984375 -667.27752685546875 -658.98309326171875 -651.00469970703125 -643.3035888671875 -635.64605712890625 -628.21044921875 -621.362060546875 -615.63336181640625 -611.1005859375 -607.7501220703125 -605.36932373046875 -603.17901611328125 -99999 -99999
 -99999 -99999 -99999 -99999 -99999 -99999 -99999 -99999 -99999 -99999 -99999 -99999 -99999 -99999 -99999 -99999 -99999 -99999 -99999 -99999 -99999 -1265.0169677734375 -1264.877685546875 -1264.0860595703125 -1262.9801025390625 -1261.794921875 -1260.2607421875 -1258.1141357421875 -1255.16796875 -1251.9013671875 -1249.930419921875 -1251.9818115234375 -1258.5269775390625 -1265.301513671875 -1271.27734375 -1276.7840576171875 -1281.2269287109375 -1284.8106689453125 -1287.5206298828125 -1289.3245849609375 -1290.182861328125 -1289.6905517578125 -1288.1593017578125 -1285.6160888671875 -1282.050048828125 -1277.3526611328125 -1271.6527099609375 -1264.7333984375 -1256.867431640625 -1248.1104736328125 -1238.4683837890625 -1228.2650146484375 -1217.1573486328125 -1205.4697265625 -1193.2550048828125 -1180.49072265625 -1167.1844482421875 -1153.5634765625 -1139.6280517578125 -1125.3221435546875 -1110.7984619140625 -1096.0943603515625 -1081.234375 -1066.2105712890625 -1051.1239013671875 -1036.02685546875 -1020.9298095703125 -1005.84942626953125 -990.8836669921875 -976.05181884765625 -961.354248046875 -946.90911865234375 -932.725830078125 -918.81756591796875 -905.29144287109375 -892.13104248046875 -879.387939453125 -867.0992431640625 -855.34173583984375 -844.00958251953125 -833.29803466796875 -822.89727783203125 -813.10113525390625 -803.714111328125 -794.66802978515625 -785.94720458984375 -777.54296875 -769.34661865234375 -761.25732421875 -753.41180419921875 -745.77728271484375 -738.34735107421875 -731.35699462890625 -725.01507568359375 -719.447509765625 -714.874267578125 -711.9189453125 -711.16729736328125 -712.09100341796875 -714.22381591796875 -716.361572265625 -715.555419921875 -712.1209716796875 -706.81781005859375 -700.25152587890625 -693.301513671875 -688.7833251953125 -688.08355712890625 -689.3551025390625 -690.15618896484375 -688.91082763671875 -686.10345458984375 -681.84625244140625 -674.56158447265625 -666.74365234375 -658.7257080078125 -650.78875732421875 -642.9349365234375 -635.662109375 -628.6829833984375 -622.673583984375 -617.87017822265625 -613.85589599609375 -610.5377197265625 -607.69091796875 -99999 -99999
 -99999 -99999 -99999 -99999 -99999 -99999 -99999 -99999 -99999 -99999 -99999 -99999 -99999 -99999 -99999 -99999 -99999 -99999 -99999 -99999 -1271.6790771484375 -1272.4034423828125 -1272.9027099609375 -1272.6236572265625 -1272.3809814453125 -1272.7398681640625 -1273.085205078125 -1272.59619140625 -1271.1287841796875 -1269.2769775390625 -1267.12939453125 -1270.0517578125 -1274.287841796875 -1278.9345703125 -1282.4384765625 -1285.6668701171875 -1288.336669921875 -1290.5701904296875 -1291.98388671875 -1292.2786865234375 -1291.6649169921875 -1290.240478515625 -1287.8369140625 -1284.3548583984375 -1279.6829833984375 -1274.1961669921875 -1267.674560546875 -1260.000732421875 -1251.5570068359375 -1242.211669921875 -1232.1790771484375 -1221.259521484375 -1209.688720703125 -1197.450927734375 -1184.705322265625 -1171.4844970703125 -1157.736083984375 -1143.68115234375 -1129.3565673828125 -1114.6732177734375 -1099.81396484375 -1084.8197021484375 -1069.6435546875 -1054.3756103515625 -1039.078369140625 -1023.76312255859375 -1008.48870849609375 -993.23529052734375 -978.1058349609375 -963.18231201171875 -948.35772705078125 -933.821533203125 -919.620361328125 -905.61285400390625 -892.08074951171875 -878.9873046875 -866.18011474609375 -853.9896240234375 -842.21185302734375 -830.843505859375 -820.067626953125 -809.77789306640625 -799.8555908203125 -790.37548828125 -781.27093505859375 -772.5050048828125 -764.01751708984375 -755.7127685546875 -747.60821533203125 -739.63299560546875 -732.0009765625 -724.655517578125 -717.73638916015625 -711.44219970703125 -706.20654296875 -702.3277587890625 -699.8712158203125 -698.98101806640625 -699.88861083984375 -701.988037109375 -703.8685302734375 -704.86700439453125 -704.35894775390625 -700.6566162109375 -695.308349609375 -688.68328857421875 -685.0328369140625 -686.9678955078125 -690.977294921875 -694.168212890625 -694.98333740234375 -693.3450927734375 -689.255126953125 -682.984375 -675.5281982421875 -667.41033935546875 -659.31048583984375 -651.2828369140625 -643.69537353515625 -636.74090576171875 -630.46759033203125 -624.88983154296875 -620.27001953125 -616.4095458984375 -612.870849609375 -99999 -99999
 -99999 -99999 -99999 -99999 -99999 -99999 -99999 -99999 -99999 -99999 -99999 -99999 -99999 -99999 -99999 -99999 -99999 -99999 -99999 -99999 -1278.343017578125 -1279.5543212890625 -1280.577880859375 -1281.1292724609375 -1282.120361328125 -1284.85595703125 -1287.943115234375 -1289.482666015625 -1289.974609375 -1290.6136474609375 -1291.594970703125 -1292.6141357421875 -1292.8824462890625 -1293.4571533203125 -1294.3656005859375 -1295.73779296875 -1296.736572265625 -1296.8814697265625 -1296.568603515625 -1295.619140625 -1294.068603515625 -1291.3604736328125 -1287.7000732421875 -1283.149658203125 -1277.7454833984375 -1271.490234375 -1263.9605712890625 -1255.792724609375 -1246.72998046875 -1236.599853515625 -1225.9146728515625 -1214.4443359375 -1202.2421875 -1189.483154296875 -1176.3155517578125 -1162.52197265625 -1148.392333984375 -1133.995849609375 -1119.192626953125 -1104.21240234375 -1089.081298828125 -1073.7235107421875 -1058.3106689453125 -1042.781494140625 -1027.2982177734375 -1011.812744140625 -996.28118896484375 -980.92034912109375 -965.67449951171875 -950.56805419921875 -935.71240234375 -921.0804443359375 -906.790771484375 -892.82855224609375 -879.22113037109375 -866.06256103515625 -853.3292236328125 -841.10150146484375 -829.30133056640625 -818.01983642578125 -807.2548828125 -796.9283447265625 -787.0587158203125 -777.49957275390625 -768.52581787109375 -759.70703125 -751.22576904296875 -742.8651123046875 -734.8082275390625 -726.8050537109375 -719.17889404296875 -711.76788330078125 -704.95794677734375 -698.75457763671875 -693.4451904296875 -689.640625 -687.29058837890625 -686.5054931640625 -687.221923828125 -689.25457763671875 -691.83306884765625 -694.30120849609375 -696.15667724609375 -695.935302734375 -692.34356689453125 -686.9481201171875 -685.040283203125 -688.30615234375 -694.75958251953125 -701.29693603515625 -703.458740234375 -702.54425048828125 -698.516845703125 -692.49127197265625 -684.9105224609375 -676.68231201171875 -668.2486572265625 -660.02545166015625 -652.13214111328125 -644.8074951171875 -638.21282958984375 -632.39984130859375 -627.10504150390625 -622.44024658203125 -618.25567626953125 -99999 -99999
 -99999 -99999 -99999 -99999 -99999 -99999 -99999 -99999 -99999 -99999 -99999 -99999 -99999 -99999 -99999 -99999 -99999 -99999 -99999 -1282.83544921875 -1284.7193603515625 -1286.6474609375 -1288.5115966796875 -1290.078125 -1292.34228515625 -1298.5362548828125 -1304.345947265625 -1306.3870849609375 -1307.75830078125 -1309.8924560546875 -1312.2098388671875 -1311.9476318359375 -1309.5623779296875 -1307.8282470703125 -1306.7593994140625 -1305.504150390625 -1304.39111328125 -1303.3017578125 -1301.770263671875 -1299.39697265625 -1296.2623291015625 -1292.48974609375 -1287.921142578125 -1282.59423828125 -1276.120849609375 -1268.941162109375 -1260.81884765625 -1251.660400390625 -1241.807373046875 -1231.250244140625 -1219.8436279296875 -1207.7208251953125 -1195.0379638671875 -1181.8485107421875 -1168.0262451171875 -1153.8770751953125 -1139.3370361328125 -1124.4412841796875 -1109.328125 -1093.9898681640625 -1078.5286865234375 -1062.8994140625 -1047.2027587890625 -1031.483154296875 -1015.767822265625 -1000.06097412109375 -984.418701171875 -968.86322021484375 -953.5576171875 -938.327880859375 -923.30780029296875 -908.6854248046875 -894.31494140625 -880.26495361328125 -866.67974853515625 -853.5233154296875 -840.77630615234375 -828.56439208984375 -816.7950439453125 -805.5855712890625 -794.86639404296875 -784.55523681640625 -774.76220703125 -765.37548828125 -756.38970947265625 -747.66717529296875 -739.2451171875 -730.95526123046875 -723.02349853515625 -715.0751953125 -707.48858642578125 -700.1092529296875 -693.154052734375 -686.98199462890625 -681.761474609375 -677.9808349609375 -675.62298583984375 -674.84423828125 -675.61358642578125 -677.4395751953125 -680.60198974609375 -684.3438720703125 -689.07427978515625 -691.9295654296875 -690.57470703125 -688.5101318359375 -688.351806640625 -693.18865966796875 -702.5587158203125 -710.64959716796875 -714.31170654296875 -713.50433349609375 -709.21673583984375 -702.706298828125 -694.64630126953125 -685.96929931640625 -677.26348876953125 -668.69647216796875 -660.4967041015625 -652.89520263671875 -645.7735595703125 -639.4830322265625 -633.83453369140625 -628.71624755859375 -623.94354248046875 -99999 -99999
 -99999 -99999 -99999 -99999 -99999 -99999 -99999 -99999 -99999 -99999 -99999 -99999 -99999 -99999 -99999 -99999 -99999 -99999 -99999 -1288.4454345703125 -1290.765380859375 -1293.3095703125 -1295.9901123046875 -1299.7257080078125 -1305.13427734375 -1312.2459716796875 -1318.6502685546875 -1320.576171875 -1321.9349365234375 -1324.1552734375 -1326.3233642578125 -1325.443359375 -1322.2451171875 -1319.236572265625 -1316.63330078125 -1314.298095703125 -1312.0345458984375 -1309.3837890625 -1306.236083984375 -1302.750732421875 -1298.708740234375 -1293.98974609375 -1288.27734375 -1281.73583984375 -1274.6082763671875 -1266.541015625 -1257.4869384765625 -1247.853271484375 -1237.40087890625 -1226.0557861328125 -1213.99951171875 -1201.406982421875 -1188.0545654296875 -1174.282470703125 -1159.980712890625 -1145.2686767578125 -1130.3582763671875 -1115.0101318359375 -1099.5045166015625 -1083.9093017578125 -1068.088134765625 -1052.240478515625 -1036.308837890625 -1020.41571044921875 -1004.53076171875 -988.60614013671875 -972.84368896484375 -957.21978759765625 -941.72735595703125 -926.4122314453125 -911.36700439453125 -896.65264892578125 -882.21142578125 -868.13177490234375 -854.5855712890625 -841.3675537109375 -828.60125732421875 -816.51171875 -804.7935791015625 -793.69244384765625 -782.96240234375 -772.8509521484375 -763.17974853515625 -753.9212646484375 -745.03057861328125 -736.43365478515625 -728.21533203125 -720.2440185546875 -712.31005859375 -704.6951904296875 -697.0640869140625 -689.88018798828125 -682.88037109375 -676.73095703125 -671.32672119140625 -667.328369140625 -665.1309814453125 -664.55517578125 -665.43426513671875 -667.42962646484375 -670.90679931640625 -676.8720703125 -682.9420166015625 -687.63287353515625 -689.8076171875 -691.49957275390625 -693.94061279296875 -701.81549072265625 -715.42657470703125 -724.1988525390625 -727.5128173828125 -725.8858642578125 -720.29376220703125 -712.565185546875 -703.8258056640625 -694.68896484375 -685.49346923828125 -676.777099609375 -668.39697265625 -660.55548095703125 -653.18988037109375 -646.48968505859375 -640.34503173828125 -634.61907958984375 -629.46563720703125 -99999 -99999
 -99999 -99999 -99999 -99999 -99999 -99999 -99999 -99999 -99999 -99999 -99999 -99999 -99999 -99999 -99999 -99999 -99999 -99999 -1290.81591796875 -1293.2978515625 -1296.0218505859375 -1299.2659912109375 -1302.991943359375 -1307.6644287109375 -1313.5631103515625 -1320.57373046875 -1326.09375 -1328.718017578125 -1330.8001708984375 -1332.420166015625 -1333.2264404296875 -1331.7327880859375 -1329.2841796875 -1327.0120849609375 -1324.3489990234375 -1321.56640625 -1318.3909912109375 -1314.6739501953125 -1310.634033203125 -1306.1143798828125 -1300.8038330078125 -1294.94091796875 -1288.444091796875 -1281.2568359375 -1273.2772216796875 -1264.2994384765625 -1254.709716796875 -1244.1685791015625 -1232.863037109375 -1220.9918212890625 -1208.1959228515625 -1194.919677734375 -1181.156005859375 -1166.7352294921875 -1151.9849853515625 -1136.9122314453125 -1121.423095703125 -1105.780517578125 -1089.954345703125 -1073.9927978515625 -1057.9443359375 -1041.84912109375 -1025.7567138671875 -1009.69342041015625 -993.5723876953125 -977.5648193359375 -961.64361572265625 -945.9425048828125 -930.2996826171875 -914.86126708984375 -899.83941650390625 -884.9908447265625 -870.45355224609375 -856.490234375 -842.84637451171875 -829.65325927734375 -817.057861328125 -804.9346923828125 -793.4139404296875 -782.32659912109375 -771.7711181640625 -761.8277587890625 -752.300537109375 -743.2711181640625 -734.42791748046875 -726.325927734375 -718.382568359375 -710.6116943359375 -703.0743408203125 -695.638671875 -688.20050048828125 -681.32037353515625 -674.43719482421875 -668.01824951171875 -662.50018310546875 -658.92254638671875 -656.87152099609375 -656.4215087890625 -658.11212158203125 -661.04815673828125 -665.5322265625 -671.86767578125 -679.033447265625 -686.08349609375 -691.3182373046875 -697.0540771484375 -705.044921875 -716.5152587890625 -732.13360595703125 -740.668212890625 -741.56439208984375 -737.783203125 -729.996826171875 -721.32177734375 -711.88983154296875 -702.16546630859375 -692.79510498046875 -683.826171875 -675.36614990234375 -667.41461181640625 -659.9476318359375 -652.95196533203125 -646.42669677734375 -640.4478759765625 -634.77239990234375 -99999 -99999
 -99999 -99999 -99999 -99999 -99999 -99999 -99999 -99999 -99999 -99999 -99999 -99999 -99999 -99999 -99999 -99999 -99999 -99999 -1294.6944580078125 -1297.416259765625 -1300.47265625 -1303.9383544921875 -1307.9449462890625 -1312.9012451171875 -1318.3638916015625 -1324.3216552734375 -1329.258544921875 -1332.696044921875 -1335.501953125 -1337.2174072265625 -1336.234130859375 -1333.609130859375 -1332.6800537109375 -1331.8377685546875 -1330.258056640625 -1327.3521728515625 -1323.429931640625 -1319.0045166015625 -1314.1663818359375 -1308.575439453125 -1302.5660400390625 -1296.009765625 -1288.7125244140625 -1280.483154296875 -1271.75341796875 -1262.093017578125 -1251.637451171875 -1240.4342041015625 -1228.62353515625 -1215.908447265625 -1202.6575927734375 -1188.8380126953125 -1174.3858642578125 -1159.4869384765625 -1144.2108154296875 -1128.6353759765625 -1112.7628173828125 -1096.684326171875 -1080.55908203125 -1064.2921142578125 -1048.0052490234375 -1031.70654296875 -1015.4417724609375 -999.1849365234375 -982.9627685546875 -966.83056640625 -950.91033935546875 -934.98992919921875 -919.2935791015625 -903.8746337890625 -888.6995849609375 -873.83526611328125 -859.3143310546875 -845.33197021484375 -831.68310546875 -818.5423583984375 -806.04754638671875 -793.9683837890625 -782.4307861328125 -771.63482666015625 -761.25042724609375 -751.47943115234375 -742.20941162109375 -733.4176025390625 -725.08489990234375 -717.17706298828125 -709.5361328125 -702.19384765625 -695.077880859375 -687.89605712890625 -681.13995361328125 -674.45050048828125 -667.89617919921875 -661.71722412109375 -656.18231201171875 -652.0555419921875 -651.09228515625 -651.50860595703125 -653.6429443359375 -657.27545166015625 -662.5357666015625 -669.67828369140625 -677.81671142578125 -686.04046630859375 -694.52313232421875 -704.0794677734375 -715.16900634765625 -729.63543701171875 -744.4639892578125 -752.62933349609375 -753.0863037109375 -745.8304443359375 -737.3597412109375 -727.36053466796875 -717.55377197265625 -707.88873291015625 -698.6131591796875 -689.6610107421875 -681.3111572265625 -673.3319091796875 -665.7908935546875 -658.6834716796875 -652.0054931640625 -645.70526123046875 -639.72723388671875 -634.03558349609375 -99999
 -99999 -99999 -99999 -99999 -99999 -99999 -99999 -99999 -99999 -99999 -99999 -99999 -99999 -99999 -99999 -99999 -99999 -99999 -1297.888916015625 -1300.6533203125 -1303.7154541015625 -1307.24365234375 -1311.2176513671875 -1315.6466064453125 -1320.545166015625 -1325.359619140625 -1329.777587890625 -1333.6358642578125 -1337.202392578125 -1339.2388916015625 -1336.244384765625 -1331.849853515625 -1334.428466796875 -1336.0318603515625 -1334.74365234375 -1331.6357421875 -1327.4163818359375 -1322.3896484375 -1316.7080078125 -1310.5350341796875 -1303.855712890625 -1296.4332275390625 -1288.4263916015625 -1279.6767578125 -1270.2161865234375 -1259.7431640625 -1248.8109130859375 -1236.9617919921875 -1224.42822265625 -1211.1033935546875 -1197.1485595703125 -1182.687744140625 -1167.6611328125 -1152.218017578125 -1136.4765625 -1120.3953857421875 -1104.1451416015625 -1087.7786865234375 -1071.2738037109375 -1054.780517578125 -1038.27490234375 -1021.85369873046875 -1005.433837890625 -989.057861328125 -972.77117919921875 -956.608154296875 -940.5262451171875 -924.57135009765625 -908.8365478515625 -893.35699462890625 -878.10980224609375 -863.23516845703125 -848.7540283203125 -834.666748046875 -821.0438232421875 -808.081787109375 -795.5587158203125 -783.59014892578125 -772.4222412109375 -761.6839599609375 -751.62408447265625 -742.01617431640625 -733.08233642578125 -724.69305419921875 -716.660400390625 -709.09649658203125 -701.9525146484375 -694.95709228515625 -688.3515625 -681.8216552734375 -675.47564697265625 -669.26922607421875 -663.30828857421875 -657.42706298828125 -652.20068359375 -648.9791259765625 -647.85443115234375 -648.60491943359375 -651.11297607421875 -655.66046142578125 -661.838134765625 -669.19891357421875 -677.84075927734375 -687.37451171875 -697.8836669921875 -709.319091796875 -722.4312744140625 -736.17529296875 -749.793701171875 -756.0479736328125 -755.347900390625 -749.160400390625 -740.04949951171875 -730.1507568359375 -720.660888671875 -711.41876220703125 -702.64642333984375 -694.2322998046875 -685.9957275390625 -678.25360107421875 -670.7962646484375 -663.65606689453125 -656.7838134765625 -650.3345947265625 -644.17327880859375 -638.2000732421875 -99999
 -99999 -99999 -99999 -99999 -99999 -99999 -99999 -99999 -99999 -99999 -99999 -99999 -99999 -99999 -99999 -99999 -99999 -1297.7491455078125 -1300.2020263671875 -1302.9395751953125 -1305.9393310546875 -1309.2156982421875 -1312.8251953125 -1316.802734375 -1320.6588134765625 -1324.6046142578125 -1328.1820068359375 -1331.34521484375 -1334.346923828125 -1336.681884765625 -1337.43115234375 -1335.240234375 -1338.4764404296875 -1340.1943359375 -1338.62451171875 -1334.920166015625 -1329.900390625 -1324.2877197265625 -1318.2764892578125 -1311.6793212890625 -1304.3565673828125 -1296.5579833984375 -1288.0113525390625 -1278.609619140625 -1268.5565185546875 -1257.626708984375 -1245.817138671875 -1233.322998046875 -1220.1671142578125 -1206.1971435546875 -1191.6939697265625 -1176.6666259765625 -1161.052978515625 -1145.0823974609375 -1128.8372802734375 -1112.32568359375 -1095.6937255859375 -1078.9464111328125 -1062.1868896484375 -1045.4859619140625 -1028.8529052734375 -1012.2457275390625 -995.73638916015625 -979.3448486328125 -963.062255859375 -946.83026123046875 -930.62994384765625 -914.678466796875 -898.9266357421875 -883.337646484375 -868.05206298828125 -853.1968994140625 -838.75640869140625 -824.6337890625 -811.189208984375 -798.2818603515625 -785.9039306640625 -774.22406005859375 -763.15509033203125 -752.673095703125 -742.79345703125 -733.58917236328125 -725.0889892578125 -716.8553466796875 -709.31451416015625 -702.30804443359375 -695.50994873046875 -689.1793212890625 -682.99578857421875 -676.93359375 -671.03887939453125 -665.42413330078125 -659.820556640625 -654.61761474609375 -650.23040771484375 -647.1434326171875 -646.465576171875 -647.77935791015625 -650.76220703125 -655.396728515625 -661.58514404296875 -669.5709228515625 -678.87933349609375 -688.98583984375 -700.1876220703125 -712.462646484375 -725.35430908203125 -737.97796630859375 -747.83367919921875 -753.96356201171875 -753.57366943359375 -747.15582275390625 -738.87994384765625 -729.57061767578125 -721.08990478515625 -712.928955078125 -704.973388671875 -697.11431884765625 -689.67889404296875 -681.973388671875 -674.697265625 -667.719482421875 -660.92724609375 -654.32781982421875 -647.9832763671875 -641.92095947265625 -99999
 -99999 -99999 -99999 -99999 -99999 -99999 -99999 -99999 -99999 -99999 -99999 -99999 -99999 -99999 -99999 -99999 -99999 -1299.4967041015625 -1301.8328857421875 -1304.3387451171875 -1307.0516357421875 -1310.040283203125 -1313.3199462890625 -1316.3558349609375 -1319.49951171875 -1322.3514404296875 -1324.7962646484375 -1326.6932373046875 -1328.129638671875 -1327.6097412109375 -1325.63232421875 -1329.2657470703125 -1342.0919189453125 -1343.2088623046875 -1340.34814453125 -1336.025146484375 -1330.7366943359375 -1324.912841796875 -1318.5750732421875 -1311.788330078125 -1304.3505859375 -1296.11376953125 -1287.0986328125 -1277.288330078125 -1266.670654296875 -1255.0673828125 -1242.8133544921875 -1229.815185546875 -1215.89794921875 -1201.4754638671875 -1186.4249267578125 -1170.646240234375 -1154.5894775390625 -1138.1385498046875 -1121.3443603515625 -1104.412353515625 -1087.30517578125 -1070.30615234375 -1053.3006591796875 -1036.4112548828125 -1019.620361328125 -1002.95953369140625 -986.46240234375 -970.093017578125 -953.68304443359375 -937.47186279296875 -921.33819580078125 -905.4171142578125 -889.57440185546875 -873.98193359375 -858.798828125 -843.94219970703125 -829.39727783203125 -815.48504638671875 -802.1192626953125 -789.23992919921875 -777.08197021484375 -765.6651611328125 -754.71697998046875 -744.566162109375 -734.83526611328125 -726.24908447265625 -718.03973388671875 -710.29937744140625 -703.17242431640625 -696.4755859375 -690.286865234375 -684.36627197265625 -678.52178955078125 -672.8321533203125 -667.3907470703125 -662.181884765625 -657.16754150390625 -652.54693603515625 -648.949462890625 -646.9302978515625 -646.54705810546875 -647.7796630859375 -650.9154052734375 -655.9427490234375 -662.58349609375 -670.4915771484375 -679.65032958984375 -689.8043212890625 -701.203857421875 -713.0731201171875 -725.0181884765625 -735.7755126953125 -744.45977783203125 -748.1275634765625 -747.26385498046875 -742.50274658203125 -734.74432373046875 -726.72235107421875 -719.67572021484375 -712.788818359375 -705.88525390625 -698.8604736328125 -691.7613525390625 -684.66192626953125 -677.701171875 -670.888671875 -664.1529541015625 -657.616943359375 -651.2740478515625 -645.04632568359375 -99999
 -99999 -99999 -99999 -99999 -99999 -99999 -99999 -99999 -99999 -99999 -99999 -99999 -99999 -99999 -99999 -99999 -1298.607666015625 -1300.5916748046875 -1302.766845703125 -1305.0673828125 -1307.447509765625 -1309.8995361328125 -1312.40380859375 -1314.9482421875 -1317.228759765625 -1319.302001953125 -1320.9041748046875 -1321.5535888671875 -1321.3551025390625 -1320.4793701171875 -1319.447998046875 -1326.1199951171875 -1335.6302490234375 -1340.9271240234375 -1339.20361328125 -1334.6572265625 -1329.5052490234375 -1323.9134521484375 -1317.8629150390625 -1311.075927734375 -1303.510986328125 -1295.22216796875 -1285.889892578125 -1275.7335205078125 -1264.626708984375 -1252.65478515625 -1239.775634765625 -1226.17236328125 -1211.76025390625 -1196.6707763671875 -1181.0172119140625 -1164.802490234375 -1148.1204833984375 -1131.1697998046875 -1113.865234375 -1096.4500732421875 -1079.0701904296875 -1061.7279052734375 -1044.52734375 -1027.494384765625 -1010.61956787109375 -994.03375244140625 -977.58148193359375 -961.21942138671875 -944.92291259765625 -928.80255126953125 -912.70733642578125 -896.70538330078125 -880.80816650390625 -865.33978271484375 -850.1519775390625 -835.2938232421875 -820.91363525390625 -807.09136962890625 -793.75286865234375 -781.00177001953125 -769.2149658203125 -757.84747314453125 -747.46966552734375 -737.43768310546875 -728.36083984375 -720.0269775390625 -712.0885009765625 -704.74627685546875 -697.899169921875 -691.635009765625 -685.8865966796875 -680.22064208984375 -674.74322509765625 -669.44842529296875 -664.43072509765625 -659.4918212890625 -655.1026611328125 -651.390869140625 -648.5462646484375 -646.88726806640625 -646.80999755859375 -648.6158447265625 -652.0201416015625 -656.916259765625 -663.38214111328125 -671.343017578125 -680.4945068359375 -690.3853759765625 -701.1719970703125 -712.0736083984375 -722.403564453125 -731.7064208984375 -738.5423583984375 -741.940673828125 -741.3203125 -737.01544189453125 -730.5552978515625 -723.12994384765625 -717.5855712890625 -712.05517578125 -706.1317138671875 -699.67364501953125 -693.021240234375 -686.3875732421875 -679.689697265625 -673.13629150390625 -666.681884765625 -660.25067138671875 -653.884033203125 -647.83282470703125 -99999
 -99999 -99999 -99999 -99999 -99999 -99999 -99999 -99999 -99999 -99999 -99999 -99999 -99999 -99999 -99999 -99999 -1299.4285888671875 -1301.2529296875 -1303.1263427734375 -1305.0523681640625 -1307.10400390625 -1309.2025146484375 -1311.1878662109375 -1313.010009765625 -1314.6602783203125 -1315.8690185546875 -1316.4913330078125 -1316.6336669921875 -1316.100830078125 -1315.0816650390625 -1315.5860595703125 -1319.2557373046875 -1327.5203857421875 -1333.1351318359375 -1333.228759765625 -1330.6319580078125 -1326.6439208984375 -1321.58154296875 -1315.9552001953125 -1309.549072265625 -1302.1619873046875 -1293.867919921875 -1284.35107421875 -1273.8868408203125 -1262.3878173828125 -1249.882568359375 -1236.5142822265625 -1222.45068359375 -1207.4844970703125 -1191.890625 -1175.718017578125 -1158.9075927734375 -1141.7769775390625 -1124.17626953125 -1106.4544677734375 -1088.6634521484375 -1070.8878173828125 -1053.29736328125 -1035.8253173828125 -1018.74072265625 -1001.92303466796875 -985.4361572265625 -969.077392578125 -952.82037353515625 -936.7681884765625 -920.73870849609375 -904.68548583984375 -888.65771484375 -872.91973876953125 -857.4254150390625 -842.21270751953125 -827.42919921875 -813.3515625 -799.544677734375 -786.26409912109375 -773.92669677734375 -762.25213623046875 -751.3953857421875 -741.1644287109375 -731.6424560546875 -722.8843994140625 -714.6346435546875 -707.19281005859375 -700.26141357421875 -693.67962646484375 -687.72955322265625 -682.1483154296875 -676.764404296875 -671.525634765625 -666.54156494140625 -661.8466796875 -657.579345703125 -653.77734375 -650.57159423828125 -648.239013671875 -647.358642578125 -647.77471923828125 -649.63067626953125 -653.1005859375 -658.031005859375 -664.4649658203125 -671.9921875 -680.62469482421875 -690.1182861328125 -699.85491943359375 -709.94024658203125 -719.29803466796875 -726.949951171875 -732.7265625 -735.66180419921875 -735.41632080078125 -731.619384765625 -726.5826416015625 -721.21875 -716.07861328125 -711.0218505859375 -705.546875 -699.62640380859375 -693.479248046875 -687.15380859375 -680.91162109375 -674.7269287109375 -668.46728515625 -662.17791748046875 -655.91485595703125 -649.70977783203125 -99999
 -99999 -99999 -99999 -99999 -99999 -99999 -99999 -99999 -99999 -99999 -99999 -99999 -99999 -99999 -99999 -1298.2491455078125 -1299.76806640625 -1301.3524169921875 -1303.001708984375 -1304.6822509765625 -1306.29345703125 -1307.82421875 -1309.31689453125 -1310.661376953125 -1311.7374267578125 -1312.4007568359375 -1312.5302734375 -1312.1539306640625 -1311.5162353515625 -1311.130126953125 -1311.6490478515625 -1314.535888671875 -1319.6644287109375 -1324.0098876953125 -1325.907958984375 -1324.6585693359375 -1321.8682861328125 -1318.1302490234375 -1313.264892578125 -1307.3638916015625 -1300.3961181640625 -1292.132080078125 -1282.4422607421875 -1271.7933349609375 -1259.8067626953125 -1247.0693359375 -1233.3338623046875 -1218.6339111328125 -1203.3453369140625 -1187.2203369140625 -1170.482666015625 -1153.220703125 -1135.4705810546875 -1117.435302734375 -1099.1812744140625 -1080.9625244140625 -1062.8226318359375 -1044.8890380859375 -1027.36474609375 -1010.225341796875 -993.52752685546875 -977.085693359375 -960.92608642578125 -945.07611083984375 -929.21905517578125 -913.26788330078125 -897.3214111328125 -881.4600830078125 -865.66387939453125 -850.1824951171875 -835.2396240234375 -820.70123291015625 -806.67083740234375 -793.13427734375 -780.05633544921875 -767.81671142578125 -756.3131103515625 -745.8172607421875 -736.1053466796875 -727.04339599609375 -718.24505615234375 -710.36273193359375 -703.31219482421875 -696.5986328125 -690.29425048828125 -684.45184326171875 -678.97235107421875 -673.72430419921875 -668.80859375 -664.21136474609375 -659.908935546875 -656.02215576171875 -652.65631103515625 -650.17254638671875 -648.533203125 -647.9990234375 -648.69146728515625 -650.74749755859375 -654.2750244140625 -659.05804443359375 -665.26416015625 -672.4964599609375 -680.5758056640625 -689.20941162109375 -698.346435546875 -707.0640869140625 -715.0369873046875 -721.778076171875 -726.62158203125 -729.07177734375 -728.94000244140625 -726.91143798828125 -722.98895263671875 -718.51312255859375 -714.068603515625 -709.515380859375 -704.52056884765625 -698.81732177734375 -692.93426513671875 -687.13897705078125 -681.2589111328125 -675.4267578125 -669.5965576171875 -663.5418701171875 -657.33612060546875 -651.1207275390625 -99999
 -99999 -99999 -99999 -99999 -99999 -99999 -99999 -99999 -99999 -99999 -99999 -99999 -99999 -99999 -99999 -1298.4315185546875 -1299.7833251953125 -1301.1475830078125 -1302.44677734375 -1303.73876953125 -1305.020751953125 -1306.222900390625 -1307.2950439453125 -1308.053466796875 -1308.5982666015625 -1308.848876953125 -1308.759033203125 -1308.3358154296875 -1307.79248046875 -1307.503173828125 -1308.0430908203125 -1309.915771484375 -1313.287841796875 -1316.39501953125 -1318.427734375 -1318.5843505859375 -1317.0269775390625 -1314.094970703125 -1310.1468505859375 -1304.7623291015625 -1298.1488037109375 -1290.1800537109375 -1280.48388671875 -1269.543212890625 -1257.2525634765625 -1243.9813232421875 -1229.8438720703125 -1214.814697265625 -1198.9710693359375 -1182.4730224609375 -1165.2281494140625 -1147.421875 -1129.225830078125 -1110.60302734375 -1091.91552734375 -1073.1959228515625 -1054.7469482421875 -1036.6151123046875 -1019.0211181640625 -1001.8131103515625 -985.30181884765625 -969.11822509765625 -953.44256591796875 -937.91705322265625 -922.3299560546875 -906.6280517578125 -890.86431884765625 -875.01385498046875 -859.1656494140625 -843.84820556640625 -828.99493408203125 -814.79302978515625 -800.99371337890625 -787.72882080078125 -774.92633056640625 -762.579833984375 -751.285400390625 -741.5318603515625 -732.32342529296875 -723.4014892578125 -714.77203369140625 -707.0567626953125 -699.99853515625 -693.48468017578125 -687.39361572265625 -681.61114501953125 -676.28460693359375 -671.31121826171875 -666.6025390625 -662.2352294921875 -658.287353515625 -654.93505859375 -652.14874267578125 -650.06036376953125 -648.803955078125 -648.607177734375 -649.62176513671875 -651.9058837890625 -655.39031982421875 -660.03082275390625 -665.77191162109375 -672.42132568359375 -679.96038818359375 -687.9051513671875 -695.897216796875 -703.7430419921875 -710.88848876953125 -716.8289794921875 -720.91485595703125 -723.07806396484375 -723.285400390625 -721.79833984375 -719.05474853515625 -715.60491943359375 -711.55316162109375 -707.24359130859375 -702.48736572265625 -697.112548828125 -691.55169677734375 -686.16705322265625 -681.028076171875 -675.67755126953125 -670.0557861328125 -664.208740234375 -658.17333984375 -651.98846435546875 -99999
 -99999 -99999 -99999 -99999 -99999 -99999 -99999 -99999 -99999 -99999 -99999 -99999 -99999 -99999 -1297.192626953125 -1298.33740234375 -1299.4185791015625 -1300.512451171875 -1301.5712890625 -1302.58056640625 -1303.50146484375 -1304.2540283203125 -1304.8974609375 -1305.35205078125 -1305.5841064453125 -1305.5340576171875 -1305.2113037109375 -1304.7464599609375 -1304.287841796875 -1304.0479736328125 -1304.343017578125 -1305.698486328125 -1308.0985107421875 -1310.5352783203125 -1312.2677001953125 -1312.71533203125 -1311.791748046875 -1309.55810546875 -1306.2763671875 -1301.88427734375 -1295.9849853515625 -1287.9610595703125 -1278.1085205078125 -1266.8585205078125 -1254.197265625 -1240.6480712890625 -1226.2099609375 -1210.79052734375 -1194.6734619140625 -1177.742919921875 -1160.126953125 -1141.9425048828125 -1123.1043701171875 -1104.014404296875 -1084.78759765625 -1065.6656494140625 -1046.77392578125 -1028.5406494140625 -1010.7366943359375 -993.60552978515625 -977.30419921875 -961.5523681640625 -946.36810302734375 -931.22320556640625 -916.12109375 -900.9205322265625 -885.24859619140625 -869.33721923828125 -853.645751953125 -838.26031494140625 -823.55682373046875 -809.7708740234375 -796.4996337890625 -783.470458984375 -770.8829345703125 -758.497314453125 -747.6077880859375 -737.901123046875 -729.05999755859375 -720.33209228515625 -711.96722412109375 -704.30206298828125 -697.367431640625 -691.01470947265625 -684.89788818359375 -679.2935791015625 -674.10736083984375 -669.22705078125 -664.742431640625 -660.7593994140625 -657.218994140625 -654.17889404296875 -651.71160888671875 -650.02117919921875 -649.25958251953125 -649.44073486328125 -650.61273193359375 -652.818115234375 -656.15655517578125 -660.66412353515625 -666.11517333984375 -672.35345458984375 -679.13323974609375 -686.18402099609375 -693.5050048828125 -700.3980712890625 -706.51904296875 -711.58367919921875 -715.3218994140625 -717.5321044921875 -718.11138916015625 -717.09222412109375 -714.917724609375 -711.965576171875 -708.47747802734375 -704.49786376953125 -699.895263671875 -694.7869873046875 -689.64434814453125 -684.9019775390625 -680.18084716796875 -675.3123779296875 -670.13775634765625 -664.42462158203125 -658.4049072265625 -652.27191162109375 -99999
 -99999 -99999 -99999 -99999 -99999 -99999 -99999 -99999 -99999 -99999 -99999 -99999 -99999 -99999 -1296.9920654296875 -1297.9259033203125 -1298.8162841796875 -1299.6575927734375 -1300.418212890625 -1301.0982666015625 -1301.6795654296875 -1302.14208984375 -1302.4654541015625 -1302.58837890625 -1302.5057373046875 -1302.24658203125 -1301.8453369140625 -1301.3590087890625 -1300.92626953125 -1300.797607421875 -1301.1474609375 -1302.0885009765625 -1303.62255859375 -1305.330322265625 -1306.5462646484375 -1306.96923828125 -1306.483642578125 -1305.0386962890625 -1302.43505859375 -1298.69287109375 -1293.320556640625 -1285.4871826171875 -1275.6888427734375 -1263.758056640625 -1250.9483642578125 -1237.0621337890625 -1222.349609375 -1206.8419189453125 -1190.422119140625 -1173.2208251953125 -1155.16748046875 -1136.476806640625 -1117.1976318359375 -1097.569580078125 -1077.7532958984375 -1058.2041015625 -1038.9658203125 -1020.30511474609375 -1002.48565673828125 -985.547607421875 -969.62286376953125 -954.185546875 -939.65911865234375 -925.41949462890625 -911.0550537109375 -896.0875244140625 -880.6826171875 -864.90313720703125 -848.97747802734375 -833.61981201171875 -819.160888671875 -805.8277587890625 -792.94842529296875 -780.3662109375 -768.0816650390625 -755.98388671875 -744.6844482421875 -735.131591796875 -726.23370361328125 -717.7415771484375 -709.65509033203125 -702.14263916015625 -695.1693115234375 -688.789306640625 -682.83209228515625 -677.28924560546875 -672.2042236328125 -667.6026611328125 -663.42681884765625 -659.63409423828125 -656.322509765625 -653.63641357421875 -651.6317138671875 -650.3125 -649.748046875 -650.00396728515625 -651.34320068359375 -653.711669921875 -656.985107421875 -661.135986328125 -666.05377197265625 -671.77557373046875 -677.97686767578125 -684.38922119140625 -690.797119140625 -696.8182373046875 -702.27947998046875 -706.9085693359375 -710.20904541015625 -712.1531982421875 -712.7957763671875 -712.29022216796875 -710.74578857421875 -708.25115966796875 -705.048095703125 -701.31719970703125 -697.1046142578125 -692.47320556640625 -687.8175048828125 -683.399658203125 -679.19110107421875 -674.65496826171875 -669.617431640625 -664.0167236328125 -658.0523681640625 -651.87493896484375 -99999
 -99999 -99999 -99999 -99999 -99999 -99999 -99999 -99999 -99999 -99999 -99999 -99999 -99999 -1295.7679443359375 -1296.564208984375 -1297.2982177734375 -1297.9696044921875 -1298.54150390625 -1299.02978515625 -1299.425537109375 -1299.7188720703125 -1299.8828125 -1299.879150390625 -1299.735107421875 -1299.454345703125 -1299.0479736328125 -1298.5372314453125 -1298.0357666015625 -1297.6517333984375 -1297.483642578125 -1297.6641845703125 -1298.3922119140625 -1299.4111328125 -1300.484130859375 -1301.369384765625 -1301.7529296875 -1301.2230224609375 -1299.9517822265625 -1297.943115234375 -1295.1907958984375 -1291.3056640625 -1282.8890380859375 -1272.3106689453125 -1260.0799560546875 -1246.9141845703125 -1233.0010986328125 -1218.2340087890625 -1202.5992431640625 -1186.16357421875 -1168.6602783203125 -1150.406982421875 -1131.3094482421875 -1111.500732421875 -1091.390625 -1071.044189453125 -1050.84228515625 -1031.2811279296875 -1012.4261474609375 -994.5433349609375 -977.83135986328125 -961.938720703125 -947.310791015625 -933.54449462890625 -920.107666015625 -906.36077880859375 -892.2921142578125 -877.2105712890625 -861.31256103515625 -845.3065185546875 -829.72247314453125 -815.56402587890625 -802.51507568359375 -790.02423095703125 -777.76776123046875 -765.63818359375 -753.92767333984375 -743.09674072265625 -733.1685791015625 -724.15338134765625 -715.6387939453125 -707.69287109375 -700.14910888671875 -693.45855712890625 -686.9508056640625 -681.1072998046875 -675.75531005859375 -670.83551025390625 -666.360595703125 -662.27911376953125 -658.80352783203125 -655.85504150390625 -653.4456787109375 -651.62042236328125 -650.44696044921875 -650.20751953125 -650.76080322265625 -652.11517333984375 -654.28009033203125 -657.3209228515625 -661.3104248046875 -665.92706298828125 -671.08465576171875 -676.5985107421875 -682.39739990234375 -688.0965576171875 -693.48553466796875 -698.26885986328125 -702.20050048828125 -705.2052001953125 -707.196533203125 -708.07476806640625 -707.6312255859375 -706.31793212890625 -704.2490234375 -701.523681640625 -698.17108154296875 -694.28594970703125 -690.22515869140625 -685.9757080078125 -681.91314697265625 -677.86297607421875 -673.6226806640625 -668.86968994140625 -663.07196044921875 -656.9207763671875 -650.719482421875 -99999
 -99999 -99999 -99999 -99999 -99999 -99999 -99999 -99999 -99999 -99999 -99999 -99999 -99999 -1295.338134765625 -1295.9593505859375 -1296.4732666015625 -1296.8985595703125 -1297.2318115234375 -1297.49609375 -1297.6153564453125 -1297.599365234375 -1297.4658203125 -1297.2144775390625 -1296.8719482421875 -1296.36669921875 -1295.7843017578125 -1295.1883544921875 -1294.617431640625 -1294.191162109375 -1294.00732421875 -1294.1007080078125 -1294.4561767578125 -1295.0552978515625 -1295.7930908203125 -1296.2119140625 -1296.2138671875 -1295.7137451171875 -1294.5660400390625 -1292.6258544921875 -1289.979248046875 -1285.559814453125 -1278.4892578125 -1267.175048828125 -1255.224365234375 -1242.40478515625 -1228.5908203125 -1214.0142822265625 -1198.5609130859375 -1182.08203125 -1164.5181884765625 -1145.9986572265625 -1126.54443359375 -1106.2335205078125 -1085.4415283203125 -1064.4482421875 -1043.75634765625 -1023.70208740234375 -1004.5987548828125 -986.8309326171875 -970.0098876953125 -954.5567626953125 -940.5946044921875 -927.5599365234375 -915.225830078125 -903.051025390625 -889.56866455078125 -874.52850341796875 -858.732177734375 -842.66619873046875 -826.9267578125 -812.78387451171875 -799.85797119140625 -787.45361328125 -775.3072509765625 -763.48162841796875 -752.09881591796875 -741.30645751953125 -731.65802001953125 -722.345703125 -713.841796875 -705.97174072265625 -698.64801025390625 -691.81890869140625 -685.5777587890625 -679.80572509765625 -674.49884033203125 -669.7132568359375 -665.41326904296875 -661.624267578125 -658.31597900390625 -655.50244140625 -653.27362060546875 -651.7734375 -650.9066162109375 -650.70562744140625 -651.2091064453125 -652.59234619140625 -654.80792236328125 -657.7120361328125 -661.267578125 -665.4876708984375 -670.18212890625 -675.18438720703125 -680.27386474609375 -685.31451416015625 -690.22406005859375 -694.33148193359375 -697.9752197265625 -700.750244140625 -702.41796875 -703.191162109375 -703.0953369140625 -702.158203125 -700.3037109375 -697.80828857421875 -694.8365478515625 -691.44635009765625 -687.69561767578125 -683.86865234375 -680.041748046875 -676.199951171875 -672.148681640625 -667.32281494140625 -661.26568603515625 -654.88909912109375 -648.79595947265625 -99999
 -99999 -99999 -99999 -99999 -99999 -99999 -99999 -99999 -99999 -99999 -99999 -99999 -1294.205810546875 -1294.7315673828125 -1295.1549072265625 -1295.4853515625 -1295.7357177734375 -1295.8199462890625 -1295.780029296875 -1295.6246337890625 -1295.3748779296875 -1295.028076171875 -1294.4847412109375 -1293.8641357421875 -1293.16796875 -1292.4500732421875 -1291.73828125 -1291.0826416015625 -1290.5533447265625 -1290.1942138671875 -1290.12646484375 -1290.3009033203125 -1290.5472412109375 -1290.7861328125 -1290.882080078125 -1290.6668701171875 -1289.880859375 -1288.3824462890625 -1286.0975341796875 -1282.9561767578125 -1278.2735595703125 -1270.514892578125 -1260.7552490234375 -1249.3477783203125 -1236.9520263671875 -1223.642333984375 -1209.4295654296875 -1194.3255615234375 -1178.0445556640625 -1160.5206298828125 -1141.84130859375 -1122.129150390625 -1101.4447021484375 -1080.0970458984375 -1058.4931640625 -1037.1990966796875 -1016.7421875 -997.33734130859375 -979.39013671875 -962.6680908203125 -947.5767822265625 -934.007568359375 -922.01483154296875 -910.78851318359375 -899.78973388671875 -887.52667236328125 -872.51611328125 -856.6380615234375 -840.6954345703125 -825.17828369140625 -810.8740234375 -797.70098876953125 -785.20196533203125 -773.12841796875 -761.4312744140625 -750.281982421875 -739.7979736328125 -729.9639892578125 -720.93280029296875 -712.4407958984375 -704.53887939453125 -697.27337646484375 -690.59381103515625 -684.39508056640625 -678.7037353515625 -673.59283447265625 -668.9515380859375 -664.818603515625 -661.1165771484375 -657.9718017578125 -655.4393310546875 -653.44232177734375 -652.004150390625 -651.22503662109375 -651.14654541015625 -651.80810546875 -653.11883544921875 -655.069091796875 -657.7935791015625 -661.1324462890625 -664.9520263671875 -669.13397216796875 -673.55975341796875 -678.2216796875 -682.713623046875 -686.90631103515625 -690.72552490234375 -693.869873046875 -696.2557373046875 -697.9520263671875 -698.75885009765625 -698.6778564453125 -697.80706787109375 -696.28717041015625 -694.20440673828125 -691.4989013671875 -688.38031005859375 -684.90240478515625 -681.2998046875 -677.62255859375 -673.8123779296875 -669.6915283203125 -664.711669921875 -658.22412109375 -651.936279296875 -646.235595703125 -640.95367431640625
 -99999 -99999 -99999 -99999 -99999 -99999 -99999 -99999 -99999 -99999 -99999 -1293.12060546875 -1293.616455078125 -1294.0113525390625 -1294.29541015625 -1294.3983154296875 -1294.375732421875 -1294.235107421875 -1293.9930419921875 -1293.6171875 -1293.0677490234375 -1292.3948974609375 -1291.636474609375 -1290.8262939453125 -1289.9327392578125 -1288.98095703125 -1288.077880859375 -1287.27685546875 -1286.63330078125 -1286.15478515625 -1285.8436279296875 -1285.6748046875 -1285.64599609375 -1285.6187744140625 -1285.353759765625 -1284.7017822265625 -1283.5733642578125 -1281.7916259765625 -1279.21484375 -1275.30615234375 -1270.002197265625 -1262.67236328125 -1253.4617919921875 -1242.9970703125 -1231.28515625 -1218.46337890625 -1204.986083984375 -1190.205322265625 -1174.187744140625 -1156.944580078125 -1138.3497314453125 -1118.291748046875 -1097.259033203125 -1075.2325439453125 -1052.8204345703125 -1030.8072509765625 -1009.82647705078125 -990.5491943359375 -972.77642822265625 -956.1944580078125 -941.00872802734375 -927.732666015625 -916.21673583984375 -906.1580810546875 -895.9967041015625 -884.4473876953125 -869.9329833984375 -854.208740234375 -838.61102294921875 -823.4542236328125 -809.2353515625 -795.8646240234375 -783.271484375 -771.109130859375 -759.57440185546875 -748.6143798828125 -738.22802734375 -728.55712890625 -719.556396484375 -711.16424560546875 -703.38714599609375 -696.2293701171875 -689.60198974609375 -683.53125 -677.97998046875 -672.95733642578125 -668.39556884765625 -664.369873046875 -660.909912109375 -657.93890380859375 -655.4993896484375 -653.61517333984375 -652.338134765625 -651.69696044921875 -651.63409423828125 -652.2373046875 -653.4940185546875 -655.38995361328125 -657.8431396484375 -660.77392578125 -664.2579345703125 -668.0804443359375 -672.0771484375 -676.07342529296875 -680.00958251953125 -683.797607421875 -687.2127685546875 -690.09552001953125 -692.27581787109375 -693.670166015625 -694.384521484375 -694.43145751953125 -693.7039794921875 -692.35009765625 -690.5987548828125 -687.88311767578125 -684.99835205078125 -681.80340576171875 -678.3489990234375 -674.63250732421875 -670.6575927734375 -666.11883544921875 -660.61541748046875 -654.5164794921875 -648.412353515625 -643.41229248046875 -638.72833251953125
 -99999 -99999 -99999 -99999 -99999 -99999 -99999 -99999 -99999 -99999 -99999 -1292.5987548828125 -1292.982666015625 -1293.181640625 -1293.2408447265625 -1293.1710205078125 -1292.9906005859375 -1292.6376953125 -1292.1064453125 -1291.439208984375 -1290.6759033203125 -1289.7911376953125 -1288.775634765625 -1287.6435546875 -1286.481689453125 -1285.36181640625 -1284.2835693359375 -1283.271484375 -1282.3809814453125 -1281.6756591796875 -1281.177734375 -1280.81103515625 -1280.4659423828125 -1280.0521240234375 -1279.480712890625 -1278.578125 -1277.1962890625 -1274.962890625 -1271.8997802734375 -1267.672607421875 -1261.9927978515625 -1254.8016357421875 -1246.0245361328125 -1235.978271484375 -1224.9715576171875 -1213.084716796875 -1200.1776123046875 -1186.16845703125 -1170.5897216796875 -1153.6737060546875 -1135.23486328125 -1115.14892578125 -1093.690185546875 -1071.3817138671875 -1048.0947265625 -1025.2784423828125 -1003.63763427734375 -984.6473388671875 -967.123291015625 -950.86492919921875 -935.33050537109375 -921.64654541015625 -910.8670654296875 -901.01727294921875 -890.97418212890625 -879.572509765625 -865.94403076171875 -851.1505126953125 -835.99859619140625 -821.21636962890625 -807.12261962890625 -793.80133056640625 -781.15106201171875 -769.16278076171875 -757.71636962890625 -746.86358642578125 -736.73724365234375 -727.1920166015625 -718.324462890625 -710.06573486328125 -702.411865234375 -695.37603759765625 -688.86273193359375 -682.877685546875 -677.41943359375 -672.51763916015625 -668.12078857421875 -664.2359619140625 -660.87872314453125 -658.0111083984375 -655.707763671875 -653.96075439453125 -652.76348876953125 -652.157958984375 -652.11322021484375 -652.68939208984375 -653.8177490234375 -655.524658203125 -657.784423828125 -660.4940185546875 -663.56396484375 -666.87420654296875 -670.4222412109375 -674.05413818359375 -677.610107421875 -680.82965087890625 -683.74102783203125 -686.2381591796875 -688.2686767578125 -689.65423583984375 -690.27752685546875 -690.362060546875 -689.86419677734375 -688.36669921875 -686.545654296875 -684.26873779296875 -681.5771484375 -678.46502685546875 -675.049072265625 -671.2801513671875 -667.09649658203125 -662.313232421875 -656.92742919921875 -650.95989990234375 -645.4183349609375 -640.8994140625 -636.41790771484375
 -99999 -99999 -99999 -99999 -99999 -99999 -99999 -99999 -99999 -99999 -1291.6007080078125 -1291.970947265625 -1292.1849365234375 -1292.2591552734375 -1292.191650390625 -1291.9320068359375 -1291.49072265625 -1290.9112548828125 -1290.1826171875 -1289.3162841796875 -1288.2637939453125 -1287.045166015625 -1285.765380859375 -1284.41455078125 -1283.02099609375 -1281.5784912109375 -1280.1806640625 -1278.9560546875 -1277.8690185546875 -1276.9376220703125 -1276.134765625 -1275.4713134765625 -1274.906982421875 -1274.291015625 -1273.4859619140625 -1272.279052734375 -1270.572265625 -1268.1402587890625 -1264.7054443359375 -1260.0655517578125 -1254.217041015625 -1247.0694580078125 -1238.5633544921875 -1228.9334716796875 -1218.5489501953125 -1207.58203125 -1195.4617919921875 -1182.1312255859375 -1167.415771484375 -1150.8245849609375 -1132.5889892578125 -1112.4033203125 -1091.12353515625 -1068.2862548828125 -1044.6376953125 -1020.16595458984375 -998.0814208984375 -979.4432373046875 -962.573486328125 -946.59454345703125 -931.0164794921875 -917.0374755859375 -905.8695068359375 -895.7012939453125 -885.216064453125 -873.7799072265625 -860.89300537109375 -846.8394775390625 -832.374755859375 -818.263427734375 -804.48602294921875 -791.345703125 -778.8985595703125 -767.03228759765625 -755.849365234375 -745.271728515625 -735.31640625 -725.92205810546875 -717.20965576171875 -709.09637451171875 -701.50433349609375 -694.62310791015625 -688.22021484375 -682.3804931640625 -677.079345703125 -672.34600830078125 -668.04241943359375 -664.23663330078125 -660.9949951171875 -658.27093505859375 -656.0877685546875 -654.40277099609375 -653.22540283203125 -652.63751220703125 -652.5885009765625 -653.11871337890625 -654.15081787109375 -655.6658935546875 -657.635498046875 -660.0189208984375 -662.78472900390625 -665.8017578125 -668.9217529296875 -672.0181884765625 -675.0830078125 -677.98101806640625 -680.5880126953125 -682.7821044921875 -684.44232177734375 -685.578125 -686.1495361328125 -686.15936279296875 -685.58050537109375 -684.44134521484375 -682.72528076171875 -680.55157470703125 -677.97052001953125 -674.9873046875 -671.576416015625 -667.76165771484375 -663.50823974609375 -658.77740478515625 -653.58551025390625 -648.24993896484375 -643.15093994140625 -638.63092041015625 -634.22137451171875
 -99999 -99999 -99999 -99999 -99999 -99999 -99999 -99999 -99999 -1290.5537109375 -1290.9979248046875 -1291.27734375 -1291.393310546875 -1291.3077392578125 -1291.030029296875 -1290.5877685546875 -1289.9847412109375 -1289.2177734375 -1288.232177734375 -1287.07568359375 -1285.7783203125 -1284.344970703125 -1282.7918701171875 -1281.07080078125 -1279.342529296875 -1277.63525390625 -1275.9814453125 -1274.420654296875 -1272.9609375 -1271.81884765625 -1270.7091064453125 -1269.8646240234375 -1269.0745849609375 -1268.24560546875 -1267.24365234375 -1265.9022216796875 -1263.94775390625 -1261.2303466796875 -1257.615478515625 -1252.955322265625 -1246.8670654296875 -1239.4752197265625 -1230.9998779296875 -1221.7872314453125 -1211.8489990234375 -1201.325927734375 -1190.0994873046875 -1177.8128662109375 -1163.9510498046875 -1148.1717529296875 -1130.1590576171875 -1110.2662353515625 -1088.9453125 -1066.4906005859375 -1042.2470703125 -1016.65283203125 -993.51885986328125 -975.01397705078125 -958.68646240234375 -942.9365234375 -927.74176025390625 -913.76934814453125 -901.76556396484375 -890.6531982421875 -879.5426025390625 -868.05035400390625 -855.36004638671875 -842.057373046875 -828.37322998046875 -814.70989990234375 -801.44915771484375 -788.787841796875 -776.46429443359375 -764.91998291015625 -753.927001953125 -743.4962158203125 -733.842041015625 -724.67657470703125 -716.11236572265625 -708.1634521484375 -700.8582763671875 -694.06732177734375 -687.82110595703125 -682.14306640625 -676.94488525390625 -672.23291015625 -668.08251953125 -664.47149658203125 -661.33740234375 -658.6787109375 -656.49365234375 -654.8748779296875 -653.8072509765625 -653.22186279296875 -653.11651611328125 -653.49188232421875 -654.36962890625 -655.7554931640625 -657.5233154296875 -659.63037109375 -662.013671875 -664.591552734375 -667.35076904296875 -670.10540771484375 -672.81695556640625 -675.316650390625 -677.51776123046875 -679.388427734375 -680.853759765625 -681.87152099609375 -682.3507080078125 -682.2554931640625 -681.633544921875 -680.5245361328125 -678.947998046875 -676.89019775390625 -674.33984375 -671.37115478515625 -668.03057861328125 -664.2899169921875 -660.1065673828125 -655.48138427734375 -650.6241455078125 -645.6666259765625 -640.86114501953125 -636.330078125 -631.9129638671875
 -99999 -99999 -99999 -99999 -99999 -99999 -99999 -99999 -99999 -1290.009521484375 -1290.392578125 -1290.5518798828125 -1290.50244140625 -1290.272216796875 -1289.862060546875 -1289.273193359375 -1288.4498291015625 -1287.4405517578125 -1286.254150390625 -1284.8927001953125 -1283.3597412109375 -1281.5943603515625 -1279.706787109375 -1277.7154541015625 -1275.6556396484375 -1273.555419921875 -1271.525390625 -1269.512451171875 -1267.808349609375 -1266.3297119140625 -1265.0374755859375 -1263.9189453125 -1262.930419921875 -1261.9666748046875 -1260.8402099609375 -1259.3819580078125 -1257.4246826171875 -1254.79345703125 -1250.869384765625 -1245.928955078125 -1239.62451171875 -1232.300048828125 -1223.7694091796875 -1214.546875 -1204.8768310546875 -1194.90087890625 -1184.162841796875 -1173.2117919921875 -1160.6417236328125 -1145.087890625 -1127.6217041015625 -1107.76220703125 -1086.96484375 -1065.244140625 -1041.790283203125 -1014.79449462890625 -990.4644775390625 -971.72418212890625 -955.182861328125 -939.34918212890625 -924.2681884765625 -910.18450927734375 -897.50616455078125 -885.6099853515625 -874.06842041015625 -862.1058349609375 -849.59222412109375 -836.79486083984375 -823.75506591796875 -810.64605712890625 -797.88714599609375 -785.48358154296875 -773.7640380859375 -762.4881591796875 -751.81927490234375 -741.7935791015625 -732.25048828125 -723.42620849609375 -715.1435546875 -707.43890380859375 -700.1988525390625 -693.5701904296875 -687.5274658203125 -681.92388916015625 -676.91888427734375 -672.45709228515625 -668.377685546875 -664.8001708984375 -661.69598388671875 -659.1776123046875 -657.13092041015625 -655.538818359375 -654.40045166015625 -653.7310791015625 -653.626220703125 -653.9591064453125 -654.69940185546875 -655.82391357421875 -657.30084228515625 -659.17156982421875 -661.26654052734375 -663.52911376953125 -665.89727783203125 -668.26751708984375 -670.579345703125 -672.72564697265625 -674.6484375 -676.2886962890625 -677.50286865234375 -678.26800537109375 -678.5986328125 -678.4813232421875 -677.9090576171875 -676.7835693359375 -675.1708984375 -673.13861083984375 -670.6964111328125 -667.85504150390625 -664.53558349609375 -660.81292724609375 -656.74005126953125 -652.38037109375 -647.89971923828125 -643.0240478515625 -638.43231201171875 -633.96417236328125 -99999
 -99999 -99999 -99999 -99999 -99999 -99999 -99999 -99999 -1288.966796875 -1289.4395751953125 -1289.6988525390625 -1289.75634765625 -1289.6136474609375 -1289.272705078125 -1288.6754150390625 -1287.882080078125 -1286.89794921875 -1285.7225341796875 -1284.35107421875 -1282.7210693359375 -1280.8970947265625 -1278.8857421875 -1276.69873046875 -1274.355224609375 -1271.8828125 -1269.295166015625 -1266.9041748046875 -1264.5718994140625 -1262.433349609375 -1260.53564453125 -1258.931640625 -1257.6407470703125 -1256.5211181640625 -1255.472412109375 -1254.377197265625 -1253.0369873046875 -1251.053955078125 -1248.3204345703125 -1244.5718994140625 -1239.68017578125 -1233.3109130859375 -1225.544189453125 -1216.783447265625 -1207.2628173828125 -1197.6632080078125 -1187.8907470703125 -1178.1170654296875 -1167.389892578125 -1155.369140625 -1141.41259765625 -1124.1724853515625 -1105.00537109375 -1084.20068359375 -1062.82373046875 -1039.8177490234375 -1014.36566162109375 -990.3431396484375 -970.27252197265625 -952.5322265625 -936.24822998046875 -920.92138671875 -906.55218505859375 -893.211669921875 -880.66107177734375 -868.474853515625 -856.13751220703125 -843.85174560546875 -831.2752685546875 -818.7379150390625 -806.27935791015625 -794.029296875 -782.223876953125 -770.814208984375 -760.0321044921875 -749.779296875 -739.97265625 -730.83282470703125 -722.2447509765625 -714.11279296875 -706.617431640625 -699.71978759765625 -693.2945556640625 -687.37017822265625 -682.00689697265625 -677.09625244140625 -672.64422607421875 -668.6978759765625 -665.29412841796875 -662.341064453125 -659.82537841796875 -657.74383544921875 -656.1673583984375 -655.09375 -654.4371337890625 -654.18798828125 -654.334228515625 -654.944580078125 -655.9283447265625 -657.2095947265625 -658.750732421875 -660.51068115234375 -662.47705078125 -664.502685546875 -666.53387451171875 -668.489501953125 -670.359619140625 -671.96234130859375 -673.2708740234375 -674.26617431640625 -674.91259765625 -675.17156982421875 -674.8902587890625 -674.1900634765625 -673.07452392578125 -671.53936767578125 -669.52606201171875 -667.1312255859375 -664.27423095703125 -661.0670166015625 -657.5145263671875 -653.589111328125 -649.35980224609375 -644.95623779296875 -640.4830322265625 -636.02685546875 -631.60821533203125 -99999
 -99999 -99999 -99999 -99999 -99999 -99999 -99999 -1287.733642578125 -1288.3895263671875 -1288.8231201171875 -1289.033203125 -1289.0068359375 -1288.7061767578125 -1288.19384765625 -1287.4744873046875 -1286.5523681640625 -1285.417236328125 -1284.0247802734375 -1282.4254150390625 -1280.612548828125 -1278.5804443359375 -1276.307861328125 -1273.759765625 -1270.96875 -1268.13671875 -1265.1497802734375 -1262.160400390625 -1259.274658203125 -1256.74755859375 -1254.47119140625 -1252.5755615234375 -1251.0286865234375 -1249.8026123046875 -1248.7900390625 -1247.7730712890625 -1246.5499267578125 -1244.896240234375 -1242.5701904296875 -1238.9383544921875 -1233.873291015625 -1227.37646484375 -1219.4095458984375 -1209.9482421875 -1200.091064453125 -1190.245849609375 -1180.880859375 -1171.850341796875 -1161.4964599609375 -1148.8626708984375 -1134.7427978515625 -1119.5399169921875 -1101.173095703125 -1080.4508056640625 -1058.6982421875 -1035.9459228515625 -1011.69891357421875 -988.996337890625 -968.33099365234375 -949.8863525390625 -932.95025634765625 -917.32012939453125 -902.30096435546875 -888.492431640625 -875.47235107421875 -862.6524658203125 -850.29107666015625 -837.97625732421875 -825.84271240234375 -813.66326904296875 -801.6624755859375 -789.97662353515625 -778.69464111328125 -767.81768798828125 -757.35498046875 -747.40838623046875 -738.14141845703125 -729.251708984375 -720.96502685546875 -713.24273681640625 -706.0341796875 -699.25286865234375 -693.0006103515625 -687.3310546875 -682.06732177734375 -677.3154296875 -673.07720947265625 -669.27410888671875 -665.92388916015625 -662.95574951171875 -660.52728271484375 -658.55047607421875 -656.9771728515625 -655.80145263671875 -655.05584716796875 -654.77001953125 -654.853759765625 -655.2696533203125 -655.99456787109375 -657.0594482421875 -658.3841552734375 -659.874755859375 -661.4888916015625 -663.1800537109375 -664.9432373046875 -666.5826416015625 -668.09033203125 -669.41497802734375 -670.51361083984375 -671.32958984375 -671.72869873046875 -671.7701416015625 -671.45379638671875 -670.75262451171875 -669.56817626953125 -667.98541259765625 -665.9908447265625 -663.63739013671875 -660.90509033203125 -657.7467041015625 -654.254150390625 -650.48577880859375 -646.5533447265625 -642.34149169921875 -637.9464111328125 -633.60015869140625 -629.2469482421875 -99999
 -99999 -99999 -99999 -99999 -99999 -99999 -99999 -1287.2122802734375 -1287.8529052734375 -1288.2342529296875 -1288.3277587890625 -1288.178955078125 -1287.794189453125 -1287.1768798828125 -1286.321044921875 -1285.21044921875 -1283.89404296875 -1282.3714599609375 -1280.6339111328125 -1278.6329345703125 -1276.3443603515625 -1273.7877197265625 -1270.9425048828125 -1267.7977294921875 -1264.4410400390625 -1260.95703125 -1257.4803466796875 -1253.99169921875 -1250.823486328125 -1248.0382080078125 -1245.8660888671875 -1244.1434326171875 -1242.865234375 -1241.9273681640625 -1241.148681640625 -1240.2183837890625 -1238.8963623046875 -1236.84326171875 -1233.70068359375 -1229.0576171875 -1222.5748291015625 -1213.838623046875 -1203.927734375 -1193.311279296875 -1182.905517578125 -1173.877197265625 -1165.3319091796875 -1155.4259033203125 -1142.5916748046875 -1128.23193359375 -1113.02685546875 -1096.134033203125 -1075.0531005859375 -1053.4674072265625 -1031.05810546875 -1008.5076904296875 -986.41937255859375 -965.968505859375 -947.22613525390625 -929.7757568359375 -913.30517578125 -898.0057373046875 -883.5064697265625 -869.86932373046875 -856.88153076171875 -844.33331298828125 -832.13226318359375 -820.1741943359375 -808.4415283203125 -796.96514892578125 -785.74755859375 -774.95556640625 -764.57110595703125 -754.6707763671875 -745.25067138671875 -736.25 -727.80364990234375 -719.868896484375 -712.34100341796875 -705.3231201171875 -698.90826416015625 -692.9332275390625 -687.3846435546875 -682.36187744140625 -677.76361083984375 -673.5823974609375 -669.87725830078125 -666.61724853515625 -663.80657958984375 -661.387451171875 -659.36669921875 -657.7882080078125 -656.63433837890625 -655.84869384765625 -655.40618896484375 -655.32196044921875 -655.61285400390625 -656.19183349609375 -657.0062255859375 -658.0238037109375 -659.24951171875 -660.6336669921875 -662.02117919921875 -663.4046630859375 -664.7403564453125 -666.00469970703125 -667.0931396484375 -667.88470458984375 -668.44915771484375 -668.71209716796875 -668.65478515625 -668.20556640625 -667.36309814453125 -666.1422119140625 -664.59466552734375 -662.61883544921875 -660.2525634765625 -657.5325927734375 -654.50006103515625 -651.19378662109375 -647.54449462890625 -643.77508544921875 -639.56805419921875 -635.3831787109375 -631.15869140625 -99999 -99999
 -99999 -99999 -99999 -99999 -99999 -99999 -1285.78369140625 -1286.677978515625 -1287.2762451171875 -1287.6019287109375 -1287.6444091796875 -1287.4178466796875 -1286.9132080078125 -1286.1317138671875 -1285.1236572265625 -1283.8994140625 -1282.4678955078125 -1280.78759765625 -1278.8677978515625 -1276.7132568359375 -1274.2806396484375 -1271.5535888671875 -1268.302490234375 -1264.9107666015625 -1261.1142578125 -1256.9412841796875 -1252.6021728515625 -1248.515869140625 -1244.8310546875 -1241.584228515625 -1238.9698486328125 -1237.0306396484375 -1235.7437744140625 -1234.8782958984375 -1234.311279296875 -1233.8138427734375 -1233.1224365234375 -1231.627197265625 -1228.973876953125 -1224.702392578125 -1218.2794189453125 -1209.3494873046875 -1198.6248779296875 -1187.0531005859375 -1176.1376953125 -1166.9256591796875 -1158.6429443359375 -1149.3544921875 -1136.493408203125 -1122.19189453125 -1106.6922607421875 -1089.1790771484375 -1068.526611328125 -1047.1767578125 -1025.3280029296875 -1003.59600830078125 -982.59930419921875 -962.467041015625 -943.70562744140625 -926.0350341796875 -909.04248046875 -893.13623046875 -878.1788330078125 -864.20025634765625 -850.87738037109375 -838.2298583984375 -826.273193359375 -814.44390869140625 -803.1361083984375 -792.21368408203125 -781.58502197265625 -771.29937744140625 -761.45257568359375 -752.03485107421875 -742.9263916015625 -734.4447021484375 -726.3236083984375 -718.6793212890625 -711.54986572265625 -704.89752197265625 -698.676513671875 -692.89190673828125 -687.600830078125 -682.72039794921875 -678.2496337890625 -674.257568359375 -670.6751708984375 -667.4915771484375 -664.709228515625 -662.31512451171875 -660.3577880859375 -658.75567626953125 -657.49908447265625 -656.6495361328125 -656.132080078125 -655.9393310546875 -656.01715087890625 -656.3614501953125 -656.9990234375 -657.822265625 -658.75933837890625 -659.78924560546875 -660.89813232421875 -662.05279541015625 -663.12969970703125 -664.0540771484375 -664.8363037109375 -665.447265625 -665.83135986328125 -665.91949462890625 -665.64520263671875 -665.08111572265625 -664.18035888671875 -662.92779541015625 -661.28985595703125 -659.30657958984375 -657.005615234375 -654.343017578125 -651.3673095703125 -648.189208984375 -644.68115234375 -640.8248291015625 -636.89788818359375 -632.8682861328125 -628.73699951171875 -99999 -99999
 -99999 -99999 -99999 -99999 -99999 -99999 -1285.2340087890625 -1286.142822265625 -1286.7220458984375 -1287.016845703125 -1286.9857177734375 -1286.637939453125 -1286.0086669921875 -1285.120849609375 -1284.0029296875 -1282.616943359375 -1281.016357421875 -1279.220947265625 -1277.212158203125 -1274.97119140625 -1272.396240234375 -1269.384033203125 -1266.1357421875 -1262.26953125 -1257.8778076171875 -1253.1448974609375 -1248.28369140625 -1243.291259765625 -1238.6561279296875 -1234.800537109375 -1231.9068603515625 -1229.757080078125 -1228.422607421875 -1227.545166015625 -1227.358642578125 -1227.306396484375 -1227.0384521484375 -1226.3336181640625 -1224.3380126953125 -1220.8575439453125 -1215.074951171875 -1205.47314453125 -1194.257568359375 -1182.4915771484375 -1170.97216796875 -1161.1639404296875 -1152.31005859375 -1142.2763671875 -1129.7110595703125 -1115.5887451171875 -1099.880615234375 -1081.7698974609375 -1061.8131103515625 -1040.8096923828125 -1019.404052734375 -998.28607177734375 -977.73175048828125 -958.59832763671875 -939.96221923828125 -921.88958740234375 -904.40582275390625 -887.83282470703125 -872.4046630859375 -857.8736572265625 -844.53997802734375 -832.10101318359375 -820.1119384765625 -808.8543701171875 -797.9483642578125 -787.431640625 -777.37982177734375 -767.6416015625 -758.1898193359375 -749.25634765625 -740.78515625 -732.60009765625 -724.938232421875 -717.72802734375 -710.88031005859375 -704.4542236328125 -698.5018310546875 -693.02191162109375 -687.884033203125 -683.2266845703125 -678.95465087890625 -675.07061767578125 -671.5819091796875 -668.46197509765625 -665.7607421875 -663.39556884765625 -661.42218017578125 -659.79901123046875 -658.51239013671875 -657.5621337890625 -656.8970947265625 -656.57830810546875 -656.524169921875 -656.7027587890625 -657.06707763671875 -657.596435546875 -658.32568359375 -659.14312744140625 -659.97918701171875 -660.78076171875 -661.5513916015625 -662.26727294921875 -662.84735107421875 -663.20013427734375 -663.32086181640625 -663.2130126953125 -662.836181640625 -662.171142578125 -661.146728515625 -659.8125 -658.1546630859375 -656.1649169921875 -653.86822509765625 -651.237060546875 -648.4429931640625 -645.1668701171875 -641.71966552734375 -638.092529296875 -634.2711181640625 -630.328857421875 -626.3087158203125 -99999 -99999
 -99999 -99999 -99999 -99999 -99999 -1283.420654296875 -1284.6649169921875 -1285.612548828125 -1286.206787109375 -1286.4478759765625 -1286.324462890625 -1285.89990234375 -1285.18701171875 -1284.1361083984375 -1282.8333740234375 -1281.3201904296875 -1279.6175537109375 -1277.73046875 -1275.61865234375 -1273.3004150390625 -1270.653564453125 -1267.659912109375 -1264.19189453125 -1260.0859375 -1255.3831787109375 -1249.8343505859375 -1243.8887939453125 -1238.0823974609375 -1232.760986328125 -1228.0675048828125 -1224.4114990234375 -1222.2640380859375 -1221.1190185546875 -1220.5584716796875 -1220.5677490234375 -1220.7777099609375 -1221.039794921875 -1221.0902099609375 -1219.9393310546875 -1216.8653564453125 -1211.34814453125 -1202.6297607421875 -1190.6441650390625 -1178.8485107421875 -1167.2427978515625 -1156.463623046875 -1146.1171875 -1135.427001953125 -1122.6204833984375 -1108.28125 -1092.465087890625 -1074.557861328125 -1055.1505126953125 -1034.7344970703125 -1013.70635986328125 -992.6810302734375 -972.86883544921875 -954.3358154296875 -935.98406982421875 -917.47735595703125 -899.07098388671875 -881.93560791015625 -865.7457275390625 -851.220458984375 -837.9266357421875 -825.5191650390625 -814.0780029296875 -803.0712890625 -792.63702392578125 -782.8349609375 -773.156005859375 -764.00244140625 -755.20599365234375 -746.75262451171875 -738.62213134765625 -730.9669189453125 -723.65960693359375 -716.72064208984375 -710.2359619140625 -704.20989990234375 -698.5562744140625 -693.26666259765625 -688.39404296875 -683.90081787109375 -679.7584228515625 -675.98309326171875 -672.62298583984375 -669.62109375 -666.93408203125 -664.5994873046875 -662.60101318359375 -660.93585205078125 -659.60101318359375 -658.57427978515625 -657.82098388671875 -657.328125 -657.0615234375 -657.0576171875 -657.2474365234375 -657.58843994140625 -658.0228271484375 -658.51409912109375 -659.10345458984375 -659.6905517578125 -660.23712158203125 -660.646728515625 -660.92730712890625 -661.07696533203125 -661.0340576171875 -660.77490234375 -660.2054443359375 -659.380126953125 -658.26922607421875 -656.874755859375 -655.18658447265625 -653.1678466796875 -650.861572265625 -648.32025146484375 -645.47454833984375 -642.2764892578125 -638.925537109375 -635.3873291015625 -631.6878662109375 -627.846435546875 -99999 -99999 -99999
 -99999 -99999 -99999 -99999 -99999 -1282.8089599609375 -1284.15673828125 -1285.09912109375 -1285.676025390625 -1285.9013671875 -1285.7760009765625 -1285.222412109375 -1284.3221435546875 -1283.1451416015625 -1281.7227783203125 -1280.0738525390625 -1278.2027587890625 -1276.197509765625 -1274.0479736328125 -1271.7169189453125 -1269.07666015625 -1266.201904296875 -1262.7850341796875 -1258.5704345703125 -1253.2208251953125 -1247.174072265625 -1240.456298828125 -1233.440185546875 -1226.5281982421875 -1221.4051513671875 -1217.4610595703125 -1215.287841796875 -1214.1539306640625 -1213.7183837890625 -1213.768310546875 -1214.1414794921875 -1214.7598876953125 -1215.3900146484375 -1214.6287841796875 -1211.6773681640625 -1206.5325927734375 -1197.7960205078125 -1186.7991943359375 -1175.1011962890625 -1163.3182373046875 -1151.883544921875 -1140.642578125 -1128.755615234375 -1115.57861328125 -1101.01171875 -1085.06591796875 -1067.4046630859375 -1048.6361083984375 -1028.439453125 -1008.04046630859375 -987.57012939453125 -968.26959228515625 -950.48468017578125 -932.39654541015625 -913.10931396484375 -893.29437255859375 -874.70330810546875 -858.48944091796875 -843.87408447265625 -830.81427001953125 -818.87896728515625 -807.86724853515625 -797.4580078125 -787.6590576171875 -778.24505615234375 -769.26580810546875 -760.5853271484375 -752.27978515625 -744.213134765625 -736.7235107421875 -729.3599853515625 -722.4677734375 -716.01129150390625 -709.861572265625 -704.06903076171875 -698.64727783203125 -693.65521240234375 -688.9306640625 -684.66864013671875 -680.73028564453125 -677.1258544921875 -673.837646484375 -670.86639404296875 -668.2213134765625 -665.91644287109375 -663.9344482421875 -662.23468017578125 -660.80889892578125 -659.6573486328125 -658.786865234375 -658.17474365234375 -657.7713623046875 -657.55792236328125 -657.49151611328125 -657.59368896484375 -657.81561279296875 -658.1043701171875 -658.4306640625 -658.7027587890625 -658.97003173828125 -659.16571044921875 -659.25152587890625 -659.1954345703125 -658.9031982421875 -658.427978515625 -657.73187255859375 -656.80059814453125 -655.60675048828125 -654.1102294921875 -652.3314208984375 -650.29095458984375 -648.02490234375 -645.6138916015625 -642.5697021484375 -639.52020263671875 -636.25274658203125 -632.77227783203125 -629.13702392578125 -625.37152099609375 -99999 -99999 -99999
 -99999 -99999 -99999 -99999 -1280.4017333984375 -1282.1549072265625 -1283.5692138671875 -1284.6219482421875 -1285.2852783203125 -1285.4400634765625 -1285.17919921875 -1284.5460205078125 -1283.5643310546875 -1282.2401123046875 -1280.592529296875 -1278.755859375 -1276.771728515625 -1274.674072265625 -1272.486572265625 -1270.03466796875 -1267.772216796875 -1265.0501708984375 -1261.6998291015625 -1257.499267578125 -1252.244140625 -1245.65869140625 -1237.564453125 -1229.2191162109375 -1221.09326171875 -1214.97705078125 -1210.831787109375 -1208.4471435546875 -1207.400390625 -1207.1800537109375 -1207.3385009765625 -1207.6260986328125 -1208.0789794921875 -1208.804931640625 -1208.10302734375 -1204.8931884765625 -1199.4559326171875 -1191.6524658203125 -1181.74755859375 -1170.28369140625 -1158.6744384765625 -1146.7147216796875 -1134.92919921875 -1122.0869140625 -1108.4068603515625 -1093.7427978515625 -1077.6767578125 -1060.22802734375 -1041.7772216796875 -1022.37896728515625 -1002.716552734375 -982.9937744140625 -964.4083251953125 -946.838623046875 -928.4371337890625 -907.6885986328125 -885.78668212890625 -866.2862548828125 -850.1845703125 -836.21820068359375 -823.5543212890625 -812.17144775390625 -801.70831298828125 -791.9754638671875 -782.69366455078125 -773.96893310546875 -765.45855712890625 -757.28900146484375 -749.55364990234375 -742.06689453125 -734.86761474609375 -728.0322265625 -721.52386474609375 -715.34405517578125 -709.5345458984375 -704.10040283203125 -699.021728515625 -694.25628662109375 -689.7886962890625 -685.70166015625 -681.8857421875 -678.362060546875 -675.16595458984375 -672.3040771484375 -669.72198486328125 -667.40283203125 -665.355712890625 -663.60113525390625 -662.13983154296875 -660.9117431640625 -659.905517578125 -659.108642578125 -658.52227783203125 -658.13848876953125 -657.894775390625 -657.76947021484375 -657.738525390625 -657.7589111328125 -657.829345703125 -657.89215087890625 -657.92083740234375 -657.8751220703125 -657.7001953125 -657.4029541015625 -656.950439453125 -656.32354736328125 -655.4796142578125 -654.3773193359375 -653.04669189453125 -651.48260498046875 -649.68695068359375 -647.6812744140625 -645.399658203125 -642.70562744140625 -639.88031005859375 -636.8388671875 -633.61309814453125 -630.21875 -626.67120361328125 -622.96490478515625 -99999 -99999 -99999
 -99999 -99999 -99999 -99999 -1279.5751953125 -1281.54443359375 -1283.113525390625 -1284.182861328125 -1284.819091796875 -1285.01318359375 -1284.76416015625 -1284.0206298828125 -1282.818115234375 -1281.2899169921875 -1279.4898681640625 -1277.474853515625 -1275.30029296875 -1273.0643310546875 -1270.70166015625 -1268.5400390625 -1266.3619384765625 -1263.9486083984375 -1261.1429443359375 -1257.464111328125 -1251.969482421875 -1244.9150390625 -1236.0855712890625 -1226.01416015625 -1216.4921875 -1208.6851806640625 -1203.9322509765625 -1202.37939453125 -1201.6845703125 -1201.4105224609375 -1201.4925537109375 -1201.7037353515625 -1201.9476318359375 -1201.7838134765625 -1200.53271484375 -1197.471435546875 -1192.2437744140625 -1184.803466796875 -1175.3267822265625 -1164.4783935546875 -1152.964111328125 -1141.014892578125 -1128.5338134765625 -1115.3480224609375 -1101.477783203125 -1086.6162109375 -1070.3057861328125 -1053.2890625 -1035.1441650390625 -1016.26885986328125 -997.13970947265625 -978.04095458984375 -959.4327392578125 -941.82305908203125 -923.16680908203125 -900.02362060546875 -875.92138671875 -856.89044189453125 -841.42974853515625 -828.0035400390625 -816.23236083984375 -805.4744873046875 -795.79559326171875 -786.69134521484375 -778.1962890625 -769.8980712890625 -762.0853271484375 -754.44964599609375 -747.11676025390625 -740.04248046875 -733.3016357421875 -726.85064697265625 -720.6751708984375 -714.93426513671875 -709.48046875 -704.3494873046875 -699.513427734375 -694.97705078125 -690.77490234375 -686.83551025390625 -683.1973876953125 -679.8448486328125 -676.7459716796875 -673.8975830078125 -671.29638671875 -669.0233154296875 -666.9786376953125 -665.171630859375 -663.586181640625 -662.22186279296875 -661.1192626953125 -660.19677734375 -659.44036865234375 -658.834716796875 -658.37640380859375 -658.04443359375 -657.785400390625 -657.57720947265625 -657.39727783203125 -657.222900390625 -656.99920654296875 -656.70892333984375 -656.33013916015625 -655.84173583984375 -655.19708251953125 -654.3597412109375 -653.34326171875 -652.1358642578125 -650.72735595703125 -649.0582275390625 -647.28314208984375 -645.0621337890625 -642.66851806640625 -640.0751953125 -637.28253173828125 -634.2998046875 -631.115478515625 -627.74090576171875 -624.23193359375 -99999 -99999 -99999 -99999
 -99999 -99999 -99999 -1276.3123779296875 -1278.767822265625 -1280.8699951171875 -1282.5704345703125 -1283.8304443359375 -1284.591796875 -1284.7490234375 -1284.3677978515625 -1283.5052490234375 -1282.1973876953125 -1280.4967041015625 -1278.43359375 -1276.1497802734375 -1273.75927734375 -1271.2437744140625 -1268.860107421875 -1266.822998046875 -1264.830322265625 -1262.8638916015625 -1260.6619873046875 -1257.6358642578125 -1253.1854248046875 -1246.4576416015625 -1236.432373046875 -1224.22412109375 -1212.3604736328125 -1203.2049560546875 -1198.8289794921875 -1197.25830078125 -1196.7413330078125 -1196.31103515625 -1196.2216796875 -1196.1396484375 -1195.857421875 -1195.1627197265625 -1193.276123046875 -1189.5994873046875 -1184.5723876953125 -1177.2086181640625 -1168.0281982421875 -1157.8876953125 -1146.6656494140625 -1134.7408447265625 -1121.947265625 -1108.70556640625 -1094.6937255859375 -1079.451171875 -1063.4163818359375 -1046.4697265625 -1028.5738525390625 -1010.12799072265625 -991.20599365234375 -972.29058837890625 -953.59661865234375 -934.63385009765625 -914.013427734375 -888.53643798828125 -863.9136962890625 -846.52947998046875 -832.756103515625 -820.21038818359375 -808.89508056640625 -799.0556640625 -790.27593994140625 -781.93194580078125 -774.00628662109375 -766.46063232421875 -759.08294677734375 -751.9244384765625 -745.01617431640625 -738.437255859375 -731.97967529296875 -725.9312744140625 -720.191162109375 -714.75457763671875 -709.6368408203125 -704.7613525390625 -700.2672119140625 -696.0245361328125 -691.9945068359375 -688.2244873046875 -684.7691650390625 -681.48760986328125 -678.446044921875 -675.6888427734375 -673.14801025390625 -670.8248291015625 -668.71240234375 -666.83966064453125 -665.20343017578125 -663.74603271484375 -662.46868896484375 -661.3577880859375 -660.4622802734375 -659.685791015625 -659.0191650390625 -658.4454345703125 -657.955078125 -657.54571533203125 -657.12548828125 -656.69775390625 -656.2420654296875 -655.7479248046875 -655.16021728515625 -654.43853759765625 -653.592041015625 -652.60540771484375 -651.46539306640625 -650.1005859375 -648.53515625 -646.90106201171875 -644.87847900390625 -642.624755859375 -640.2396240234375 -637.65704345703125 -634.846435546875 -631.84381103515625 -628.680419921875 -625.3670654296875 -621.90130615234375 -99999 -99999 -99999 -99999
 -99999 -99999 -99999 -1275.126953125 -1277.880126953125 -1280.278076171875 -1282.13818359375 -1283.49462890625 -1284.296875 -1284.5316162109375 -1284.1767578125 -1283.2147216796875 -1281.6719970703125 -1279.6875 -1277.3736572265625 -1274.8382568359375 -1272.2247314453125 -1269.350830078125 -1267.012451171875 -1264.765869140625 -1262.907958984375 -1261.459716796875 -1260.246826171875 -1258.180419921875 -1254.6021728515625 -1248.458251953125 -1238.830078125 -1224.318115234375 -1210.7423095703125 -1200.3218994140625 -1194.9561767578125 -1193.5565185546875 -1192.6348876953125 -1191.9625244140625 -1191.3995361328125 -1190.9329833984375 -1190.0670166015625 -1188.451416015625 -1185.99169921875 -1182.192626953125 -1176.654052734375 -1169.4365234375 -1160.806396484375 -1150.733154296875 -1139.855224609375 -1127.805908203125 -1115.1741943359375 -1101.770263671875 -1087.553955078125 -1072.3907470703125 -1056.5386962890625 -1039.6668701171875 -1022.008544921875 -1003.8668212890625 -985.18841552734375 -966.2515869140625 -946.80267333984375 -926.7432861328125 -904.6905517578125 -880.62261962890625 -857.9931640625 -840.42578125 -825.7001953125 -813.1263427734375 -802.58172607421875 -793.59088134765625 -785.29254150390625 -777.77923583984375 -770.63543701171875 -763.51593017578125 -756.64373779296875 -749.95062255859375 -743.39630126953125 -737.06072998046875 -731.0491943359375 -725.31719970703125 -719.86895751953125 -714.77227783203125 -710.00823974609375 -705.5263671875 -701.27862548828125 -697.237060546875 -693.46002197265625 -689.8555908203125 -686.5152587890625 -683.38299560546875 -680.43560791015625 -677.67425537109375 -675.11956787109375 -672.78570556640625 -670.6719970703125 -668.70416259765625 -666.94647216796875 -665.36322021484375 -663.97314453125 -662.7271728515625 -661.61181640625 -660.6153564453125 -659.7789306640625 -659.0167236328125 -658.29681396484375 -657.61651611328125 -656.95892333984375 -656.3509521484375 -655.67218017578125 -654.92431640625 -654.10589599609375 -653.20428466796875 -652.2109375 -651.02716064453125 -649.6920166015625 -648.21881103515625 -646.58642578125 -644.74951171875 -642.63629150390625 -640.40093994140625 -637.95318603515625 -635.3121337890625 -632.5029296875 -629.53021240234375 -626.37640380859375 -623.06610107421875 -619.60174560546875 -99999 -99999 -99999 -99999
 -99999 -99999 -1270.6378173828125 -1273.92236328125 -1276.8985595703125 -1279.5030517578125 -1281.646484375 -1283.2642822265625 -1284.1815185546875 -1284.473388671875 -1284.03173828125 -1282.9349365234375 -1281.2401123046875 -1279.0401611328125 -1276.4825439453125 -1273.6004638671875 -1270.4989013671875 -1267.7025146484375 -1264.9056396484375 -1262.370849609375 -1260.5008544921875 -1259.301025390625 -1258.7425537109375 -1258.0953369140625 -1255.8992919921875 -1250.5423583984375 -1242.54833984375 -1226.5439453125 -1211.987060546875 -1201.587890625 -1195.3355712890625 -1191.5589599609375 -1189.7803955078125 -1188.5340576171875 -1187.3095703125 -1185.9576416015625 -1184.4716796875 -1182.2747802734375 -1179.2569580078125 -1174.6968994140625 -1168.9368896484375 -1161.70263671875 -1153.16455078125 -1143.5477294921875 -1132.620849609375 -1120.7977294921875 -1108.255615234375 -1094.854248046875 -1080.641845703125 -1065.5870361328125 -1049.817626953125 -1033.10693359375 -1015.7366943359375 -997.77935791015625 -979.18072509765625 -960.2850341796875 -940.512451171875 -920.2099609375 -898.47515869140625 -876.00439453125 -854.7579345703125 -836.28460693359375 -820.23162841796875 -807.2718505859375 -797.33746337890625 -788.71221923828125 -781.32159423828125 -774.51416015625 -767.997802734375 -761.4810791015625 -754.92364501953125 -748.44384765625 -742.10760498046875 -736.06549072265625 -730.32147216796875 -724.90155029296875 -719.87713623046875 -715.16668701171875 -710.7169189453125 -706.46563720703125 -702.5257568359375 -698.79742431640625 -695.23052978515625 -691.8189697265625 -688.5867919921875 -685.5064697265625 -682.6015625 -679.87939453125 -677.3348388671875 -674.94732666015625 -672.73687744140625 -670.71893310546875 -668.863037109375 -667.16180419921875 -665.582763671875 -664.17755126953125 -662.92156982421875 -661.75628662109375 -660.6693115234375 -659.6553955078125 -658.743408203125 -657.88525390625 -657.00213623046875 -656.105712890625 -655.1878662109375 -654.2650146484375 -653.27978515625 -652.1492919921875 -650.919921875 -649.57989501953125 -648.1490478515625 -646.56976318359375 -644.78399658203125 -642.7496337890625 -640.6019287109375 -638.27685546875 -635.79052734375 -633.128662109375 -630.30029296875 -627.29278564453125 -624.14239501953125 -620.84765625 -99999 -99999 -99999 -99999 -99999
 -99999 -99999 -1268.8489990234375 -1272.5068359375 -1275.872802734375 -1278.7774658203125 -1281.13671875 -1282.9534912109375 -1284.082763671875 -1284.4903564453125 -1284.0469970703125 -1282.867431640625 -1281.0106201171875 -1278.48046875 -1275.548583984375 -1272.4073486328125 -1269.1072998046875 -1265.9268798828125 -1262.832275390625 -1259.9998779296875 -1257.633056640625 -1256.471435546875 -1256.5186767578125 -1256.6533203125 -1255.3197021484375 -1250.16162109375 -1241.9012451171875 -1228.92333984375 -1214.9796142578125 -1204.0018310546875 -1196.5013427734375 -1191.60791015625 -1188.209228515625 -1185.6180419921875 -1183.69189453125 -1181.5789794921875 -1179.312744140625 -1176.1297607421875 -1172.3739013671875 -1167.53759765625 -1161.4786376953125 -1154.2491455078125 -1145.7547607421875 -1136.1826171875 -1125.3310546875 -1113.7442626953125 -1101.1885986328125 -1088.054931640625 -1073.78125 -1058.8028564453125 -1043.220703125 -1026.7034912109375 -1009.6104736328125 -991.74652099609375 -973.42120361328125 -954.597412109375 -934.99951171875 -914.83123779296875 -893.79266357421875 -872.9078369140625 -852.64288330078125 -834.51971435546875 -817.8427734375 -804.4764404296875 -793.853515625 -785.34588623046875 -778.705078125 -772.6959228515625 -766.62890625 -760.3365478515625 -753.93975830078125 -747.52569580078125 -741.335205078125 -735.46051025390625 -729.964599609375 -724.88116455078125 -720.1358642578125 -715.6929931640625 -711.64178466796875 -707.8282470703125 -704.1624755859375 -700.62554931640625 -697.230712890625 -693.9759521484375 -690.85003662109375 -687.84027099609375 -685.03692626953125 -682.305908203125 -679.7374267578125 -677.31512451171875 -675.040771484375 -672.9022216796875 -670.9105224609375 -669.0946044921875 -667.400390625 -665.814453125 -664.3262939453125 -662.9588623046875 -661.707275390625 -660.52484130859375 -659.352783203125 -658.21148681640625 -657.1199951171875 -656.0458984375 -654.9439697265625 -653.75390625 -652.50982666015625 -651.21923828125 -649.84356689453125 -648.344482421875 -646.805908203125 -644.94189453125 -643.0089111328125 -640.9276123046875 -638.70050048828125 -636.317626953125 -633.7801513671875 -631.0560302734375 -628.190673828125 -625.17608642578125 -622.01092529296875 -618.7156982421875 -99999 -99999 -99999 -99999 -99999
 -99999 -1262.784423828125 -1266.94580078125 -1270.9404296875 -1274.5892333984375 -1277.847412109375 -1280.6158447265625 -1282.708984375 -1284.0029296875 -1284.5419921875 -1284.2310791015625 -1282.946533203125 -1280.799072265625 -1278.045166015625 -1274.8759765625 -1271.39990234375 -1267.8548583984375 -1264.468505859375 -1261.04833984375 -1257.6708984375 -1254.5811767578125 -1253.0205078125 -1253.435546875 -1253.668212890625 -1252.077392578125 -1247.242431640625 -1239.1929931640625 -1228.2779541015625 -1216.4471435546875 -1205.9552001953125 -1197.900146484375 -1191.48046875 -1187.08203125 -1183.6431884765625 -1180.58056640625 -1177.391845703125 -1174.193115234375 -1170.4423828125 -1165.9774169921875 -1160.6817626953125 -1154.31494140625 -1146.97705078125 -1138.595458984375 -1128.751220703125 -1118.2076416015625 -1106.701904296875 -1094.3603515625 -1081.1063232421875 -1067.099365234375 -1052.3271484375 -1036.901611328125 -1020.5799560546875 -1003.807861328125 -986.245361328125 -968.15472412109375 -949.56781005859375 -930.36419677734375 -910.8265380859375 -890.822509765625 -871.0147705078125 -851.88470458984375 -834.2325439453125 -818.03228759765625 -804.093994140625 -792.71826171875 -783.4620361328125 -777.47637939453125 -772.26617431640625 -766.6820068359375 -760.27191162109375 -753.63885498046875 -747.14471435546875 -740.90216064453125 -735.08477783203125 -729.83074951171875 -724.96893310546875 -720.67144775390625 -716.727294921875 -712.99786376953125 -709.448486328125 -706.0579833984375 -702.8331298828125 -699.6556396484375 -696.53564453125 -693.45458984375 -690.52435302734375 -687.6690673828125 -684.98486328125 -682.366455078125 -679.85821533203125 -677.5084228515625 -675.2838134765625 -673.1820068359375 -671.18701171875 -669.3206787109375 -667.5657958984375 -665.939208984375 -664.3740234375 -662.861328125 -661.42626953125 -660.0758056640625 -658.756591796875 -657.44195556640625 -656.088623046875 -654.742431640625 -653.384521484375 -651.97601318359375 -650.47943115234375 -648.87359619140625 -647.2659912109375 -645.45452880859375 -643.4918212890625 -641.4527587890625 -639.2818603515625 -636.970458984375 -634.4852294921875 -631.865234375 -629.10296630859375 -626.20556640625 -623.1697998046875 -619.97918701171875 -616.66943359375 -99999 -99999 -99999 -99999 -99999
 -99999 -1260.3585205078125 -1264.8802490234375 -1269.2962646484375 -1273.2647705078125 -1276.8118896484375 -1279.8521728515625 -1282.28857421875 -1283.9920654296875 -1284.7462158203125 -1284.3951416015625 -1283.078125 -1280.858642578125 -1277.77294921875 -1274.204833984375 -1270.4569091796875 -1266.7528076171875 -1263.2518310546875 -1259.736083984375 -1256.2491455078125 -1252.806396484375 -1250.7550048828125 -1250.5533447265625 -1249.9622802734375 -1247.9925537109375 -1243.46875 -1236.1943359375 -1226.8670654296875 -1216.544921875 -1206.8438720703125 -1198.5120849609375 -1191.650146484375 -1186.10400390625 -1181.72119140625 -1177.4993896484375 -1173.485595703125 -1169.421630859375 -1164.9801025390625 -1160.0765380859375 -1154.272216796875 -1147.5772705078125 -1140.0692138671875 -1131.4052734375 -1121.7020263671875 -1111.159423828125 -1099.7550048828125 -1087.56396484375 -1074.367919921875 -1060.5489501953125 -1046.092529296875 -1030.64892578125 -1014.702880859375 -998.22198486328125 -981.00726318359375 -963.36383056640625 -945.05462646484375 -926.46173095703125 -907.59698486328125 -888.47662353515625 -869.785400390625 -851.72467041015625 -834.8082275390625 -819.4384765625 -805.594482421875 -793.758056640625 -784.9498291015625 -778.70831298828125 -774.1949462890625 -768.11798095703125 -761.2886962890625 -754.10107421875 -747.08502197265625 -740.6912841796875 -734.95391845703125 -729.8726806640625 -725.48040771484375 -721.5347900390625 -717.941162109375 -714.630859375 -711.536865234375 -708.463623046875 -705.41412353515625 -702.39227294921875 -699.40069580078125 -696.4398193359375 -693.52392578125 -690.59588623046875 -687.8753662109375 -685.22515869140625 -682.6531982421875 -680.1839599609375 -677.807373046875 -675.5738525390625 -673.44915771484375 -671.42987060546875 -669.48370361328125 -667.62310791015625 -665.8619384765625 -664.1767578125 -662.5496826171875 -660.95037841796875 -659.36322021484375 -657.83367919921875 -656.3038330078125 -654.76141357421875 -653.164306640625 -651.516357421875 -649.8350830078125 -648.087890625 -646.27410888671875 -644.27984619140625 -642.23541259765625 -640.0703125 -637.75726318359375 -635.32989501953125 -632.77801513671875 -630.100830078125 -627.28509521484375 -624.32843017578125 -621.2379150390625 -618.03363037109375 -99999 -99999 -99999 -99999 -99999 -99999
 -99999 -1257.61669921875 -1262.4510498046875 -1267.16162109375 -1271.4884033203125 -1275.530029296875 -1279.0836181640625 -1281.76904296875 -1283.6827392578125 -1284.727783203125 -1284.7974853515625 -1283.4923095703125 -1280.8375244140625 -1277.4912109375 -1273.717041015625 -1269.7618408203125 -1265.9849853515625 -1262.2861328125 -1258.714111328125 -1255.1927490234375 -1252.06103515625 -1249.7164306640625 -1248.197998046875 -1246.595947265625 -1243.6912841796875 -1239.0113525390625 -1232.4893798828125 -1224.49658203125 -1215.283447265625 -1206.3612060546875 -1198.1878662109375 -1191.0550537109375 -1184.9130859375 -1179.5057373046875 -1174.591552734375 -1169.8687744140625 -1165.0831298828125 -1160.001708984375 -1154.3837890625 -1148.0784912109375 -1141.16650390625 -1133.3438720703125 -1124.4188232421875 -1114.8992919921875 -1104.4285888671875 -1093.245849609375 -1080.8677978515625 -1068.0390625 -1054.364990234375 -1039.9537353515625 -1024.955810546875 -1009.30242919921875 -993.05615234375 -976.22235107421875 -959.00823974609375 -941.32574462890625 -923.3890380859375 -905.21087646484375 -887.11773681640625 -869.39031982421875 -852.2803955078125 -836.3052978515625 -821.49676513671875 -808.53045654296875 -797.36004638671875 -788.63629150390625 -782.3748779296875 -777.29071044921875 -771.01458740234375 -762.68292236328125 -754.68048095703125 -747.31451416015625 -740.6502685546875 -734.83624267578125 -730.1290283203125 -726.041015625 -722.6298828125 -719.65924072265625 -716.814453125 -714.052734375 -711.279541015625 -708.46612548828125 -705.57708740234375 -702.65264892578125 -699.716552734375 -696.7884521484375 -693.8887939453125 -690.93731689453125 -688.29815673828125 -685.61773681640625 -683.0430908203125 -680.5587158203125 -678.16448974609375 -675.8504638671875 -673.64447021484375 -671.53167724609375 -669.49078369140625 -667.5263671875 -665.5921630859375 -663.744384765625 -661.93865966796875 -660.160888671875 -658.40118408203125 -656.618408203125 -654.85369873046875 -653.064697265625 -651.24078369140625 -649.37164306640625 -647.409423828125 -645.4932861328125 -643.2958984375 -641.08526611328125 -638.78009033203125 -636.37188720703125 -633.85687255859375 -631.21173095703125 -628.437744140625 -625.5511474609375 -622.55120849609375 -619.43701171875 -616.197998046875 -99999 -99999 -99999 -99999 -99999 -99999
 -99999 -1254.6292724609375 -1259.7783203125 -1264.766845703125 -1269.5966796875 -1273.95458984375 -1277.76513671875 -1280.9403076171875 -1283.337158203125 -1284.657958984375 -1284.8704833984375 -1283.635498046875 -1280.978515625 -1277.2874755859375 -1273.26806640625 -1269.2528076171875 -1265.3004150390625 -1261.5194091796875 -1257.82958984375 -1254.2808837890625 -1250.9744873046875 -1248.2669677734375 -1245.8585205078125 -1243.18115234375 -1239.783447265625 -1235.22216796875 -1228.9359130859375 -1221.44482421875 -1213.2652587890625 -1205.03173828125 -1197.1900634765625 -1189.885009765625 -1183.2569580078125 -1177.466552734375 -1171.72216796875 -1166.326904296875 -1160.8470458984375 -1155.11865234375 -1148.972900390625 -1142.3873291015625 -1135.2144775390625 -1126.84375 -1118.0545654296875 -1108.324462890625 -1097.9464111328125 -1086.6312255859375 -1074.4893798828125 -1061.718994140625 -1048.3983154296875 -1034.206298828125 -1019.441162109375 -1004.14898681640625 -988.20123291015625 -971.88568115234375 -955.2725830078125 -938.02886962890625 -920.7724609375 -903.41143798828125 -886.14874267578125 -869.31884765625 -853.24102783203125 -837.98883056640625 -824.02496337890625 -811.59088134765625 -800.69580078125 -792.4537353515625 -785.8804931640625 -779.96282958984375 -772.37994384765625 -763.8135986328125 -755.175048828125 -747.22283935546875 -740.4383544921875 -734.73577880859375 -730.25775146484375 -726.94744873046875 -724.192626953125 -721.77325439453125 -719.48394775390625 -717.13555908203125 -714.6260986328125 -711.9993896484375 -709.22161865234375 -706.31854248046875 -703.35211181640625 -700.3704833984375 -697.404052734375 -694.45587158203125 -691.552734375 -688.72845458984375 -686.08642578125 -683.448974609375 -680.90533447265625 -678.43707275390625 -676.04205322265625 -673.71746826171875 -671.4737548828125 -669.3004150390625 -667.17236328125 -665.0927734375 -663.05279541015625 -661.0504150390625 -659.0640869140625 -657.08349609375 -655.099609375 -653.10321044921875 -651.07098388671875 -648.9967041015625 -646.87890625 -644.690673828125 -642.41986083984375 -640.07794189453125 -637.65325927734375 -635.119140625 -632.4776611328125 -629.73828125 -626.89837646484375 -623.96356201171875 -620.885986328125 -617.70526123046875 -99999 -99999 -99999 -99999 -99999 -99999 -99999
 -99999 -1251.310302734375 -1256.7691650390625 -1262.10107421875 -1267.1295166015625 -1271.9981689453125 -1276.3125 -1279.7147216796875 -1282.1644287109375 -1283.8565673828125 -1284.91552734375 -1284.1387939453125 -1280.8050537109375 -1276.9158935546875 -1272.8779296875 -1268.81689453125 -1264.725341796875 -1260.727294921875 -1256.8726806640625 -1253.182373046875 -1249.730712890625 -1246.49560546875 -1243.377685546875 -1240.179443359375 -1236.1077880859375 -1231.1053466796875 -1225.335205078125 -1218.2781982421875 -1210.705810546875 -1202.9671630859375 -1195.2469482421875 -1188.03125 -1181.32470703125 -1174.84521484375 -1168.7545166015625 -1162.7496337890625 -1156.721923828125 -1150.5067138671875 -1143.9168701171875 -1137.056396484375 -1129.2347412109375 -1120.7744140625 -1111.8011474609375 -1102.1181640625 -1091.7391357421875 -1080.3509521484375 -1068.52734375 -1055.9332275390625 -1042.7510986328125 -1028.8306884765625 -1014.3135986328125 -999.4757080078125 -983.9012451171875 -967.97027587890625 -951.822509765625 -935.2742919921875 -918.68328857421875 -902.0369873046875 -885.6387939453125 -869.676025390625 -854.26702880859375 -839.9163818359375 -826.46624755859375 -814.583251953125 -804.23431396484375 -795.35980224609375 -787.6153564453125 -780.85302734375 -772.70513916015625 -763.87896728515625 -755.285400390625 -747.25970458984375 -739.92462158203125 -734.26434326171875 -730.633544921875 -728.0712890625 -726.19329833984375 -724.58984375 -722.8948974609375 -720.95050048828125 -718.71771240234375 -716.1849365234375 -713.37396240234375 -710.425048828125 -707.38299560546875 -704.27923583984375 -701.20123291015625 -698.142822265625 -695.13909912109375 -692.17181396484375 -689.24749755859375 -686.5408935546875 -683.808837890625 -681.15997314453125 -678.58837890625 -676.06817626953125 -673.60467529296875 -671.19598388671875 -668.87823486328125 -666.5694580078125 -664.3031005859375 -662.0648193359375 -659.84832763671875 -657.6761474609375 -655.473388671875 -653.259765625 -651.0269775390625 -648.77154541015625 -646.52764892578125 -644.10797119140625 -641.7037353515625 -639.21087646484375 -636.6336669921875 -633.97869873046875 -631.2421875 -628.42364501953125 -625.472900390625 -622.447998046875 -619.318359375 -99999 -99999 -99999 -99999 -99999 -99999 -99999 -99999
 -99999 -1247.784423828125 -1253.4365234375 -1258.984130859375 -1264.37060546875 -1269.496826171875 -1274.211669921875 -1278.124267578125 -1280.575927734375 -1282.1573486328125 -1283.381103515625 -1282.7886962890625 -1280.0692138671875 -1276.1632080078125 -1272.0926513671875 -1268.0040283203125 -1263.8050537109375 -1259.7010498046875 -1255.6832275390625 -1251.773681640625 -1248.0556640625 -1244.4677734375 -1240.8116455078125 -1236.893798828125 -1232.537353515625 -1227.5606689453125 -1221.6927490234375 -1214.9495849609375 -1207.7353515625 -1200.327880859375 -1192.9415283203125 -1185.783447265625 -1178.789306640625 -1172.054931640625 -1165.5189208984375 -1159.1864013671875 -1152.6744384765625 -1145.9405517578125 -1139.0767822265625 -1131.6322021484375 -1123.5455322265625 -1115.1090087890625 -1105.9708251953125 -1096.13671875 -1085.7537841796875 -1074.5291748046875 -1062.69677734375 -1050.3656005859375 -1037.2784423828125 -1023.65216064453125 -1009.58502197265625 -994.9156494140625 -979.88250732421875 -964.54888916015625 -948.82147216796875 -932.943359375 -917.0050048828125 -901.1402587890625 -885.48260498046875 -870.22320556640625 -855.66607666015625 -841.82354736328125 -828.89111328125 -817.34197998046875 -806.8955078125 -797.685546875 -789.3365478515625 -781.2828369140625 -772.87725830078125 -764.13458251953125 -755.42425537109375 -746.86395263671875 -738.8311767578125 -733.46307373046875 -730.68988037109375 -729.65484619140625 -729.071533203125 -728.3778076171875 -727.2862548828125 -725.6361083984375 -723.49749755859375 -720.94384765625 -718.06890869140625 -714.998291015625 -711.7786865234375 -708.5018310546875 -705.2275390625 -701.99908447265625 -698.8515625 -695.78009033203125 -692.6805419921875 -689.75537109375 -686.859130859375 -684.043701171875 -681.2457275390625 -678.5113525390625 -675.8758544921875 -673.24774169921875 -670.6669921875 -668.12200927734375 -665.63909912109375 -663.21307373046875 -660.76971435546875 -658.34130859375 -655.921142578125 -653.52581787109375 -651.119140625 -648.65838623046875 -646.19622802734375 -643.64227294921875 -641.0693359375 -638.4283447265625 -635.73272705078125 -632.978515625 -630.11248779296875 -627.1683349609375 -624.15533447265625 -99999 -99999 -99999 -99999 -99999 -99999 -99999 -99999 -99999 -99999
 -99999 -1244.0792236328125 -1249.912109375 -1255.5799560546875 -1261.0867919921875 -1266.4873046875 -1271.619384765625 -1275.776123046875 -1278.2080078125 -1279.673828125 -1280.55810546875 -1280.133544921875 -1277.7713623046875 -1274.48046875 -1270.830078125 -1266.6092529296875 -1262.3890380859375 -1258.1988525390625 -1254.0753173828125 -1250.044677734375 -1246.0439453125 -1242.02099609375 -1237.971435546875 -1233.7489013671875 -1229.033203125 -1224.004150390625 -1217.8822021484375 -1211.398193359375 -1204.54345703125 -1197.4013671875 -1190.1090087890625 -1183.0062255859375 -1175.8831787109375 -1169.0213623046875 -1162.22607421875 -1155.426025390625 -1148.5181884765625 -1141.5540771484375 -1134.3013916015625 -1126.4359130859375 -1118.304443359375 -1109.5941162109375 -1100.2576904296875 -1090.56396484375 -1080.0177001953125 -1068.9210205078125 -1057.293212890625 -1045.1268310546875 -1032.253662109375 -1018.94512939453125 -1005.19097900390625 -990.91558837890625 -976.27252197265625 -961.35430908203125 -946.20196533203125 -930.84161376953125 -915.55877685546875 -900.30279541015625 -885.34552001953125 -870.867919921875 -856.8515625 -843.66302490234375 -831.3236083984375 -819.84521484375 -809.49884033203125 -799.8897705078125 -791.02734375 -782.5047607421875 -773.7550048828125 -764.8814697265625 -756.05401611328125 -746.314453125 -737.7965087890625 -732.92950439453125 -731.9111328125 -732.3863525390625 -733.14947509765625 -733.13629150390625 -732.47015380859375 -731.15081787109375 -729.0953369140625 -726.406982421875 -723.31640625 -719.912109375 -716.4061279296875 -712.902099609375 -709.4732666015625 -706.083740234375 -702.74932861328125 -699.48223876953125 -696.29296875 -693.13739013671875 -690.02996826171875 -687.02191162109375 -684.08258056640625 -681.12359619140625 -678.207275390625 -675.34033203125 -672.57421875 -669.83734130859375 -667.0994873046875 -664.393798828125 -661.7330322265625 -659.1322021484375 -656.51959228515625 -653.88616943359375 -651.25018310546875 -648.62078857421875 -646.03076171875 -643.26361083984375 -640.55322265625 -637.7874755859375 -634.93536376953125 -632.0281982421875 -629.06378173828125 -626.04461669921875 -99999 -99999 -99999 -99999 -99999 -99999 -99999 -99999 -99999 -99999 -99999
 -99999 -1240.30078125 -1246.2698974609375 -1251.9111328125 -1257.42333984375 -1262.838134765625 -1268.1156005859375 -1272.421142578125 -1274.9908447265625 -1276.52587890625 -1277.14990234375 -1276.6004638671875 -1274.843994140625 -1271.964111328125 -1268.5018310546875 -1264.4591064453125 -1260.361328125 -1256.19873046875 -1252.0029296875 -1247.795654296875 -1243.5621337890625 -1239.369140625 -1235.002685546875 -1230.373779296875 -1225.5968017578125 -1220.11572265625 -1214.1781005859375 -1207.836669921875 -1201.1082763671875 -1194.093505859375 -1186.9888916015625 -1179.906494140625 -1172.7587890625 -1165.69921875 -1158.684326171875 -1151.616943359375 -1144.4744873046875 -1137.28564453125 -1129.486083984375 -1121.5218505859375 -1113.1343994140625 -1104.2625732421875 -1095.0081787109375 -1085.12255859375 -1074.61083984375 -1063.6087646484375 -1052.0908203125 -1040.056640625 -1027.4468994140625 -1014.39501953125 -1000.969482421875 -987.07049560546875 -972.9251708984375 -958.50048828125 -943.8663330078125 -929.1878662109375 -914.49407958984375 -899.93072509765625 -885.6248779296875 -871.66131591796875 -858.29888916015625 -845.514892578125 -833.5224609375 -822.28570556640625 -811.96435546875 -802.255859375 -793.13128662109375 -784.24981689453125 -775.458740234375 -766.4189453125 -757.1558837890625 -747.51873779296875 -739.233642578125 -734.27752685546875 -734.77532958984375 -736.86724853515625 -738.71014404296875 -739.58203125 -739.212646484375 -737.8277587890625 -735.32965087890625 -732.29449462890625 -728.84625244140625 -725.125 -721.33831787109375 -717.54315185546875 -713.8236083984375 -710.23785400390625 -706.77288818359375 -703.37579345703125 -700.01885986328125 -696.688720703125 -693.40264892578125 -690.0093994140625 -686.94952392578125 -683.7960205078125 -680.69677734375 -677.61761474609375 -674.55389404296875 -671.53289794921875 -668.60858154296875 -665.72991943359375 -662.841552734375 -659.965576171875 -657.118896484375 -654.32611083984375 -651.53436279296875 -648.70294189453125 -645.8851318359375 -643.021240234375 -640.11370849609375 -637.17462158203125 -634.2154541015625 -631.20947265625 -628.132568359375 -99999 -99999 -99999 -99999 -99999 -99999 -99999 -99999 -99999 -99999 -99999 -99999
 -99999 -99999 -1242.545166015625 -1248.136962890625 -1253.59375 -1258.9603271484375 -1263.883056640625 -1268.028076171875 -1271.0318603515625 -1272.6285400390625 -1273.16259765625 -1272.680419921875 -1271.16650390625 -1269.006591796875 -1265.299560546875 -1261.6680908203125 -1257.7528076171875 -1253.630126953125 -1249.42138671875 -1245.1365966796875 -1240.77734375 -1236.3089599609375 -1231.7177734375 -1226.99462890625 -1221.9344482421875 -1216.27978515625 -1210.3955078125 -1204.1236572265625 -1197.5023193359375 -1190.614501953125 -1183.6109619140625 -1176.5765380859375 -1169.3367919921875 -1162.1961669921875 -1155.0074462890625 -1147.688232421875 -1140.401123046875 -1132.7474365234375 -1124.84130859375 -1116.6859130859375 -1108.1258544921875 -1099.2010498046875 -1089.8524169921875 -1079.8455810546875 -1069.4757080078125 -1058.5631103515625 -1047.256103515625 -1035.3084716796875 -1022.996337890625 -1010.21923828125 -997.12396240234375 -983.6065673828125 -969.84423828125 -955.90545654296875 -941.76171875 -927.56689453125 -913.479736328125 -899.4903564453125 -885.718505859375 -872.46356201171875 -859.5526123046875 -847.2940673828125 -835.72955322265625 -824.7615966796875 -814.49725341796875 -804.8125 -795.60894775390625 -786.73187255859375 -778.04510498046875 -769.2469482421875 -760.298828125 -751.72869873046875 -744.70867919921875 -740.7034912109375 -741.59466552734375 -744.08673095703125 -746.7926025390625 -747.8809814453125 -747.283447265625 -745.52423095703125 -742.6824951171875 -738.97259521484375 -734.7059326171875 -730.501708984375 -726.20709228515625 -722.14794921875 -718.27203369140625 -714.52252197265625 -710.8970947265625 -707.32208251953125 -703.82708740234375 -700.35791015625 -696.907958984375 -693.39984130859375 -689.9345703125 -686.60601806640625 -683.2037353515625 -679.88323974609375 -676.62786865234375 -673.4158935546875 -670.21307373046875 -667.06121826171875 -663.95458984375 -660.902587890625 -657.87921142578125 -654.8369140625 -651.80535888671875 -648.8209228515625 -645.82080078125 -642.78839111328125 -639.75958251953125 -636.703857421875 -633.59320068359375 -630.43218994140625 -99999 -99999 -99999 -99999 -99999 -99999 -99999 -99999 -99999 -99999 -99999 -99999 -99999
 -99999 -99999 -1238.550048828125 -1244.213134765625 -1249.5885009765625 -1254.6796875 -1259.318603515625 -1263.223876953125 -1266.1572265625 -1268.0389404296875 -1268.7584228515625 -1268.377197265625 -1266.853271484375 -1264.639404296875 -1261.6910400390625 -1258.2537841796875 -1254.501220703125 -1250.5216064453125 -1246.3558349609375 -1242.00439453125 -1237.5557861328125 -1232.9871826171875 -1228.2640380859375 -1223.4722900390625 -1218.0194091796875 -1212.4542236328125 -1206.5321044921875 -1200.2666015625 -1193.69580078125 -1186.9208984375 -1180.1065673828125 -1172.8695068359375 -1165.7208251953125 -1158.48095703125 -1151.119384765625 -1143.7509765625 -1136.1878662109375 -1128.309326171875 -1120.3070068359375 -1112.016357421875 -1103.3131103515625 -1094.353515625 -1084.8173828125 -1074.9002685546875 -1064.5303955078125 -1053.736572265625 -1042.536865234375 -1030.7894287109375 -1018.70220947265625 -1006.28497314453125 -993.4547119140625 -980.358154296875 -967.0718994140625 -953.5469970703125 -939.96209716796875 -926.33941650390625 -912.7628173828125 -899.36993408203125 -886.17828369140625 -873.34393310546875 -860.985595703125 -849.1346435546875 -837.892822265625 -827.14910888671875 -817.10675048828125 -807.5496826171875 -798.4521484375 -789.8197021484375 -781.45928955078125 -773.27777099609375 -765.528076171875 -758.4539794921875 -752.79736328125 -749.95330810546875 -750.66802978515625 -753.81329345703125 -756.49591064453125 -757.56268310546875 -756.57415771484375 -754.01812744140625 -750.35498046875 -745.90850830078125 -740.89739990234375 -735.81207275390625 -731.03985595703125 -726.70318603515625 -722.61328125 -718.7855224609375 -715.08038330078125 -711.42706298828125 -707.79144287109375 -704.1053466796875 -700.43804931640625 -696.77642822265625 -693.063720703125 -689.424560546875 -685.85211181640625 -682.28924560546875 -678.72857666015625 -675.24713134765625 -671.84759521484375 -668.48333740234375 -665.16949462890625 -661.848876953125 -658.60516357421875 -655.40087890625 -652.2152099609375 -649.0350341796875 -645.86602783203125 -642.67608642578125 -639.46771240234375 -636.24713134765625 -633.01812744140625 -99999 -99999 -99999 -99999 -99999 -99999 -99999 -99999 -99999 -99999 -99999 -99999 -99999 -99999
 -99999 -99999 -99999 -1239.927978515625 -1245.240234375 -1250.182373046875 -1254.5863037109375 -1258.14453125 -1260.83154296875 -1262.5975341796875 -1263.4290771484375 -1263.2237548828125 -1262.0013427734375 -1260.0406494140625 -1257.4501953125 -1254.3424072265625 -1250.7884521484375 -1246.9034423828125 -1242.7608642578125 -1238.465576171875 -1234.00439453125 -1229.3392333984375 -1224.6485595703125 -1219.4783935546875 -1214.078369140625 -1208.4404296875 -1202.5355224609375 -1196.30224609375 -1189.7908935546875 -1183.1754150390625 -1176.15625 -1169.071044921875 -1161.8905029296875 -1154.5865478515625 -1147.1614990234375 -1139.602294921875 -1131.8980712890625 -1123.9884033203125 -1115.822265625 -1107.349853515625 -1098.641845703125 -1089.5572509765625 -1079.969482421875 -1070.1395263671875 -1059.8560791015625 -1049.2835693359375 -1038.0369873046875 -1026.6180419921875 -1014.74359130859375 -1002.674072265625 -990.1143798828125 -977.3621826171875 -964.45379638671875 -951.41448974609375 -938.249755859375 -925.11322021484375 -912.0623779296875 -899.177978515625 -886.515380859375 -874.20538330078125 -862.3309326171875 -850.88232421875 -839.9947509765625 -829.65850830078125 -819.7921142578125 -810.54144287109375 -801.7406005859375 -793.4027099609375 -785.4119873046875 -777.98443603515625 -771.254638671875 -765.40374755859375 -761.5413818359375 -759.96527099609375 -760.7860107421875 -763.50140380859375 -767.119140625 -767.15899658203125 -765.603515625 -762.76812744140625 -758.73553466796875 -753.08111572265625 -746.7191162109375 -740.9000244140625 -735.54766845703125 -730.98663330078125 -726.89361572265625 -723.034912109375 -719.314208984375 -715.5946044921875 -711.82745361328125 -708.00750732421875 -704.1363525390625 -700.2098388671875 -696.27996826171875 -692.28985595703125 -688.47857666015625 -684.6646728515625 -680.89599609375 -677.18096923828125 -673.51727294921875 -669.91583251953125 -666.3629150390625 -662.87310791015625 -659.42498779296875 -656.00250244140625 -652.61279296875 -649.260498046875 -645.91925048828125 -642.57330322265625 -639.23388671875 -635.88726806640625 -99999 -99999 -99999 -99999 -99999 -99999 -99999 -99999 -99999 -99999 -99999 -99999 -99999 -99999 -99999
 -99999 -99999 -99999 -1235.503662109375 -1240.637939453125 -1245.310546875 -1249.425537109375 -1252.8817138671875 -1255.5921630859375 -1257.2056884765625 -1257.93115234375 -1257.8255615234375 -1256.9293212890625 -1255.29443359375 -1252.837646484375 -1249.8865966796875 -1246.5211181640625 -1242.8267822265625 -1238.8204345703125 -1234.534912109375 -1230.0557861328125 -1225.4788818359375 -1220.5880126953125 -1215.3599853515625 -1209.9925537109375 -1204.3758544921875 -1198.39892578125 -1192.1541748046875 -1185.77001953125 -1179.0867919921875 -1172.127685546875 -1165.09765625 -1157.93115234375 -1150.5621337890625 -1143.056640625 -1135.5194091796875 -1127.6549072265625 -1119.5897216796875 -1111.3515625 -1102.8541259765625 -1094.1572265625 -1084.854248046875 -1075.42578125 -1065.5499267578125 -1055.3270263671875 -1044.793212890625 -1033.8179931640625 -1022.5557861328125 -1010.97430419921875 -999.0966796875 -986.92266845703125 -974.59912109375 -962.08294677734375 -949.4185791015625 -936.7445068359375 -924.08709716796875 -911.5447998046875 -899.1463623046875 -886.98870849609375 -875.16448974609375 -863.68701171875 -852.71484375 -842.16424560546875 -832.1077880859375 -822.6387939453125 -813.66217041015625 -805.1070556640625 -797.20465087890625 -789.89422607421875 -783.206298828125 -777.2513427734375 -772.7381591796875 -769.58856201171875 -768.1781005859375 -768.94854736328125 -771.3966064453125 -773.6795654296875 -774.6658935546875 -773.90277099609375 -771.91607666015625 -766.62786865234375 -759.5770263671875 -752.04669189453125 -744.92974853515625 -739.45208740234375 -734.70361328125 -730.93310546875 -727.273681640625 -723.60992431640625 -719.8719482421875 -716.014892578125 -712.01171875 -707.8929443359375 -703.72406005859375 -699.5323486328125 -695.33154296875 -691.117919921875 -687.09100341796875 -683.04058837890625 -679.082275390625 -675.18951416015625 -671.36175537109375 -667.593994140625 -663.88165283203125 -660.23614501953125 -656.63397216796875 -653.06890869140625 -649.53662109375 -646.04107666015625 -642.531005859375 -639.04119873046875 -99999 -99999 -99999 -99999 -99999 -99999 -99999 -99999 -99999 -99999 -99999 -99999 -99999 -99999 -99999 -99999
 -99999 -99999 -99999 -99999 -99999 -99999 -1244.266845703125 -1247.4053955078125 -1249.82861328125 -1251.5364990234375 -1252.4267578125 -1252.403076171875 -1251.5185546875 -1249.9757080078125 -1247.8499755859375 -1245.1275634765625 -1241.9215087890625 -1238.3153076171875 -1234.413330078125 -1230.2987060546875 -1225.924072265625 -1221.3096923828125 -1216.2744140625 -1211.1475830078125 -1205.7205810546875 -1200.0482177734375 -1194.1053466796875 -1187.96337890625 -1181.6162109375 -1174.841552734375 -1168.0147705078125 -1160.9832763671875 -1153.77197265625 -1146.3985595703125 -1138.9296875 -1131.2822265625 -1123.3211669921875 -1115.2899169921875 -1106.9466552734375 -1098.349365234375 -1089.5736083984375 -1080.3858642578125 -1070.9254150390625 -1061.1322021484375 -1051.0714111328125 -1040.6474609375 -1029.847412109375 -1018.79901123046875 -1007.43585205078125 -995.850830078125 -983.9786376953125 -971.97271728515625 -959.86627197265625 -947.6138916015625 -935.37493896484375 -923.19598388671875 -911.10406494140625 -899.1590576171875 -887.456787109375 -876.01312255859375 -865.01458740234375 -854.402099609375 -844.20220947265625 -834.60675048828125 -825.3624267578125 -816.77294921875 -808.73828125 -801.21258544921875 -794.31988525390625 -788.1143798828125 -783.12750244140625 -778.81640625 -776.25469970703125 -775.3245849609375 -775.700927734375 -777.1162109375 -779.00762939453125 -780.1829833984375 -780.87725830078125 -781.0245361328125 -774.32275390625 -764.70660400390625 -755.2119140625 -747.8779296875 -742.31121826171875 -738.26763916015625 -734.7933349609375 -731.556640625 -728.10784912109375 -724.35052490234375 -720.33367919921875 -716.1104736328125 -711.7547607421875 -707.3038330078125 -702.8082275390625 -698.315673828125 -693.8226318359375 -689.4566650390625 -685.1920166015625 -680.96490478515625 -676.817626953125 -672.7908935546875 -668.81439208984375 -664.912353515625 -661.04705810546875 -657.25860595703125 -653.53082275390625 -649.82952880859375 -646.1654052734375 -99999 -99999 -99999 -99999 -99999 -99999 -99999 -99999 -99999 -99999 -99999 -99999 -99999 -99999 -99999 -99999 -99999 -99999
 -99999 -99999 -99999 -99999 -99999 -99999 -99999 -99999 -1244.2276611328125 -1245.8138427734375 -1246.5604248046875 -1246.599853515625 -1245.963134765625 -1244.559814453125 -1242.5338134765625 -1239.9571533203125 -1236.946533203125 -1233.5501708984375 -1229.7781982421875 -1225.8193359375 -1221.31494140625 -1216.6866455078125 -1211.796630859375 -1206.6636962890625 -1201.2952880859375 -1195.6292724609375 -1189.693603515625 -1183.6689453125 -1177.1475830078125 -1170.528564453125 -1163.720947265625 -1156.7347412109375 -1149.538330078125 -1142.164306640625 -1134.7694091796875 -1126.9208984375 -1119.0064697265625 -1110.898681640625 -1102.548583984375 -1094.0238037109375 -1085.189208984375 -1076.0247802734375 -1066.6370849609375 -1056.8914794921875 -1046.953369140625 -1036.5994873046875 -1026.01513671875 -1015.15008544921875 -1004.10504150390625 -992.7332763671875 -981.22406005859375 -969.58624267578125 -957.866455078125 -945.982666015625 -934.12957763671875 -922.294921875 -910.68341064453125 -899.13433837890625 -887.89398193359375 -876.95770263671875 -866.31219482421875 -856.1380615234375 -846.34393310546875 -837.01312255859375 -828.1474609375 -819.9189453125 -812.17816162109375 -805.029296875 -798.6744384765625 -793.07452392578125 -788.30865478515625 -784.5528564453125 -782.20361328125 -781.099609375 -781.009521484375 -781.72015380859375 -782.9161376953125 -784.2252197265625 -785.728759765625 -784.63775634765625 -778.0732421875 -766.435546875 -755.46240234375 -748.089111328125 -743.75537109375 -741.2996826171875 -738.88604736328125 -736.08746337890625 -732.76007080078125 -729.04388427734375 -724.848876953125 -720.4073486328125 -715.696044921875 -710.88043212890625 -706.029541015625 -701.21636962890625 -696.51654052734375 -691.8505859375 -687.25 -682.81732177734375 -678.4453125 -674.16595458984375 -669.9814453125 -665.89288330078125 -661.86358642578125 -657.8897705078125 -653.97100830078125 -650.10406494140625 -99999 -99999 -99999 -99999 -99999 -99999 -99999 -99999 -99999 -99999 -99999 -99999 -99999 -99999 -99999 -99999 -99999 -99999 -99999
 -99999 -99999 -99999 -99999 -99999 -99999 -99999 -99999 -99999 -99999 -1240.6939697265625 -1240.76708984375 -1240.120361328125 -1238.8465576171875 -1237.0216064453125 -1234.6390380859375 -1231.7518310546875 -1228.4908447265625 -1225.0946044921875 -1220.8323974609375 -1216.5269775390625 -1211.975341796875 -1207.1602783203125 -1202.052734375 -1196.6541748046875 -1191.0107421875 -1185.2386474609375 -1179.06640625 -1172.669189453125 -1166.1259765625 -1159.3551025390625 -1152.357666015625 -1145.1719970703125 -1137.9066162109375 -1130.308349609375 -1122.57373046875 -1114.6881103515625 -1106.5562744140625 -1098.2100830078125 -1089.749755859375 -1080.817138671875 -1071.741455078125 -1062.3890380859375 -1052.84765625 -1042.935546875 -1032.75927734375 -1022.38604736328125 -1011.7164306640625 -1000.89251708984375 -989.81268310546875 -978.58514404296875 -967.22979736328125 -955.8271484375 -944.34490966796875 -932.9234619140625 -921.5927734375 -910.30694580078125 -899.24664306640625 -888.40777587890625 -877.8131103515625 -867.6063232421875 -857.75006103515625 -848.26470947265625 -839.33074951171875 -830.89691162109375 -822.91558837890625 -815.58392333984375 -808.8543701171875 -802.76275634765625 -797.42144775390625 -792.996826171875 -789.569091796875 -787.04833984375 -785.5096435546875 -785.02374267578125 -785.164306640625 -785.49554443359375 -785.73114013671875 -785.50750732421875 -783.48529052734375 -776.24993896484375 -763.7518310546875 -752.18115234375 -747.10784912109375 -745.58349609375 -744.88995361328125 -743.454833984375 -741.268798828125 -737.98809814453125 -734.05718994140625 -729.5474853515625 -724.65753173828125 -719.54937744140625 -714.4356689453125 -709.2608642578125 -704.08984375 -699.00634765625 -694.04083251953125 -689.15362548828125 -684.5274658203125 -679.95416259765625 -675.50592041015625 -671.12432861328125 -666.828125 -662.59490966796875 -658.478515625 -654.4281005859375 -99999 -99999 -99999 -99999 -99999 -99999 -99999 -99999 -99999 -99999 -99999 -99999 -99999 -99999 -99999 -99999 -99999 -99999 -99999 -99999
 -99999 -99999 -99999 -99999 -99999 -99999 -99999 -99999 -99999 -99999 -99999 -99999 -1234.244384765625 -1233.053466796875 -1231.322021484375 -1229.108642578125 -1226.619140625 -1223.25341796875 -1219.7098388671875 -1215.7813720703125 -1211.563720703125 -1207.0697021484375 -1202.2882080078125 -1197.2152099609375 -1191.895751953125 -1186.33984375 -1180.5546875 -1174.3922119140625 -1168.0894775390625 -1161.5751953125 -1154.8406982421875 -1147.897216796875 -1140.8011474609375 -1133.498779296875 -1125.9197998046875 -1118.2213134765625 -1110.3218994140625 -1102.193359375 -1093.9630126953125 -1085.3411865234375 -1076.56103515625 -1067.57080078125 -1058.2822265625 -1048.8328857421875 -1039.03759765625 -1029.0235595703125 -1018.7906494140625 -1008.4141845703125 -997.76336669921875 -986.990966796875 -976.10662841796875 -965.095458984375 -954.00299072265625 -942.96002197265625 -931.85394287109375 -920.78717041015625 -909.98602294921875 -899.265625 -888.785888671875 -878.66259765625 -868.7830810546875 -859.281982421875 -850.26336669921875 -841.63861083984375 -833.439697265625 -825.80938720703125 -818.767822265625 -812.278564453125 -806.51904296875 -801.50042724609375 -797.178466796875 -793.75701904296875 -791.1707763671875 -789.40655517578125 -788.219970703125 -787.456787109375 -786.99481201171875 -786.31494140625 -784.18603515625 -780.0650634765625 -772.0328369140625 -760.05255126953125 -749.5826416015625 -746.635498046875 -747.9051513671875 -749.4276123046875 -749.29266357421875 -747.26373291015625 -743.8140869140625 -739.39410400390625 -734.34027099609375 -728.97882080078125 -723.48883056640625 -717.82708740234375 -712.22613525390625 -706.7548828125 -701.4207763671875 -696.19720458984375 -691.06915283203125 -686.1998291015625 -681.39190673828125 -676.699951171875 -672.14898681640625 -667.7047119140625 -663.34197998046875 -659.03375244140625 -99999 -99999 -99999 -99999 -99999 -99999 -99999 -99999 -99999 -99999 -99999 -99999 -99999 -99999 -99999 -99999 -99999 -99999 -99999 -99999 -99999
 -99999 -99999 -99999 -99999 -99999 -99999 -99999 -99999 -99999 -99999 -99999 -99999 -99999 -99999 -1225.73974609375 -1223.4224853515625 -1220.846435546875 -1217.715087890625 -1214.2762451171875 -1210.505615234375 -1206.40380859375 -1202.0029296875 -1197.249267578125 -1192.2298583984375 -1186.9652099609375 -1181.5787353515625 -1175.653076171875 -1169.6490478515625 -1163.4168701171875 -1156.944580078125 -1150.2332763671875 -1143.3431396484375 -1136.3538818359375 -1128.9498291015625 -1121.4873046875 -1113.827392578125 -1105.947021484375 -1097.89990234375 -1089.6397705078125 -1081.0821533203125 -1072.3626708984375 -1063.41845703125 -1054.2587890625 -1044.9237060546875 -1035.254150390625 -1025.455810546875 -1015.42852783203125 -1005.202880859375 -994.85528564453125 -984.29937744140625 -973.660400390625 -962.94287109375 -952.22894287109375 -941.4248046875 -930.7376708984375 -920.1707763671875 -909.62628173828125 -899.3411865234375 -889.265625 -879.43511962890625 -869.91705322265625 -860.782958984375 -851.9974365234375 -843.6463623046875 -835.8546142578125 -828.533935546875 -821.6746826171875 -815.5274658203125 -809.9664306640625 -805.08892822265625 -800.8450927734375 -797.38958740234375 -794.55731201171875 -792.44580078125 -790.828857421875 -789.51837158203125 -787.98681640625 -785.98699951171875 -783.0921630859375 -778.35546875 -770.9697265625 -761.010009765625 -752.68402099609375 -751.5029296875 -754.07470703125 -756.44854736328125 -756.5211181640625 -754.39996337890625 -750.167236328125 -744.85980224609375 -739.17584228515625 -733.09759521484375 -727.024169921875 -721.02252197265625 -715.0830078125 -709.25506591796875 -703.53460693359375 -698.07452392578125 -692.79229736328125 -687.63116455078125 -682.6761474609375 -677.8433837890625 -673.122314453125 -668.48223876953125 -663.9501953125 -99999 -99999 -99999 -99999 -99999 -99999 -99999 -99999 -99999 -99999 -99999 -99999 -99999 -99999 -99999 -99999 -99999 -99999 -99999 -99999 -99999 -99999
 -99999 -99999 -99999 -99999 -99999 -99999 -99999 -99999 -99999 -99999 -99999 -99999 -99999 -99999 -99999 -99999 -1215.01025390625 -1212.107666015625 -1208.8045654296875 -1205.115234375 -1201.0609130859375 -1196.7076416015625 -1192.0694580078125 -1187.14306640625 -1182.0419921875 -1176.5003662109375 -1170.7672119140625 -1164.7947998046875 -1158.619140625 -1152.19873046875 -1145.563232421875 -1138.8248291015625 -1131.6868896484375 -1124.4532470703125 -1117.0137939453125 -1109.37353515625 -1101.55322265625 -1093.616455078125 -1085.2813720703125 -1076.86962890625 -1068.2501220703125 -1059.3841552734375 -1050.33251953125 -1041.10546875 -1031.5828857421875 -1021.93524169921875 -1012.08258056640625 -1002.17657470703125 -991.94189453125 -981.71514892578125 -971.39727783203125 -960.9791259765625 -950.53125 -940.11962890625 -929.73883056640625 -919.42657470703125 -909.31640625 -899.34283447265625 -889.57257080078125 -880.113525390625 -870.91717529296875 -862.0780029296875 -853.684326171875 -845.68115234375 -838.12152099609375 -830.9766845703125 -824.37652587890625 -818.4423828125 -812.97540283203125 -808.203125 -804.10687255859375 -800.51788330078125 -797.536865234375 -795.04827880859375 -792.8590087890625 -790.89556884765625 -788.82135009765625 -786.301025390625 -782.9420166015625 -778.24786376953125 -772.012939453125 -765.76678466796875 -761.107177734375 -760.17681884765625 -762.632568359375 -765.771484375 -765.17071533203125 -761.53271484375 -756.435791015625 -750.417724609375 -743.87786865234375 -737.003173828125 -730.3980712890625 -723.82269287109375 -717.48699951171875 -711.374755859375 -705.47369384765625 -699.76971435546875 -694.250732421875 -688.9122314453125 -683.81097412109375 -678.78948974609375 -673.93853759765625 -669.191650390625 -99999 -99999 -99999 -99999 -99999 -99999 -99999 -99999 -99999 -99999 -99999 -99999 -99999 -99999 -99999 -99999 -99999 -99999 -99999 -99999 -99999 -99999 -99999
 -99999 -99999 -99999 -99999 -99999 -99999 -99999 -99999 -99999 -99999 -99999 -99999 -99999 -99999 -99999 -99999 -99999 -99999 -99999 -1199.54052734375 -1195.6177978515625 -1191.343505859375 -1186.747314453125 -1181.97509765625 -1176.8900146484375 -1171.372314453125 -1165.738525390625 -1159.885498046875 -1153.756591796875 -1147.37060546875 -1140.852783203125 -1134.080810546875 -1127.0335693359375 -1119.8636474609375 -1112.5006103515625 -1104.9329833984375 -1097.143798828125 -1089.2303466796875 -1081.0421142578125 -1072.6812744140625 -1064.1240234375 -1055.3875732421875 -1046.526123046875 -1037.3026123046875 -1028.0277099609375 -1018.54345703125 -1008.896484375 -999.119384765625 -989.1976318359375 -979.186279296875 -969.103271484375 -958.99151611328125 -948.85906982421875 -938.737548828125 -928.68304443359375 -918.76580810546875 -908.911376953125 -899.31591796875 -889.91510009765625 -880.7713623046875 -871.8697509765625 -863.37310791015625 -855.22113037109375 -847.41973876953125 -840.09344482421875 -833.26873779296875 -826.85845947265625 -821.01373291015625 -815.767333984375 -811.02899169921875 -806.83294677734375 -803.154052734375 -799.961181640625 -797.20831298828125 -794.7022705078125 -792.30804443359375 -789.8004150390625 -786.9281005859375 -783.4935302734375 -779.4576416015625 -775.106689453125 -770.8892822265625 -768.1285400390625 -767.90594482421875 -770.35650634765625 -772.77716064453125 -772.04266357421875 -768.17877197265625 -762.14825439453125 -755.148193359375 -747.8272705078125 -740.34765625 -733.05413818359375 -726.1776123046875 -719.5189208984375 -713.10198974609375 -706.9910888671875 -701.15313720703125 -695.5062255859375 -690.02264404296875 -684.777587890625 -679.6495361328125 -99999 -99999 -99999 -99999 -99999 -99999 -99999 -99999 -99999 -99999 -99999 -99999 -99999 -99999 -99999 -99999 -99999 -99999 -99999 -99999 -99999 -99999 -99999 -99999 -99999
 -99999 -99999 -99999 -99999 -99999 -99999 -99999 -99999 -99999 -99999 -99999 -99999 -99999 -99999 -99999 -99999 -99999 -99999 -99999 -99999 -99999 -99999 -1181.4573974609375 -1176.671142578125 -1171.5277099609375 -1166.2496337890625 -1160.660888671875 -1154.8262939453125 -1148.7584228515625 -1142.5106201171875 -1136.086669921875 -1129.2696533203125 -1122.384033203125 -1115.2786865234375 -1107.9412841796875 -1100.422607421875 -1092.7783203125 -1084.8961181640625 -1076.77197265625 -1068.543701171875 -1060.08642578125 -1051.505615234375 -1042.637451171875 -1033.6422119140625 -1024.4849853515625 -1015.165771484375 -1005.76177978515625 -996.197509765625 -986.48822021484375 -976.751220703125 -966.92242431640625 -957.099365234375 -947.23211669921875 -937.42913818359375 -927.69097900390625 -918.05078125 -908.5606689453125 -899.24932861328125 -890.12017822265625 -881.23577880859375 -872.68316650390625 -864.42315673828125 -856.5372314453125 -849.06182861328125 -841.97735595703125 -835.2889404296875 -829.0306396484375 -823.3721923828125 -818.12518310546875 -813.38037109375 -809.2108154296875 -805.50555419921875 -802.10101318359375 -799.06182861328125 -796.2684326171875 -793.580078125 -790.8212890625 -787.8909912109375 -784.711669921875 -781.27093505859375 -777.88812255859375 -774.96075439453125 -773.48114013671875 -773.603271484375 -774.90423583984375 -776.4085693359375 -776.08038330078125 -771.87799072265625 -765.9832763671875 -758.915283203125 -751.0113525390625 -742.88873291015625 -735.16314697265625 -727.77276611328125 -720.9412841796875 -714.426513671875 -708.21502685546875 -702.2176513671875 -696.45526123046875 -690.93426513671875 -685.52740478515625 -99999 -99999 -99999 -99999 -99999 -99999 -99999 -99999 -99999 -99999 -99999 -99999 -99999 -99999 -99999 -99999 -99999 -99999 -99999 -99999 -99999 -99999 -99999 -99999 -99999 -99999
 -99999 -99999 -99999 -99999 -99999 -99999 -99999 -99999 -99999 -99999 -99999 -99999 -99999 -99999 -99999 -99999 -99999 -99999 -99999 -99999 -99999 -99999 -99999 -99999 -99999 -1160.9630126953125 -1155.4781494140625 -1149.7457275390625 -1143.7528076171875 -1137.6483154296875 -1131.1346435546875 -1124.4854736328125 -1117.6475830078125 -1110.61474609375 -1103.382568359375 -1095.95751953125 -1088.43115234375 -1080.5599365234375 -1072.56591796875 -1064.3914794921875 -1056.043701171875 -1047.560791015625 -1038.8663330078125 -1030.032958984375 -1021.06768798828125 -1011.90948486328125 -1002.692138671875 -993.302978515625 -983.8448486328125 -974.3310546875 -964.78692626953125 -955.226806640625 -945.63238525390625 -936.11273193359375 -926.6448974609375 -917.28955078125 -908.103271484375 -899.04656982421875 -890.26239013671875 -881.71051025390625 -873.388671875 -865.3970947265625 -857.750244140625 -850.43878173828125 -843.5228271484375 -837.04937744140625 -831.0042724609375 -825.30584716796875 -820.17987060546875 -815.525390625 -811.23223876953125 -807.3331298828125 -803.90350341796875 -800.68963623046875 -797.68743896484375 -794.79608154296875 -791.94927978515625 -789.02508544921875 -786.03912353515625 -783.0908203125 -780.289306640625 -778.12994384765625 -776.85894775390625 -776.4364013671875 -777.00762939453125 -777.133056640625 -775.9105224609375 -772.98291015625 -768.264404296875 -760.9459228515625 -752.76861572265625 -744.27410888671875 -736.06903076171875 -728.63433837890625 -721.732666015625 -715.1712646484375 -708.93511962890625 -702.95574951171875 -697.16455078125 -99999 -99999 -99999 -99999 -99999 -99999 -99999 -99999 -99999 -99999 -99999 -99999 -99999 -99999 -99999 -99999 -99999 -99999 -99999 -99999 -99999 -99999 -99999 -99999 -99999 -99999 -99999 -99999
 -99999 -99999 -99999 -99999 -99999 -99999 -99999 -99999 -99999 -99999 -99999 -99999 -99999 -99999 -99999 -99999 -99999 -99999 -99999 -99999 -99999 -99999 -99999 -99999 -99999 -99999 -99999 -99999 -1138.7357177734375 -1132.57568359375 -1126.1944580078125 -1119.6636962890625 -1112.931640625 -1105.9447021484375 -1098.7757568359375 -1091.5343017578125 -1083.937744140625 -1076.218505859375 -1068.3602294921875 -1060.31494140625 -1052.070556640625 -1043.769775390625 -1035.164306640625 -1026.4683837890625 -1017.63671875 -1008.71588134765625 -999.6650390625 -990.4769287109375 -981.2689208984375 -971.98284912109375 -962.628662109375 -953.35003662109375 -944.00909423828125 -934.7630615234375 -925.60797119140625 -916.5352783203125 -907.59613037109375 -898.86328125 -890.30340576171875 -881.957763671875 -873.8994140625 -866.1365966796875 -858.6793212890625 -851.64013671875 -844.91595458984375 -838.5687255859375 -832.59039306640625 -827.0589599609375 -821.9248046875 -817.2379150390625 -812.96551513671875 -809.03851318359375 -805.41253662109375 -802.047119140625 -798.9281005859375 -795.927001953125 -792.9957275390625 -790.11700439453125 -787.2874755859375 -784.54779052734375 -782.15008544921875 -780.07440185546875 -778.7755126953125 -778.03955078125 -777.45733642578125 -776.71893310546875 -775.17791748046875 -772.03411865234375 -767.37860107421875 -761.0848388671875 -753.0389404296875 -744.22943115234375 -735.87115478515625 -728.54437255859375 -721.82275390625 -715.47357177734375 -709.32452392578125 -703.344482421875 -99999 -99999 -99999 -99999 -99999 -99999 -99999 -99999 -99999 -99999 -99999 -99999 -99999 -99999 -99999 -99999 -99999 -99999 -99999 -99999 -99999 -99999 -99999 -99999 -99999 -99999 -99999 -99999 -99999
 -99999 -99999 -99999 -99999 -99999 -99999 -99999 -99999 -99999 -99999 -99999 -99999 -99999 -99999 -99999 -99999 -99999 -99999 -99999 -99999 -99999 -99999 -99999 -99999 -99999 -99999 -99999 -99999 -99999 -99999 -99999 -1114.7984619140625 -1108.11376953125 -1101.2457275390625 -1094.236328125 -1086.9840087890625 -1079.531982421875 -1071.9268798828125 -1064.146728515625 -1056.2003173828125 -1048.16259765625 -1039.85888671875 -1031.474853515625 -1022.96466064453125 -1014.302490234375 -1005.50665283203125 -996.680419921875 -987.70111083984375 -978.6790771484375 -969.62554931640625 -960.58447265625 -951.45526123046875 -942.435791015625 -933.44451904296875 -924.500732421875 -915.66943359375 -907.0435791015625 -898.509521484375 -890.222412109375 -882.1724853515625 -874.34515380859375 -866.78912353515625 -859.56329345703125 -852.63812255859375 -846.06170654296875 -839.84271240234375 -834.02423095703125 -828.5511474609375 -823.45367431640625 -818.78045654296875 -814.412353515625 -810.4013671875 -806.704345703125 -803.254638671875 -800.0062255859375 -796.887939453125 -793.92120361328125 -791.04351806640625 -788.2926025390625 -785.70947265625 -783.33746337890625 -781.3489990234375 -779.783935546875 -778.40179443359375 -777.28985595703125 -775.64739990234375 -773.26666259765625 -769.94769287109375 -765.33172607421875 -759.13360595703125 -751.5751953125 -742.65960693359375 -734.5465087890625 -727.880615234375 -721.53729248046875 -715.363037109375 -709.34295654296875 -99999 -99999 -99999 -99999 -99999 -99999 -99999 -99999 -99999 -99999 -99999 -99999 -99999 -99999 -99999 -99999 -99999 -99999 -99999 -99999 -99999 -99999 -99999 -99999 -99999 -99999 -99999 -99999 -99999 -99999
 -99999 -99999 -99999 -99999 -99999 -99999 -99999 -99999 -99999 -99999 -99999 -99999 -99999 -99999 -99999 -99999 -99999 -99999 -99999 -99999 -99999 -99999 -99999 -99999 -99999 -99999 -99999 -99999 -99999 -99999 -99999 -99999 -99999 -99999 -1089.6639404296875 -1082.427978515625 -1075.1092529296875 -1067.6273193359375 -1059.9747314453125 -1052.1929931640625 -1044.23583984375 -1036.094970703125 -1027.8214111328125 -1019.43994140625 -1010.95013427734375 -1002.41595458984375 -993.67919921875 -984.96270751953125 -976.1702880859375 -967.306396484375 -958.47552490234375 -949.62518310546875 -940.7781982421875 -932.00469970703125 -923.36737060546875 -914.8424072265625 -906.38018798828125 -898.147705078125 -890.08526611328125 -882.21856689453125 -874.56524658203125 -867.25250244140625 -860.18572998046875 -853.43780517578125 -847.04248046875 -840.96063232421875 -835.1790771484375 -829.76580810546875 -824.7264404296875 -820.00970458984375 -815.640625 -811.58001708984375 -807.77252197265625 -804.236572265625 -800.89605712890625 -797.71466064453125 -794.67242431640625 -791.76251220703125 -789.00677490234375 -786.42144775390625 -784.05316162109375 -781.900146484375 -779.99072265625 -778.185302734375 -776.25152587890625 -774.04327392578125 -771.240966796875 -767.5086669921875 -762.49176025390625 -756.41290283203125 -748.94879150390625 -740.064208984375 -733.01080322265625 -726.9320068359375 -720.926025390625 -99999 -99999 -99999 -99999 -99999 -99999 -99999 -99999 -99999 -99999 -99999 -99999 -99999 -99999 -99999 -99999 -99999 -99999 -99999 -99999 -99999 -99999 -99999 -99999 -99999 -99999 -99999 -99999 -99999 -99999 -99999 -99999
 -99999 -99999 -99999 -99999 -99999 -99999 -99999 -99999 -99999 -99999 -99999 -99999 -99999 -99999 -99999 -99999 -99999 -99999 -99999 -99999 -99999 -99999 -99999 -99999 -99999 -99999 -99999 -99999 -99999 -99999 -99999 -99999 -99999 -99999 -99999 -99999 -99999 -1063.3349609375 -1055.78662109375 -1048.1639404296875 -1040.255126953125 -1032.2825927734375 -1024.20751953125 -1016.01202392578125 -1007.69683837890625 -999.273193359375 -990.77587890625 -982.2047119140625 -973.58392333984375 -964.9683837890625 -956.343017578125 -947.70220947265625 -939.17657470703125 -930.661376953125 -922.19500732421875 -913.87591552734375 -905.6873779296875 -897.64129638671875 -889.77398681640625 -882.15863037109375 -874.75335693359375 -867.5697021484375 -860.69537353515625 -854.09930419921875 -847.79705810546875 -841.79974365234375 -836.123046875 -830.7733154296875 -825.7041015625 -821.03033447265625 -816.621826171875 -812.5140380859375 -808.65216064453125 -805.02392578125 -801.578125 -798.31524658203125 -795.21905517578125 -792.25811767578125 -789.4383544921875 -786.7584228515625 -784.2479248046875 -781.9100341796875 -779.685302734375 -777.40655517578125 -775.06591796875 -772.3433837890625 -768.95489501953125 -764.8631591796875 -759.80804443359375 -753.62969970703125 -746.40228271484375 -739.021484375 -732.23016357421875 -726.22650146484375 -99999 -99999 -99999 -99999 -99999 -99999 -99999 -99999 -99999 -99999 -99999 -99999 -99999 -99999 -99999 -99999 -99999 -99999 -99999 -99999 -99999 -99999 -99999 -99999 -99999 -99999 -99999 -99999 -99999 -99999 -99999 -99999 -99999
 -99999 -99999 -99999 -99999 -99999 -99999 -99999 -99999 -99999 -99999 -99999 -99999 -99999 -99999 -99999 -99999 -99999 -99999 -99999 -99999 -99999 -99999 -99999 -99999 -99999 -99999 -99999 -99999 -99999 -99999 -99999 -99999 -99999 -99999 -99999 -99999 -99999 -99999 -99999 -99999 -99999 -99999 -99999 -1012.5224609375 -1004.39288330078125 -996.1334228515625 -987.82073974609375 -979.48565673828125 -971.10015869140625 -962.6834716796875 -954.25445556640625 -945.84503173828125 -937.4747314453125 -929.1617431640625 -920.94976806640625 -912.85107421875 -904.85003662109375 -897.0699462890625 -889.43646240234375 -881.98956298828125 -874.7281494140625 -867.753662109375 -861.014404296875 -854.52398681640625 -848.36993408203125 -842.478515625 -836.87713623046875 -831.56536865234375 -826.5234375 -821.8521728515625 -817.404296875 -813.22637939453125 -809.28802490234375 -805.600341796875 -802.092041015625 -798.75799560546875 -795.538818359375 -792.4808349609375 -789.57867431640625 -786.798095703125 -784.1351318359375 -781.51812744140625 -779.032958984375 -776.37713623046875 -773.51611328125 -770.3592529296875 -766.70294189453125 -762.42242431640625 -757.32537841796875 -751.4573974609375 -99999 -99999 -99999 -99999 -99999 -99999 -99999 -99999 -99999 -99999 -99999 -99999 -99999 -99999 -99999 -99999 -99999 -99999 -99999 -99999 -99999 -99999 -99999 -99999 -99999 -99999 -99999 -99999 -99999 -99999 -99999 -99999 -99999 -99999 -99999 -99999 -99999
 -99999 -99999 -99999 -99999 -99999 -99999 -99999 -99999 -99999 -99999 -99999 -99999 -99999 -99999 -99999 -99999 -99999 -99999 -99999 -99999 -99999 -99999 -99999 -99999 -99999 -99999 -99999 -99999 -99999 -99999 -99999 -99999 -99999 -99999 -99999 -99999 -99999 -99999 -99999 -99999 -99999 -99999 -99999 -99999 -99999 -99999 -99999 -99999 -99999 -99999 -99999 -943.89617919921875 -935.76849365234375 -927.689453125 -919.6728515625 -911.77081298828125 -904.0145263671875 -896.39166259765625 -888.93017578125 -881.6531982421875 -874.60968017578125 -867.74407958984375 -861.16558837890625 -854.84356689453125 -848.763427734375 -842.95843505859375 -837.3792724609375 -832.12884521484375 -827.14654541015625 -822.41046142578125 -817.968505859375 -813.762939453125 -809.7698974609375 -805.97515869140625 -802.3704833984375 -798.9501953125 -795.6666259765625 -792.50927734375 -789.46710205078125 -786.5107421875 -783.66094970703125 -780.86773681640625 -778.03216552734375 -775.05224609375 -99999 -99999 -99999 -99999 -99999 -99999 -99999 -99999 -99999 -99999 -99999 -99999 -99999 -99999 -99999 -99999 -99999 -99999 -99999 -99999 -99999 -99999 -99999 -99999 -99999 -99999 -99999 -99999 -99999 -99999 -99999 -99999 -99999 -99999 -99999 -99999 -99999 -99999 -99999 -99999 -99999 -99999 -99999
 -99999 -99999 -99999 -99999 -99999 -99999 -99999 -99999 -99999 -99999 -99999 -99999 -99999 -99999 -99999 -99999 -99999 -99999 -99999 -99999 -99999 -99999 -99999 -99999 -99999 -99999 -99999 -99999 -99999 -99999 -99999 -99999 -99999 -99999 -99999 -99999 -99999 -99999 -99999 -99999 -99999 -99999 -99999 -99999 -99999 -99999 -99999 -99999 -99999 -99999 -99999 -99999 -99999 -99999 -99999 -99999 -99999 -99999 -888.34405517578125 -881.24871826171875 -99999 -99999 -99999 -99999 -99999 -99999 -99999 -99999 -99999 -99999 -99999 -99999 -99999 -99999 -99999 -99999 -99999 -99999 -99999 -99999 -99999 -99999 -99999 -99999 -99999 -99999 -99999 -99999 -99999 -99999 -99999 -99999 -99999 -99999 -99999 -99999 -99999 -99999 -99999 -99999 -99999 -99999 -99999 -99999 -99999 -99999 -99999 -99999 -99999 -99999 -99999 -99999 -99999 -99999 -99999 -99999 -99999 -99999 -99999 -99999 -99999 -99999 -99999 -99999 -99999 -99999 -99999
