ncols        199
nrows        266
xllcorner    216878.143852796056
yllcorner    8958414.140578340739
cellsize     50.000000000000
NODATA_value  -99999
 -99999.0 -99999 -99999 -99999 -99999 -99999 -99999 -99999 -99999 -99999 -99999 -99999 -99999 -99999 -99999 -99999 -99999 -99999 -99999 -99999 -99999 -99999 -99999 -99999 -99999 -99999 -99999 -99999 -99999 -99999 -99999 -99999 -99999 -99999 -99999 -99999 -99999 -99999 -99999 -99999 -99999 -99999 -99999 -99999 -99999 -99999 -99999 -99999 -99999 -99999 -99999 -99999 -99999 -99999 -99999 -99999 -99999 -99999 -99999 -99999 -99999 -99999 -99999 -99999 -99999 -99999 -99999 -99999 -99999 -99999 -99999 -99999 -99999 -99999 -99999 -99999 -99999 -99999 -99999 -99999 -99999 -99999 -99999 -99999 -99999 -99999 -99999 -99999 -99999 -99999 -99999 -99999 -99999 -99999 -99999 -99999 -99999 -99999 -99999 -99999 -99999 -99999 -99999 -99999 -99999 -99999 -99999 -99999 -99999 -99999 -99999 -99999 -99999 -99999 -99999 -99999 -99999 -99999 -99999 -99999 -99999 -99999 -99999 -99999 -99999 -99999 -99999 -99999 -99999 -99999 -99999 -99999 -99999 -99999 -99999 -99999 -99999 -99999 -99999 -99999 -99999 -99999 -99999 -99999 -99999 -99999 -99999 -99999 -99999 -99999 -99999 -99999 -99999 -99999 -99999 -99999 -99999 -99999 -99999 -99999 -99999 -99999 -99999 -99999 -99999 -99999 -99999 -99999 -99999 -99999 -99999 -99999 -99999 -99999 -99999 -99999 -99999 -99999 -99999 -99999 -99999 -99999 -99999 -99999 -99999 -99999 -99999 -99999 -99999 -99999 -99999 -99999 -99999 -99999 -99999 -99999 -99999 -99999 -99999
 -99999 -99999 -99999 -99999 -99999 -99999 -99999 -99999 -99999 -99999 -99999 -99999 -99999 -99999 -99999 -99999 -99999 -99999 -99999 -99999 -99999 -99999 -99999 -99999 -99999 -99999 -99999 -99999 -99999 -99999 -99999 -99999 -99999 -99999 -99999 -99999 -99999 -99999 -99999 -99999 -99999 -99999 -99999 -99999 -99999 -99999 -99999 -99999 -99999 -99999 -99999 -99999 -99999 -99999 -99999 -99999 -99999 -99999 -99999 -99999 -99999 -99999 -99999 -99999 -99999 -99999 -99999 -99999 -99999 -99999 -99999 -99999 -99999 -99999 -99999 -99999 -99999 -99999 -99999 -99999 -99999 -99999 -99999 -99999 -99999 -99999 -99999 -99999 -99999 -99999 -99999 35.661251068115234375 41.8423919677734375 45.446727752685546875 -99999 -99999 -99999 -99999 -99999 -99999 -99999 -99999 -99999 -99999 -99999 -99999 -99999 -99999 -99999 -99999 -99999 -99999 -99999 -99999 -99999 -99999 -99999 -99999 -99999 -99999 -99999 -99999 -99999 -99999 -99999 -99999 -99999 -99999 -99999 -99999 -99999 -99999 -99999 -99999 -99999 -99999 -99999 -99999 -99999 -99999 -99999 -99999 -99999 -99999 -99999 -99999 -99999 -99999 -99999 -99999 -99999 -99999 -99999 -99999 -99999 -99999 -99999 -99999 -99999 -99999 -99999 -99999 -99999 -99999 -99999 -99999 -99999 -99999 -99999 -99999 -99999 -99999 -99999 -99999 -99999 -99999 -99999 -99999 -99999 -99999 -99999 -99999 -99999 -99999 -99999 -99999 -99999 -99999 -99999 -99999 -99999 -99999 -99999 -99999 -99999 -99999 -99999 -99999 -99999
 -99999 -99999 -99999 -99999 -99999 -99999 -99999 -99999 -99999 -99999 -99999 -99999 -99999 -99999 -99999 -99999 -99999 -99999 -99999 -99999 -99999 -99999 -99999 -99999 -99999 -99999 -99999 -99999 -99999 -99999 -99999 -99999 -99999 -99999 -99999 -99999 -99999 -99999 -99999 -99999 -99999 -99999 -99999 -99999 -99999 -99999 -99999 -99999 -99999 -99999 -99999 -99999 -99999 -99999 -99999 -99999 -99999 -99999 -99999 -99999 -99999 -99999 -99999 -99999 -99999 -99999 -99999 -99999 -99999 -99999 -99999 -99999 -99999 -99999 -99999 -99999 -99999 -99999 -99999 -99999 -99999 -99999 -99999 -99999 -99999 -99999 -99999 -99999 -99999 -99999 35.431697845458984375 42.621387481689453125 48.17540740966796875 51.13177490234375 52.1516571044921875 54.929840087890625 -99999 -99999 -99999 -99999 -99999 -99999 -99999 -99999 -99999 -99999 -99999 -99999 -99999 -99999 -99999 -99999 -99999 -99999 -99999 -99999 -99999 -99999 -99999 -99999 -99999 -99999 -99999 -99999 -99999 -99999 -99999 -99999 -99999 -99999 -99999 -99999 -99999 -99999 -99999 -99999 -99999 -99999 -99999 -99999 -99999 -99999 -99999 -99999 -99999 -99999 -99999 -99999 -99999 -99999 -99999 -99999 -99999 -99999 -99999 -99999 -99999 -99999 -99999 -99999 -99999 -99999 -99999 -99999 -99999 -99999 -99999 -99999 -99999 -99999 -99999 -99999 -99999 -99999 -99999 -99999 -99999 -99999 -99999 -99999 -99999 -99999 -99999 -99999 -99999 -99999 -99999 -99999 -99999 -99999 -99999 -99999 -99999 -99999 -99999 -99999 -99999 -99999 -99999
 -99999 -99999 -99999 -99999 -99999 -99999 -99999 -99999 -99999 -99999 -99999 -99999 -99999 -99999 -99999 -99999 -99999 -99999 -99999 -99999 -99999 -99999 -99999 -99999 -99999 -99999 -99999 -99999 -99999 -99999 -99999 -99999 -99999 -99999 -99999 -99999 -99999 -99999 -99999 -99999 -99999 -99999 -99999 -99999 -99999 -99999 -99999 -99999 -99999 -99999 -99999 -99999 -99999 -99999 -99999 -99999 -99999 -99999 -99999 -99999 -99999 -99999 -99999 -99999 -99999 -99999 -99999 -99999 -99999 -99999 -99999 -99999 -99999 -99999 -99999 -99999 -99999 -99999 -99999 -99999 -99999 -99999 -99999 -99999 -99999 -99999 -99999 -99999 -99999 34.35866546630859375 40.503772735595703125 47.12087249755859375 52.290981292724609375 53.1030426025390625 53.74468994140625 56.9831390380859375 62.70064544677734375 69.19585418701171875 -99999 -99999 -99999 -99999 -99999 -99999 -99999 -99999 -99999 -99999 -99999 -99999 -99999 -99999 -99999 -99999 -99999 -99999 -99999 -99999 -99999 -99999 -99999 -99999 -99999 -99999 -99999 -99999 -99999 -99999 -99999 -99999 -99999 -99999 -99999 -99999 -99999 -99999 -99999 -99999 -99999 -99999 -99999 -99999 -99999 -99999 -99999 -99999 -99999 -99999 -99999 -99999 -99999 -99999 -99999 -99999 -99999 -99999 -99999 -99999 -99999 -99999 -99999 -99999 -99999 -99999 -99999 -99999 -99999 -99999 -99999 -99999 -99999 -99999 -99999 -99999 -99999 -99999 -99999 -99999 -99999 -99999 -99999 -99999 -99999 -99999 -99999 -99999 -99999 -99999 -99999 -99999 -99999 -99999 -99999 -99999 -99999 -99999 -99999 -99999 -99999
 -99999 -99999 -99999 -99999 -99999 -99999 -99999 -99999 -99999 -99999 -99999 -99999 -99999 -99999 -99999 -99999 -99999 -99999 -99999 -99999 -99999 -99999 -99999 -99999 -99999 -99999 -99999 -99999 -99999 -99999 -99999 -99999 -99999 -99999 -99999 -99999 -99999 -99999 -99999 -99999 -99999 -99999 -99999 -99999 -99999 -99999 -99999 -99999 -99999 -99999 -99999 -99999 -99999 -99999 -99999 -99999 -99999 -99999 -99999 -99999 -99999 -99999 -99999 -99999 -99999 -99999 -99999 -99999 -99999 -99999 -99999 -99999 -99999 -99999 -99999 -99999 -99999 -99999 -99999 -99999 -99999 -99999 -99999 -99999 -99999 -99999 -99999 -99999 33.412166595458984375 38.86840057373046875 44.36431121826171875 49.1964569091796875 52.18312835693359375 53.346038818359375 54.455310821533203125 58.60782623291015625 65.7868499755859375 73.7630157470703125 81.90860748291015625 89.85034942626953125 -99999 -99999 -99999 -99999 -99999 -99999 -99999 -99999 -99999 -99999 -99999 -99999 -99999 -99999 -99999 -99999 -99999 -99999 -99999 -99999 -99999 -99999 -99999 -99999 -99999 -99999 -99999 -99999 -99999 -99999 -99999 -99999 -99999 -99999 -99999 -99999 -99999 -99999 -99999 -99999 -99999 -99999 -99999 -99999 -99999 -99999 -99999 -99999 -99999 -99999 -99999 -99999 -99999 -99999 -99999 -99999 -99999 -99999 -99999 -99999 -99999 -99999 -99999 -99999 -99999 -99999 -99999 -99999 -99999 -99999 -99999 -99999 -99999 -99999 -99999 -99999 -99999 -99999 -99999 -99999 -99999 -99999 -99999 -99999 -99999 -99999 -99999 -99999 -99999 -99999 -99999 -99999 -99999 -99999 -99999 -99999 -99999 -99999 -99999
 -99999 -99999 -99999 -99999 -99999 -99999 -99999 -99999 -99999 -99999 -99999 -99999 -99999 -99999 -99999 -99999 -99999 -99999 -99999 -99999 -99999 -99999 -99999 -99999 -99999 -99999 -99999 -99999 -99999 -99999 -99999 -99999 -99999 -99999 -99999 -99999 -99999 -99999 -99999 -99999 -99999 -99999 -99999 -99999 -99999 -99999 -99999 -99999 -99999 -99999 -99999 -99999 -99999 -99999 -99999 -99999 -99999 -99999 -99999 -99999 -99999 -99999 -99999 -99999 -99999 -99999 -99999 -99999 -99999 -99999 -99999 -99999 -99999 -99999 -99999 -99999 -99999 -99999 -99999 -99999 -99999 -99999 -99999 -99999 -99999 -99999 -99999 32.923580169677734375 38.025177001953125 42.858081817626953125 47.347667694091796875 51.408664703369140625 53.875545501708984375 54.766082763671875 56.432498931884765625 62.057956695556640625 70.792755126953125 79.6605072021484375 88.3512420654296875 96.6653594970703125 104.54366302490234375 112.02979278564453125 -99999 -99999 -99999 -99999 -99999 -99999 -99999 -99999 -99999 -99999 -99999 -99999 -99999 -99999 -99999 -99999 -99999 -99999 -99999 -99999 -99999 -99999 -99999 -99999 -99999 -99999 -99999 -99999 -99999 -99999 -99999 -99999 -99999 -99999 -99999 -99999 -99999 -99999 -99999 -99999 -99999 -99999 -99999 -99999 -99999 -99999 -99999 -99999 -99999 -99999 -99999 -99999 -99999 -99999 -99999 -99999 -99999 -99999 -99999 -99999 -99999 -99999 -99999 -99999 -99999 -99999 -99999 -99999 -99999 -99999 -99999 -99999 -99999 -99999 -99999 -99999 -99999 -99999 -99999 -99999 -99999 -99999 -99999 -99999 -99999 -99999 -99999 -99999 -99999 -99999 -99999 -99999 -99999 -99999 -99999 -99999 -99999
 -99999 -99999 -99999 -99999 -99999 -99999 -99999 -99999 -99999 -99999 -99999 -99999 -99999 -99999 -99999 -99999 -99999 -99999 -99999 -99999 -99999 -99999 -99999 -99999 -99999 -99999 -99999 -99999 -99999 -99999 -99999 -99999 -99999 -99999 -99999 -99999 -99999 -99999 -99999 -99999 -99999 -99999 -99999 -99999 -99999 -99999 -99999 -99999 -99999 -99999 -99999 -99999 -99999 -99999 -99999 -99999 -99999 -99999 -99999 -99999 -99999 -99999 -99999 -99999 -99999 -99999 -99999 -99999 -99999 -99999 -99999 -99999 -99999 -99999 -99999 -99999 -99999 -99999 -99999 -99999 -99999 -99999 -99999 -99999 -99999 -99999 -99999 37.5159149169921875 42.337406158447265625 46.98935699462890625 51.243625640869140625 54.92791748046875 58.021213531494140625 60.2120513916015625 63.885288238525390625 70.09424591064453125 78.19499969482421875 87.19005584716796875 95.84052276611328125 104.3062591552734375 112.41248321533203125 120.00762939453125 126.7877197265625 132.896759033203125 -99999 -99999 -99999 -99999 -99999 -99999 -99999 -99999 -99999 -99999 -99999 -99999 -99999 -99999 -99999 -99999 -99999 -99999 -99999 -99999 -99999 -99999 -99999 -99999 -99999 -99999 -99999 -99999 -99999 -99999 -99999 -99999 -99999 -99999 -99999 -99999 -99999 -99999 -99999 -99999 -99999 -99999 -99999 -99999 -99999 -99999 -99999 -99999 -99999 -99999 -99999 -99999 -99999 -99999 -99999 -99999 -99999 -99999 -99999 -99999 -99999 -99999 -99999 -99999 -99999 -99999 -99999 -99999 -99999 -99999 -99999 -99999 -99999 -99999 -99999 -99999 -99999 -99999 -99999 -99999 -99999 -99999 -99999 -99999 -99999 -99999 -99999 -99999 -99999 -99999 -99999 -99999 -99999 -99999 -99999
 -99999 -99999 -99999 -99999 -99999 -99999 -99999 -99999 -99999 -99999 -99999 -99999 -99999 -99999 -99999 -99999 -99999 -99999 -99999 -99999 -99999 -99999 -99999 -99999 -99999 -99999 -99999 -99999 -99999 -99999 -99999 -99999 -99999 -99999 -99999 -99999 -99999 -99999 -99999 -99999 -99999 -99999 -99999 -99999 -99999 -99999 -99999 -99999 -99999 -99999 -99999 -99999 -99999 -99999 -99999 -99999 -99999 -99999 -99999 -99999 -99999 -99999 -99999 -99999 -99999 -99999 -99999 -99999 -99999 -99999 -99999 -99999 -99999 -99999 -99999 -99999 -99999 -99999 -99999 -99999 -99999 -99999 -99999 -99999 -99999 -99999 37.3602752685546875 42.119441986083984375 46.93377685546875 51.628276824951171875 56.027347564697265625 59.714397430419921875 63.453884124755859375 67.49007415771484375 72.256103515625 78.68642425537109375 86.93682861328125 95.6416015625 104.24394989013671875 112.5391693115234375 120.5369110107421875 127.97846221923828125 134.8665618896484375 140.8974609375 145.78497314453125 149.668792724609375 -99999 -99999 -99999 -99999 -99999 -99999 -99999 -99999 -99999 -99999 -99999 -99999 -99999 -99999 -99999 -99999 -99999 -99999 -99999 -99999 -99999 -99999 -99999 -99999 -99999 -99999 -99999 -99999 -99999 -99999 -99999 -99999 -99999 -99999 -99999 -99999 -99999 -99999 -99999 -99999 -99999 -99999 -99999 -99999 -99999 -99999 -99999 -99999 -99999 -99999 -99999 -99999 -99999 -99999 -99999 -99999 -99999 -99999 -99999 -99999 -99999 -99999 -99999 -99999 -99999 -99999 -99999 -99999 -99999 -99999 -99999 -99999 -99999 -99999 -99999 -99999 -99999 -99999 -99999 -99999 -99999 -99999 -99999 -99999 -99999 -99999 -99999 -99999 -99999 -99999 -99999 -99999 -99999
 -99999 -99999 -99999 -99999 -99999 -99999 -99999 -99999 -99999 -99999 -99999 -99999 -99999 -99999 -99999 -99999 -99999 -99999 -99999 -99999 -99999 -99999 -99999 -99999 -99999 -99999 -99999 -99999 -99999 -99999 -99999 -99999 -99999 -99999 -99999 -99999 -99999 -99999 -99999 -99999 -99999 -99999 -99999 -99999 -99999 -99999 -99999 -99999 -99999 -99999 -99999 -99999 -99999 -99999 -99999 -99999 -99999 -99999 -99999 -99999 -99999 -99999 -99999 -99999 -99999 -99999 -99999 -99999 -99999 -99999 -99999 -99999 -99999 -99999 -99999 -99999 -99999 -99999 -99999 -99999 -99999 -99999 -99999 -99999 -99999 37.216510772705078125 42.24852752685546875 47.2539215087890625 52.075786590576171875 56.68692779541015625 61.1600799560546875 65.65372467041015625 70.18447113037109375 74.93011474609375 80.745330810546875 87.658233642578125 95.752838134765625 104.3092041015625 112.82495880126953125 120.782379150390625 128.7052001953125 136.313201904296875 143.2613067626953125 148.9540252685546875 153.4171600341796875 156.9184722900390625 159.3543243408203125 161.022369384765625 -99999 -99999 -99999 -99999 -99999 -99999 -99999 -99999 -99999 -99999 -99999 -99999 -99999 -99999 -99999 -99999 -99999 -99999 -99999 -99999 -99999 -99999 -99999 -99999 -99999 -99999 -99999 -99999 -99999 -99999 -99999 -99999 -99999 -99999 -99999 -99999 -99999 -99999 -99999 -99999 -99999 -99999 -99999 -99999 -99999 -99999 -99999 -99999 -99999 -99999 -99999 -99999 -99999 -99999 -99999 -99999 -99999 -99999 -99999 -99999 -99999 -99999 -99999 -99999 -99999 -99999 -99999 -99999 -99999 -99999 -99999 -99999 -99999 -99999 -99999 -99999 -99999 -99999 -99999 -99999 -99999 -99999 -99999 -99999 -99999 -99999 -99999 -99999 -99999 -99999 -99999
 -99999 -99999 -99999 -99999 -99999 -99999 -99999 -99999 -99999 -99999 -99999 -99999 -99999 -99999 -99999 -99999 -99999 -99999 -99999 -99999 -99999 -99999 -99999 -99999 -99999 -99999 -99999 -99999 -99999 -99999 -99999 -99999 -99999 -99999 -99999 -99999 -99999 -99999 -99999 -99999 -99999 -99999 -99999 -99999 -99999 -99999 -99999 -99999 -99999 -99999 -99999 -99999 -99999 -99999 -99999 -99999 -99999 -99999 -99999 -99999 -99999 -99999 -99999 -99999 -99999 -99999 -99999 -99999 -99999 -99999 -99999 -99999 -99999 -99999 -99999 -99999 -99999 -99999 -99999 -99999 -99999 -99999 -99999 -99999 37.323345184326171875 42.374309539794921875 47.398677825927734375 52.364101409912109375 57.248790740966796875 62.101451873779296875 67.032073974609375 71.96588897705078125 77.2065887451171875 82.51515960693359375 88.9898681640625 96.34970855712890625 104.2824859619140625 112.64876556396484375 120.92304229736328125 128.8719329833984375 136.90399169921875 144.951934814453125 151.6521148681640625 157.15911865234375 161.04010009765625 163.819915771484375 165.843231201171875 166.7809600830078125 167.178009033203125 167.07684326171875 -99999 -99999 -99999 -99999 -99999 -99999 -99999 -99999 -99999 -99999 -99999 -99999 -99999 -99999 -99999 -99999 -99999 -99999 -99999 -99999 -99999 -99999 -99999 -99999 -99999 -99999 -99999 -99999 -99999 -99999 -99999 -99999 -99999 -99999 -99999 -99999 -99999 -99999 -99999 -99999 -99999 -99999 -99999 -99999 -99999 -99999 -99999 -99999 -99999 -99999 -99999 -99999 -99999 -99999 -99999 -99999 -99999 -99999 -99999 -99999 -99999 -99999 -99999 -99999 -99999 -99999 -99999 -99999 -99999 -99999 -99999 -99999 -99999 -99999 -99999 -99999 -99999 -99999 -99999 -99999 -99999 -99999 -99999 -99999 -99999 -99999 -99999 -99999 -99999
 -99999 -99999 -99999 -99999 -99999 -99999 -99999 -99999 -99999 -99999 -99999 -99999 -99999 -99999 -99999 -99999 -99999 -99999 -99999 -99999 -99999 -99999 -99999 -99999 -99999 -99999 -99999 -99999 -99999 -99999 -99999 -99999 -99999 -99999 -99999 -99999 -99999 -99999 -99999 -99999 -99999 -99999 -99999 -99999 -99999 -99999 -99999 -99999 -99999 -99999 -99999 -99999 -99999 -99999 -99999 -99999 -99999 -99999 -99999 -99999 -99999 -99999 -99999 -99999 -99999 -99999 -99999 -99999 -99999 -99999 -99999 -99999 -99999 -99999 -99999 -99999 -99999 -99999 -99999 -99999 -99999 -99999 -99999 37.23860931396484375 42.332706451416015625 47.434680938720703125 52.509052276611328125 57.50495147705078125 62.739414215087890625 67.881439208984375 73.27347564697265625 78.43518829345703125 84.12331390380859375 90.3694915771484375 97.13214874267578125 104.455657958984375 112.39975738525390625 120.669921875 128.8827972412109375 136.8208770751953125 145.035888671875 153.6643829345703125 160.418731689453125 165.1277618408203125 168.4145660400390625 170.3528900146484375 171.42852783203125 171.804107666015625 171.750396728515625 171.1703033447265625 170.1711273193359375 169.0384368896484375 -99999 -99999 -99999 -99999 -99999 -99999 -99999 -99999 -99999 -99999 -99999 -99999 -99999 -99999 -99999 -99999 -99999 -99999 -99999 -99999 -99999 -99999 -99999 -99999 -99999 -99999 -99999 -99999 -99999 -99999 -99999 -99999 -99999 -99999 -99999 -99999 -99999 -99999 -99999 -99999 -99999 -99999 -99999 -99999 -99999 -99999 -99999 -99999 -99999 -99999 -99999 -99999 -99999 -99999 -99999 -99999 -99999 -99999 -99999 -99999 -99999 -99999 -99999 -99999 -99999 -99999 -99999 -99999 -99999 -99999 -99999 -99999 -99999 -99999 -99999 -99999 -99999 -99999 -99999 -99999 -99999 -99999 -99999 -99999 -99999 -99999 -99999
 -99999 -99999 -99999 -99999 -99999 -99999 -99999 -99999 -99999 -99999 -99999 -99999 -99999 -99999 -99999 -99999 -99999 -99999 -99999 -99999 -99999 -99999 -99999 -99999 -99999 -99999 -99999 -99999 -99999 -99999 -99999 -99999 -99999 -99999 -99999 -99999 -99999 -99999 -99999 -99999 -99999 -99999 -99999 -99999 -99999 -99999 -99999 -99999 -99999 -99999 -99999 -99999 -99999 -99999 -99999 -99999 -99999 -99999 -99999 -99999 -99999 -99999 -99999 -99999 -99999 -99999 -99999 -99999 -99999 -99999 -99999 -99999 -99999 -99999 -99999 -99999 -99999 -99999 -99999 -99999 -99999 -99999 37.0033111572265625 42.1348419189453125 47.256610870361328125 52.3603668212890625 57.697116851806640625 62.933567047119140625 68.36719512939453125 73.69295501708984375 79.207244873046875 85.0133819580078125 91.1945953369140625 97.74564361572265625 104.7163238525390625 112.2830657958984375 120.30796051025390625 128.508331298828125 136.71453857421875 145.1247100830078125 154.1847991943359375 162.513458251953125 168.8863677978515625 172.6297607421875 174.7343597412109375 175.944580078125 176.523101806640625 176.3311004638671875 175.4965972900390625 174.3633880615234375 173.0145111083984375 171.52923583984375 170.0740203857421875 168.718017578125 -99999 -99999 -99999 -99999 -99999 -99999 -99999 -99999 -99999 -99999 -99999 -99999 -99999 -99999 -99999 -99999 -99999 -99999 -99999 -99999 -99999 -99999 -99999 -99999 -99999 -99999 -99999 -99999 -99999 -99999 -99999 -99999 -99999 -99999 -99999 -99999 -99999 -99999 -99999 -99999 -99999 -99999 -99999 -99999 -99999 -99999 -99999 -99999 -99999 -99999 -99999 -99999 -99999 -99999 -99999 -99999 -99999 -99999 -99999 -99999 -99999 -99999 -99999 -99999 -99999 -99999 -99999 -99999 -99999 -99999 -99999 -99999 -99999 -99999 -99999 -99999 -99999 -99999 -99999 -99999 -99999 -99999 -99999 -99999 -99999
 -99999 -99999 -99999 -99999 -99999 -99999 -99999 -99999 -99999 -99999 -99999 -99999 -99999 -99999 -99999 -99999 -99999 -99999 -99999 -99999 -99999 -99999 -99999 -99999 -99999 -99999 -99999 -99999 -99999 -99999 -99999 -99999 -99999 -99999 -99999 -99999 -99999 -99999 -99999 -99999 -99999 -99999 -99999 -99999 -99999 -99999 -99999 -99999 -99999 -99999 -99999 -99999 -99999 -99999 -99999 -99999 -99999 -99999 -99999 -99999 -99999 -99999 -99999 -99999 -99999 -99999 -99999 -99999 -99999 -99999 -99999 -99999 -99999 -99999 -99999 -99999 -99999 -99999 -99999 -99999 -99999 36.603710174560546875 41.76557159423828125 46.93462371826171875 52.278003692626953125 57.4969024658203125 62.844390869140625 68.32224273681640625 73.816314697265625 79.4326629638671875 85.35052490234375 91.41129302978515625 97.80443572998046875 104.60210418701171875 111.876739501953125 119.505859375 127.436859130859375 135.707183837890625 144.144317626953125 152.842987060546875 161.814361572265625 170.3510589599609375 175.7200469970703125 178.6977081298828125 179.9811248779296875 180.6461334228515625 180.4549407958984375 179.722137451171875 178.562347412109375 176.9847259521484375 175.18505859375 173.378387451171875 171.4202117919921875 169.7623291015625 168.3094482421875 167.074432373046875 -99999 -99999 -99999 -99999 -99999 -99999 -99999 -99999 -99999 -99999 -99999 -99999 -99999 -99999 -99999 -99999 -99999 -99999 -99999 -99999 -99999 -99999 -99999 -99999 -99999 -99999 -99999 -99999 -99999 -99999 -99999 -99999 -99999 -99999 -99999 -99999 -99999 -99999 -99999 -99999 -99999 -99999 -99999 -99999 -99999 -99999 -99999 -99999 -99999 -99999 -99999 -99999 -99999 -99999 -99999 -99999 -99999 -99999 -99999 -99999 -99999 -99999 -99999 -99999 -99999 -99999 -99999 -99999 -99999 -99999 -99999 -99999 -99999 -99999 -99999 -99999 -99999 -99999 -99999 -99999 -99999 -99999 -99999
 -99999 -99999 -99999 -99999 -99999 -99999 -99999 -99999 -99999 -99999 -99999 -99999 -99999 -99999 -99999 -99999 -99999 -99999 -99999 -99999 -99999 -99999 -99999 -99999 -99999 -99999 -99999 -99999 -99999 -99999 -99999 -99999 -99999 -99999 -99999 -99999 -99999 -99999 -99999 -99999 -99999 -99999 -99999 -99999 -99999 -99999 -99999 -99999 -99999 -99999 -99999 -99999 -99999 -99999 -99999 -99999 -99999 -99999 -99999 -99999 -99999 -99999 -99999 -99999 -99999 -99999 -99999 -99999 -99999 -99999 -99999 -99999 -99999 -99999 -99999 -99999 -99999 -99999 -99999 -99999 -99999 41.17353057861328125 46.398040771484375 51.643817901611328125 57.02303314208984375 62.50794219970703125 67.9627838134765625 73.50664520263671875 79.234283447265625 85.08693695068359375 91.20121002197265625 97.44765472412109375 103.965240478515625 110.91547393798828125 118.330078125 126.017547607421875 133.8857574462890625 142.0918121337890625 150.4097442626953125 158.9557647705078125 167.3571624755859375 174.590423583984375 180.4384918212890625 182.3866729736328125 183.360748291015625 183.70123291015625 183.4631500244140625 182.379913330078125 180.6438751220703125 178.5908203125 176.3866424560546875 174.2127532958984375 172.180908203125 170.3625030517578125 168.760528564453125 167.5164642333984375 166.548919677734375 165.8249969482421875 -99999 -99999 -99999 -99999 -99999 -99999 -99999 -99999 -99999 -99999 -99999 -99999 -99999 -99999 -99999 -99999 -99999 -99999 -99999 -99999 -99999 -99999 -99999 -99999 -99999 -99999 -99999 -99999 -99999 -99999 -99999 -99999 -99999 -99999 -99999 -99999 -99999 -99999 -99999 -99999 -99999 -99999 -99999 -99999 -99999 -99999 -99999 -99999 -99999 -99999 -99999 -99999 -99999 -99999 -99999 -99999 -99999 -99999 -99999 -99999 -99999 -99999 -99999 -99999 -99999 -99999 -99999 -99999 -99999 -99999 -99999 -99999 -99999 -99999 -99999 -99999 -99999 -99999 -99999 -99999 -99999
 -99999 -99999 -99999 -99999 -99999 -99999 -99999 -99999 -99999 -99999 -99999 -99999 -99999 -99999 -99999 -99999 -99999 -99999 -99999 -99999 -99999 -99999 -99999 -99999 -99999 -99999 -99999 -99999 -99999 -99999 -99999 -99999 -99999 -99999 -99999 -99999 -99999 -99999 -99999 -99999 -99999 -99999 -99999 -99999 -99999 -99999 -99999 -99999 -99999 -99999 -99999 -99999 -99999 -99999 -99999 -99999 -99999 -99999 -99999 -99999 -99999 -99999 -99999 -99999 -99999 -99999 -99999 -99999 -99999 -99999 -99999 -99999 -99999 -99999 -99999 -99999 -99999 -99999 -99999 -99999 40.382228851318359375 45.636486053466796875 50.967845916748046875 56.4027557373046875 61.727596282958984375 67.23151397705078125 72.89829254150390625 78.56508636474609375 84.3822784423828125 90.39989471435546875 96.51538848876953125 102.99720001220703125 109.7905426025390625 116.75374603271484375 124.00188446044921875 131.501953125 139.297943115234375 147.241729736328125 155.2534637451171875 163.101806640625 170.47467041015625 176.768646240234375 181.230987548828125 183.7909698486328125 185.104156494140625 185.878814697265625 185.3651580810546875 183.964630126953125 181.7828216552734375 179.282440185546875 176.7483673095703125 174.332122802734375 172.1188201904296875 170.2213897705078125 168.6861572265625 167.4145050048828125 166.46484375 165.905517578125 165.5632171630859375 165.498809814453125 -99999 -99999 -99999 -99999 -99999 -99999 -99999 -99999 -99999 -99999 -99999 -99999 -99999 -99999 -99999 -99999 -99999 -99999 -99999 -99999 -99999 -99999 -99999 -99999 -99999 -99999 -99999 -99999 -99999 -99999 -99999 -99999 -99999 -99999 -99999 -99999 -99999 -99999 -99999 -99999 -99999 -99999 -99999 -99999 -99999 -99999 -99999 -99999 -99999 -99999 -99999 -99999 -99999 -99999 -99999 -99999 -99999 -99999 -99999 -99999 -99999 -99999 -99999 -99999 -99999 -99999 -99999 -99999 -99999 -99999 -99999 -99999 -99999 -99999 -99999 -99999 -99999 -99999 -99999
 -99999 -99999 -99999 -99999 -99999 -99999 -99999 -99999 -99999 -99999 -99999 -99999 -99999 -99999 -99999 -99999 -99999 -99999 -99999 -99999 -99999 -99999 -99999 -99999 -99999 -99999 -99999 -99999 -99999 -99999 -99999 -99999 -99999 -99999 -99999 -99999 -99999 -99999 -99999 -99999 -99999 -99999 -99999 -99999 -99999 -99999 -99999 -99999 -99999 -99999 -99999 -99999 -99999 -99999 -99999 -99999 -99999 -99999 -99999 -99999 -99999 -99999 -99999 -99999 -99999 -99999 -99999 -99999 -99999 -99999 -99999 -99999 -99999 -99999 -99999 -99999 -99999 -99999 -99999 39.45099639892578125 44.745784759521484375 50.081188201904296875 55.34854888916015625 60.78343963623046875 66.323333740234375 71.88539886474609375 77.5568389892578125 83.3581390380859375 89.25246429443359375 95.4087982177734375 101.6854248046875 108.09938812255859375 114.84183502197265625 121.73755645751953125 128.9303741455078125 136.25396728515625 143.821502685546875 151.2886505126953125 158.7382354736328125 165.8514556884765625 172.266754150390625 177.7197418212890625 182.003021240234375 184.479583740234375 186.1982269287109375 187.303802490234375 186.8052825927734375 184.5438995361328125 181.8530120849609375 178.979339599609375 176.13482666015625 173.6019439697265625 171.3712158203125 169.41217041015625 167.9678497314453125 166.902099609375 166.2339630126953125 165.8323974609375 165.6643829345703125 165.6695556640625 165.963775634765625 -99999 -99999 -99999 -99999 -99999 -99999 -99999 -99999 -99999 -99999 -99999 -99999 -99999 -99999 -99999 -99999 -99999 -99999 -99999 -99999 -99999 -99999 -99999 -99999 -99999 -99999 -99999 -99999 -99999 -99999 -99999 -99999 -99999 -99999 -99999 -99999 -99999 -99999 -99999 -99999 -99999 -99999 -99999 -99999 -99999 -99999 -99999 -99999 -99999 -99999 -99999 -99999 -99999 -99999 -99999 -99999 -99999 -99999 -99999 -99999 -99999 -99999 -99999 -99999 -99999 -99999 -99999 -99999 -99999 -99999 -99999 -99999 -99999 -99999 -99999 -99999 -99999 -99999
 -99999 -99999 -99999 -99999 -99999 -99999 -99999 -99999 -99999 -99999 -99999 -99999 -99999 -99999 -99999 -99999 -99999 -99999 -99999 -99999 -99999 -99999 -99999 -99999 -99999 -99999 -99999 -99999 -99999 -99999 -99999 -99999 -99999 -99999 -99999 -99999 -99999 -99999 -99999 -99999 -99999 -99999 -99999 -99999 -99999 -99999 -99999 -99999 -99999 -99999 -99999 -99999 -99999 -99999 -99999 -99999 -99999 -99999 -99999 -99999 -99999 -99999 -99999 -99999 -99999 -99999 -99999 -99999 -99999 -99999 -99999 -99999 -99999 -99999 -99999 -99999 -99999 -99999 38.4129180908203125 43.6270294189453125 48.927188873291015625 54.28499603271484375 59.709804534912109375 65.15245819091796875 70.7214508056640625 76.38088226318359375 82.14260101318359375 87.864532470703125 93.8391571044921875 99.95095062255859375 106.2145538330078125 112.66599273681640625 119.22234344482421875 126.12722015380859375 133.163177490234375 140.1571807861328125 147.2473297119140625 154.2950592041015625 161.043701171875 167.483642578125 173.278228759765625 178.221649169921875 181.9689483642578125 184.56475830078125 186.4995880126953125 187.57330322265625 186.8546142578125 183.813446044921875 180.73388671875 177.6470794677734375 174.7291259765625 172.04620361328125 169.8759765625 168.167205810546875 166.9494171142578125 166.1485443115234375 165.5480804443359375 165.4124908447265625 165.47119140625 165.693145751953125 166.1116180419921875 166.73468017578125 167.47259521484375 -99999 -99999 -99999 -99999 -99999 -99999 -99999 -99999 -99999 -99999 -99999 -99999 -99999 -99999 -99999 -99999 -99999 -99999 -99999 -99999 -99999 -99999 -99999 -99999 -99999 -99999 -99999 -99999 -99999 -99999 -99999 -99999 -99999 -99999 -99999 -99999 -99999 -99999 -99999 -99999 -99999 -99999 -99999 -99999 -99999 -99999 -99999 -99999 -99999 -99999 -99999 -99999 -99999 -99999 -99999 -99999 -99999 -99999 -99999 -99999 -99999 -99999 -99999 -99999 -99999 -99999 -99999 -99999 -99999 -99999 -99999 -99999 -99999 -99999 -99999 -99999
 -99999 -99999 -99999 -99999 -99999 -99999 -99999 -99999 -99999 -99999 -99999 -99999 -99999 -99999 -99999 -99999 -99999 -99999 -99999 -99999 -99999 -99999 -99999 -99999 -99999 -99999 -99999 -99999 -99999 -99999 -99999 -99999 -99999 -99999 -99999 -99999 -99999 -99999 -99999 -99999 -99999 -99999 -99999 -99999 -99999 -99999 -99999 -99999 -99999 -99999 -99999 -99999 -99999 -99999 -99999 -99999 -99999 -99999 -99999 -99999 -99999 -99999 -99999 -99999 -99999 -99999 -99999 -99999 -99999 -99999 -99999 -99999 -99999 -99999 -99999 -99999 -99999 37.155658721923828125 42.389446258544921875 47.7003021240234375 52.984912872314453125 58.354400634765625 63.8056640625 69.2886505126953125 74.866058349609375 80.4528961181640625 86.18903350830078125 92.0730133056640625 98.04376220703125 104.13147735595703125 110.39540863037109375 116.7792816162109375 123.24626922607421875 129.8350677490234375 136.4301300048828125 143.2318267822265625 149.889678955078125 156.3997039794921875 162.75897216796875 168.566162109375 173.782257080078125 177.935821533203125 181.26446533203125 183.5685577392578125 185.162872314453125 185.6619873046875 184.391632080078125 181.5796661376953125 178.5303955078125 175.43218994140625 172.51678466796875 170.006683349609375 168.1219940185546875 166.5268707275390625 165.46649169921875 164.93658447265625 164.697845458984375 164.7744598388671875 165.0709991455078125 165.6364288330078125 166.3495025634765625 167.143524169921875 168.030242919921875 168.9768829345703125 170.0301971435546875 -99999 -99999 -99999 -99999 -99999 -99999 -99999 -99999 -99999 -99999 -99999 -99999 -99999 -99999 -99999 -99999 -99999 -99999 -99999 -99999 -99999 -99999 -99999 -99999 -99999 -99999 -99999 -99999 -99999 -99999 -99999 -99999 -99999 -99999 -99999 -99999 -99999 -99999 -99999 -99999 -99999 -99999 -99999 -99999 -99999 -99999 -99999 -99999 -99999 -99999 -99999 -99999 -99999 -99999 -99999 -99999 -99999 -99999 -99999 -99999 -99999 -99999 -99999 -99999 -99999 -99999 -99999 -99999 -99999 -99999 -99999 -99999 -99999 -99999
 -99999 -99999 -99999 -99999 -99999 -99999 -99999 -99999 -99999 -99999 -99999 -99999 -99999 -99999 -99999 -99999 -99999 -99999 -99999 -99999 -99999 -99999 -99999 -99999 -99999 -99999 -99999 -99999 -99999 -99999 -99999 -99999 -99999 -99999 -99999 -99999 -99999 -99999 -99999 -99999 -99999 -99999 -99999 -99999 -99999 -99999 -99999 -99999 -99999 -99999 -99999 -99999 -99999 -99999 -99999 -99999 -99999 -99999 -99999 -99999 -99999 -99999 -99999 -99999 -99999 -99999 -99999 -99999 -99999 -99999 -99999 -99999 -99999 -99999 -99999 -99999 35.8393402099609375 41.06761932373046875 46.304599761962890625 51.59537506103515625 56.903079986572265625 62.28607177734375 67.7485504150390625 73.200897216796875 78.77816009521484375 84.43970489501953125 90.16957855224609375 95.98905181884765625 101.8983001708984375 107.882904052734375 114.02112579345703125 120.21375274658203125 126.521240234375 132.953460693359375 139.36077880859375 145.7106781005859375 151.9459075927734375 158.110382080078125 163.69189453125 168.7884063720703125 173.298980712890625 176.98321533203125 179.86114501953125 181.9228363037109375 182.9386749267578125 182.6119537353515625 181.185089111328125 178.5645904541015625 175.6783294677734375 172.602203369140625 169.9164581298828125 167.34478759765625 165.5589447021484375 164.42767333984375 163.7975311279296875 163.567230224609375 163.6939544677734375 164.1832733154296875 164.83056640625 165.5908660888671875 166.49072265625 167.4778289794921875 168.598480224609375 169.725860595703125 170.922760009765625 172.1072845458984375 173.434844970703125 -99999 -99999 -99999 -99999 -99999 -99999 -99999 -99999 -99999 -99999 -99999 -99999 -99999 -99999 -99999 -99999 -99999 -99999 -99999 -99999 -99999 -99999 -99999 -99999 -99999 -99999 -99999 -99999 -99999 -99999 -99999 -99999 -99999 -99999 -99999 -99999 -99999 -99999 -99999 -99999 -99999 -99999 -99999 -99999 -99999 -99999 -99999 -99999 -99999 -99999 -99999 -99999 -99999 -99999 -99999 -99999 -99999 -99999 -99999 -99999 -99999 -99999 -99999 -99999 -99999 -99999 -99999 -99999 -99999 -99999 -99999 -99999
 -99999 -99999 -99999 -99999 -99999 -99999 -99999 -99999 -99999 -99999 -99999 -99999 -99999 -99999 -99999 -99999 -99999 -99999 -99999 -99999 -99999 -99999 -99999 -99999 -99999 -99999 -99999 -99999 -99999 -99999 -99999 -99999 -99999 -99999 -99999 -99999 -99999 -99999 -99999 -99999 -99999 -99999 -99999 -99999 -99999 -99999 -99999 -99999 -99999 -99999 -99999 -99999 -99999 -99999 -99999 -99999 -99999 -99999 -99999 -99999 -99999 -99999 -99999 -99999 -99999 -99999 -99999 -99999 -99999 -99999 -99999 -99999 -99999 -99999 -99999 34.433681488037109375 39.60565185546875 44.8087005615234375 50.044429779052734375 55.34166717529296875 60.6700897216796875 66.0376129150390625 71.45412445068359375 76.97393035888671875 82.515228271484375 88.12442779541015625 93.7894744873046875 99.5234527587890625 105.350616455078125 111.27178192138671875 117.27428436279296875 123.3668212890625 129.4397735595703125 135.5372772216796875 141.646331787109375 147.5577392578125 153.23443603515625 158.7381591796875 163.9277191162109375 168.4284210205078125 172.4385528564453125 175.7445831298828125 178.182952880859375 179.5910491943359375 180.0226287841796875 179.4635009765625 177.902923583984375 175.49072265625 172.5813446044921875 169.5541229248046875 166.6938934326171875 164.3812408447265625 162.9290618896484375 162.1606597900390625 162.006500244140625 162.362762451171875 162.9141082763671875 163.6395263671875 164.538818359375 165.563232421875 166.6693878173828125 167.9125213623046875 169.1760101318359375 170.4243316650390625 171.836944580078125 173.2014007568359375 174.545166015625 175.90069580078125 177.2083740234375 -99999 -99999 -99999 -99999 -99999 -99999 -99999 -99999 -99999 -99999 -99999 -99999 -99999 -99999 -99999 -99999 -99999 -99999 -99999 -99999 -99999 -99999 -99999 -99999 -99999 -99999 -99999 -99999 -99999 -99999 -99999 -99999 -99999 -99999 -99999 -99999 -99999 -99999 -99999 -99999 -99999 -99999 -99999 -99999 -99999 -99999 -99999 -99999 -99999 -99999 -99999 -99999 -99999 -99999 -99999 -99999 -99999 -99999 -99999 -99999 -99999 -99999 -99999 -99999 -99999 -99999 -99999 -99999 -99999 -99999
 -99999 -99999 -99999 -99999 -99999 -99999 -99999 -99999 -99999 -99999 -99999 -99999 -99999 -99999 -99999 -99999 -99999 -99999 -99999 -99999 -99999 -99999 -99999 -99999 -99999 -99999 -99999 -99999 -99999 -99999 -99999 -99999 -99999 -99999 -99999 -99999 -99999 -99999 -99999 -99999 -99999 -99999 -99999 -99999 -99999 -99999 -99999 -99999 -99999 -99999 -99999 -99999 -99999 -99999 -99999 -99999 -99999 -99999 -99999 -99999 -99999 -99999 -99999 -99999 -99999 -99999 -99999 -99999 -99999 -99999 -99999 -99999 -99999 -99999 -99999 38.041980743408203125 43.20598602294921875 48.4476318359375 53.687824249267578125 58.944461822509765625 64.2849273681640625 69.63957977294921875 75.03746795654296875 80.48723602294921875 85.98413848876953125 91.5736541748046875 97.132354736328125 102.85549163818359375 108.5973052978515625 114.34236907958984375 120.16790771484375 126.0143280029296875 131.810150146484375 137.5491943359375 143.26739501953125 148.8520965576171875 154.1809539794921875 159.182769775390625 163.84893798828125 167.908416748046875 171.3302459716796875 174.0955963134765625 175.9573822021484375 177.0722503662109375 177.30450439453125 176.5413818359375 174.7522125244140625 172.4143829345703125 169.510162353515625 166.453369140625 163.5626678466796875 161.2104644775390625 160.082489013671875 160.15087890625 160.5958404541015625 161.3047637939453125 162.1972808837890625 163.186859130859375 164.3829498291015625 165.668853759765625 167.0167388916015625 168.4100341796875 169.8743896484375 171.425537109375 172.838836669921875 174.343658447265625 175.8153228759765625 177.2608795166015625 178.673614501953125 180.0403289794921875 181.335723876953125 -99999 -99999 -99999 -99999 -99999 -99999 -99999 -99999 -99999 -99999 -99999 -99999 -99999 -99999 -99999 -99999 -99999 -99999 -99999 -99999 -99999 -99999 -99999 -99999 -99999 -99999 -99999 -99999 -99999 -99999 -99999 -99999 -99999 -99999 -99999 -99999 -99999 -99999 -99999 -99999 -99999 -99999 -99999 -99999 -99999 -99999 -99999 -99999 -99999 -99999 -99999 -99999 -99999 -99999 -99999 -99999 -99999 -99999 -99999 -99999 -99999 -99999 -99999 -99999 -99999 -99999 -99999 -99999
 -99999 -99999 -99999 -99999 -99999 -99999 -99999 -99999 -99999 -99999 -99999 -99999 -99999 -99999 -99999 -99999 -99999 -99999 -99999 -99999 -99999 -99999 -99999 -99999 -99999 -99999 -99999 -99999 -99999 -99999 -99999 -99999 -99999 -99999 -99999 -99999 -99999 -99999 -99999 -99999 -99999 -99999 -99999 -99999 -99999 -99999 -99999 -99999 -99999 -99999 -99999 -99999 -99999 -99999 -99999 -99999 -99999 -99999 -99999 -99999 -99999 -99999 -99999 -99999 -99999 -99999 -99999 -99999 -99999 -99999 -99999 -99999 -99999 -99999 36.416271209716796875 41.610866546630859375 46.743743896484375 51.946651458740234375 57.18167877197265625 62.42957305908203125 67.730804443359375 73.04967498779296875 78.42029571533203125 83.85107421875 89.27317047119140625 94.76171875 100.2767486572265625 105.81689453125 111.38751220703125 116.99688720703125 122.596343994140625 128.2206268310546875 133.77728271484375 139.289276123046875 144.621185302734375 149.8021087646484375 154.7195587158203125 159.282623291015625 163.4364471435546875 166.995391845703125 170.007781982421875 172.343414306640625 173.9936981201171875 174.7326507568359375 174.6421356201171875 173.7079925537109375 171.91583251953125 169.554443359375 166.75372314453125 163.6733551025390625 160.5054931640625 158.377288818359375 157.8333892822265625 158.4875030517578125 159.513580322265625 160.604156494140625 161.8030548095703125 163.1871185302734375 164.549530029296875 165.977569580078125 167.5445709228515625 169.0967864990234375 170.693115234375 172.3060760498046875 173.9263458251953125 175.5478363037109375 177.1432342529296875 178.720703125 180.226654052734375 181.6688995361328125 183.0387725830078125 184.3519439697265625 185.4808502197265625 -99999 -99999 -99999 -99999 -99999 -99999 -99999 -99999 -99999 -99999 -99999 -99999 -99999 -99999 -99999 -99999 -99999 -99999 -99999 -99999 -99999 -99999 -99999 -99999 -99999 -99999 -99999 -99999 -99999 -99999 -99999 -99999 -99999 -99999 -99999 -99999 -99999 -99999 -99999 -99999 -99999 -99999 -99999 -99999 -99999 -99999 -99999 -99999 -99999 -99999 -99999 -99999 -99999 -99999 -99999 -99999 -99999 -99999 -99999 -99999 -99999 -99999 -99999 -99999 -99999 -99999
 -99999 -99999 -99999 -99999 -99999 -99999 -99999 -99999 -99999 -99999 -99999 -99999 -99999 -99999 -99999 -99999 -99999 -99999 -99999 -99999 -99999 -99999 -99999 -99999 -99999 -99999 -99999 -99999 -99999 -99999 -99999 -99999 -99999 -99999 -99999 -99999 -99999 -99999 -99999 -99999 -99999 -99999 -99999 -99999 -99999 -99999 -99999 -99999 -99999 -99999 -99999 -99999 -99999 -99999 -99999 -99999 -99999 -99999 -99999 -99999 -99999 -99999 -99999 -99999 -99999 -99999 -99999 -99999 -99999 -99999 -99999 -99999 -99999 34.741214752197265625 39.84735870361328125 44.995494842529296875 50.16466522216796875 55.32077789306640625 60.49651336669921875 65.7403411865234375 71.0201416015625 76.28495025634765625 81.5756988525390625 86.93091583251953125 92.2885284423828125 97.68872833251953125 103.08591461181640625 108.51902008056640625 113.94329071044921875 119.37947845458984375 124.8348236083984375 130.1757049560546875 135.4534454345703125 140.6474151611328125 145.654144287109375 150.4644927978515625 154.975555419921875 159.0766754150390625 162.802001953125 166.041534423828125 168.784332275390625 170.7296905517578125 171.9579315185546875 172.438079833984375 172.1664886474609375 171.192535400390625 169.5854644775390625 167.4325103759765625 164.73583984375 161.8364410400390625 158.941436767578125 156.8374481201171875 156.9474029541015625 158.0625762939453125 159.3353271484375 160.6287384033203125 161.9727783203125 163.391510009765625 164.952789306640625 166.61962890625 168.209747314453125 169.91632080078125 171.6400909423828125 173.3750457763671875 175.117034912109375 176.8584136962890625 178.5738983154296875 180.2473297119140625 181.864532470703125 183.43695068359375 184.8513336181640625 186.1279144287109375 187.3934783935546875 188.4943695068359375 189.4802703857421875 -99999 -99999 -99999 -99999 -99999 -99999 -99999 -99999 -99999 -99999 -99999 -99999 -99999 -99999 -99999 -99999 -99999 -99999 -99999 -99999 -99999 -99999 -99999 -99999 -99999 -99999 -99999 -99999 -99999 -99999 -99999 -99999 -99999 -99999 -99999 -99999 -99999 -99999 -99999 -99999 -99999 -99999 -99999 -99999 -99999 -99999 -99999 -99999 -99999 -99999 -99999 -99999 -99999 -99999 -99999 -99999 -99999 -99999 -99999 -99999 -99999 -99999 -99999 -99999
 -99999 -99999 -99999 -99999 -99999 -99999 -99999 -99999 -99999 -99999 -99999 -99999 -99999 -99999 -99999 -99999 -99999 -99999 -99999 -99999 -99999 -99999 -99999 -99999 -99999 -99999 -99999 -99999 -99999 -99999 -99999 -99999 -99999 -99999 -99999 -99999 -99999 -99999 -99999 -99999 -99999 -99999 -99999 -99999 -99999 -99999 -99999 -99999 -99999 -99999 -99999 -99999 -99999 -99999 -99999 -99999 -99999 -99999 -99999 -99999 -99999 -99999 -99999 -99999 -99999 -99999 -99999 -99999 -99999 -99999 -99999 -99999 32.982822418212890625 38.088291168212890625 43.200225830078125 48.294162750244140625 53.411205291748046875 58.5779266357421875 63.74806976318359375 68.9145050048828125 74.1189727783203125 79.35366058349609375 84.58245849609375 89.84725189208984375 95.12708282470703125 100.40416717529296875 105.66811370849609375 110.9873199462890625 116.29230499267578125 121.4748687744140625 126.67790985107421875 131.8315887451171875 136.855804443359375 141.6945037841796875 146.4023284912109375 150.856842041015625 155.0277862548828125 158.8565826416015625 162.2567291259765625 165.067352294921875 167.3802642822265625 169.08599853515625 170.13568115234375 170.49176025390625 170.2534332275390625 169.3299713134765625 167.771728515625 165.7974395751953125 163.5688323974609375 161.1623382568359375 158.927520751953125 157.6661834716796875 157.6529083251953125 158.6966705322265625 159.852630615234375 161.11962890625 162.5165557861328125 164.07354736328125 165.6681365966796875 167.3785858154296875 169.13519287109375 170.931365966796875 172.740325927734375 174.6144561767578125 176.4333343505859375 178.3133392333984375 180.12890625 181.892181396484375 183.6553955078125 185.1484832763671875 186.67803955078125 188.085662841796875 189.352996826171875 190.487396240234375 191.4871368408203125 192.34698486328125 193.0951690673828125 -99999 -99999 -99999 -99999 -99999 -99999 -99999 -99999 -99999 -99999 -99999 -99999 -99999 -99999 -99999 -99999 -99999 -99999 -99999 -99999 -99999 -99999 -99999 -99999 -99999 -99999 -99999 -99999 -99999 -99999 -99999 -99999 -99999 -99999 -99999 -99999 -99999 -99999 -99999 -99999 -99999 -99999 -99999 -99999 -99999 -99999 -99999 -99999 -99999 -99999 -99999 -99999 -99999 -99999 -99999 -99999 -99999 -99999 -99999 -99999 -99999 -99999
 -99999 -99999 -99999 -99999 -99999 -99999 -99999 -99999 -99999 -99999 -99999 -99999 -99999 -99999 -99999 -99999 -99999 -99999 -99999 -99999 -99999 -99999 -99999 -99999 -99999 -99999 -99999 -99999 -99999 -99999 -99999 -99999 -99999 -99999 -99999 -99999 -99999 -99999 -99999 -99999 -99999 -99999 -99999 -99999 -99999 -99999 -99999 -99999 -99999 -99999 -99999 -99999 -99999 -99999 -99999 -99999 -99999 -99999 -99999 -99999 -99999 -99999 -99999 -99999 -99999 -99999 -99999 -99999 -99999 -99999 -99999 -99999 36.2743072509765625 41.33080291748046875 46.406314849853515625 51.50934600830078125 56.596218109130859375 61.723117828369140625 66.848297119140625 71.96558380126953125 77.09346771240234375 82.26044464111328125 87.4288787841796875 92.59329986572265625 97.72640228271484375 102.9296875 108.10880279541015625 113.1756591796875 118.3269195556640625 123.4260101318359375 128.3831787109375 133.268310546875 138.015716552734375 142.7004852294921875 147.0198822021484375 151.1852264404296875 155.052276611328125 158.5188751220703125 161.50872802734375 164.0856781005859375 166.2139892578125 167.6678619384765625 168.6318206787109375 168.9470367431640625 168.622039794921875 167.798614501953125 166.5655364990234375 164.921661376953125 163.0785980224609375 161.1699676513671875 159.63494873046875 158.8342437744140625 159.02337646484375 159.804229736328125 160.8864898681640625 162.0992584228515625 163.396636962890625 164.936798095703125 166.6289520263671875 168.427520751953125 170.2572479248046875 172.1442718505859375 174.019744873046875 175.961212158203125 177.897216796875 179.8350067138671875 181.7545623779296875 183.6298370361328125 185.4104766845703125 187.1432342529296875 188.693084716796875 190.122589111328125 191.426177978515625 192.5377349853515625 193.5189666748046875 194.4389495849609375 195.0938568115234375 195.6750946044921875 196.1489715576171875 -99999 -99999 -99999 -99999 -99999 -99999 -99999 -99999 -99999 -99999 -99999 -99999 -99999 -99999 -99999 -99999 -99999 -99999 -99999 -99999 -99999 -99999 -99999 -99999 -99999 -99999 -99999 -99999 -99999 -99999 -99999 -99999 -99999 -99999 -99999 -99999 -99999 -99999 -99999 -99999 -99999 -99999 -99999 -99999 -99999 -99999 -99999 -99999 -99999 -99999 -99999 -99999 -99999 -99999 -99999 -99999 -99999 -99999 -99999 -99999
 -99999 -99999 -99999 -99999 -99999 -99999 -99999 -99999 -99999 -99999 -99999 -99999 -99999 -99999 -99999 -99999 -99999 -99999 -99999 -99999 -99999 -99999 -99999 -99999 -99999 -99999 -99999 -99999 -99999 -99999 -99999 -99999 -99999 -99999 -99999 -99999 -99999 -99999 -99999 -99999 -99999 -99999 -99999 -99999 -99999 -99999 -99999 -99999 -99999 -99999 -99999 -99999 -99999 -99999 -99999 -99999 -99999 -99999 -99999 -99999 -99999 -99999 -99999 -99999 -99999 -99999 -99999 -99999 -99999 -99999 -99999 34.419525146484375 39.473247528076171875 44.531665802001953125 49.549297332763671875 54.610416412353515625 59.672428131103515625 64.71271514892578125 69.78777313232421875 74.8797607421875 79.94550323486328125 85.01767730712890625 90.08721160888671875 95.15496063232421875 100.2443695068359375 105.246307373046875 110.36385345458984375 115.3396148681640625 120.23834991455078125 125.12654876708984375 129.92437744140625 134.5742034912109375 139.0079498291015625 143.414825439453125 147.5836639404296875 151.388946533203125 154.8871917724609375 158.150909423828125 160.97003173828125 163.3332366943359375 165.18865966796875 166.5747222900390625 167.3539886474609375 167.6645355224609375 167.491668701171875 166.789703369140625 165.752105712890625 164.426849365234375 163.007598876953125 161.671173095703125 160.7074432373046875 160.1850128173828125 160.290069580078125 161.041168212890625 162.1209564208984375 163.2467803955078125 164.4913330078125 166.0718231201171875 167.84881591796875 169.767120361328125 171.6399078369140625 173.534088134765625 175.475830078125 177.4308319091796875 179.4638671875 181.5759735107421875 183.5157928466796875 185.5288848876953125 187.4043731689453125 189.1680450439453125 190.795806884765625 192.2380828857421875 193.5481109619140625 194.7048492431640625 195.6504058837890625 196.45648193359375 197.105743408203125 197.559906005859375 198.04876708984375 198.390045166015625 198.6172943115234375 -99999 -99999 -99999 -99999 -99999 -99999 -99999 -99999 -99999 -99999 -99999 -99999 -99999 -99999 -99999 -99999 -99999 -99999 -99999 -99999 -99999 -99999 -99999 -99999 -99999 -99999 -99999 -99999 -99999 -99999 -99999 -99999 -99999 -99999 -99999 -99999 -99999 -99999 -99999 -99999 -99999 -99999 -99999 -99999 -99999 -99999 -99999 -99999 -99999 -99999 -99999 -99999 -99999 -99999 -99999 -99999 -99999 -99999
 -99999 -99999 -99999 -99999 -99999 -99999 -99999 -99999 -99999 -99999 -99999 -99999 -99999 -99999 -99999 -99999 -99999 -99999 -99999 -99999 -99999 -99999 -99999 -99999 -99999 -99999 -99999 -99999 -99999 -99999 -99999 -99999 -99999 -99999 -99999 -99999 -99999 -99999 -99999 -99999 -99999 -99999 -99999 -99999 -99999 -99999 -99999 -99999 -99999 -99999 -99999 -99999 -99999 -99999 -99999 -99999 -99999 -99999 -99999 -99999 -99999 -99999 -99999 -99999 -99999 -99999 -99999 -99999 -99999 -99999 32.56928253173828125 37.580646514892578125 42.585979461669921875 47.59870147705078125 52.614063262939453125 57.62279510498046875 62.642658233642578125 67.65380859375 72.66315460205078125 77.6639404296875 82.666290283203125 87.65805816650390625 92.67945098876953125 97.64397430419921875 102.60820770263671875 107.5031280517578125 112.36188507080078125 117.1909332275390625 121.96881103515625 126.61600494384765625 131.2130126953125 135.7060546875 139.99639892578125 144.06756591796875 147.9132843017578125 151.5914154052734375 154.9287567138671875 157.80523681640625 160.451751708984375 162.67236328125 164.3602752685546875 165.646087646484375 166.4155120849609375 166.7484283447265625 166.67059326171875 166.2809600830078125 165.392578125 164.415435791015625 163.4379730224609375 162.5120086669921875 161.733489990234375 161.544891357421875 161.8106689453125 162.457122802734375 163.440948486328125 164.50811767578125 165.727996826171875 167.45501708984375 169.43603515625 171.3498687744140625 173.2461395263671875 175.100738525390625 177.016876220703125 179.0596923828125 181.121917724609375 183.283111572265625 185.4509124755859375 187.51129150390625 189.4927520751953125 191.346710205078125 193.0170745849609375 194.472137451171875 195.7696380615234375 196.86285400390625 197.7581787109375 198.524566650390625 199.1248016357421875 199.62884521484375 199.987884521484375 200.2574310302734375 200.4295501708984375 200.51165771484375 200.5813140869140625 -99999 -99999 -99999 -99999 -99999 -99999 -99999 -99999 -99999 -99999 -99999 -99999 -99999 -99999 -99999 -99999 -99999 -99999 -99999 -99999 -99999 -99999 -99999 -99999 -99999 -99999 -99999 -99999 -99999 -99999 -99999 -99999 -99999 -99999 -99999 -99999 -99999 -99999 -99999 -99999 -99999 -99999 -99999 -99999 -99999 -99999 -99999 -99999 -99999 -99999 -99999 -99999 -99999 -99999 -99999 -99999
 -99999 -99999 -99999 -99999 -99999 -99999 -99999 -99999 -99999 -99999 -99999 -99999 -99999 -99999 -99999 -99999 -99999 -99999 -99999 -99999 -99999 -99999 -99999 -99999 -99999 -99999 -99999 -99999 -99999 -99999 -99999 -99999 -99999 -99999 -99999 -99999 -99999 -99999 -99999 -99999 -99999 -99999 -99999 -99999 -99999 -99999 -99999 -99999 -99999 -99999 -99999 -99999 -99999 -99999 -99999 -99999 -99999 -99999 -99999 -99999 -99999 -99999 -99999 -99999 -99999 -99999 -99999 -99999 -99999 30.700426101684570312 35.68973541259765625 40.6673126220703125 45.642559051513671875 50.623577117919921875 55.590641021728515625 60.543651580810546875 65.4962005615234375 70.4835662841796875 75.400238037109375 80.33719635009765625 85.28108978271484375 90.17949676513671875 95.0829925537109375 99.94303131103515625 104.761322021484375 109.56191253662109375 114.30767822265625 118.9543304443359375 123.61684417724609375 128.1224212646484375 132.4912872314453125 136.6990509033203125 140.7971343994140625 144.7197418212890625 148.3870849609375 151.725006103515625 154.870697021484375 157.6920318603515625 160.070220947265625 162.118896484375 163.7337188720703125 164.9897003173828125 165.89837646484375 166.2473602294921875 166.1951446533203125 165.949737548828125 165.4527740478515625 164.7041473388671875 164.0139312744140625 163.4599609375 163.133087158203125 163.1110992431640625 163.4263153076171875 164.073577880859375 164.9747772216796875 166.0635528564453125 167.4309234619140625 169.24798583984375 171.3218994140625 173.2804718017578125 175.0081329345703125 176.7803192138671875 178.6412353515625 180.6890716552734375 182.8341827392578125 185.1719207763671875 187.5044403076171875 189.7003631591796875 191.7633209228515625 193.6465606689453125 195.3567657470703125 196.8968353271484375 198.0177764892578125 199.0796661376953125 199.9468841552734375 200.601531982421875 201.194000244140625 201.62652587890625 201.92840576171875 202.120025634765625 202.2630615234375 202.2049713134765625 202.1219329833984375 201.96649169921875 201.78741455078125 -99999 -99999 -99999 -99999 -99999 -99999 -99999 -99999 -99999 -99999 -99999 -99999 -99999 -99999 -99999 -99999 -99999 -99999 -99999 -99999 -99999 -99999 -99999 -99999 -99999 -99999 -99999 -99999 -99999 -99999 -99999 -99999 -99999 -99999 -99999 -99999 -99999 -99999 -99999 -99999 -99999 -99999 -99999 -99999 -99999 -99999 -99999 -99999 -99999 -99999 -99999 -99999 -99999 -99999
 -99999 -99999 -99999 -99999 -99999 -99999 -99999 -99999 -99999 -99999 -99999 -99999 -99999 -99999 -99999 -99999 -99999 -99999 -99999 -99999 -99999 -99999 -99999 -99999 -99999 -99999 -99999 -99999 -99999 -99999 -99999 -99999 -99999 -99999 -99999 -99999 -99999 -99999 -99999 -99999 -99999 -99999 -99999 -99999 -99999 -99999 -99999 -99999 -99999 -99999 -99999 -99999 -99999 -99999 -99999 -99999 -99999 -99999 -99999 -99999 -99999 -99999 -99999 -99999 -99999 -99999 -99999 -99999 28.799022674560546875 33.772796630859375 38.739086151123046875 43.692554473876953125 48.626125335693359375 53.543262481689453125 58.47838592529296875 63.4267730712890625 68.29877471923828125 73.1839752197265625 78.06345367431640625 82.92742156982421875 87.78603363037109375 92.5941925048828125 97.3818817138671875 102.1484375 106.8636932373046875 111.527191162109375 116.15435791015625 120.67519378662109375 125.0882110595703125 129.432373046875 133.6514434814453125 137.7301177978515625 141.63714599609375 145.2891998291015625 148.79046630859375 152.022918701171875 154.931060791015625 157.5418853759765625 159.83941650390625 161.823974609375 163.426513671875 164.550689697265625 165.36944580078125 165.8880157470703125 166.083984375 165.9547119140625 165.7293548583984375 165.381683349609375 164.989349365234375 164.709381103515625 164.5843353271484375 164.6977691650390625 165.1145172119140625 165.86663818359375 166.834991455078125 168.039642333984375 169.5612335205078125 171.4779052734375 173.6157989501953125 175.3731231689453125 176.9537353515625 178.504302978515625 180.3447418212890625 182.4127197265625 184.7304229736328125 187.2350921630859375 189.6624908447265625 192.024932861328125 194.1958770751953125 196.1266021728515625 197.759124755859375 199.2259521484375 200.456024169921875 201.394012451171875 202.180450439453125 202.8178863525390625 203.2903289794921875 203.636199951171875 203.8860015869140625 203.9453277587890625 203.909149169921875 203.8119659423828125 203.685577392578125 203.4877166748046875 203.199859619140625 202.8715972900390625 202.6000518798828125 -99999 -99999 -99999 -99999 -99999 -99999 -99999 -99999 -99999 -99999 -99999 -99999 -99999 -99999 -99999 -99999 -99999 -99999 -99999 -99999 -99999 -99999 -99999 -99999 -99999 -99999 -99999 -99999 -99999 -99999 -99999 -99999 -99999 -99999 -99999 -99999 -99999 -99999 -99999 -99999 -99999 -99999 -99999 -99999 -99999 -99999 -99999 -99999 -99999 -99999 -99999 -99999
 -99999 -99999 -99999 -99999 -99999 -99999 -99999 -99999 -99999 -99999 -99999 -99999 -99999 -99999 -99999 -99999 -99999 -99999 -99999 -99999 -99999 -99999 -99999 -99999 -99999 -99999 -99999 -99999 -99999 -99999 -99999 -99999 -99999 -99999 -99999 -99999 -99999 -99999 -99999 -99999 -99999 -99999 -99999 -99999 -99999 -99999 -99999 -99999 -99999 -99999 -99999 -99999 -99999 -99999 -99999 -99999 -99999 -99999 -99999 -99999 -99999 -99999 -99999 -99999 -99999 -99999 -99999 -99999 31.871250152587890625 36.805103302001953125 41.72010040283203125 46.625720977783203125 51.543743133544921875 56.440753936767578125 61.300304412841796875 66.1577606201171875 71.00090789794921875 75.82918548583984375 80.64888763427734375 85.4223480224609375 90.17777252197265625 94.914276123046875 99.60434722900390625 104.2722320556640625 108.860992431640625 113.39203643798828125 117.8494415283203125 122.26068115234375 126.55670166015625 130.7286376953125 134.7801055908203125 138.6812591552734375 142.409881591796875 145.94793701171875 149.2313385009765625 152.2802581787109375 155.12445068359375 157.5752105712890625 159.777313232421875 161.637603759765625 163.1716156005859375 164.3992462158203125 165.2847442626953125 165.8846282958984375 166.230377197265625 166.37274169921875 166.313812255859375 166.2049102783203125 166.0663604736328125 166.007598876953125 166.1264801025390625 166.440399169921875 166.9959869384765625 167.7983856201171875 168.8297882080078125 170.1565399169921875 171.81463623046875 173.755706787109375 175.76031494140625 177.5147705078125 178.714080810546875 180.083984375 181.8315887451171875 184.131988525390625 186.6921539306640625 189.3944244384765625 192.0702056884765625 194.588470458984375 196.8393096923828125 198.746185302734375 200.4007568359375 201.7087860107421875 202.7805633544921875 203.77264404296875 204.467803955078125 205.0312042236328125 205.395965576171875 205.5815582275390625 205.6492767333984375 205.651031494140625 205.6063385009765625 205.442840576171875 205.1786956787109375 204.8735809326171875 204.5751800537109375 204.2089385986328125 203.810211181640625 203.44384765625 203.03997802734375 -99999 -99999 -99999 -99999 -99999 -99999 -99999 -99999 -99999 -99999 -99999 -99999 -99999 -99999 -99999 -99999 -99999 -99999 -99999 -99999 -99999 -99999 -99999 -99999 -99999 -99999 -99999 -99999 -99999 -99999 -99999 -99999 -99999 -99999 -99999 -99999 -99999 -99999 -99999 -99999 -99999 -99999 -99999 -99999 -99999 -99999 -99999 -99999 -99999 -99999
 -99999 -99999 -99999 -99999 -99999 -99999 -99999 -99999 -99999 -99999 -99999 -99999 -99999 -99999 -99999 -99999 -99999 -99999 -99999 -99999 -99999 -99999 -99999 -99999 -99999 -99999 -99999 -99999 -99999 -99999 -99999 -99999 -99999 -99999 -99999 -99999 -99999 -99999 -99999 -99999 -99999 -99999 -99999 -99999 -99999 -99999 -99999 -99999 -99999 -99999 -99999 -99999 -99999 -99999 -99999 -99999 -99999 -99999 -99999 -99999 -99999 -99999 -99999 -99999 -99999 -99999 -99999 29.939296722412109375 34.867946624755859375 39.779102325439453125 44.672657012939453125 49.540187835693359375 54.387699127197265625 59.224040985107421875 64.04996490478515625 68.86011505126953125 73.63617706298828125 78.395599365234375 83.12981414794921875 87.8302001953125 92.50859832763671875 97.17638397216796875 101.7368011474609375 106.28360748291015625 110.78842926025390625 115.2173309326171875 119.543975830078125 123.8020782470703125 127.95737457275390625 131.985870361328125 135.8691253662109375 139.6278839111328125 143.1894378662109375 146.550201416015625 149.7156829833984375 152.6372222900390625 155.3310089111328125 157.7369842529296875 159.839813232421875 161.68121337890625 163.2349090576171875 164.47222900390625 165.457550048828125 166.141632080078125 166.6159820556640625 166.904083251953125 167.0995941162109375 167.198822021484375 167.31341552734375 167.5111083984375 167.8206329345703125 168.277130126953125 168.9257354736328125 169.848419189453125 170.9888763427734375 172.359893798828125 173.9396514892578125 175.692901611328125 177.5574493408203125 179.0858917236328125 180.231414794921875 181.4915313720703125 183.3927154541015625 185.825408935546875 188.9163360595703125 191.859649658203125 194.754058837890625 197.3371124267578125 199.6011199951171875 201.5015869140625 203.04217529296875 204.39483642578125 205.3944854736328125 206.244171142578125 206.7653961181640625 207.09515380859375 207.3055267333984375 207.437591552734375 207.4929046630859375 207.3802490234375 207.19171142578125 206.9509429931640625 206.6560211181640625 206.2978668212890625 205.9129180908203125 205.4889373779296875 204.9862518310546875 204.4692535400390625 203.9837188720703125 203.5413055419921875 203.150482177734375 -99999 -99999 -99999 -99999 -99999 -99999 -99999 -99999 -99999 -99999 -99999 -99999 -99999 -99999 -99999 -99999 -99999 -99999 -99999 -99999 -99999 -99999 -99999 -99999 -99999 -99999 -99999 -99999 -99999 -99999 -99999 -99999 -99999 -99999 -99999 -99999 -99999 -99999 -99999 -99999 -99999 -99999 -99999 -99999 -99999 -99999 -99999 -99999
 -99999 -99999 -99999 -99999 -99999 -99999 -99999 -99999 -99999 -99999 -99999 -99999 -99999 -99999 -99999 -99999 -99999 -99999 -99999 -99999 -99999 -99999 -99999 -99999 -99999 -99999 -99999 -99999 -99999 -99999 -99999 -99999 -99999 -99999 -99999 -99999 -99999 -99999 -99999 -99999 -99999 -99999 -99999 -99999 -99999 -99999 -99999 -99999 -99999 -99999 -99999 -99999 -99999 -99999 -99999 -99999 -99999 -99999 -99999 -99999 -99999 -99999 -99999 -99999 -99999 -99999 28.04315185546875 32.96552276611328125 37.871673583984375 42.697864532470703125 47.550952911376953125 52.39038848876953125 57.196193695068359375 61.97374725341796875 66.73841094970703125 71.490966796875 76.2100982666015625 80.88857269287109375 85.54810333251953125 90.17182159423828125 94.7485504150390625 99.317779541015625 103.80980682373046875 108.24323272705078125 112.60733795166015625 116.931182861328125 121.164764404296875 125.27022552490234375 129.2860870361328125 133.2042236328125 136.9578857421875 140.544921875 143.9836883544921875 147.24871826171875 150.3011627197265625 153.1113739013671875 155.6664581298828125 158.0343780517578125 160.11151123046875 161.926910400390625 163.481658935546875 164.746917724609375 165.76910400390625 166.588409423828125 167.2309722900390625 167.69281005859375 168.057098388671875 168.394195556640625 168.7491607666015625 169.1198577880859375 169.581298828125 170.2345428466796875 170.994171142578125 171.961181640625 173.133758544921875 174.4431304931640625 175.909759521484375 177.5761566162109375 179.147247314453125 180.457122802734375 181.5232086181640625 182.5122528076171875 184.42913818359375 187.713226318359375 191.26190185546875 194.584808349609375 197.6605377197265625 200.41015625 202.673736572265625 204.5355682373046875 205.9864654541015625 207.1678314208984375 207.9410552978515625 208.4933013916015625 208.8683929443359375 209.1337890625 209.30224609375 209.3234100341796875 209.196868896484375 209.025115966796875 208.791717529296875 208.468597412109375 208.1156158447265625 207.6165313720703125 207.076873779296875 206.5159759521484375 205.95147705078125 205.4075164794921875 204.8946533203125 204.404083251953125 203.924285888671875 203.504913330078125 203.1048126220703125 -99999 -99999 -99999 -99999 -99999 -99999 -99999 -99999 -99999 -99999 -99999 -99999 -99999 -99999 -99999 -99999 -99999 -99999 -99999 -99999 -99999 -99999 -99999 -99999 -99999 -99999 -99999 -99999 -99999 -99999 -99999 -99999 -99999 -99999 -99999 -99999 -99999 -99999 -99999 -99999 -99999 -99999 -99999 -99999 -99999 -99999
 -99999 -99999 -99999 -99999 -99999 -99999 -99999 -99999 -99999 -99999 -99999 -99999 -99999 -99999 -99999 -99999 -99999 -99999 -99999 -99999 -99999 -99999 -99999 -99999 -99999 -99999 -99999 -99999 -99999 -99999 -99999 -99999 -99999 -99999 -99999 -99999 -99999 -99999 -99999 -99999 -99999 -99999 -99999 -99999 -99999 -99999 -99999 -99999 -99999 -99999 -99999 -99999 -99999 -99999 -99999 -99999 -99999 -99999 -99999 -99999 -99999 -99999 -99999 -99999 -99999 26.168790817260742188 31.04773712158203125 35.908176422119140625 40.765132904052734375 45.601497650146484375 50.40390777587890625 55.179714202880859375 59.940692901611328125 64.6917572021484375 69.393524169921875 74.0695648193359375 78.7335357666015625 83.332611083984375 87.914093017578125 92.47174835205078125 96.966888427734375 101.4111328125 105.80088043212890625 110.158172607421875 114.42431640625 118.60837554931640625 122.729644775390625 126.75139617919921875 130.6241607666015625 134.3831787109375 138.031768798828125 141.5433349609375 144.8577880859375 147.9910888671875 150.891845703125 153.65948486328125 156.1909332275390625 158.4687957763671875 160.503326416015625 162.2870025634765625 163.8387298583984375 165.19415283203125 166.32781982421875 167.2515716552734375 167.9921112060546875 168.697021484375 169.2561187744140625 169.700225830078125 170.2133941650390625 170.7299957275390625 171.2937164306640625 172.069976806640625 173.03375244140625 174.0573577880859375 175.2461090087890625 176.6422882080078125 178.0928497314453125 179.5801239013671875 180.9784393310546875 182.213165283203125 183.112213134765625 184.066375732421875 186.530609130859375 190.315673828125 194.3030853271484375 197.8566741943359375 201.048126220703125 203.655517578125 205.9217681884765625 207.620697021484375 208.8948211669921875 209.7688446044921875 210.34765625 210.755126953125 211.018524169921875 211.136566162109375 211.0746612548828125 211.0070648193359375 210.871856689453125 210.64019775390625 210.351348876953125 209.8797760009765625 209.361663818359375 208.7733917236328125 208.1558380126953125 207.5366363525390625 206.9156341552734375 206.28082275390625 205.6481475830078125 205.0511627197265625 204.5048980712890625 204.1268768310546875 203.76849365234375 203.467193603515625 203.2349395751953125 -99999 -99999 -99999 -99999 -99999 -99999 -99999 -99999 -99999 -99999 -99999 -99999 -99999 -99999 -99999 -99999 -99999 -99999 -99999 -99999 -99999 -99999 -99999 -99999 -99999 -99999 -99999 -99999 -99999 -99999 -99999 -99999 -99999 -99999 -99999 -99999 -99999 -99999 -99999 -99999 -99999 -99999 -99999 -99999
 -99999 -99999 -99999 -99999 -99999 -99999 -99999 -99999 -99999 -99999 -99999 -99999 -99999 -99999 -99999 -99999 -99999 -99999 -99999 -99999 -99999 -99999 -99999 -99999 -99999 -99999 -99999 -99999 -99999 -99999 -99999 -99999 -99999 -99999 -99999 -99999 -99999 -99999 -99999 -99999 -99999 -99999 -99999 -99999 -99999 -99999 -99999 -99999 -99999 -99999 -99999 -99999 -99999 -99999 -99999 -99999 -99999 -99999 -99999 -99999 -99999 -99999 -99999 -99999 -99999 29.135295867919921875 34.0153656005859375 38.859096527099609375 43.66526031494140625 48.446430206298828125 53.21201324462890625 57.958484649658203125 62.661869049072265625 67.33199310302734375 71.97501373291015625 76.58263397216796875 81.17763519287109375 85.7310333251953125 90.2293243408203125 94.68357086181640625 99.10813140869140625 103.4805145263671875 107.77568817138671875 112.0465545654296875 116.204254150390625 120.2797393798828125 124.25991058349609375 128.1460113525390625 131.9514312744140625 135.6428680419921875 139.13897705078125 142.5206756591796875 145.7124786376953125 148.7837982177734375 151.62078857421875 154.2863922119140625 156.75897216796875 158.9868011474609375 161.005706787109375 162.8153533935546875 164.424163818359375 165.855194091796875 167.07470703125 168.1115875244140625 168.92730712890625 169.7605438232421875 170.4163970947265625 171.0081329345703125 171.7457733154296875 172.455535888671875 173.267578125 174.1786041259765625 175.1670684814453125 176.282257080078125 177.5605010986328125 178.914825439453125 180.32537841796875 181.8005828857421875 183.217193603515625 184.5829925537109375 185.9640045166015625 187.4337005615234375 189.9207305908203125 194.1636199951171875 197.9795989990234375 201.5319671630859375 204.714813232421875 207.3476104736328125 209.4137420654296875 210.8757476806640625 211.787261962890625 212.3650665283203125 212.7359619140625 212.9226531982421875 212.9158935546875 212.8790435791015625 212.86566162109375 212.755859375 212.55438232421875 212.1424407958984375 211.6965484619140625 211.1551666259765625 210.5421295166015625 209.9018402099609375 209.210784912109375 208.4653167724609375 207.71392822265625 206.933990478515625 206.31304931640625 205.7115478515625 205.14739990234375 204.683502197265625 204.2806243896484375 203.9615936279296875 203.7532806396484375 -99999 -99999 -99999 -99999 -99999 -99999 -99999 -99999 -99999 -99999 -99999 -99999 -99999 -99999 -99999 -99999 -99999 -99999 -99999 -99999 -99999 -99999 -99999 -99999 -99999 -99999 -99999 -99999 -99999 -99999 -99999 -99999 -99999 -99999 -99999 -99999 -99999 -99999 -99999 -99999 -99999 -99999 -99999 -99999
 -99999 -99999 -99999 -99999 -99999 -99999 -99999 -99999 -99999 -99999 -99999 -99999 -99999 -99999 -99999 -99999 -99999 -99999 -99999 -99999 -99999 -99999 -99999 -99999 -99999 -99999 -99999 -99999 -99999 -99999 -99999 -99999 -99999 -99999 -99999 -99999 -99999 -99999 -99999 -99999 -99999 -99999 -99999 -99999 -99999 -99999 -99999 -99999 -99999 -99999 -99999 -99999 -99999 -99999 -99999 -99999 -99999 -99999 -99999 -99999 -99999 -99999 -99999 -99999 27.259624481201171875 32.121173858642578125 36.941982269287109375 41.739593505859375 46.527095794677734375 51.292942047119140625 55.996234893798828125 60.676685333251953125 65.31371307373046875 69.93349456787109375 74.53035736083984375 79.08707427978515625 83.58856201171875 88.05206298828125 92.5074005126953125 96.89166259765625 101.2103424072265625 105.51479339599609375 109.71903228759765625 113.841796875 117.90488433837890625 121.8972320556640625 125.80951690673828125 129.61053466796875 133.2589111328125 136.8323211669921875 140.2529754638671875 143.54290771484375 146.65093994140625 149.6173095703125 152.419769287109375 155.05810546875 157.445159912109375 159.6436920166015625 161.6714324951171875 163.5329132080078125 165.113433837890625 166.5298614501953125 167.8467254638671875 168.9699554443359375 169.9483795166015625 170.905670166015625 171.738250732421875 172.58978271484375 173.4443206787109375 174.290313720703125 175.199066162109375 176.1964111328125 177.3159942626953125 178.5325164794921875 179.8569183349609375 181.263397216796875 182.7636871337890625 184.3372650146484375 185.95147705078125 187.5257568359375 189.230010986328125 191.4384918212890625 194.5272674560546875 198.2934722900390625 201.9187774658203125 205.484893798828125 208.643829345703125 211.1513671875 212.8788604736328125 213.94000244140625 214.573944091796875 214.8455963134765625 214.8013763427734375 214.7154388427734375 214.737945556640625 214.6818084716796875 214.462249755859375 214.241485595703125 213.928558349609375 213.48736572265625 212.984405517578125 212.391357421875 211.7041015625 210.9305877685546875 210.0883026123046875 209.178558349609375 208.4246368408203125 207.6387176513671875 206.895111083984375 206.1998138427734375 205.63372802734375 205.0778350830078125 204.6916656494140625 204.340576171875 204.1389923095703125 204.009765625 -99999 -99999 -99999 -99999 -99999 -99999 -99999 -99999 -99999 -99999 -99999 -99999 -99999 -99999 -99999 -99999 -99999 -99999 -99999 -99999 -99999 -99999 -99999 -99999 -99999 -99999 -99999 -99999 -99999 -99999 -99999 -99999 -99999 -99999 -99999 -99999 -99999 -99999 -99999 -99999 -99999 -99999 -99999
 -99999 -99999 -99999 -99999 -99999 -99999 -99999 -99999 -99999 -99999 -99999 -99999 -99999 -99999 -99999 -99999 -99999 -99999 -99999 -99999 -99999 -99999 -99999 -99999 -99999 -99999 -99999 -99999 -99999 -99999 -99999 -99999 -99999 -99999 -99999 -99999 -99999 -99999 -99999 -99999 -99999 -99999 -99999 -99999 -99999 -99999 -99999 -99999 -99999 -99999 -99999 -99999 -99999 -99999 -99999 -99999 -99999 -99999 -99999 -99999 -99999 -99999 -99999 25.375242233276367188 30.236185073852539062 35.079181671142578125 39.90283203125 44.639972686767578125 49.343006134033203125 54.050899505615234375 58.71038818359375 63.354412078857421875 67.94492340087890625 72.49979400634765625 77.0214385986328125 81.52259063720703125 85.97823333740234375 90.37123870849609375 94.7301025390625 99.04001617431640625 103.2960357666015625 107.4691619873046875 111.606109619140625 115.66539764404296875 119.64996337890625 123.53946685791015625 127.32080841064453125 131.0414886474609375 134.6249847412109375 138.068878173828125 141.4039154052734375 144.6194915771484375 147.6939544677734375 150.556640625 153.2456207275390625 155.81097412109375 158.2167510986328125 160.4053802490234375 162.3814849853515625 164.231109619140625 165.9218902587890625 167.411285400390625 168.7899017333984375 170.0092010498046875 171.1414337158203125 172.2069091796875 173.2140045166015625 174.1677703857421875 175.1185150146484375 176.098175048828125 177.1662750244140625 178.2929534912109375 179.49896240234375 180.80419921875 182.2027130126953125 183.72235107421875 185.28509521484375 186.9543914794921875 188.7522735595703125 190.618621826171875 192.8427734375 195.399261474609375 198.6910552978515625 202.257415771484375 205.93414306640625 209.5607147216796875 212.84796142578125 214.88446044921875 216.3101348876953125 216.983154296875 217.0465087890625 216.9175262451171875 216.6894073486328125 216.5251922607421875 216.25994873046875 216.0983123779296875 215.8801116943359375 215.595367431640625 215.2520294189453125 214.8114166259765625 214.2535858154296875 213.53045654296875 212.696624755859375 211.7452850341796875 210.9228668212890625 209.9973602294921875 209.0431671142578125 208.2001953125 207.3109283447265625 206.5376434326171875 205.8535614013671875 205.31219482421875 204.90924072265625 204.6119537353515625 204.3999481201171875 204.3017120361328125 -99999 -99999 -99999 -99999 -99999 -99999 -99999 -99999 -99999 -99999 -99999 -99999 -99999 -99999 -99999 -99999 -99999 -99999 -99999 -99999 -99999 -99999 -99999 -99999 -99999 -99999 -99999 -99999 -99999 -99999 -99999 -99999 -99999 -99999 -99999 -99999 -99999 -99999 -99999 -99999 -99999 -99999 -99999
 -99999 -99999 -99999 -99999 -99999 -99999 -99999 -99999 -99999 -99999 -99999 -99999 -99999 -99999 -99999 -99999 -99999 -99999 -99999 -99999 -99999 -99999 -99999 -99999 -99999 -99999 -99999 -99999 -99999 -99999 -99999 -99999 -99999 -99999 -99999 -99999 -99999 -99999 -99999 -99999 -99999 -99999 -99999 -99999 -99999 -99999 -99999 -99999 -99999 -99999 -99999 -99999 -99999 -99999 -99999 -99999 -99999 -99999 -99999 -99999 -99999 -99999 23.553445816040039062 28.430538177490234375 33.263996124267578125 38.0313262939453125 42.778995513916015625 47.498394012451171875 52.18071746826171875 56.82680511474609375 61.439693450927734375 66.0104522705078125 70.547882080078125 75.0631561279296875 79.52878570556640625 83.946136474609375 88.322967529296875 92.6516876220703125 96.9301605224609375 101.15517425537109375 105.3265380859375 109.43457794189453125 113.484283447265625 117.4468231201171875 121.33524322509765625 125.1439208984375 128.8363494873046875 132.455169677734375 135.953155517578125 139.3390350341796875 142.5894927978515625 145.695465087890625 148.6715240478515625 151.5182342529296875 154.202667236328125 156.710693359375 159.065887451171875 161.23223876953125 163.2709503173828125 165.130645751953125 166.8243408203125 168.4005126953125 169.848297119140625 171.1807708740234375 172.3985137939453125 173.5439453125 174.6530609130859375 175.7474212646484375 176.8563079833984375 177.9759979248046875 179.1444549560546875 180.364349365234375 181.6813507080078125 183.055023193359375 184.544342041015625 186.157562255859375 187.8524932861328125 189.7081146240234375 191.7398834228515625 193.8667449951171875 196.4256591796875 199.2863311767578125 202.47955322265625 205.985992431640625 209.7467041015625 213.5753326416015625 216.535797119140625 218.44207763671875 219.367767333984375 219.52984619140625 219.14166259765625 218.66253662109375 218.0866241455078125 217.763336181640625 217.472442626953125 217.2743072509765625 217.1084442138671875 216.9003143310546875 216.5500335693359375 216.0177154541015625 215.34735107421875 214.50543212890625 213.688995361328125 212.698577880859375 211.6798553466796875 210.5706787109375 209.46514892578125 208.438079833984375 207.4933929443359375 206.684417724609375 206.0196990966796875 205.461944580078125 205.0270538330078125 204.730194091796875 204.5993194580078125 204.57745361328125 204.6231689453125 -99999 -99999 -99999 -99999 -99999 -99999 -99999 -99999 -99999 -99999 -99999 -99999 -99999 -99999 -99999 -99999 -99999 -99999 -99999 -99999 -99999 -99999 -99999 -99999 -99999 -99999 -99999 -99999 -99999 -99999 -99999 -99999 -99999 -99999 -99999 -99999 -99999 -99999 -99999 -99999 -99999 -99999
 -99999 -99999 -99999 -99999 -99999 -99999 -99999 -99999 -99999 -99999 -99999 -99999 -99999 -99999 -99999 -99999 -99999 -99999 -99999 -99999 -99999 -99999 -99999 -99999 -99999 -99999 -99999 -99999 -99999 -99999 -99999 -99999 -99999 -99999 -99999 -99999 -99999 -99999 -99999 -99999 -99999 -99999 -99999 -99999 -99999 -99999 -99999 -99999 -99999 -99999 -99999 -99999 -99999 -99999 -99999 -99999 -99999 -99999 -99999 -99999 -99999 -99999 26.599748611450195312 31.414974212646484375 36.207477569580078125 40.9534454345703125 45.669422149658203125 50.342350006103515625 54.977581024169921875 59.57462310791015625 64.14871978759765625 68.6848297119140625 73.1502838134765625 77.5815277099609375 81.97876739501953125 86.33657073974609375 90.6416168212890625 94.90726470947265625 99.10967254638671875 103.26291656494140625 107.3607177734375 111.380706787109375 115.36470794677734375 119.2249908447265625 123.03108978271484375 126.75611114501953125 130.3769989013671875 133.913482666015625 137.3267974853515625 140.6232757568359375 143.8003387451171875 146.865203857421875 149.7859039306640625 152.5476531982421875 155.1920318603515625 157.67474365234375 159.993927001953125 162.1711883544921875 164.19940185546875 166.0924530029296875 167.852752685546875 169.461395263671875 170.954437255859375 172.36419677734375 173.699859619140625 174.9755859375 176.195465087890625 177.398773193359375 178.6058502197265625 179.8279876708984375 181.0663909912109375 182.3998260498046875 183.8441619873046875 185.37518310546875 187.0035247802734375 188.7305908203125 190.5364837646484375 192.500152587890625 194.6385955810546875 196.983245849609375 199.6401824951171875 202.515350341796875 205.7587432861328125 209.1280975341796875 212.8319854736328125 216.3788299560546875 219.346893310546875 221.0647125244140625 222.121368408203125 221.823211669921875 220.7317047119140625 219.7559051513671875 218.9329071044921875 218.539794921875 218.3846282958984375 218.3321380615234375 218.2602081298828125 218.03326416015625 217.668426513671875 217.1424560546875 216.5100250244140625 215.657379150390625 214.590850830078125 213.3872222900390625 212.1687774658203125 210.9132843017578125 209.7018280029296875 208.601165771484375 207.6114044189453125 206.7137451171875 205.9786529541015625 205.416290283203125 205.010589599609375 204.7374725341796875 204.639801025390625 204.63623046875 204.7852935791015625 205.0497283935546875 -99999 -99999 -99999 -99999 -99999 -99999 -99999 -99999 -99999 -99999 -99999 -99999 -99999 -99999 -99999 -99999 -99999 -99999 -99999 -99999 -99999 -99999 -99999 -99999 -99999 -99999 -99999 -99999 -99999 -99999 -99999 -99999 -99999 -99999 -99999 -99999 -99999 -99999 -99999 -99999 -99999
 -99999 -99999 -99999 -99999 -99999 -99999 -99999 -99999 -99999 -99999 -99999 -99999 -99999 -99999 -99999 -99999 -99999 -99999 -99999 -99999 -99999 -99999 -99999 -99999 -99999 -99999 -99999 -99999 -99999 -99999 -99999 -99999 -99999 -99999 -99999 -99999 -99999 -99999 -99999 -99999 -99999 -99999 -99999 -99999 -99999 -99999 -99999 -99999 -99999 -99999 -99999 -99999 -99999 -99999 -99999 -99999 -99999 -99999 -99999 -99999 -99999 24.798261642456054688 29.630014419555664062 34.421478271484375 39.1704559326171875 43.873371124267578125 48.541790008544921875 53.16403961181640625 57.76181793212890625 62.32326507568359375 66.817169189453125 71.27263641357421875 75.701171875 80.08860015869140625 84.43164825439453125 88.71312713623046875 92.94780731201171875 97.1422882080078125 101.28278350830078125 105.36473846435546875 109.38971710205078125 113.32357025146484375 117.2102203369140625 121.0160369873046875 124.73610687255859375 128.3816375732421875 131.9332122802734375 135.3703155517578125 138.714111328125 141.9416351318359375 145.060760498046875 148.0491180419921875 150.9393310546875 153.6640777587890625 156.24127197265625 158.6897125244140625 161.0043182373046875 163.2014312744140625 165.23345947265625 167.1432952880859375 168.926055908203125 170.602813720703125 172.1860809326171875 173.6649322509765625 175.0714874267578125 176.4266815185546875 177.75628662109375 179.065948486328125 180.3759002685546875 181.66546630859375 183.0983428955078125 184.5386505126953125 186.0233612060546875 187.5830078125 189.2566070556640625 191.0555419921875 192.9807891845703125 195.088348388671875 197.327789306640625 199.75518798828125 202.397705078125 205.2441864013671875 208.402587890625 211.7827606201171875 215.1995697021484375 218.3299102783203125 220.98797607421875 223.1657867431640625 224.2322998046875 223.45611572265625 221.2689056396484375 219.8215484619140625 219.0807952880859375 218.9186859130859375 219.0450286865234375 219.1837310791015625 219.2645721435546875 219.1660614013671875 218.9044952392578125 218.338348388671875 217.5033721923828125 216.5006103515625 215.2907257080078125 213.9432373046875 212.5413055419921875 211.1673736572265625 209.8427276611328125 208.5935821533203125 207.4513702392578125 206.4574737548828125 205.7120208740234375 205.1894073486328125 204.8530731201171875 204.671966552734375 204.6329345703125 204.7281036376953125 204.9420928955078125 205.28289794921875 -99999 -99999 -99999 -99999 -99999 -99999 -99999 -99999 -99999 -99999 -99999 -99999 -99999 -99999 -99999 -99999 -99999 -99999 -99999 -99999 -99999 -99999 -99999 -99999 -99999 -99999 -99999 -99999 -99999 -99999 -99999 -99999 -99999 -99999 -99999 -99999 -99999 -99999 -99999 -99999 -99999
 -99999 -99999 -99999 -99999 -99999 -99999 -99999 -99999 -99999 -99999 -99999 -99999 -99999 -99999 -99999 -99999 -99999 -99999 -99999 -99999 -99999 -99999 -99999 -99999 -99999 -99999 -99999 -99999 -99999 -99999 -99999 -99999 -99999 -99999 -99999 -99999 -99999 -99999 -99999 -99999 -99999 -99999 -99999 -99999 -99999 -99999 -99999 -99999 -99999 -99999 -99999 -99999 -99999 -99999 -99999 -99999 -99999 -99999 -99999 -99999 23.01944732666015625 27.870229721069335938 32.65866851806640625 37.4219818115234375 42.124332427978515625 46.79264068603515625 51.43483734130859375 56.002666473388671875 60.524181365966796875 65.01236724853515625 69.4680328369140625 73.8887939453125 78.2496795654296875 82.56162261962890625 86.83428192138671875 91.0657806396484375 95.24384307861328125 99.376495361328125 103.426605224609375 107.4305419921875 111.37364959716796875 115.24947357177734375 119.05388641357421875 122.7897796630859375 126.44268035888671875 130.0048370361328125 133.4751129150390625 136.84796142578125 140.1302032470703125 143.311920166015625 146.3599853515625 149.3060760498046875 152.10882568359375 154.80499267578125 157.375 159.81414794921875 162.1269683837890625 164.300048828125 166.3670501708984375 168.3078460693359375 170.1204681396484375 171.83453369140625 173.440460205078125 174.9851837158203125 176.503326416015625 177.9187164306640625 179.3353271484375 180.7260894775390625 182.1113433837890625 183.534759521484375 184.9935302734375 186.504302978515625 188.0648193359375 189.730438232421875 191.5013885498046875 193.3923492431640625 195.3675384521484375 197.4833221435546875 199.698577880859375 202.1874237060546875 204.8370208740234375 207.7171478271484375 210.7240447998046875 213.655548095703125 216.5606231689453125 219.432525634765625 221.84796142578125 223.92816162109375 224.6181182861328125 222.8716888427734375 220.153533935546875 218.9354095458984375 218.6988677978515625 219.009918212890625 219.53369140625 220.0122833251953125 220.2566986083984375 220.3338623046875 220.02642822265625 219.429290771484375 218.506622314453125 217.3238525390625 215.9350128173828125 214.4130859375 212.8235626220703125 211.1947021484375 209.6452484130859375 208.2178192138671875 207.0727996826171875 206.1165618896484375 205.3783721923828125 204.852569580078125 204.5385589599609375 204.406219482421875 204.454315185546875 204.7127227783203125 205.07220458984375 205.5253753662109375 205.97503662109375 -99999 -99999 -99999 -99999 -99999 -99999 -99999 -99999 -99999 -99999 -99999 -99999 -99999 -99999 -99999 -99999 -99999 -99999 -99999 -99999 -99999 -99999 -99999 -99999 -99999 -99999 -99999 -99999 -99999 -99999 -99999 -99999 -99999 -99999 -99999 -99999 -99999 -99999 -99999 -99999
 -99999 -99999 -99999 -99999 -99999 -99999 -99999 -99999 -99999 -99999 -99999 -99999 -99999 -99999 -99999 -99999 -99999 -99999 -99999 -99999 -99999 -99999 -99999 -99999 -99999 -99999 -99999 -99999 -99999 -99999 -99999 -99999 -99999 -99999 -99999 -99999 -99999 -99999 -99999 -99999 -99999 -99999 -99999 -99999 -99999 -99999 -99999 -99999 -99999 -99999 -99999 -99999 -99999 -99999 -99999 -99999 -99999 -99999 -99999 21.273164749145507812 26.12662506103515625 30.942836761474609375 35.7040557861328125 40.450077056884765625 45.099872589111328125 49.69155120849609375 54.244930267333984375 58.775493621826171875 63.28186798095703125 67.729522705078125 72.10449981689453125 76.44756317138671875 80.77196502685546875 85.0374908447265625 89.2508087158203125 93.4251556396484375 97.51158905029296875 101.56177520751953125 105.56465911865234375 109.49413299560546875 113.366943359375 117.17893218994140625 120.9182281494140625 124.578521728515625 128.16143798828125 131.6516265869140625 135.064605712890625 138.3966217041015625 141.591064453125 144.7091064453125 147.704803466796875 150.5964813232421875 153.3556060791015625 156.012786865234375 158.567230224609375 160.974090576171875 163.2648773193359375 165.451446533203125 167.5235748291015625 169.45355224609375 171.2954559326171875 173.0770416259765625 174.759765625 176.379638671875 177.940032958984375 179.4359130859375 180.9095458984375 182.3784637451171875 183.8580322265625 185.3480377197265625 186.877532958984375 188.459442138671875 190.118896484375 191.827117919921875 193.627777099609375 195.5465545654296875 197.4827117919921875 199.67388916015625 201.9547271728515625 204.4276885986328125 207.01251220703125 209.578887939453125 212.2610015869140625 215.0845947265625 217.5475006103515625 219.82037353515625 221.6793060302734375 222.7219390869140625 222.5335540771484375 220.494903564453125 217.952545166015625 217.4079742431640625 218.1231689453125 219.1750030517578125 220.1716766357421875 220.9632415771484375 221.403900146484375 221.5093231201171875 221.2195587158203125 220.538848876953125 219.50421142578125 218.1088104248046875 216.4737548828125 214.6400909423828125 212.7923431396484375 210.8970489501953125 209.26190185546875 207.7828826904296875 206.5135955810546875 205.51641845703125 204.7636566162109375 204.261505126953125 204.095184326171875 204.1265411376953125 204.2418212890625 204.5850677490234375 205.0137939453125 205.5727691650390625 206.23388671875 -99999 -99999 -99999 -99999 -99999 -99999 -99999 -99999 -99999 -99999 -99999 -99999 -99999 -99999 -99999 -99999 -99999 -99999 -99999 -99999 -99999 -99999 -99999 -99999 -99999 -99999 -99999 -99999 -99999 -99999 -99999 -99999 -99999 -99999 -99999 -99999 -99999 -99999 -99999 -99999
 -99999 -99999 -99999 -99999 -99999 -99999 -99999 -99999 -99999 -99999 -99999 -99999 -99999 -99999 -99999 -99999 -99999 -99999 -99999 -99999 -99999 -99999 -99999 -99999 -99999 -99999 -99999 -99999 -99999 -99999 -99999 -99999 -99999 -99999 -99999 -99999 -99999 -99999 -99999 -99999 -99999 -99999 -99999 -99999 -99999 -99999 -99999 -99999 -99999 -99999 -99999 -99999 -99999 -99999 -99999 -99999 -99999 -99999 -99999 24.45680999755859375 29.290615081787109375 34.093414306640625 38.76214599609375 43.419635772705078125 48.043498992919921875 52.625152587890625 57.14528656005859375 61.618549346923828125 66.045440673828125 70.4412384033203125 74.793121337890625 79.06555938720703125 83.3233642578125 87.50901031494140625 91.653594970703125 95.7390594482421875 99.7758636474609375 103.7609405517578125 107.69695281982421875 111.569305419921875 115.36589813232421875 119.101470947265625 122.776092529296875 126.36937713623046875 129.887420654296875 133.3060150146484375 136.658172607421875 139.9132232666015625 143.0581512451171875 146.10577392578125 149.0640716552734375 151.92572021484375 154.6586761474609375 157.2716064453125 159.7916717529296875 162.1934814453125 164.477508544921875 166.6497344970703125 168.7341461181640625 170.7173614501953125 172.600921630859375 174.4063720703125 176.1271209716796875 177.778533935546875 179.3832244873046875 180.9576263427734375 182.506439208984375 184.0365753173828125 185.5766448974609375 187.1311492919921875 188.7125396728515625 190.3397674560546875 192.0117950439453125 193.74853515625 195.5378875732421875 197.5210723876953125 199.5574188232421875 201.70953369140625 203.949310302734375 206.2571563720703125 208.77447509765625 211.215576171875 213.65771484375 215.9589080810546875 218.1028594970703125 219.7580718994140625 220.998077392578125 221.48492431640625 220.837188720703125 218.7793731689453125 216.83154296875 216.772552490234375 218.202667236328125 219.753875732421875 221.050506591796875 222.0637664794921875 222.6642608642578125 222.847686767578125 222.521087646484375 221.66119384765625 220.4096527099609375 218.759796142578125 216.8436279296875 214.6093597412109375 212.6060943603515625 210.5576934814453125 208.6497039794921875 207.063385009765625 205.6634063720703125 204.633392333984375 203.9835662841796875 203.55072021484375 203.409393310546875 203.5450439453125 203.841827392578125 204.3582611083984375 205.0081787109375 205.744598388671875 206.5160064697265625 207.323150634765625 -99999 -99999 -99999 -99999 -99999 -99999 -99999 -99999 -99999 -99999 -99999 -99999 -99999 -99999 -99999 -99999 -99999 -99999 -99999 -99999 -99999 -99999 -99999 -99999 -99999 -99999 -99999 -99999 -99999 -99999 -99999 -99999 -99999 -99999 -99999 -99999 -99999 -99999 -99999
 -99999 -99999 -99999 -99999 -99999 -99999 -99999 -99999 -99999 -99999 -99999 -99999 -99999 -99999 -99999 -99999 -99999 -99999 -99999 -99999 -99999 -99999 -99999 -99999 -99999 -99999 -99999 -99999 -99999 -99999 -99999 -99999 -99999 -99999 -99999 -99999 -99999 -99999 -99999 -99999 -99999 -99999 -99999 -99999 -99999 -99999 -99999 -99999 -99999 -99999 -99999 -99999 -99999 -99999 -99999 -99999 -99999 -99999 22.83036041259765625 27.674089431762695312 32.404628753662109375 37.1345672607421875 41.818294525146484375 46.442569732666015625 51.009548187255859375 55.5238494873046875 59.99962615966796875 64.4436187744140625 68.82001495361328125 73.140869140625 77.43489837646484375 81.653289794921875 85.83928680419921875 89.96663665771484375 94.0459747314453125 98.07616424560546875 102.0566864013671875 105.986419677734375 109.843963623046875 113.65749359130859375 117.3816070556640625 121.051300048828125 124.6623992919921875 128.1681671142578125 131.632080078125 134.994140625 138.2679901123046875 141.458770751953125 144.566314697265625 147.5847320556640625 150.4789276123046875 153.2741851806640625 155.9869232177734375 158.58447265625 161.072479248046875 163.4555816650390625 165.7474822998046875 167.9297332763671875 170.0124969482421875 172.0084381103515625 173.909820556640625 175.7364501953125 177.4981689453125 179.205810546875 180.8615570068359375 182.474151611328125 184.063140869140625 185.64385986328125 187.2373809814453125 188.8121795654296875 190.449981689453125 192.1039886474609375 193.8508758544921875 195.620025634765625 197.4748382568359375 199.4173431396484375 201.430694580078125 203.608001708984375 205.7173919677734375 207.8975372314453125 210.117645263671875 212.322357177734375 214.50762939453125 216.5588226318359375 218.3348541259765625 219.861968994140625 220.7286224365234375 220.7054901123046875 220.0693206787109375 218.790283203125 217.7618255615234375 217.94000244140625 219.1993865966796875 220.8511199951171875 222.3567657470703125 223.5398101806640625 224.13189697265625 224.2293243408203125 223.795654296875 222.811767578125 221.3173065185546875 219.3375091552734375 217.06219482421875 214.700164794921875 212.20098876953125 209.7700958251953125 207.6184234619140625 205.8563232421875 204.4676666259765625 203.4510040283203125 202.8485107421875 202.57122802734375 202.58599853515625 202.9335479736328125 203.4869232177734375 204.18109130859375 204.9709014892578125 205.851531982421875 206.8242645263671875 207.8108367919921875 -99999 -99999 -99999 -99999 -99999 -99999 -99999 -99999 -99999 -99999 -99999 -99999 -99999 -99999 -99999 -99999 -99999 -99999 -99999 -99999 -99999 -99999 -99999 -99999 -99999 -99999 -99999 -99999 -99999 -99999 -99999 -99999 -99999 -99999 -99999 -99999 -99999 -99999 -99999
 -99999 -99999 -99999 -99999 -99999 -99999 -99999 -99999 -99999 -99999 -99999 -99999 -99999 -99999 -99999 -99999 -99999 -99999 -99999 -99999 -99999 -99999 -99999 -99999 -99999 -99999 -99999 -99999 -99999 -99999 -99999 -99999 -99999 -99999 -99999 -99999 -99999 -99999 -99999 -99999 -99999 -99999 -99999 -99999 -99999 -99999 -99999 -99999 -99999 -99999 -99999 -99999 -99999 -99999 -99999 -99999 -99999 21.160297393798828125 26.019260406494140625 30.825916290283203125 35.573516845703125 40.25397491455078125 44.8748016357421875 49.451221466064453125 53.975627899169921875 58.479610443115234375 62.872802734375 67.249603271484375 71.56737518310546875 75.82559967041015625 80.05623626708984375 84.225341796875 88.3414306640625 92.41297149658203125 96.43370819091796875 100.4060821533203125 104.3197784423828125 108.18527984619140625 111.97000885009765625 115.71234130859375 119.37799072265625 122.98233795166015625 126.5295867919921875 129.98828125 133.368408203125 136.6796417236328125 139.908966064453125 143.0575408935546875 146.0962371826171875 149.0697021484375 151.92083740234375 154.6888885498046875 157.362701416015625 159.9223175048828125 162.4012451171875 164.7701263427734375 167.0477752685546875 169.223419189453125 171.313232421875 173.3235015869140625 175.25140380859375 177.109649658203125 178.89605712890625 180.627410888671875 182.3132171630859375 183.981170654296875 185.5818023681640625 187.228302001953125 188.852996826171875 190.522705078125 192.18157958984375 193.8534698486328125 195.6013946533203125 197.405914306640625 199.2778778076171875 201.1829376220703125 203.0647735595703125 205.0825958251953125 207.15191650390625 209.184661865234375 211.2862396240234375 213.4001617431640625 215.328033447265625 217.166412353515625 218.64141845703125 219.696868896484375 220.4062652587890625 220.700286865234375 220.2543487548828125 219.7313690185546875 219.4531707763671875 219.8358612060546875 220.96453857421875 222.52398681640625 224.0635528564453125 225.1505279541015625 225.704254150390625 225.748565673828125 225.1652984619140625 223.888946533203125 222.05224609375 219.8192901611328125 216.9428863525390625 214.06744384765625 211.1965179443359375 208.51629638671875 206.1924285888671875 204.335693359375 202.9576568603515625 202.0092926025390625 201.494354248046875 201.465087890625 201.75323486328125 202.2819976806640625 203.026275634765625 203.9301605224609375 204.94830322265625 206.042144775390625 207.149322509765625 208.25732421875 209.3441162109375 -99999 -99999 -99999 -99999 -99999 -99999 -99999 -99999 -99999 -99999 -99999 -99999 -99999 -99999 -99999 -99999 -99999 -99999 -99999 -99999 -99999 -99999 -99999 -99999 -99999 -99999 -99999 -99999 -99999 -99999 -99999 -99999 -99999 -99999 -99999 -99999 -99999 -99999
 -99999 -99999 -99999 -99999 -99999 -99999 -99999 -99999 -99999 -99999 -99999 -99999 -99999 -99999 -99999 -99999 -99999 -99999 -99999 -99999 -99999 -99999 -99999 -99999 -99999 -99999 -99999 -99999 -99999 -99999 -99999 -99999 -99999 -99999 -99999 -99999 -99999 -99999 -99999 -99999 -99999 -99999 -99999 -99999 -99999 -99999 -99999 -99999 -99999 -99999 -99999 -99999 -99999 -99999 -99999 -99999 19.56256866455078125 24.461339950561523438 29.290205001831054688 34.04285430908203125 38.74060821533203125 43.383441925048828125 47.9822998046875 52.5205078125 56.9739837646484375 61.3977813720703125 65.744964599609375 70.058502197265625 74.32595062255859375 78.53343963623046875 82.69012451171875 86.799957275390625 90.86499786376953125 94.888214111328125 98.8603973388671875 102.74371337890625 106.5849151611328125 110.38159942626953125 114.1026458740234375 117.78106689453125 121.3993682861328125 124.9361419677734375 128.4076080322265625 131.8117218017578125 135.1457672119140625 138.39849853515625 141.5913848876953125 144.658843994140625 147.6624755859375 150.5695037841796875 153.389251708984375 156.1217803955078125 158.76934814453125 161.3087921142578125 163.757232666015625 166.1110382080078125 168.3827972412109375 170.5696258544921875 172.6640777587890625 174.67669677734375 176.6152801513671875 178.4955291748046875 180.2903289794921875 182.0536651611328125 183.7830963134765625 185.49267578125 187.1786041259765625 188.8425140380859375 190.493988037109375 192.1226806640625 193.7950286865234375 195.513671875 197.2269134521484375 198.9983062744140625 200.8065643310546875 202.6617431640625 204.572113037109375 206.465576171875 208.422698974609375 210.457489013671875 212.385345458984375 214.2205657958984375 215.9719085693359375 217.5191650390625 218.8564910888671875 219.9187164306640625 220.5626068115234375 220.900360107421875 221.0004119873046875 220.9892425537109375 221.16741943359375 221.78533935546875 222.9582672119140625 224.4828033447265625 225.927154541015625 226.9747772216796875 227.304168701171875 227.159515380859375 226.47552490234375 224.9843292236328125 222.708160400390625 219.8643341064453125 216.5773162841796875 213.1461944580078125 209.7994842529296875 206.8818511962890625 204.393524169921875 202.4237060546875 201.035430908203125 200.2630462646484375 199.9856109619140625 200.1501007080078125 200.662353515625 201.468536376953125 202.4752044677734375 203.6846923828125 204.9977569580078125 206.266754150390625 207.5554962158203125 208.823455810546875 210.079254150390625 -99999 -99999 -99999 -99999 -99999 -99999 -99999 -99999 -99999 -99999 -99999 -99999 -99999 -99999 -99999 -99999 -99999 -99999 -99999 -99999 -99999 -99999 -99999 -99999 -99999 -99999 -99999 -99999 -99999 -99999 -99999 -99999 -99999 -99999 -99999 -99999 -99999 -99999
 -99999 -99999 -99999 -99999 -99999 -99999 -99999 -99999 -99999 -99999 -99999 -99999 -99999 -99999 -99999 -99999 -99999 -99999 -99999 -99999 -99999 -99999 -99999 -99999 -99999 -99999 -99999 -99999 -99999 -99999 -99999 -99999 -99999 -99999 -99999 -99999 -99999 -99999 -99999 -99999 -99999 -99999 -99999 -99999 -99999 -99999 -99999 -99999 -99999 -99999 -99999 -99999 -99999 -99999 -99999 -99999 22.897327423095703125 27.753910064697265625 32.54105377197265625 37.262317657470703125 41.924823760986328125 46.5311431884765625 51.057277679443359375 55.516681671142578125 59.932437896728515625 64.29758453369140625 68.61785125732421875 72.86898040771484375 77.06241607666015625 81.21002197265625 85.315399169921875 89.38425445556640625 93.39508056640625 97.317657470703125 101.21132659912109375 105.04833221435546875 108.83404541015625 112.56824493408203125 116.24593353271484375 119.8498077392578125 123.3978118896484375 126.88146209716796875 130.3016815185546875 133.654998779296875 136.941070556640625 140.129150390625 143.2453460693359375 146.2778778076171875 149.2345733642578125 152.1120452880859375 154.9092254638671875 157.5996856689453125 160.1937255859375 162.7279510498046875 165.16973876953125 167.5162506103515625 169.76904296875 171.93841552734375 174.047821044921875 176.04473876953125 177.9939422607421875 179.896636962890625 181.7328643798828125 183.515533447265625 185.2490997314453125 186.9609832763671875 188.646270751953125 190.3203277587890625 191.988128662109375 193.66168212890625 195.3433990478515625 197.0411834716796875 198.763763427734375 200.51287841796875 202.2777557373046875 204.0687713623046875 205.922149658203125 207.816864013671875 209.6271209716796875 211.411590576171875 213.22235107421875 214.953369140625 216.5621795654296875 217.9561614990234375 219.184814453125 220.15869140625 220.8739013671875 221.3748016357421875 221.71307373046875 222.1037445068359375 222.6586456298828125 223.5670166015625 224.7573394775390625 226.2104339599609375 227.7376708984375 228.3212738037109375 228.5800628662109375 228.357269287109375 227.54705810546875 225.8598785400390625 223.140716552734375 219.6551513671875 215.7466583251953125 211.781585693359375 207.98822021484375 204.6391143798828125 201.9276885986328125 199.9203948974609375 198.735504150390625 198.2279052734375 198.299774169921875 198.81365966796875 199.6617279052734375 200.7909088134765625 202.17626953125 203.6358184814453125 205.1457061767578125 206.6595916748046875 208.153717041015625 209.5883636474609375 210.934295654296875 212.20269775390625 -99999 -99999 -99999 -99999 -99999 -99999 -99999 -99999 -99999 -99999 -99999 -99999 -99999 -99999 -99999 -99999 -99999 -99999 -99999 -99999 -99999 -99999 -99999 -99999 -99999 -99999 -99999 -99999 -99999 -99999 -99999 -99999 -99999 -99999 -99999 -99999 -99999
 -99999 -99999 -99999 -99999 -99999 -99999 -99999 -99999 -99999 -99999 -99999 -99999 -99999 -99999 -99999 -99999 -99999 -99999 -99999 -99999 -99999 -99999 -99999 -99999 -99999 -99999 -99999 -99999 -99999 -99999 -99999 -99999 -99999 -99999 -99999 -99999 -99999 -99999 -99999 -99999 -99999 -99999 -99999 -99999 -99999 -99999 -99999 -99999 -99999 -99999 -99999 -99999 -99999 -99999 -99999 21.434209823608398438 26.3323211669921875 31.143991470336914062 35.90094757080078125 40.589412689208984375 45.174480438232421875 49.701862335205078125 54.18975067138671875 58.617504119873046875 62.980045318603515625 67.2729949951171875 71.517120361328125 75.7108001708984375 79.8582916259765625 83.96509552001953125 87.99390411376953125 91.97226715087890625 95.90377044677734375 99.78508758544921875 103.621337890625 107.4075927734375 111.13140106201171875 114.7907562255859375 118.39717864990234375 121.95172882080078125 125.44881439208984375 128.8836517333984375 132.2305908203125 135.51641845703125 138.7342681884765625 141.8814239501953125 144.9506378173828125 147.947296142578125 150.8647918701171875 153.690643310546875 156.43597412109375 159.1014862060546875 161.68280029296875 164.1790771484375 166.5850067138671875 168.9324188232421875 171.159759521484375 173.3278656005859375 175.4238433837890625 177.4520416259765625 179.416473388671875 181.3065032958984375 183.14544677734375 184.941436767578125 186.7017974853515625 188.4251708984375 190.1280670166015625 191.813720703125 193.4864959716796875 195.1622772216796875 196.8361358642578125 198.4957275390625 200.1931304931640625 201.9232177734375 203.6678924560546875 205.416046142578125 207.1396484375 208.8583831787109375 210.63739013671875 212.3809967041015625 214.02386474609375 215.61077880859375 217.0615997314453125 218.3206939697265625 219.46600341796875 220.44342041015625 221.2122955322265625 221.850189208984375 222.433746337890625 223.110076904296875 223.861541748046875 224.8264617919921875 226.0483551025390625 227.344146728515625 228.4156036376953125 229.1568450927734375 229.4300689697265625 229.366546630859375 228.575164794921875 226.6160888671875 223.3592529296875 219.1794281005859375 214.412994384765625 209.6273345947265625 205.25164794921875 201.623870849609375 198.9528961181640625 197.1967010498046875 196.2553863525390625 196.0150146484375 196.3838653564453125 197.257720947265625 198.6033782958984375 200.163177490234375 201.8642425537109375 203.6423492431640625 205.428680419921875 207.1749725341796875 208.8819580078125 210.490966796875 211.9369964599609375 213.3215789794921875 214.561737060546875 -99999 -99999 -99999 -99999 -99999 -99999 -99999 -99999 -99999 -99999 -99999 -99999 -99999 -99999 -99999 -99999 -99999 -99999 -99999 -99999 -99999 -99999 -99999 -99999 -99999 -99999 -99999 -99999 -99999 -99999 -99999 -99999 -99999 -99999 -99999 -99999
 -99999 -99999 -99999 -99999 -99999 -99999 -99999 -99999 -99999 -99999 -99999 -99999 -99999 -99999 -99999 -99999 -99999 -99999 -99999 -99999 -99999 -99999 -99999 -99999 -99999 -99999 -99999 -99999 -99999 -99999 -99999 -99999 -99999 -99999 -99999 -99999 -99999 -99999 -99999 -99999 -99999 -99999 -99999 -99999 -99999 -99999 -99999 -99999 -99999 -99999 -99999 -99999 -99999 -99999 19.991390228271484375 24.919048309326171875 29.797451019287109375 34.571872711181640625 39.24367523193359375 43.86127471923828125 48.425083160400390625 52.922359466552734375 57.332828521728515625 61.683258056640625 65.9958648681640625 70.2505950927734375 74.42896270751953125 78.57685089111328125 82.64177703857421875 86.6627960205078125 90.632476806640625 94.5567779541015625 98.43316650390625 102.25366973876953125 106.02880859375 109.73651885986328125 113.40039825439453125 117.0132293701171875 120.5634765625 124.0741729736328125 127.47727203369140625 130.8552703857421875 134.154937744140625 137.391571044921875 140.5630035400390625 143.6621551513671875 146.688323974609375 149.6303863525390625 152.5022125244140625 155.2963104248046875 158.00958251953125 160.6431732177734375 163.2030487060546875 165.6690826416015625 168.0537261962890625 170.361907958984375 172.59814453125 174.7661590576171875 176.8570098876953125 178.869537353515625 180.8269805908203125 182.7297515869140625 184.5838775634765625 186.3869476318359375 188.1446075439453125 189.8753509521484375 191.5714569091796875 193.256622314453125 194.910125732421875 196.5784759521484375 198.2268524169921875 199.900543212890625 201.5785369873046875 203.2373504638671875 204.883880615234375 206.567352294921875 208.2848968505859375 209.9508819580078125 211.6038970947265625 213.1517791748046875 214.703277587890625 216.08892822265625 217.4582672119140625 218.7212371826171875 219.7899017333984375 220.7116851806640625 221.5413818359375 222.311767578125 223.0015869140625 223.7287445068359375 224.615966796875 225.6378173828125 226.777435302734375 227.9615020751953125 228.951873779296875 229.632568359375 230.00286865234375 230.1007080078125 229.5629730224609375 227.3886260986328125 223.1701812744140625 217.8610076904296875 212.14202880859375 206.56915283203125 201.8155517578125 198.097015380859375 195.4452056884765625 193.8222198486328125 193.1563568115234375 193.356170654296875 194.3753662109375 195.8444061279296875 197.6466827392578125 199.65484619140625 201.7486572265625 203.921539306640625 205.9635772705078125 207.95281982421875 209.7872772216796875 211.48248291015625 213.06494140625 214.50396728515625 215.800750732421875 -99999 -99999 -99999 -99999 -99999 -99999 -99999 -99999 -99999 -99999 -99999 -99999 -99999 -99999 -99999 -99999 -99999 -99999 -99999 -99999 -99999 -99999 -99999 -99999 -99999 -99999 -99999 -99999 -99999 -99999 -99999 -99999 -99999 -99999 -99999 -99999
 -99999 -99999 -99999 -99999 -99999 -99999 -99999 -99999 -99999 -99999 -99999 -99999 -99999 -99999 -99999 -99999 -99999 -99999 -99999 -99999 -99999 -99999 -99999 -99999 -99999 -99999 -99999 -99999 -99999 -99999 -99999 -99999 -99999 -99999 -99999 -99999 -99999 -99999 -99999 -99999 -99999 -99999 -99999 -99999 -99999 -99999 -99999 -99999 -99999 -99999 -99999 -99999 -99999 18.569889068603515625 23.595062255859375 28.462739944458007812 33.25978851318359375 37.98236846923828125 42.638668060302734375 47.211048126220703125 51.69168853759765625 56.119449615478515625 60.5020904541015625 64.8097686767578125 69.0415802001953125 73.23506927490234375 77.32579803466796875 81.4023284912109375 85.4155120849609375 89.3763885498046875 93.28961944580078125 97.1486663818359375 100.96327972412109375 104.7198333740234375 108.43946075439453125 112.087554931640625 115.69481658935546875 119.23696136474609375 122.71849822998046875 126.157012939453125 129.5309906005859375 132.8460845947265625 136.097259521484375 139.2789764404296875 142.404541015625 145.4503326416015625 148.4290618896484375 151.3385772705078125 154.1689910888671875 156.933990478515625 159.6074066162109375 162.2110748291015625 164.7274627685546875 167.1705322265625 169.5453338623046875 171.8451080322265625 174.0654144287109375 176.210723876953125 178.2906951904296875 180.309783935546875 182.2660980224609375 184.1613006591796875 186.0042724609375 187.794281005859375 189.55810546875 191.2858734130859375 192.9978179931640625 194.6539154052734375 196.31195068359375 197.9674224853515625 199.6018218994140625 201.2208099365234375 202.8315582275390625 204.4958038330078125 206.103515625 207.7139739990234375 209.2676239013671875 210.8566436767578125 212.3922882080078125 213.808990478515625 215.280364990234375 216.65863037109375 217.8613433837890625 218.982574462890625 220.02899169921875 220.99530029296875 221.8029327392578125 222.535491943359375 223.30267333984375 224.134857177734375 224.996337890625 225.957000732421875 226.9924774169921875 227.9823150634765625 228.9260406494140625 229.67010498046875 230.2188568115234375 230.6250152587890625 230.346771240234375 227.6765899658203125 222.3553466796875 215.711944580078125 208.8159027099609375 202.6173858642578125 197.4409027099609375 193.552642822265625 191.0415191650390625 189.8350067138671875 189.942657470703125 190.908294677734375 192.525146484375 194.513519287109375 196.9170989990234375 199.41064453125 201.961456298828125 204.3950653076171875 206.7021484375 208.894195556640625 210.9123077392578125 212.76165771484375 214.4200897216796875 215.8973541259765625 217.22039794921875 218.400848388671875 -99999 -99999 -99999 -99999 -99999 -99999 -99999 -99999 -99999 -99999 -99999 -99999 -99999 -99999 -99999 -99999 -99999 -99999 -99999 -99999 -99999 -99999 -99999 -99999 -99999 -99999 -99999 -99999 -99999 -99999 -99999 -99999 -99999 -99999 -99999
 -99999 -99999 -99999 -99999 -99999 -99999 -99999 -99999 -99999 -99999 -99999 -99999 -99999 -99999 -99999 -99999 -99999 -99999 -99999 -99999 -99999 -99999 -99999 -99999 -99999 -99999 -99999 -99999 -99999 -99999 -99999 -99999 -99999 -99999 -99999 -99999 -99999 -99999 -99999 -99999 -99999 -99999 -99999 -99999 -99999 -99999 -99999 -99999 -99999 -99999 -99999 -99999 -99999 22.24048614501953125 27.19301605224609375 32.040645599365234375 36.800426483154296875 41.472019195556640625 46.0545501708984375 50.575199127197265625 55.0368194580078125 59.3934326171875 63.70172882080078125 67.9425201416015625 72.0909271240234375 76.21189117431640625 80.26580810546875 84.26462554931640625 88.2181549072265625 92.11789703369140625 95.96381378173828125 99.7703704833984375 103.52156829833984375 107.20392608642578125 110.87001800537109375 114.45105743408203125 117.978729248046875 121.46722412109375 124.9054412841796875 128.2868194580078125 131.5993804931640625 134.8545989990234375 138.055572509765625 141.19366455078125 144.2749481201171875 147.269500732421875 150.20526123046875 153.0845184326171875 155.8573455810546875 158.58282470703125 161.219482421875 163.791839599609375 166.291473388671875 168.7152252197265625 171.0641021728515625 173.3333282470703125 175.5362091064453125 177.676605224609375 179.7476806640625 181.75213623046875 183.6867523193359375 185.5790863037109375 187.4307098388671875 189.2342071533203125 190.97784423828125 192.6957550048828125 194.3992767333984375 196.049560546875 197.6934051513671875 199.3269500732421875 200.938446044921875 202.51361083984375 204.0749969482421875 205.6213836669921875 207.1777801513671875 208.704315185546875 210.1807861328125 211.62884521484375 213.1339263916015625 214.52056884765625 215.8050994873046875 217.0269317626953125 218.209228515625 219.305145263671875 220.2321014404296875 221.0677337646484375 221.8782958984375 222.661651611328125 223.389892578125 224.158935546875 224.959197998046875 225.755218505859375 226.6204071044921875 227.439849853515625 228.1787261962890625 228.8335723876953125 229.3845062255859375 229.75079345703125 229.6203765869140625 226.6771392822265625 219.926513671875 211.7702178955078125 203.976043701171875 197.1841888427734375 191.900238037109375 188.1565093994140625 186.3448944091796875 185.9144439697265625 186.62451171875 188.2869110107421875 190.744873046875 193.54443359375 196.5193939208984375 199.523284912109375 202.438568115234375 205.2500762939453125 207.852447509765625 210.239471435546875 212.3798065185546875 214.286834716796875 215.9823760986328125 217.48187255859375 218.8009796142578125 219.960357666015625 -99999 -99999 -99999 -99999 -99999 -99999 -99999 -99999 -99999 -99999 -99999 -99999 -99999 -99999 -99999 -99999 -99999 -99999 -99999 -99999 -99999 -99999 -99999 -99999 -99999 -99999 -99999 -99999 -99999 -99999 -99999 -99999 -99999 -99999 -99999
 -99999 -99999 -99999 -99999 -99999 -99999 -99999 -99999 -99999 -99999 -99999 -99999 -99999 -99999 -99999 -99999 -99999 -99999 -99999 -99999 -99999 -99999 -99999 -99999 -99999 -99999 -99999 -99999 -99999 -99999 -99999 -99999 -99999 -99999 -99999 -99999 -99999 -99999 -99999 -99999 -99999 -99999 -99999 -99999 -99999 -99999 -99999 -99999 -99999 -99999 -99999 -99999 20.988710403442382812 25.977960586547851562 30.873388290405273438 35.6723175048828125 40.384197235107421875 45.009296417236328125 49.56711578369140625 53.992877960205078125 58.390300750732421875 62.683811187744140625 66.8995208740234375 71.06826019287109375 75.17005157470703125 79.2121429443359375 83.204254150390625 87.14670562744140625 91.0197906494140625 94.8699493408203125 98.6464385986328125 102.37314605712890625 106.05910491943359375 109.674224853515625 113.25868988037109375 116.797576904296875 120.28104400634765625 123.712982177734375 127.080718994140625 130.40771484375 133.6792755126953125 136.89996337890625 140.043182373046875 143.11956787109375 146.1550750732421875 149.101470947265625 151.9910430908203125 154.81170654296875 157.5643768310546875 160.2489013671875 162.8618011474609375 165.4069061279296875 167.875213623046875 170.2662811279296875 172.5931549072265625 174.8451690673828125 177.0402984619140625 179.1640472412109375 181.2196502685546875 183.222930908203125 185.156341552734375 187.0358428955078125 188.8765411376953125 190.6605682373046875 192.3916778564453125 194.0929412841796875 195.74493408203125 197.3891143798828125 199.004058837890625 200.58685302734375 202.1481475830078125 203.68878173828125 205.224517822265625 206.7301025390625 208.167205810546875 209.6844482421875 211.098297119140625 212.46728515625 213.7668609619140625 215.068267822265625 216.312896728515625 217.461639404296875 218.4758758544921875 219.4116363525390625 220.32421875 221.1596221923828125 221.9146270751953125 222.578216552734375 223.247528076171875 223.844818115234375 224.47625732421875 225.1065216064453125 225.690277099609375 226.2352294921875 226.6150665283203125 226.8173370361328125 226.8538818359375 226.6254425048828125 225.6581268310546875 222.269622802734375 214.913665771484375 206.0806732177734375 197.8442230224609375 190.6362762451171875 185.5312042236328125 182.3837890625 181.0229339599609375 181.5245361328125 183.3198394775390625 186.0833740234375 189.446807861328125 192.9760284423828125 196.58184814453125 200.1506805419921875 203.5200347900390625 206.6000518798828125 209.3824920654296875 211.8958892822265625 214.116363525390625 216.07501220703125 217.7725677490234375 219.25250244140625 220.5414276123046875 221.6422882080078125 222.6042327880859375 -99999 -99999 -99999 -99999 -99999 -99999 -99999 -99999 -99999 -99999 -99999 -99999 -99999 -99999 -99999 -99999 -99999 -99999 -99999 -99999 -99999 -99999 -99999 -99999 -99999 -99999 -99999 -99999 -99999 -99999 -99999 -99999 -99999 -99999
 -99999 -99999 -99999 -99999 -99999 -99999 -99999 -99999 -99999 -99999 -99999 -99999 -99999 -99999 -99999 -99999 -99999 -99999 -99999 -99999 -99999 -99999 -99999 -99999 -99999 -99999 -99999 -99999 -99999 -99999 -99999 -99999 -99999 -99999 -99999 -99999 -99999 -99999 -99999 -99999 -99999 -99999 -99999 -99999 -99999 -99999 -99999 -99999 -99999 -99999 -99999 19.735239028930664062 24.808444976806640625 29.780010223388671875 34.6322479248046875 39.384769439697265625 44.0369415283203125 48.592075347900390625 53.10442352294921875 57.4438018798828125 61.749774932861328125 65.97920989990234375 70.115966796875 74.21033477783203125 78.24248504638671875 82.22394561767578125 86.15357208251953125 90.0372772216796875 93.8328857421875 97.59947967529296875 101.30747222900390625 104.92584228515625 108.5673980712890625 112.16172027587890625 115.6724090576171875 119.12400054931640625 122.5417633056640625 125.93653106689453125 129.2805023193359375 132.5548553466796875 135.7401885986328125 138.8991546630859375 142.004241943359375 145.051177978515625 148.02532958984375 150.9338531494140625 153.788787841796875 156.5799560546875 159.3043212890625 161.94873046875 164.5265350341796875 167.0360107421875 169.4833831787109375 171.8626861572265625 174.1588287353515625 176.3930511474609375 178.566162109375 180.663970947265625 182.6994171142578125 184.6766815185546875 186.596038818359375 188.4658660888671875 190.28497314453125 192.050323486328125 193.770599365234375 195.454071044921875 197.1021575927734375 198.7140655517578125 200.2897491455078125 201.8426971435546875 203.363433837890625 204.8484344482421875 206.305023193359375 207.7863311767578125 209.1894683837890625 210.5484619140625 211.8852996826171875 213.195220947265625 214.4542999267578125 215.613677978515625 216.692962646484375 217.722900390625 218.7215118408203125 219.633056640625 220.401336669921875 221.0535430908203125 221.73052978515625 222.2622222900390625 222.7800750732421875 223.259033203125 223.678955078125 224.04583740234375 224.25848388671875 224.356536865234375 224.2197113037109375 223.8072662353515625 223.051727294921875 221.55694580078125 219.061370849609375 214.26483154296875 207.1512298583984375 198.6268463134765625 190.1920928955078125 182.9281005859375 178.1736297607421875 175.928802490234375 175.8985748291015625 177.463714599609375 180.484527587890625 184.4611663818359375 188.658294677734375 193.06573486328125 197.4556732177734375 201.4315032958984375 205.107757568359375 208.42718505859375 211.3722686767578125 213.9532623291015625 216.1837921142578125 218.125457763671875 219.78271484375 221.195465087890625 222.4081878662109375 223.438812255859375 224.3269805908203125 -99999 -99999 -99999 -99999 -99999 -99999 -99999 -99999 -99999 -99999 -99999 -99999 -99999 -99999 -99999 -99999 -99999 -99999 -99999 -99999 -99999 -99999 -99999 -99999 -99999 -99999 -99999 -99999 -99999 -99999 -99999 -99999 -99999 -99999
 -99999 -99999 -99999 -99999 -99999 -99999 -99999 -99999 -99999 -99999 -99999 -99999 -99999 -99999 -99999 -99999 -99999 -99999 -99999 -99999 -99999 -99999 -99999 -99999 -99999 -99999 -99999 -99999 -99999 -99999 -99999 -99999 -99999 -99999 -99999 -99999 -99999 -99999 -99999 -99999 -99999 -99999 -99999 -99999 -99999 -99999 -99999 -99999 -99999 -99999 18.49468994140625 23.670505523681640625 28.70116424560546875 33.605052947998046875 38.407962799072265625 43.106159210205078125 47.751369476318359375 52.178546905517578125 56.53827667236328125 60.86867523193359375 65.11692047119140625 69.29303741455078125 73.3571929931640625 77.376495361328125 81.36663818359375 85.28415679931640625 89.121551513671875 92.89437103271484375 96.63306427001953125 100.3272247314453125 103.99866485595703125 107.5956573486328125 111.14093017578125 114.64292144775390625 118.10601043701171875 121.52411651611328125 124.91558837890625 128.2241363525390625 131.4743804931640625 134.694580078125 137.8451995849609375 140.9508819580078125 144.0094451904296875 147.009857177734375 149.940155029296875 152.8097686767578125 155.62054443359375 158.3758697509765625 161.0523681640625 163.6717529296875 166.228179931640625 168.7037200927734375 171.114715576171875 173.4612274169921875 175.7390594482421875 177.9529876708984375 180.095245361328125 182.1720733642578125 184.195098876953125 186.161956787109375 188.06658935546875 189.9104156494140625 191.7046966552734375 193.4538421630859375 195.1655731201171875 196.820526123046875 198.4380950927734375 200.0091705322265625 201.5406036376953125 203.061187744140625 204.563385009765625 205.9969024658203125 207.398712158203125 208.773162841796875 210.127899169921875 211.435577392578125 212.6764373779296875 213.86285400390625 214.99755859375 216.1007843017578125 217.10986328125 218.0775909423828125 218.9049224853515625 219.6142120361328125 220.3221588134765625 220.8859100341796875 221.40753173828125 221.8412933349609375 222.1958160400390625 222.4465789794921875 222.5656280517578125 222.6002655029296875 222.4196319580078125 222.029296875 221.3087310791015625 220.1227874755859375 218.416473388671875 215.694580078125 211.887603759765625 206.1628570556640625 198.8089599609375 190.3995208740234375 181.86322021484375 175.0092926025390625 170.9425506591796875 169.569793701171875 170.8996734619140625 174.311065673828125 178.71514892578125 183.7233123779296875 188.95184326171875 194.2490386962890625 199.0065155029296875 203.4585113525390625 207.4012603759765625 210.819793701171875 213.8082122802734375 216.3919525146484375 218.5861968994140625 220.429840087890625 221.9944000244140625 223.307708740234375 224.414581298828125 225.3308868408203125 226.1041412353515625 226.7689056396484375 -99999 -99999 -99999 -99999 -99999 -99999 -99999 -99999 -99999 -99999 -99999 -99999 -99999 -99999 -99999 -99999 -99999 -99999 -99999 -99999 -99999 -99999 -99999 -99999 -99999 -99999 -99999 -99999 -99999 -99999 -99999 -99999 -99999
 -99999 -99999 -99999 -99999 -99999 -99999 -99999 -99999 -99999 -99999 -99999 -99999 -99999 -99999 -99999 -99999 -99999 -99999 -99999 -99999 -99999 -99999 -99999 -99999 -99999 -99999 -99999 -99999 -99999 -99999 -99999 -99999 -99999 -99999 -99999 -99999 -99999 -99999 -99999 -99999 -99999 -99999 -99999 -99999 -99999 -99999 -99999 -99999 -99999 -99999 22.6142730712890625 27.71511077880859375 32.7076568603515625 37.599925994873046875 42.36785125732421875 46.9361724853515625 51.458309173583984375 55.87883758544921875 60.203243255615234375 64.42476654052734375 68.575042724609375 72.658172607421875 76.690216064453125 80.64382171630859375 84.5057373046875 88.3218994140625 92.08709716796875 95.81491851806640625 99.49881744384765625 103.1141510009765625 106.68148040771484375 110.20998382568359375 113.7027130126953125 117.16597747802734375 120.57470703125 123.9178924560546875 127.213958740234375 130.46588134765625 133.67071533203125 136.839141845703125 139.96331787109375 143.0223846435546875 146.0187835693359375 148.9654083251953125 151.8574676513671875 154.6967010498046875 157.474151611328125 160.19622802734375 162.82989501953125 165.4097442626953125 167.9226837158203125 170.375732421875 172.7720947265625 175.094390869140625 177.3379058837890625 179.526336669921875 181.6519775390625 183.7166900634765625 185.71392822265625 187.646881103515625 189.5252685546875 191.357452392578125 193.136810302734375 194.86187744140625 196.5292205810546875 198.1537628173828125 199.7476043701171875 201.311187744140625 202.8118896484375 204.2720947265625 205.6932830810546875 207.08905029296875 208.4563446044921875 209.766143798828125 211.019683837890625 212.2292938232421875 213.41046142578125 214.5406646728515625 215.609283447265625 216.55535888671875 217.44927978515625 218.255859375 219.0003662109375 219.6548919677734375 220.22235107421875 220.68408203125 221.04632568359375 221.290008544921875 221.427734375 221.4476470947265625 221.2953948974609375 220.96197509765625 220.349822998046875 219.4585113525390625 218.2034454345703125 216.1917572021484375 213.638641357421875 209.8931884765625 205.123748779296875 198.84747314453125 191.4441070556640625 182.8413848876953125 173.888519287109375 165.6531829833984375 163.787628173828125 164.322662353515625 167.171173095703125 171.8773651123046875 177.8255767822265625 184.39453125 190.5724945068359375 196.3552398681640625 201.60968017578125 206.3307342529296875 210.321990966796875 213.8065185546875 216.7524871826171875 219.19873046875 221.2685699462890625 222.9832305908203125 224.4084930419921875 225.5557861328125 226.509246826171875 227.299041748046875 227.9792327880859375 228.5308074951171875 -99999 -99999 -99999 -99999 -99999 -99999 -99999 -99999 -99999 -99999 -99999 -99999 -99999 -99999 -99999 -99999 -99999 -99999 -99999 -99999 -99999 -99999 -99999 -99999 -99999 -99999 -99999 -99999 -99999 -99999 -99999 -99999 -99999
 -99999 -99999 -99999 -99999 -99999 -99999 -99999 -99999 -99999 -99999 -99999 -99999 -99999 -99999 -99999 -99999 -99999 -99999 -99999 -99999 -99999 -99999 -99999 -99999 -99999 -99999 -99999 -99999 -99999 -99999 -99999 -99999 -99999 -99999 -99999 -99999 -99999 -99999 -99999 -99999 -99999 -99999 -99999 -99999 -99999 -99999 -99999 -99999 -99999 21.577106475830078125 26.798797607421875 31.885725021362304688 36.845767974853515625 41.59612274169921875 46.275684356689453125 50.82016754150390625 55.2635498046875 59.593257904052734375 63.8319549560546875 67.98145294189453125 72.0677490234375 76.06864166259765625 79.97405242919921875 83.82428741455078125 87.629241943359375 91.38263702392578125 95.0880889892578125 98.72200775146484375 102.310760498046875 105.85814666748046875 109.36925506591796875 112.848907470703125 116.29381561279296875 119.6477203369140625 122.9835968017578125 126.2720794677734375 129.5173797607421875 132.7296905517578125 135.89501953125 139.0036468505859375 142.059112548828125 145.071258544921875 148.0359039306640625 150.947845458984375 153.8199005126953125 156.60552978515625 159.332275390625 162.0019683837890625 164.615509033203125 167.1711883544921875 169.6673431396484375 172.0837860107421875 174.434356689453125 176.7197113037109375 178.948577880859375 181.1245574951171875 183.2173919677734375 185.2503662109375 187.2268524169921875 189.1490020751953125 191.01165771484375 192.8150177001953125 194.5555877685546875 196.2575836181640625 197.91009521484375 199.5165557861328125 201.0635528564453125 202.5664825439453125 204.0290069580078125 205.4649200439453125 206.8498687744140625 208.163665771484375 209.464447021484375 210.7284698486328125 211.9178466796875 213.0523834228515625 214.1328582763671875 215.147003173828125 216.0967864990234375 216.9737396240234375 217.784332275390625 218.509918212890625 219.141143798828125 219.656494140625 220.0811004638671875 220.4167938232421875 220.6063232421875 220.6853179931640625 220.607452392578125 220.372802734375 219.9354095458984375 219.272796630859375 218.301666259765625 216.8465118408203125 215.0145416259765625 212.4631195068359375 209.1832275390625 204.924468994140625 199.63055419921875 193.2214202880859375 185.718780517578125 177.364959716796875 168.627716064453125 162.547332763671875 159.764984130859375 160.3046722412109375 164.2756500244140625 171.3636627197265625 179.012359619140625 186.5570220947265625 193.61370849609375 199.937744140625 205.308868408203125 209.94976806640625 214.01055908203125 217.3061676025390625 220.0831298828125 222.3694915771484375 224.2530670166015625 225.75762939453125 227.0048370361328125 227.9310302734375 228.753265380859375 229.351470947265625 229.8133697509765625 230.202911376953125 230.540130615234375 -99999 -99999 -99999 -99999 -99999 -99999 -99999 -99999 -99999 -99999 -99999 -99999 -99999 -99999 -99999 -99999 -99999 -99999 -99999 -99999 -99999 -99999 -99999 -99999 -99999 -99999 -99999 -99999 -99999 -99999 -99999 -99999
 -99999 -99999 -99999 -99999 -99999 -99999 -99999 -99999 -99999 -99999 -99999 -99999 -99999 -99999 -99999 -99999 -99999 -99999 -99999 -99999 -99999 -99999 -99999 -99999 -99999 -99999 -99999 -99999 -99999 -99999 -99999 -99999 -99999 -99999 -99999 -99999 -99999 -99999 -99999 -99999 -99999 -99999 -99999 -99999 -99999 -99999 -99999 -99999 20.600622177124023438 25.949008941650390625 31.16693878173828125 36.151004791259765625 40.98415374755859375 45.703617095947265625 50.306461334228515625 54.77347564697265625 59.12103271484375 63.354045867919921875 67.53362274169921875 71.61443328857421875 75.5526123046875 79.4431304931640625 83.2838897705078125 87.07733154296875 90.7957916259765625 94.45236968994140625 98.05975341796875 101.62963104248046875 105.1600799560546875 108.6650238037109375 112.09532928466796875 115.46999359130859375 118.81800079345703125 122.1313323974609375 125.4190826416015625 128.6650848388671875 131.8560028076171875 134.9994354248046875 138.1048583984375 141.17352294921875 144.19921875 147.1699066162109375 150.10205078125 152.9569091796875 155.753997802734375 158.5036773681640625 161.2044677734375 163.8495941162109375 166.4385986328125 168.951690673828125 171.40069580078125 173.7907562255859375 176.1282958984375 178.3988037109375 180.5936737060546875 182.7299041748046875 184.80682373046875 186.8240966796875 188.7866668701171875 190.667999267578125 192.497222900390625 194.277252197265625 196.005767822265625 197.6751708984375 199.2871856689453125 200.854736328125 202.380859375 203.8555145263671875 205.2729339599609375 206.6377410888671875 207.970703125 209.241485595703125 210.468780517578125 211.640594482421875 212.7604522705078125 213.831207275390625 214.8373870849609375 215.76715087890625 216.6436920166015625 217.4387359619140625 218.1237945556640625 218.7244110107421875 219.2543182373046875 219.677764892578125 219.9624786376953125 220.1304473876953125 220.1666717529296875 220.08056640625 219.821319580078125 219.361663818359375 218.6107330322265625 217.63629150390625 216.302947998046875 214.5157318115234375 212.2217864990234375 209.3377685546875 205.7407379150390625 201.157958984375 195.7063140869140625 189.4389190673828125 182.26568603515625 174.9515533447265625 167.7703399658203125 161.8696746826171875 158.3379058837890625 159.0961456298828125 164.9419097900390625 173.717987060546875 182.7667694091796875 191.1806488037109375 198.4332733154296875 204.7327728271484375 210.1312103271484375 214.69671630859375 218.2566375732421875 221.427703857421875 223.9780426025390625 225.8896026611328125 227.45404052734375 228.672088623046875 229.6045684814453125 230.3619537353515625 230.89404296875 231.2888946533203125 231.614105224609375 231.8796234130859375 232.06414794921875 232.2137298583984375 -99999 -99999 -99999 -99999 -99999 -99999 -99999 -99999 -99999 -99999 -99999 -99999 -99999 -99999 -99999 -99999 -99999 -99999 -99999 -99999 -99999 -99999 -99999 -99999 -99999 -99999 -99999 -99999 -99999 -99999 -99999
 -99999 -99999 -99999 -99999 -99999 -99999 -99999 -99999 -99999 -99999 -99999 -99999 -99999 -99999 -99999 -99999 -99999 -99999 -99999 -99999 -99999 -99999 -99999 -99999 -99999 -99999 -99999 -99999 -99999 -99999 -99999 -99999 -99999 -99999 -99999 -99999 -99999 -99999 -99999 -99999 -99999 -99999 -99999 -99999 -99999 -99999 -99999 19.635158538818359375 25.141984939575195312 30.453296661376953125 35.513553619384765625 40.458568572998046875 45.273799896240234375 49.90711212158203125 54.387851715087890625 58.746639251708984375 63.016696929931640625 67.20257568359375 71.22812652587890625 75.17929840087890625 79.07001495361328125 82.9048309326171875 86.65631103515625 90.32248687744140625 93.944366455078125 97.53292083740234375 101.0652008056640625 104.5877685546875 108.02034759521484375 111.39922332763671875 114.75732421875 118.096435546875 121.4004974365234375 124.65582275390625 127.86161041259765625 131.0291900634765625 134.179962158203125 137.3027496337890625 140.3475341796875 143.37060546875 146.3271942138671875 149.2440948486328125 152.1186981201171875 154.9400787353515625 157.71710205078125 160.4435882568359375 163.1131744384765625 165.710418701171875 168.252166748046875 170.7422637939453125 173.176513671875 175.5396575927734375 177.84039306640625 180.0796966552734375 182.2577362060546875 184.38226318359375 186.41839599609375 188.4017486572265625 190.333709716796875 192.2015228271484375 194.0137786865234375 195.7612457275390625 197.4377288818359375 199.088623046875 200.663238525390625 202.18994140625 203.6750640869140625 205.1100921630859375 206.4923095703125 207.81219482421875 209.074310302734375 210.2943572998046875 211.468994140625 212.5991973876953125 213.6229095458984375 214.630523681640625 215.563690185546875 216.4050140380859375 217.165863037109375 217.8593292236328125 218.4949493408203125 218.9963531494140625 219.381866455078125 219.667724609375 219.84637451171875 219.9077911376953125 219.816070556640625 219.5193328857421875 219.0189056396484375 218.3931884765625 217.4455108642578125 216.1995086669921875 214.6304779052734375 212.6096649169921875 210.0660552978515625 206.9014129638671875 203.1191558837890625 198.6558837890625 193.4573822021484375 187.5893096923828125 181.4617919921875 174.9646759033203125 169.003753662109375 164.5843353271484375 162.0338592529296875 162.5870208740234375 169.3872528076171875 179.965850830078125 189.4003143310546875 197.710906982421875 204.908447265625 210.999542236328125 215.9425811767578125 219.9939727783203125 223.2119140625 225.83111572265625 227.880859375 229.4621124267578125 230.7301788330078125 231.6729278564453125 232.2173919677734375 232.6493377685546875 233.052886962890625 233.273681640625 233.40264892578125 233.4938201904296875 233.6117401123046875 233.6720733642578125 -99999 -99999 -99999 -99999 -99999 -99999 -99999 -99999 -99999 -99999 -99999 -99999 -99999 -99999 -99999 -99999 -99999 -99999 -99999 -99999 -99999 -99999 -99999 -99999 -99999 -99999 -99999 -99999 -99999 -99999 -99999
 -99999 -99999 -99999 -99999 -99999 -99999 -99999 -99999 -99999 -99999 -99999 -99999 -99999 -99999 -99999 -99999 -99999 -99999 -99999 -99999 -99999 -99999 -99999 -99999 -99999 -99999 -99999 -99999 -99999 -99999 -99999 -99999 -99999 -99999 -99999 -99999 -99999 -99999 -99999 -99999 -99999 -99999 -99999 -99999 -99999 -99999 18.680833816528320312 24.412700653076171875 29.743198394775390625 34.981815338134765625 40.046947479248046875 44.917354583740234375 49.606304168701171875 54.138561248779296875 58.582000732421875 62.920581817626953125 67.001312255859375 71.03112030029296875 74.966888427734375 78.8505706787109375 82.64853668212890625 86.34296417236328125 89.98142242431640625 93.5902862548828125 97.13678741455078125 100.67147064208984375 104.08331298828125 107.46076202392578125 110.82923126220703125 114.17838287353515625 117.47232818603515625 120.71770477294921875 123.936981201171875 127.12574005126953125 130.2949676513671875 133.4053802490234375 136.4820709228515625 139.555206298828125 142.5550689697265625 145.51959228515625 148.4246978759765625 151.3082122802734375 154.1638336181640625 156.96875 159.6916351318359375 162.359222412109375 164.9908905029296875 167.5848236083984375 170.1148681640625 172.5650482177734375 174.96343994140625 177.30450439453125 179.5731201171875 181.77593994140625 183.922943115234375 186.012481689453125 188.0416107177734375 190.006500244140625 191.9066925048828125 193.747833251953125 195.5288238525390625 197.2481689453125 198.90496826171875 200.5092926025390625 202.0575408935546875 203.5565185546875 204.9994659423828125 206.370819091796875 207.69964599609375 208.992889404296875 210.2196197509765625 211.36663818359375 212.4730072021484375 213.5362091064453125 214.5138702392578125 215.420989990234375 216.262054443359375 217.04522705078125 217.7533721923828125 218.343353271484375 218.829803466796875 219.2380828857421875 219.56658935546875 219.7928009033203125 219.8368682861328125 219.7091064453125 219.494781494140625 219.0792694091796875 218.435028076171875 217.608856201171875 216.5428009033203125 215.10906982421875 213.3031768798828125 211.1099853515625 208.489959716796875 205.384521484375 201.67437744140625 197.421722412109375 192.693359375 187.423095703125 182.0721435546875 177.1475372314453125 173.0833740234375 170.2161407470703125 169.1541748046875 171.8275909423828125 179.6218414306640625 189.38623046875 198.3509368896484375 206.047149658203125 212.6663055419921875 217.9837646484375 222.1725921630859375 225.596343994140625 228.3062286376953125 230.3538818359375 231.999176025390625 233.135009765625 233.9275054931640625 234.5658416748046875 234.9165496826171875 235.091644287109375 235.1487579345703125 235.1645355224609375 235.13525390625 235.0679168701171875 235.0093994140625 234.954559326171875 234.9364166259765625 -99999 -99999 -99999 -99999 -99999 -99999 -99999 -99999 -99999 -99999 -99999 -99999 -99999 -99999 -99999 -99999 -99999 -99999 -99999 -99999 -99999 -99999 -99999 -99999 -99999 -99999 -99999 -99999 -99999 -99999
 -99999 -99999 -99999 -99999 -99999 -99999 -99999 -99999 -99999 -99999 -99999 -99999 -99999 -99999 -99999 -99999 -99999 -99999 -99999 -99999 -99999 -99999 -99999 -99999 -99999 -99999 -99999 -99999 -99999 -99999 -99999 -99999 -99999 -99999 -99999 -99999 -99999 -99999 -99999 -99999 -99999 -99999 -99999 -99999 -99999 -99999 23.54962921142578125 29.160245895385742188 34.56046295166015625 39.733524322509765625 44.694881439208984375 49.454486846923828125 54.091121673583984375 58.56134033203125 62.805744171142578125 66.95699310302734375 70.98513031005859375 74.94242095947265625 78.7869720458984375 82.517181396484375 86.17894744873046875 89.81508636474609375 93.38016510009765625 96.92632293701171875 100.2855072021484375 103.66918182373046875 107.04935455322265625 110.3614501953125 113.62174224853515625 116.87061309814453125 120.1232757568359375 123.32901763916015625 126.4964752197265625 129.6276397705078125 132.7438507080078125 135.801361083984375 138.8178863525390625 141.8193359375 144.779876708984375 147.7130889892578125 150.6053466796875 153.44580078125 156.24078369140625 158.9866790771484375 161.6898956298828125 164.35369873046875 166.946624755859375 169.5050048828125 171.99969482421875 174.4096832275390625 176.7702789306640625 179.0749664306640625 181.3204498291015625 183.5105743408203125 185.64031982421875 187.6951141357421875 189.690582275390625 191.62445068359375 193.493865966796875 195.310577392578125 197.0545806884765625 198.7414398193359375 200.37884521484375 201.954864501953125 203.462158203125 204.9104156494140625 206.32464599609375 207.6611328125 208.9373321533203125 210.15972900390625 211.33245849609375 212.4499359130859375 213.492950439453125 214.4697418212890625 215.386444091796875 216.2498016357421875 217.031097412109375 217.7012939453125 218.2996978759765625 218.8284149169921875 219.2665863037109375 219.611602783203125 219.77105712890625 219.85546875 219.835235595703125 219.6246795654296875 219.273529052734375 218.764892578125 218.0628814697265625 217.0584259033203125 215.789459228515625 214.2961578369140625 212.48529052734375 210.2807769775390625 207.5880889892578125 204.5200653076171875 201.0283355712890625 197.1900177001953125 192.98443603515625 188.7787322998046875 184.745147705078125 181.127593994140625 178.1660614013671875 177.1425323486328125 178.51025390625 182.5086212158203125 190.1667022705078125 199.33282470703125 207.58673095703125 214.8199615478515625 220.784423828125 225.3455047607421875 228.824462890625 231.3114776611328125 233.295928955078125 234.8587799072265625 236.0225067138671875 236.82342529296875 237.203277587890625 237.3705291748046875 237.382843017578125 237.2942962646484375 237.1209716796875 236.894683837890625 236.66845703125 236.468414306640625 236.2934722900390625 236.1492767333984375 236.0388336181640625 -99999 -99999 -99999 -99999 -99999 -99999 -99999 -99999 -99999 -99999 -99999 -99999 -99999 -99999 -99999 -99999 -99999 -99999 -99999 -99999 -99999 -99999 -99999 -99999 -99999 -99999 -99999 -99999 -99999 -99999
 -99999 -99999 -99999 -99999 -99999 -99999 -99999 -99999 -99999 -99999 -99999 -99999 -99999 -99999 -99999 -99999 -99999 -99999 -99999 -99999 -99999 -99999 -99999 -99999 -99999 -99999 -99999 -99999 -99999 -99999 -99999 -99999 -99999 -99999 -99999 -99999 -99999 -99999 -99999 -99999 -99999 -99999 -99999 -99999 -99999 22.79229736328125 28.57907867431640625 34.158649444580078125 39.49115753173828125 44.574283599853515625 49.45166778564453125 54.159015655517578125 58.614959716796875 62.941272735595703125 67.08770751953125 71.1454010009765625 75.06511688232421875 78.8543243408203125 82.56475067138671875 86.2163543701171875 89.80904388427734375 93.32920074462890625 96.669708251953125 100.08655548095703125 103.4505462646484375 106.73104095458984375 110.04329681396484375 113.2847137451171875 116.491363525390625 119.66460418701171875 122.84818267822265625 125.9674530029296875 129.0889739990234375 132.12628173828125 135.1486053466796875 138.1701202392578125 141.162811279296875 144.1120758056640625 147.0199432373046875 149.8936309814453125 152.742767333984375 155.54278564453125 158.3109893798828125 161.0269927978515625 163.7044525146484375 166.334716796875 168.8803863525390625 171.3935546875 173.8480072021484375 176.2431182861328125 178.588653564453125 180.8794403076171875 183.1103515625 185.2618865966796875 187.354217529296875 189.3808135986328125 191.3561248779296875 193.260467529296875 195.09967041015625 196.884429931640625 198.60345458984375 200.262237548828125 201.860992431640625 203.4062652587890625 204.87750244140625 206.2872314453125 207.6433258056640625 208.9427490234375 210.190093994140625 211.3633880615234375 212.473388671875 213.5261993408203125 214.5253448486328125 215.457183837890625 216.3047027587890625 217.0661468505859375 217.76611328125 218.405242919921875 218.9673309326171875 219.4129791259765625 219.72161865234375 219.9777984619140625 220.086669921875 220.06591796875 219.9499359130859375 219.6955108642578125 219.2544403076171875 218.597625732421875 217.7511444091796875 216.746337890625 215.4879608154296875 213.9127349853515625 212.029937744140625 209.841705322265625 207.3196563720703125 204.4820098876953125 201.370391845703125 198.1031494140625 194.6268463134765625 191.164947509765625 187.99810791015625 185.7321929931640625 184.6233062744140625 184.9447021484375 187.2769927978515625 191.983367919921875 199.2649993896484375 207.5953521728515625 215.9278106689453125 223.3812103271484375 229.2866668701171875 232.5394439697265625 234.6967620849609375 236.6234893798828125 238.12799072265625 239.1905364990234375 239.79608154296875 240.1092681884765625 240.16375732421875 239.99566650390625 239.66864013671875 239.251617431640625 238.83758544921875 238.4263458251953125 238.039459228515625 237.694061279296875 237.405731201171875 237.1822052001953125 237.0114288330078125 236.892578125 -99999 -99999 -99999 -99999 -99999 -99999 -99999 -99999 -99999 -99999 -99999 -99999 -99999 -99999 -99999 -99999 -99999 -99999 -99999 -99999 -99999 -99999 -99999 -99999 -99999 -99999 -99999 -99999 -99999
 -99999 -99999 -99999 -99999 -99999 -99999 -99999 -99999 -99999 -99999 -99999 -99999 -99999 -99999 -99999 -99999 -99999 -99999 -99999 -99999 -99999 -99999 -99999 -99999 -99999 -99999 -99999 -99999 -99999 -99999 -99999 -99999 -99999 -99999 -99999 -99999 -99999 -99999 -99999 -99999 -99999 -99999 -99999 -99999 21.96329498291015625 28.023241043090820312 33.825122833251953125 39.336284637451171875 44.577213287353515625 49.58242034912109375 54.350009918212890625 58.9437408447265625 63.22742462158203125 67.4390106201171875 71.46341705322265625 75.347747802734375 79.1248016357421875 82.802337646484375 86.36270904541015625 89.91375732421875 93.319183349609375 96.747039794921875 100.06499481201171875 103.3657379150390625 106.637115478515625 109.8530731201171875 113.02741241455078125 116.1736602783203125 119.3294219970703125 122.435943603515625 125.536163330078125 128.546356201171875 131.5756072998046875 134.597900390625 137.5916290283203125 140.53826904296875 143.4644927978515625 146.370269775390625 149.2473602294921875 152.08221435546875 154.9022674560546875 157.65582275390625 160.3964996337890625 163.06353759765625 165.6993255615234375 168.2899017333984375 170.8257293701171875 173.30548095703125 175.7415618896484375 178.1220245361328125 180.4395904541015625 182.691070556640625 184.8786773681640625 187.0145263671875 189.088531494140625 191.0938262939453125 193.0425567626953125 194.919342041015625 196.73345947265625 198.4922943115234375 200.1824951171875 201.8044586181640625 203.3651123046875 204.8597412109375 206.298065185546875 207.67987060546875 209.00146484375 210.252960205078125 211.4382171630859375 212.5757598876953125 213.6439971923828125 214.6485137939453125 215.5667572021484375 216.4150390625 217.2153167724609375 217.9630584716796875 218.59564208984375 219.135711669921875 219.5963134765625 219.9789886474609375 220.23199462890625 220.4041290283203125 220.4720916748046875 220.408233642578125 220.1930084228515625 219.8060302734375 219.3136138916015625 218.6566009521484375 217.7870941162109375 216.69976806640625 215.3787994384765625 213.8445587158203125 212.080078125 210.069000244140625 207.742889404296875 205.21148681640625 202.4733123779296875 199.6375732421875 196.80230712890625 194.437225341796875 192.38177490234375 191.122039794921875 190.91552734375 192.0994873046875 195.2932891845703125 200.5390625 207.2352294921875 214.9973907470703125 223.15057373046875 230.9553680419921875 236.44586181640625 238.49859619140625 239.8669281005859375 241.2294769287109375 242.2312469482421875 242.933685302734375 243.229156494140625 243.1619110107421875 242.7818603515625 242.218292236328125 241.6187591552734375 240.9522705078125 240.3056793212890625 239.701080322265625 239.1767730712890625 238.7368011474609375 238.3616485595703125 238.0635223388671875 237.83917236328125 237.69049072265625 -99999 -99999 -99999 -99999 -99999 -99999 -99999 -99999 -99999 -99999 -99999 -99999 -99999 -99999 -99999 -99999 -99999 -99999 -99999 -99999 -99999 -99999 -99999 -99999 -99999 -99999 -99999 -99999 -99999
 -99999 -99999 -99999 -99999 -99999 -99999 -99999 -99999 -99999 -99999 -99999 -99999 -99999 -99999 -99999 -99999 -99999 -99999 -99999 -99999 -99999 -99999 -99999 -99999 -99999 -99999 -99999 -99999 -99999 -99999 -99999 -99999 -99999 -99999 -99999 -99999 -99999 -99999 -99999 -99999 -99999 -99999 -99999 21.053455352783203125 27.445009231567382812 33.514034271240234375 39.243305206298828125 44.670528411865234375 49.81644439697265625 54.730045318603515625 59.3248291015625 63.75139617919921875 67.94074249267578125 71.9763336181640625 75.853912353515625 79.5981292724609375 83.1810455322265625 86.7802581787109375 90.25604248046875 93.61392974853515625 96.92981719970703125 100.2151336669921875 103.448028564453125 106.63271331787109375 109.768341064453125 112.88648223876953125 116.00496673583984375 119.08641815185546875 122.12973785400390625 125.121429443359375 128.148040771484375 131.1560211181640625 134.1138153076171875 137.0447845458984375 139.9750518798828125 142.8946990966796875 145.776092529296875 148.638885498046875 151.470916748046875 154.283416748046875 157.043853759765625 159.761810302734375 162.4581298828125 165.11578369140625 167.7169647216796875 170.283050537109375 172.79730224609375 175.258575439453125 177.66522216796875 180.006805419921875 182.2953338623046875 184.52593994140625 186.7004852294921875 188.8199615478515625 190.8626556396484375 192.8327789306640625 194.751617431640625 196.6033782958984375 198.38775634765625 200.1079864501953125 201.7660369873046875 203.3517608642578125 204.8881072998046875 206.3570098876953125 207.7569427490234375 209.091766357421875 210.3642578125 211.570220947265625 212.715545654296875 213.81646728515625 214.8246612548828125 215.772979736328125 216.65264892578125 217.4553070068359375 218.1790924072265625 218.8473358154296875 219.4303436279296875 219.9140167236328125 220.3118438720703125 220.6297607421875 220.8477935791015625 220.95556640625 220.91595458984375 220.7866973876953125 220.5429229736328125 220.1405487060546875 219.5983734130859375 218.8630828857421875 217.972412109375 216.916748046875 215.661285400390625 214.1584930419921875 212.5002899169921875 210.6060638427734375 208.554046630859375 206.3542327880859375 204.0595245361328125 201.8769683837890625 199.8111572265625 198.0219573974609375 196.7966156005859375 196.313079833984375 197.117767333984375 199.2348175048828125 202.7355194091796875 207.619476318359375 213.8976287841796875 221.0816802978515625 228.5057525634765625 235.1303253173828125 239.982330322265625 242.1275177001953125 243.5867767333984375 244.8058013916015625 245.7255401611328125 246.196624755859375 246.1427154541015625 245.702911376953125 245.001556396484375 244.113861083984375 243.17999267578125 242.264984130859375 241.458282470703125 240.7240753173828125 240.0819854736328125 239.541656494140625 239.112213134765625 238.78656005859375 238.541351318359375 238.36846923828125 238.268646240234375 -99999 -99999 -99999 -99999 -99999 -99999 -99999 -99999 -99999 -99999 -99999 -99999 -99999 -99999 -99999 -99999 -99999 -99999 -99999 -99999 -99999 -99999 -99999 -99999 -99999 -99999 -99999 -99999
 -99999 -99999 -99999 -99999 -99999 -99999 -99999 -99999 -99999 -99999 -99999 -99999 -99999 -99999 -99999 -99999 -99999 -99999 -99999 -99999 -99999 -99999 -99999 -99999 -99999 -99999 -99999 -99999 -99999 -99999 -99999 -99999 -99999 -99999 -99999 -99999 -99999 -99999 -99999 -99999 -99999 -99999 -99999 26.781587600708007812 33.185146331787109375 39.18675994873046875 44.853118896484375 50.227569580078125 55.298183441162109375 59.976169586181640625 64.4278717041015625 68.671295166015625 72.7176361083984375 76.578887939453125 80.27120208740234375 83.870208740234375 87.38482666015625 90.756256103515625 94.06082916259765625 97.31449127197265625 100.5205078125 103.670989990234375 106.77365875244140625 109.843963623046875 112.916717529296875 115.95616912841796875 118.9243316650390625 121.910797119140625 124.9056549072265625 127.8538360595703125 130.779296875 133.685211181640625 136.610107421875 139.51507568359375 142.3814239501953125 145.242706298828125 148.08709716796875 150.9003143310546875 153.678436279296875 156.4456634521484375 159.1853790283203125 161.8892364501953125 164.5479583740234375 167.1726837158203125 169.75 172.294158935546875 174.7771148681640625 177.2057647705078125 179.5847930908203125 181.916046142578125 184.19427490234375 186.40753173828125 188.545257568359375 190.6204071044921875 192.6373443603515625 194.595611572265625 196.4831390380859375 198.3070220947265625 200.0584716796875 201.750946044921875 203.3829193115234375 204.934356689453125 206.4327392578125 207.8601531982421875 209.2234344482421875 210.520416259765625 211.7556915283203125 212.9278106689453125 214.0259552001953125 215.052520751953125 216.02166748046875 216.9161529541015625 217.7568206787109375 218.5058746337890625 219.1835174560546875 219.7866973876953125 220.3111114501953125 220.7556610107421875 221.1014404296875 221.348114013671875 221.4945831298828125 221.5683135986328125 221.4986724853515625 221.320220947265625 221.02215576171875 220.5827484130859375 220.012725830078125 219.2985382080078125 218.4174346923828125 217.38665771484375 216.18798828125 214.793365478515625 213.2599029541015625 211.5966033935546875 209.80712890625 207.9686126708984375 206.1437530517578125 204.4376220703125 202.9465179443359375 201.8790740966796875 201.452667236328125 201.7709808349609375 203.0617218017578125 205.4183807373046875 209.0286102294921875 213.9139556884765625 219.729339599609375 225.9239349365234375 232.261138916015625 237.91204833984375 241.7758026123046875 244.313751220703125 246.1024932861328125 247.5403289794921875 248.5129241943359375 248.8592681884765625 248.5919342041015625 247.7792205810546875 246.677398681640625 245.489898681640625 244.3309478759765625 243.236114501953125 242.252899169921875 241.4000091552734375 240.715484619140625 240.141448974609375 239.6836700439453125 239.333465576171875 239.0740509033203125 238.922271728515625 238.8407135009765625 -99999 -99999 -99999 -99999 -99999 -99999 -99999 -99999 -99999 -99999 -99999 -99999 -99999 -99999 -99999 -99999 -99999 -99999 -99999 -99999 -99999 -99999 -99999 -99999 -99999 -99999 -99999 -99999
 -99999 -99999 -99999 -99999 -99999 -99999 -99999 -99999 -99999 -99999 -99999 -99999 -99999 -99999 -99999 -99999 -99999 -99999 -99999 -99999 -99999 -99999 -99999 -99999 -99999 -99999 -99999 -99999 -99999 -99999 -99999 -99999 -99999 -99999 -99999 -99999 -99999 -99999 -99999 -99999 -99999 -99999 26.064706802368164062 32.8233184814453125 39.1881866455078125 45.12722015380859375 50.819103240966796875 55.937713623046875 60.775440216064453125 65.3333587646484375 69.6458587646484375 73.6802520751953125 77.5488739013671875 81.18697357177734375 84.82823944091796875 88.1812286376953125 91.48316192626953125 94.72154998779296875 97.8949127197265625 101.00896453857421875 104.0686492919921875 107.08603668212890625 110.1002655029296875 113.0634307861328125 116.02411651611328125 118.9551849365234375 121.86872100830078125 124.76280975341796875 127.6340179443359375 130.519622802734375 133.4050750732421875 136.268890380859375 139.100067138671875 141.960662841796875 144.783905029296875 147.5745697021484375 150.3628082275390625 153.13739013671875 155.89862060546875 158.63134765625 161.3344573974609375 163.9977569580078125 166.6247406005859375 169.241790771484375 171.7868804931640625 174.2968902587890625 176.771728515625 179.1942596435546875 181.549285888671875 183.8412628173828125 186.0762176513671875 188.2620391845703125 190.38836669921875 192.4539642333984375 194.444976806640625 196.3775787353515625 198.2326812744140625 200.020416259765625 201.7462310791015625 203.415557861328125 205.0276947021484375 206.5475921630859375 208.0022735595703125 209.395233154296875 210.724395751953125 211.9856414794921875 213.1797943115234375 214.302032470703125 215.3565521240234375 216.3478240966796875 217.26806640625 218.114013671875 218.8934478759765625 219.6042022705078125 220.2392425537109375 220.7817535400390625 221.246551513671875 221.645751953125 221.9536895751953125 222.152801513671875 222.255523681640625 222.2605743408203125 222.177032470703125 221.9674835205078125 221.6480712890625 221.1851348876953125 220.6054229736328125 219.92486572265625 219.069244384765625 218.0425567626953125 216.9422454833984375 215.735137939453125 214.327606201171875 212.8983917236328125 211.4379730224609375 209.9550628662109375 208.523834228515625 207.2392578125 206.342559814453125 205.8343658447265625 205.8861541748046875 206.6033172607421875 208.276275634765625 210.931182861328125 214.542236328125 218.979766845703125 224.1150665283203125 229.7052001953125 235.065948486328125 239.8034515380859375 243.6134033203125 246.2691802978515625 248.0644073486328125 249.62176513671875 250.7641448974609375 251.0997467041015625 250.498779296875 249.2427520751953125 247.786865234375 246.294586181640625 244.896331787109375 243.6839447021484375 242.668304443359375 241.7899932861328125 241.068145751953125 240.483184814453125 240.057159423828125 239.7357635498046875 239.4961395263671875 239.41632080078125 239.3577728271484375 239.373291015625 -99999 -99999 -99999 -99999 -99999 -99999 -99999 -99999 -99999 -99999 -99999 -99999 -99999 -99999 -99999 -99999 -99999 -99999 -99999 -99999 -99999 -99999 -99999 -99999 -99999 -99999 -99999
 -99999 -99999 -99999 -99999 -99999 -99999 -99999 -99999 -99999 -99999 -99999 -99999 -99999 -99999 -99999 -99999 -99999 -99999 -99999 -99999 -99999 -99999 -99999 -99999 -99999 -99999 -99999 -99999 -99999 -99999 -99999 -99999 -99999 -99999 -99999 -99999 -99999 -99999 -99999 -99999 -99999 25.174764633178710938 32.371807098388671875 39.13204193115234375 45.5049591064453125 51.39719390869140625 56.785526275634765625 61.792774200439453125 66.502349853515625 70.89029693603515625 74.96566009521484375 78.7378082275390625 82.48943328857421875 85.9449005126953125 89.26544952392578125 92.45513153076171875 95.6073150634765625 98.7114410400390625 101.6995697021484375 104.6514434814453125 107.58214569091796875 110.48261260986328125 113.4133453369140625 116.25121307373046875 119.0844879150390625 121.91072845458984375 124.744720458984375 127.579132080078125 130.3995361328125 133.1882171630859375 135.9758148193359375 138.819061279296875 141.5823822021484375 144.34515380859375 147.090728759765625 149.86651611328125 152.63861083984375 155.3456878662109375 158.0616455078125 160.75677490234375 163.4595489501953125 166.115692138671875 168.7141265869140625 171.289642333984375 173.8445281982421875 176.3227691650390625 178.7764434814453125 181.1508331298828125 183.4968414306640625 185.7977752685546875 188.0194854736328125 190.1866302490234375 192.29150390625 194.331817626953125 196.2927093505859375 198.19085693359375 200.0270233154296875 201.7970733642578125 203.49951171875 205.1250762939453125 206.685699462890625 208.1813201904296875 209.6044158935546875 210.9645233154296875 212.2500152587890625 213.4641876220703125 214.62322998046875 215.706695556640625 216.71771240234375 217.655792236328125 218.5442657470703125 219.3544769287109375 220.0822296142578125 220.736328125 221.322479248046875 221.842315673828125 222.2627105712890625 222.598724365234375 222.8434600830078125 223.0105743408203125 223.1044158935546875 223.0823974609375 222.941802978515625 222.7111663818359375 222.368499755859375 221.9510498046875 221.3625030517578125 220.6883544921875 219.911102294921875 218.993255615234375 217.9581146240234375 216.867095947265625 215.7178955078125 214.5042877197265625 213.244781494140625 212.0847625732421875 211.0473480224609375 210.262786865234375 209.7080078125 209.555816650390625 210.028167724609375 211.169403076171875 213.032958984375 215.6330413818359375 219.083740234375 223.2645111083984375 227.9044647216796875 232.6647491455078125 237.374420166015625 241.66888427734375 245.011260986328125 247.65289306640625 249.746002197265625 251.4481658935546875 252.8046112060546875 252.9794769287109375 251.803131103515625 250.0574951171875 248.18768310546875 246.48046875 245.010467529296875 243.7592010498046875 242.769805908203125 241.9175872802734375 241.23663330078125 240.631591796875 240.2700653076171875 239.97784423828125 239.78741455078125 239.6612701416015625 239.6516265869140625 239.71112060546875 239.824859619140625 -99999 -99999 -99999 -99999 -99999 -99999 -99999 -99999 -99999 -99999 -99999 -99999 -99999 -99999 -99999 -99999 -99999 -99999 -99999 -99999 -99999 -99999 -99999 -99999 -99999 -99999
 -99999 -99999 -99999 -99999 -99999 -99999 -99999 -99999 -99999 -99999 -99999 -99999 -99999 -99999 -99999 -99999 -99999 -99999 -99999 -99999 -99999 -99999 -99999 -99999 -99999 -99999 -99999 -99999 -99999 -99999 -99999 -99999 -99999 -99999 -99999 -99999 -99999 -99999 -99999 -99999 24.011896133422851562 31.759023666381835938 38.990886688232421875 45.872344970703125 52.027996063232421875 57.734706878662109375 63.035980224609375 67.9343719482421875 72.39214324951171875 76.46042633056640625 80.3222198486328125 83.94857025146484375 87.34702301025390625 90.5615692138671875 93.721282958984375 96.783782958984375 99.71050262451171875 102.58889007568359375 105.430145263671875 108.2758331298828125 111.14350128173828125 113.88758087158203125 116.59850311279296875 119.3564300537109375 122.1451416015625 124.902679443359375 127.61959075927734375 130.33062744140625 133.0685272216796875 135.864715576171875 138.50457763671875 141.211517333984375 143.9551544189453125 146.722015380859375 149.4578094482421875 152.1658782958984375 154.8803863525390625 157.599365234375 160.2955780029296875 162.9652099609375 165.61505126953125 168.271026611328125 170.8495025634765625 173.3889312744140625 175.9077911376953125 178.37237548828125 180.8038330078125 183.177459716796875 185.5023956298828125 187.7700958251953125 189.979034423828125 192.121368408203125 194.1924591064453125 196.201416015625 198.1512603759765625 200.033172607421875 201.849090576171875 203.586395263671875 205.261566162109375 206.856597900390625 208.384033203125 209.8456573486328125 211.22418212890625 212.548309326171875 213.8021087646484375 214.98187255859375 216.088897705078125 217.136810302734375 218.1226806640625 219.0259246826171875 219.8605804443359375 220.6092987060546875 221.2978668212890625 221.93353271484375 222.4691619873046875 222.918304443359375 223.2939453125 223.6106719970703125 223.8458709716796875 223.9662628173828125 223.9846954345703125 223.9321441650390625 223.82781982421875 223.5901641845703125 223.2407684326171875 222.8053436279296875 222.2839813232421875 221.6141815185546875 220.8677520751953125 220.0695343017578125 219.2005462646484375 218.228759765625 217.1874542236328125 216.1848907470703125 215.2442474365234375 214.390472412109375 213.6417694091796875 213.090545654296875 212.9427642822265625 213.2075042724609375 213.933624267578125 215.220367431640625 217.144683837890625 219.7877960205078125 223.0320892333984375 226.7689208984375 230.8726654052734375 235.1779632568359375 239.20733642578125 242.89996337890625 246.1071929931640625 248.6977386474609375 250.7942962646484375 252.620758056640625 253.9658050537109375 254.09320068359375 252.1979522705078125 249.8816375732421875 247.772613525390625 245.9750518798828125 244.5223846435546875 243.2860870361328125 242.3575439453125 241.620513916015625 241.0277557373046875 240.566192626953125 240.224273681640625 240.0165863037109375 239.9095916748046875 239.884857177734375 239.9297332763671875 240.0348968505859375 240.2112579345703125 -99999 -99999 -99999 -99999 -99999 -99999 -99999 -99999 -99999 -99999 -99999 -99999 -99999 -99999 -99999 -99999 -99999 -99999 -99999 -99999 -99999 -99999 -99999 -99999 -99999 -99999
 -99999 -99999 -99999 -99999 -99999 -99999 -99999 -99999 -99999 -99999 -99999 -99999 -99999 -99999 -99999 -99999 -99999 -99999 -99999 -99999 -99999 -99999 -99999 -99999 -99999 -99999 -99999 -99999 -99999 -99999 -99999 -99999 -99999 -99999 -99999 -99999 -99999 -99999 -99999 -99999 30.832735061645507812 38.701694488525390625 46.017765045166015625 52.775241851806640625 58.8244781494140625 64.46329498291015625 69.54615020751953125 74.121612548828125 78.27515411376953125 82.227386474609375 85.77767181396484375 89.1289215087890625 92.26004791259765625 95.28453826904296875 98.16583251953125 100.963623046875 103.73557281494140625 106.47879791259765625 109.1904296875 111.86202239990234375 114.45235443115234375 117.165679931640625 119.86534881591796875 122.50295257568359375 125.123199462890625 127.74613189697265625 130.434173583984375 133.130645751953125 135.6705474853515625 138.3896331787109375 141.054443359375 143.7296905517578125 146.4085540771484375 149.0957489013671875 151.7773284912109375 154.4497222900390625 157.1300201416015625 159.7984161376953125 162.483551025390625 165.15228271484375 167.748016357421875 170.3564605712890625 172.9142913818359375 175.4586181640625 177.966766357421875 180.4222259521484375 182.8406524658203125 185.203765869140625 187.511138916015625 189.758148193359375 191.9415130615234375 194.0724029541015625 196.12908935546875 198.1237335205078125 200.0554351806640625 201.924468994140625 203.6952056884765625 205.39410400390625 207.0349884033203125 208.599945068359375 210.098541259765625 211.530975341796875 212.8869476318359375 214.16900634765625 215.3916473388671875 216.5387420654296875 217.6201324462890625 218.614532470703125 219.5402679443359375 220.397918701171875 221.203826904296875 221.93505859375 222.5700531005859375 223.1336822509765625 223.64007568359375 224.080596923828125 224.4351959228515625 224.67010498046875 224.855133056640625 224.9877166748046875 225.0127716064453125 224.91552734375 224.7736053466796875 224.5670623779296875 224.207672119140625 223.7622222900390625 223.25860595703125 222.6975860595703125 222.0568389892578125 221.29132080078125 220.4730224609375 219.6688690185546875 218.8729705810546875 218.076171875 217.320526123046875 216.6259765625 216.20770263671875 216.0144500732421875 216.09942626953125 216.53619384765625 217.4137115478515625 218.87847900390625 220.83880615234375 223.317901611328125 226.306182861328125 229.7026214599609375 233.3177947998046875 237.006011962890625 240.588653564453125 243.88922119140625 246.729095458984375 249.06072998046875 250.983642578125 252.524932861328125 253.62493896484375 253.050689697265625 251.0644073486328125 248.6036529541015625 246.4640045166015625 244.749786376953125 243.534393310546875 242.6013641357421875 241.83685302734375 241.2070465087890625 240.712432861328125 240.376190185546875 240.1489105224609375 240.018341064453125 239.97442626953125 240.0118408203125 240.1457672119140625 240.334228515625 240.5641021728515625 240.82708740234375 -99999 -99999 -99999 -99999 -99999 -99999 -99999 -99999 -99999 -99999 -99999 -99999 -99999 -99999 -99999 -99999 -99999 -99999 -99999 -99999 -99999 -99999 -99999 -99999 -99999
 -99999 -99999 -99999 -99999 -99999 -99999 -99999 -99999 -99999 -99999 -99999 -99999 -99999 -99999 -99999 -99999 -99999 -99999 -99999 -99999 -99999 -99999 -99999 -99999 -99999 -99999 -99999 -99999 -99999 -99999 -99999 -99999 -99999 -99999 -99999 -99999 -99999 -99999 -99999 29.540386199951171875 38.105915069580078125 46.086795806884765625 53.338817596435546875 59.971202850341796875 65.95819091796875 71.34455108642578125 76.13237762451171875 80.49383544921875 84.43874359130859375 88.10701751708984375 91.2320556640625 94.27472686767578125 97.10991668701171875 99.863861083984375 102.54732513427734375 105.16545867919921875 107.7176666259765625 110.33541107177734375 112.79370880126953125 115.3702545166015625 117.937042236328125 120.44872283935546875 122.95523834228515625 125.51615142822265625 128.0924530029296875 130.657379150390625 133.13531494140625 135.8007659912109375 138.351806640625 140.9262847900390625 143.542266845703125 146.17132568359375 148.789215087890625 151.4001312255859375 154.0380706787109375 156.69049072265625 159.3693389892578125 162.0174407958984375 164.628173828125 167.264923095703125 169.864501953125 172.4532318115234375 175.0157012939453125 177.5499725341796875 180.0415191650390625 182.4878997802734375 184.88409423828125 187.23883056640625 189.5287017822265625 191.7616729736328125 193.939117431640625 196.051483154296875 198.1179046630859375 200.09075927734375 201.9700469970703125 203.79803466796875 205.5570831298828125 207.244903564453125 208.857269287109375 210.403106689453125 211.8596954345703125 213.261016845703125 214.58038330078125 215.8307037353515625 217.0131378173828125 218.1127166748046875 219.1434326171875 220.11346435546875 221.014984130859375 221.839202880859375 222.581146240234375 223.2635345458984375 223.8712005615234375 224.409759521484375 224.8798065185546875 225.2728271484375 225.59368896484375 225.819671630859375 225.9567108154296875 226.0456390380859375 226.0709381103515625 225.997711181640625 225.8139801025390625 225.5575408935546875 225.2540435791015625 224.8853607177734375 224.4055328369140625 223.853179931640625 223.244781494140625 222.6190185546875 221.976806640625 221.2761688232421875 220.584686279296875 219.9205322265625 219.41119384765625 219.0169830322265625 218.7573394775390625 218.7170257568359375 218.9857635498046875 219.6486358642578125 220.674072265625 222.1258544921875 224.004302978515625 226.346282958984375 229.055908203125 232.0640411376953125 235.2666168212890625 238.506561279296875 241.6181640625 244.4151458740234375 246.8349761962890625 248.943634033203125 250.5647125244140625 251.5470733642578125 251.7798919677734375 250.97509765625 248.9715576171875 246.57232666015625 244.5409088134765625 243.2864837646484375 242.3841705322265625 241.6800079345703125 241.1103973388671875 240.68890380859375 240.3541259765625 240.108245849609375 239.9625244140625 239.9171142578125 239.9865875244140625 240.1270751953125 240.3228759765625 240.570892333984375 240.86895751953125 241.2114410400390625 -99999 -99999 -99999 -99999 -99999 -99999 -99999 -99999 -99999 -99999 -99999 -99999 -99999 -99999 -99999 -99999 -99999 -99999 -99999 -99999 -99999 -99999 -99999 -99999 -99999
 -99999 -99999 -99999 -99999 -99999 -99999 -99999 -99999 -99999 -99999 -99999 -99999 -99999 -99999 -99999 -99999 -99999 -99999 -99999 -99999 -99999 -99999 -99999 -99999 -99999 -99999 -99999 -99999 -99999 -99999 -99999 -99999 -99999 -99999 -99999 -99999 -99999 -99999 27.706525802612304688 37.118968963623046875 45.873561859130859375 53.757122039794921875 61.035678863525390625 67.529571533203125 73.30974578857421875 78.45455169677734375 83.03891754150390625 87.07022857666015625 90.6233673095703125 93.76264190673828125 96.62375640869140625 99.3617095947265625 101.961273193359375 104.449554443359375 106.8307342529296875 109.19898223876953125 111.5957794189453125 114.0066680908203125 116.41800689697265625 118.77596282958984375 121.17792510986328125 123.64227294921875 126.10750579833984375 128.507354736328125 130.9402618408203125 133.512481689453125 135.9083099365234375 138.3922271728515625 140.9334259033203125 143.4749908447265625 145.983551025390625 148.515655517578125 151.095428466796875 153.6968994140625 156.340667724609375 158.9282073974609375 161.5272674560546875 164.15179443359375 166.7650909423828125 169.3817901611328125 171.97955322265625 174.5676727294921875 177.11822509765625 179.6385345458984375 182.11907958984375 184.5641632080078125 186.9564056396484375 189.2936248779296875 191.5917816162109375 193.8229217529296875 195.998992919921875 198.0699005126953125 200.0898284912109375 202.04437255859375 203.92529296875 205.7321319580078125 207.4635467529296875 209.1214447021484375 210.7154693603515625 212.2258148193359375 213.6561279296875 215.0160064697265625 216.30548095703125 217.5156097412109375 218.6591796875 219.7279815673828125 220.7317352294921875 221.6577301025390625 222.501190185546875 223.290985107421875 224.0040435791015625 224.6508636474609375 225.233123779296875 225.730224609375 226.1532135009765625 226.4986572265625 226.7822418212890625 227.0025634765625 227.1506500244140625 227.2083740234375 227.1747894287109375 227.0778350830078125 226.9402923583984375 226.7239837646484375 226.4129486083984375 226.0267333984375 225.597991943359375 225.1373138427734375 224.6236724853515625 224.0503692626953125 223.4639129638671875 222.885498046875 222.3874969482421875 221.916259765625 221.515380859375 221.2414703369140625 221.167999267578125 221.3460540771484375 221.7680206298828125 222.479248046875 223.527862548828125 224.966949462890625 226.7652130126953125 228.929473876953125 231.3619232177734375 234.04107666015625 236.81927490234375 239.5657958984375 242.1986236572265625 244.684814453125 246.7997283935546875 248.40655517578125 249.5289764404296875 250.0747833251953125 249.923248291015625 248.8894805908203125 246.919952392578125 244.4740447998046875 242.6630401611328125 241.6251678466796875 241.18231201171875 240.8263092041015625 240.456756591796875 240.144378662109375 239.9090118408203125 239.7713165283203125 239.752899169921875 239.8166961669921875 239.9600982666015625 240.1689910888671875 240.4206390380859375 240.7706298828125 241.152984619140625 241.547271728515625 241.898529052734375 -99999 -99999 -99999 -99999 -99999 -99999 -99999 -99999 -99999 -99999 -99999 -99999 -99999 -99999 -99999 -99999 -99999 -99999 -99999 -99999 -99999 -99999 -99999 -99999
 -99999 -99999 -99999 -99999 -99999 -99999 -99999 -99999 -99999 -99999 -99999 -99999 -99999 -99999 -99999 -99999 -99999 -99999 -99999 -99999 -99999 -99999 -99999 -99999 -99999 -99999 -99999 -99999 -99999 -99999 -99999 -99999 -99999 -99999 -99999 -99999 -99999 25.48443603515625 35.665409088134765625 45.18315887451171875 53.973285675048828125 61.81958770751953125 69.02950286865234375 75.3939666748046875 81.03524017333984375 85.7623443603515625 89.9782562255859375 93.5467987060546875 96.728485107421875 99.47830963134765625 102.05710601806640625 104.455810546875 106.6436004638671875 108.83533477783203125 111.0373382568359375 113.23073577880859375 115.40179443359375 117.5765533447265625 119.846832275390625 122.15899658203125 124.4688262939453125 126.759033203125 129.0397491455078125 131.484527587890625 133.784881591796875 136.1971893310546875 138.62811279296875 141.0332489013671875 143.4305419921875 145.8678436279296875 148.3841705322265625 150.8891448974609375 153.4315338134765625 155.9579010009765625 158.5244140625 161.093231201171875 163.6899566650390625 166.2978363037109375 168.89886474609375 171.514678955078125 174.098876953125 176.670928955078125 179.220458984375 181.738739013671875 184.2159881591796875 186.66455078125 189.0557098388671875 191.4134674072265625 193.6823272705078125 195.8783721923828125 198.02716064453125 200.1096954345703125 202.1217803955078125 204.0537567138671875 205.9140777587890625 207.7088623046875 209.4178924560546875 211.048614501953125 212.5977325439453125 214.0768890380859375 215.4827880859375 216.8049774169921875 218.041229248046875 219.2236175537109375 220.3549652099609375 221.3968963623046875 222.3423004150390625 223.2261505126953125 224.0437164306640625 224.78826904296875 225.4662322998046875 226.0765228271484375 226.616241455078125 227.074249267578125 227.470489501953125 227.80609130859375 228.06292724609375 228.233245849609375 228.346527099609375 228.3975677490234375 228.386322021484375 228.291229248046875 228.132843017578125 227.8991546630859375 227.6124420166015625 227.294830322265625 226.9136199951171875 226.467376708984375 225.9994049072265625 225.5287933349609375 225.068206787109375 224.6114044189453125 224.175323486328125 223.812713623046875 223.5727386474609375 223.4738922119140625 223.529571533203125 223.77423095703125 224.25897216796875 225.039276123046875 226.1266937255859375 227.502593994140625 229.1669921875 231.110565185546875 233.24639892578125 235.5852203369140625 238.0047760009765625 240.412933349609375 242.7006072998046875 244.6650390625 246.3410186767578125 247.6234283447265625 248.45037841796875 248.7321929931640625 248.242523193359375 247.0445556640625 245.26318359375 243.1700897216796875 241.362030029296875 240.7021331787109375 240.38397216796875 240.1113128662109375 239.850128173828125 239.6365509033203125 239.4666900634765625 239.4176177978515625 239.4976654052734375 239.580413818359375 239.8296661376953125 240.150482177734375 240.59075927734375 240.9835968017578125 241.4266204833984375 241.943115234375 242.4097137451171875 -99999 -99999 -99999 -99999 -99999 -99999 -99999 -99999 -99999 -99999 -99999 -99999 -99999 -99999 -99999 -99999 -99999 -99999 -99999 -99999 -99999 -99999 -99999 -99999
 -99999 -99999 -99999 -99999 -99999 -99999 -99999 -99999 -99999 -99999 -99999 -99999 -99999 -99999 -99999 -99999 -99999 -99999 -99999 -99999 -99999 -99999 -99999 -99999 -99999 -99999 -99999 -99999 -99999 -99999 -99999 -99999 -99999 -99999 -99999 -99999 -99999 33.5145111083984375 43.91915130615234375 53.5484161376953125 62.32578277587890625 70.443359375 77.5572509765625 83.55852508544921875 88.75543975830078125 93.24954986572265625 97.060333251953125 100.15332794189453125 102.924713134765625 105.2299041748046875 107.32279205322265625 109.308685302734375 111.21944427490234375 113.1286773681640625 115.04925537109375 117.0077667236328125 119.01085662841796875 121.1219482421875 123.2418060302734375 125.38968658447265625 127.5810089111328125 129.7818603515625 132.0915374755859375 134.3376312255859375 136.637298583984375 138.90533447265625 141.18377685546875 143.5432891845703125 145.9335479736328125 148.31622314453125 150.7532196044921875 153.1660308837890625 155.6495819091796875 158.15155029296875 160.6897430419921875 163.2498779296875 165.8203277587890625 168.4280242919921875 171.020477294921875 173.6147308349609375 176.202880859375 178.774932861328125 181.3211517333984375 183.8539581298828125 186.3455352783203125 188.7842864990234375 191.16015625 193.495147705078125 195.7722320556640625 197.980377197265625 200.125640869140625 202.1900787353515625 204.18292236328125 206.1023712158203125 207.9471588134765625 209.7103729248046875 211.3765869140625 212.9814605712890625 214.5151824951171875 215.9523773193359375 217.3284149169921875 218.636566162109375 219.8616790771484375 220.9965972900390625 222.0613861083984375 223.062469482421875 223.98016357421875 224.831634521484375 225.613372802734375 226.3282318115234375 226.970245361328125 227.537567138671875 228.034423828125 228.472503662109375 228.8455352783203125 229.142974853515625 229.3674774169921875 229.5299835205078125 229.6429443359375 229.675872802734375 229.62945556640625 229.533599853515625 229.38922119140625 229.1763153076171875 228.9175872802734375 228.6006622314453125 228.24737548828125 227.8735198974609375 227.4785614013671875 227.07598876953125 226.6711273193359375 226.2930450439453125 225.9812469482421875 225.7446746826171875 225.59930419921875 225.5774688720703125 225.70050048828125 226.03253173828125 226.5895233154296875 227.388397216796875 228.3988800048828125 229.6656494140625 231.2250518798828125 232.9860382080078125 234.899444580078125 236.918548583984375 238.9839935302734375 240.9878692626953125 242.8528289794921875 244.5035247802734375 245.8766632080078125 246.8780364990234375 247.3420257568359375 247.314849853515625 246.775146484375 245.7306365966796875 244.2313995361328125 242.5523834228515625 241.2261199951171875 240.3881378173828125 239.947845458984375 239.6248016357421875 239.404998779296875 239.2203369140625 239.1321258544921875 239.1575469970703125 239.3090362548828125 239.5570831298828125 239.89300537109375 240.303131103515625 240.7725372314453125 241.273468017578125 241.791656494140625 242.31768798828125 242.8544769287109375 243.38897705078125 -99999 -99999 -99999 -99999 -99999 -99999 -99999 -99999 -99999 -99999 -99999 -99999 -99999 -99999 -99999 -99999 -99999 -99999 -99999 -99999 -99999 -99999 -99999
 -99999 -99999 -99999 -99999 -99999 -99999 -99999 -99999 -99999 -99999 -99999 -99999 -99999 -99999 -99999 -99999 -99999 -99999 -99999 -99999 -99999 -99999 -99999 -99999 -99999 -99999 -99999 -99999 -99999 -99999 -99999 -99999 -99999 -99999 -99999 -99999 30.72103118896484375 42.10507965087890625 52.76566314697265625 62.564800262451171875 71.46579742431640625 79.29541778564453125 86.1476898193359375 92.08490753173828125 97.0122833251953125 100.94159698486328125 104.0460968017578125 106.67870330810546875 108.90610504150390625 110.76000213623046875 112.38519287109375 113.98339080810546875 115.58014678955078125 117.23041534423828125 118.84163665771484375 120.6375885009765625 122.51869964599609375 124.476043701171875 126.48125457763671875 128.5302276611328125 130.5983123779296875 132.82513427734375 134.9485321044921875 137.106658935546875 139.3201446533203125 141.5529937744140625 143.8160400390625 146.036956787109375 148.3252410888671875 150.6723175048828125 153.0194091796875 155.4032440185546875 157.838409423828125 160.313751220703125 162.823272705078125 165.371551513671875 167.927886962890625 170.5108642578125 173.1034393310546875 175.699981689453125 178.2953948974609375 180.8978271484375 183.4493560791015625 185.974700927734375 188.44537353515625 190.8953399658203125 193.290740966796875 195.6276092529296875 197.9112701416015625 200.1019744873046875 202.23394775390625 204.2809600830078125 206.2727813720703125 208.1612091064453125 209.98712158203125 211.73870849609375 213.406463623046875 214.9835205078125 216.48968505859375 217.908355712890625 219.240142822265625 220.4950408935546875 221.683380126953125 222.7910308837890625 223.8195037841796875 224.778228759765625 225.6659088134765625 226.487396240234375 227.231781005859375 227.901092529296875 228.5076904296875 229.0432891845703125 229.51220703125 229.921051025390625 230.256561279296875 230.5246124267578125 230.729736328125 230.88592529296875 230.9712677001953125 230.98046875 230.934844970703125 230.8425750732421875 230.703765869140625 230.5012969970703125 230.256317138671875 229.9684295654296875 229.657318115234375 229.3302459716796875 228.9788970947265625 228.6216583251953125 228.2816925048828125 227.997802734375 227.7719268798828125 227.5976715087890625 227.5118255615234375 227.5778961181640625 227.8043060302734375 228.1753082275390625 228.7197418212890625 229.4738311767578125 230.4684600830078125 231.6567230224609375 233.019927978515625 234.5427703857421875 236.2302703857421875 237.9734954833984375 239.7117767333984375 241.390899658203125 242.9552459716796875 244.3165130615234375 245.3378143310546875 246.0298919677734375 246.355621337890625 246.285247802734375 245.6934661865234375 244.70294189453125 243.4849090576171875 242.1914825439453125 241.0232391357421875 240.2496795654296875 239.7334747314453125 239.3997039794921875 239.120697021484375 238.9150238037109375 238.8475494384765625 238.9291839599609375 239.13763427734375 239.4746551513671875 239.9031524658203125 240.4141998291015625 240.963043212890625 241.54547119140625 242.1436309814453125 242.7354583740234375 243.31695556640625 243.884124755859375 -99999 -99999 -99999 -99999 -99999 -99999 -99999 -99999 -99999 -99999 -99999 -99999 -99999 -99999 -99999 -99999 -99999 -99999 -99999 -99999 -99999 -99999 -99999
 -99999 -99999 -99999 -99999 -99999 -99999 -99999 -99999 -99999 -99999 -99999 -99999 -99999 -99999 -99999 -99999 -99999 -99999 -99999 -99999 -99999 -99999 -99999 -99999 -99999 -99999 -99999 -99999 -99999 -99999 -99999 -99999 -99999 -99999 -99999 27.24530792236328125 39.643955230712890625 51.42578887939453125 62.07614898681640625 71.86373138427734375 80.73030853271484375 88.62012481689453125 95.3494110107421875 100.9235382080078125 105.09590911865234375 108.54866790771484375 111.16290283203125 113.2256317138671875 114.7852935791015625 116.07384490966796875 117.269744873046875 118.421234130859375 119.6702728271484375 120.9632568359375 122.49578857421875 124.11542510986328125 125.8203125 127.61309814453125 129.5435791015625 131.532928466796875 133.5718231201171875 135.6451568603515625 137.7838592529296875 139.9128265380859375 142.0149383544921875 144.0958709716796875 146.245849609375 148.4862823486328125 150.6946258544921875 152.933685302734375 155.2301177978515625 157.585601806640625 159.9781646728515625 162.424560546875 164.8701324462890625 167.4018707275390625 169.976409912109375 172.520660400390625 175.1471099853515625 177.771087646484375 180.37579345703125 182.9727935791015625 185.5174560546875 188.0702056884765625 190.574310302734375 193.0276031494140625 195.43487548828125 197.7806243896484375 200.053375244140625 202.2794952392578125 204.4055023193359375 206.4524078369140625 208.424163818359375 210.313262939453125 212.1148681640625 213.8454437255859375 215.4741363525390625 217.02679443359375 218.4912872314453125 219.8717041015625 221.17742919921875 222.401153564453125 223.545135498046875 224.6219024658203125 225.62042236328125 226.548065185546875 227.3895111083984375 228.1651611328125 228.8676300048828125 229.50311279296875 230.091400146484375 230.589874267578125 231.0242767333984375 231.39752197265625 231.709136962890625 231.96722412109375 232.14776611328125 232.2655792236328125 232.3265228271484375 232.3444366455078125 232.3098297119140625 232.213043212890625 232.05401611328125 231.8569488525390625 231.642974853515625 231.3953094482421875 231.1131439208984375 230.801727294921875 230.49945068359375 230.2132720947265625 229.939422607421875 229.69769287109375 229.521728515625 229.4195098876953125 229.41766357421875 229.5180511474609375 229.7241363525390625 230.1260833740234375 230.67889404296875 231.4142608642578125 232.294830322265625 233.341400146484375 234.5882720947265625 235.9425048828125 237.359222412109375 238.821441650390625 240.310577392578125 241.72802734375 242.9691162109375 244.023773193359375 244.8506011962890625 245.3953704833984375 245.5406036376953125 245.3230438232421875 244.7883453369140625 244.0039825439453125 242.9625244140625 241.859466552734375 240.8896026611328125 240.1397857666015625 239.6022186279296875 239.2117156982421875 238.917388916015625 238.6872711181640625 238.6043548583984375 238.72674560546875 239.0015411376953125 239.44512939453125 239.98004150390625 240.584197998046875 241.224090576171875 241.871826171875 242.529510498046875 243.182861328125 243.82373046875 244.4373321533203125 245.0164947509765625 -99999 -99999 -99999 -99999 -99999 -99999 -99999 -99999 -99999 -99999 -99999 -99999 -99999 -99999 -99999 -99999 -99999 -99999 -99999 -99999 -99999 -99999
 -99999 -99999 -99999 -99999 -99999 -99999 -99999 -99999 -99999 -99999 -99999 -99999 -99999 -99999 -99999 -99999 -99999 -99999 -99999 -99999 -99999 -99999 -99999 -99999 -99999 -99999 -99999 -99999 -99999 -99999 -99999 -99999 -99999 -99999 22.858608245849609375 36.386203765869140625 49.46776580810546875 61.163799285888671875 71.7537384033203125 81.53572845458984375 90.40494537353515625 98.12120819091796875 104.63661956787109375 109.6769561767578125 113.44568634033203125 116.24365234375 118.07094573974609375 119.37526702880859375 120.2771453857421875 121.1183624267578125 121.6888275146484375 122.4464263916015625 123.4826507568359375 124.53127288818359375 125.7935333251953125 127.2201385498046875 128.8837890625 130.72296142578125 132.61297607421875 134.5125732421875 136.5362396240234375 138.5216827392578125 140.4986419677734375 142.509735107421875 144.6064300537109375 146.72552490234375 148.7645416259765625 150.8273773193359375 152.958404541015625 155.1668853759765625 157.398773193359375 159.6389007568359375 161.9802703857421875 164.4431610107421875 166.916778564453125 169.4356689453125 172.029632568359375 174.6074676513671875 177.242218017578125 179.8568878173828125 182.46722412109375 185.083038330078125 187.680328369140625 190.2453765869140625 192.77398681640625 195.2486724853515625 197.653076171875 200.0002899169921875 202.275970458984375 204.4795989990234375 206.6085052490234375 208.6552276611328125 210.628997802734375 212.5035400390625 214.2595367431640625 215.953369140625 217.57061767578125 219.091644287109375 220.5240020751953125 221.875518798828125 223.15130615234375 224.351837158203125 225.462982177734375 226.4944610595703125 227.4438323974609375 228.3262176513671875 229.1412353515625 229.884735107421875 230.5657958984375 231.166229248046875 231.6900787353515625 232.1600341796875 232.5773773193359375 232.9345550537109375 233.2193450927734375 233.4287109375 233.590789794921875 233.703216552734375 233.7644805908203125 233.779388427734375 233.7063446044921875 233.6042022705078125 233.4673614501953125 233.286712646484375 233.072845458984375 232.835784912109375 232.5772552490234375 232.315582275390625 232.045318603515625 231.791595458984375 231.5725555419921875 231.351776123046875 231.21893310546875 231.1489715576171875 231.192108154296875 231.32586669921875 231.555389404296875 231.913238525390625 232.435150146484375 233.1161041259765625 233.9218292236328125 234.859771728515625 235.9405975341796875 237.10321044921875 238.348907470703125 239.625579833984375 240.842010498046875 241.9661865234375 242.977447509765625 243.8512725830078125 244.4807891845703125 244.81817626953125 244.8792266845703125 244.644989013671875 244.151123046875 243.4007720947265625 242.49609375 241.5818328857421875 240.7595672607421875 240.0474700927734375 239.4876861572265625 239.06854248046875 238.725677490234375 238.463653564453125 238.363067626953125 238.5649261474609375 238.9647216796875 239.510406494140625 240.1387939453125 240.82440185546875 241.543670654296875 242.27276611328125 242.9964599609375 243.6856842041015625 244.3532257080078125 245.0001983642578125 245.621368408203125 246.207977294921875 -99999 -99999 -99999 -99999 -99999 -99999 -99999 -99999 -99999 -99999 -99999 -99999 -99999 -99999 -99999 -99999 -99999 -99999 -99999 -99999 -99999
 -99999 -99999 -99999 -99999 -99999 -99999 -99999 -99999 -99999 -99999 -99999 -99999 -99999 -99999 -99999 -99999 -99999 -99999 -99999 -99999 -99999 -99999 -99999 -99999 -99999 -99999 -99999 -99999 -99999 -99999 -99999 -99999 -99999 -99999 31.927219390869140625 46.786388397216796875 60.295650482177734375 71.60416412353515625 81.62039947509765625 91.02420806884765625 100.1335296630859375 107.858428955078125 113.94370269775390625 118.56824493408203125 121.72025299072265625 123.72381591796875 124.76268768310546875 125.28672027587890625 125.5023345947265625 125.65688323974609375 125.81542205810546875 126.21292877197265625 126.743621826171875 127.58800506591796875 128.8321990966796875 130.2888641357421875 131.81732177734375 133.4767608642578125 135.4072418212890625 137.3065338134765625 139.207427978515625 141.2343292236328125 143.271148681640625 145.242156982421875 147.15850830078125 149.129547119140625 151.1069488525390625 153.1397857666015625 155.1799774169921875 157.221405029296875 159.4683685302734375 161.72137451171875 164.055572509765625 166.4586639404296875 168.9554901123046875 171.4244384765625 174.0028228759765625 176.5887451171875 179.2271728515625 181.879150390625 184.540008544921875 187.191864013671875 189.8217010498046875 192.4080810546875 194.9429473876953125 197.4364166259765625 199.8686065673828125 202.230010986328125 204.516357421875 206.735382080078125 208.8911895751953125 210.8863372802734375 212.8321380615234375 214.6893157958984375 216.4622650146484375 218.1229400634765625 219.702056884765625 221.200775146484375 222.6197967529296875 223.9445953369140625 225.1661529541015625 226.3158721923828125 227.3928680419921875 228.3946075439453125 229.320526123046875 230.160797119140625 230.9344024658203125 231.633270263671875 232.2722625732421875 232.8487396240234375 233.3502044677734375 233.7995758056640625 234.182647705078125 234.484161376953125 234.7404327392578125 234.938232421875 235.085113525390625 235.170166015625 235.2123260498046875 235.199188232421875 235.1366119384765625 235.0368499755859375 234.9031219482421875 234.74151611328125 234.5284576416015625 234.3037261962890625 234.0589752197265625 233.8240203857421875 233.607086181640625 233.3652191162109375 233.1432647705078125 232.9967193603515625 232.9111328125 232.8744049072265625 232.8953399658203125 233.0059967041015625 233.2638397216796875 233.6302642822265625 234.0987701416015625 234.6831817626953125 235.3822174072265625 236.2215728759765625 237.14910888671875 238.13458251953125 239.1665191650390625 240.20294189453125 241.2123260498046875 242.1542510986328125 242.9616241455078125 243.609100341796875 244.0472869873046875 244.281280517578125 244.2990570068359375 244.0319671630859375 243.546539306640625 242.9060821533203125 242.1794586181640625 241.4049835205078125 240.6375274658203125 239.9695892333984375 239.4303131103515625 238.9901580810546875 238.6284027099609375 238.334075927734375 238.2498779296875 238.5243377685546875 239.021728515625 239.6725006103515625 240.4027252197265625 241.1784515380859375 241.9633026123046875 242.7376861572265625 243.501617431640625 244.246368408203125 244.960540771484375 245.6158599853515625 246.2353057861328125 246.8296356201171875 -99999 -99999 -99999 -99999 -99999 -99999 -99999 -99999 -99999 -99999 -99999 -99999 -99999 -99999 -99999 -99999 -99999 -99999 -99999 -99999 -99999
 -99999 -99999 -99999 -99999 -99999 -99999 -99999 -99999 -99999 -99999 -99999 -99999 -99999 -99999 -99999 -99999 -99999 -99999 -99999 -99999 -99999 -99999 -99999 -99999 -99999 -99999 -99999 -99999 -99999 -99999 -99999 -99999 -99999 -99999 42.845417022705078125 58.61600494384765625 73.17073822021484375 81.99160003662109375 90.4970703125 100.3787841796875 109.6161956787109375 117.49858856201171875 123.56044769287109375 127.71900177001953125 129.9478912353515625 130.9528045654296875 131.0709686279296875 130.654937744140625 130.04095458984375 129.6257781982421875 129.2479705810546875 129.3003082275390625 129.7413330078125 130.535919189453125 131.537994384765625 132.7929840087890625 134.4531707763671875 136.2607421875 138.076690673828125 140.1045074462890625 142.119659423828125 143.9679412841796875 145.8321075439453125 147.7682342529296875 149.6894073486328125 151.5551910400390625 153.4412078857421875 155.29632568359375 157.3062591552734375 159.3532562255859375 161.50726318359375 163.6951751708984375 166.00146484375 168.358612060546875 170.8241424560546875 173.324462890625 175.9126434326171875 178.5446624755859375 181.208892822265625 183.9229736328125 186.615692138671875 189.2940216064453125 191.943756103515625 194.5726470947265625 197.156402587890625 199.665985107421875 202.1194915771484375 204.51776123046875 206.8494720458984375 209.01275634765625 211.12945556640625 213.1702117919921875 215.109588623046875 216.9469146728515625 218.67926025390625 220.33770751953125 221.9091033935546875 223.370513916015625 224.7317047119140625 226.015472412109375 227.2285919189453125 228.3486328125 229.3739776611328125 230.326171875 231.2111968994140625 232.0279541015625 232.7729034423828125 233.4290771484375 234.030426025390625 234.5730133056640625 235.028289794921875 235.44061279296875 235.78271484375 236.0671539306640625 236.2990875244140625 236.475189208984375 236.600372314453125 236.653564453125 236.6832122802734375 236.67138671875 236.6154632568359375 236.5166778564453125 236.3492889404296875 236.1771697998046875 235.9992218017578125 235.8106231689453125 235.5793304443359375 235.336517333984375 235.1000518798828125 234.9211273193359375 234.7669219970703125 234.6195220947265625 234.510955810546875 234.4722900390625 234.5380401611328125 234.676544189453125 234.8874359130859375 235.1868438720703125 235.6075439453125 236.136871337890625 236.758087158203125 237.4625396728515625 238.23114013671875 239.0652923583984375 239.923828125 240.7818756103515625 241.58367919921875 242.3132171630859375 242.9551544189453125 243.4521331787109375 243.7804107666015625 243.8931884765625 243.81890869140625 243.5693511962890625 243.16351318359375 242.592803955078125 241.92047119140625 241.225006103515625 240.5795745849609375 239.98529052734375 239.464996337890625 239.03851318359375 238.699615478515625 238.4468536376953125 238.3914794921875 238.6735382080078125 239.221893310546875 239.9759521484375 240.8018035888671875 241.632781982421875 242.470306396484375 243.302154541015625 244.1009368896484375 244.8556365966796875 245.572662353515625 246.2594451904296875 246.92144775390625 247.5441741943359375 248.099029541015625 -99999 -99999 -99999 -99999 -99999 -99999 -99999 -99999 -99999 -99999 -99999 -99999 -99999 -99999 -99999 -99999 -99999 -99999 -99999 -99999
 -99999 -99999 -99999 -99999 -99999 -99999 -99999 -99999 -99999 -99999 -99999 -99999 -99999 -99999 -99999 -99999 -99999 -99999 -99999 -99999 -99999 -99999 -99999 -99999 -99999 -99999 -99999 -99999 -99999 -99999 -99999 -99999 -99999 -99999 54.77606964111328125 71.69954681396484375 84.50858306884765625 91.220947265625 97.91095733642578125 108.42223358154296875 119.509490966796875 127.70879364013671875 133.1116180419921875 136.5512542724609375 137.936676025390625 137.7450714111328125 136.67010498046875 135.3544464111328125 134.1244964599609375 133.0451507568359375 132.2728118896484375 132.039459228515625 132.171630859375 132.788116455078125 133.879730224609375 135.3674774169921875 137.0010986328125 138.814910888671875 140.8581695556640625 142.759429931640625 144.718414306640625 146.6974334716796875 148.615478515625 150.3766326904296875 152.1363677978515625 153.886474609375 155.64251708984375 157.480712890625 159.4292755126953125 161.377044677734375 163.415863037109375 165.5721893310546875 167.86822509765625 170.17889404296875 172.6372528076171875 175.1755828857421875 177.7836456298828125 180.485107421875 183.1987762451171875 185.9291229248046875 188.6615142822265625 191.3996124267578125 194.10699462890625 196.7661590576171875 199.383209228515625 201.9649658203125 204.462493896484375 206.816619873046875 209.139373779296875 211.37554931640625 213.479644775390625 215.49432373046875 217.4187774658203125 219.256195068359375 220.9970245361328125 222.6132354736328125 224.12432861328125 225.564605712890625 226.915496826171875 228.163970947265625 229.311859130859375 230.3869171142578125 231.403900146484375 232.3388824462890625 233.165679931640625 233.9223175048828125 234.6181488037109375 235.2401123046875 235.8014068603515625 236.3074493408203125 236.725006103515625 237.0977630615234375 237.4207000732421875 237.684967041015625 237.8934326171875 238.0321197509765625 238.1365966796875 238.1981048583984375 238.2203826904296875 238.18310546875 238.0930633544921875 237.982452392578125 237.857879638671875 237.7009124755859375 237.505645751953125 237.2851409912109375 237.0629425048828125 236.8729095458984375 236.67742919921875 236.475372314453125 236.294036865234375 236.1662445068359375 236.103240966796875 236.0821380615234375 236.106170654296875 236.201446533203125 236.394927978515625 236.678466796875 237.044769287109375 237.4707489013671875 237.9847564697265625 238.58624267578125 239.2339324951171875 239.92169189453125 240.60235595703125 241.29052734375 241.9380950927734375 242.516387939453125 242.9915008544921875 243.33056640625 243.5510101318359375 243.613311767578125 243.515869140625 243.242767333984375 242.831634521484375 242.326446533203125 241.7740020751953125 241.1788787841796875 240.5891571044921875 240.054168701171875 239.6003570556640625 239.2338104248046875 238.941680908203125 238.786712646484375 238.8035125732421875 239.05780029296875 239.6648101806640625 240.476043701171875 241.3379974365234375 242.21435546875 243.081695556640625 243.9250946044921875 244.7433929443359375 245.56964111328125 246.3206024169921875 246.9726715087890625 247.62066650390625 248.174072265625 248.7285003662109375 -99999 -99999 -99999 -99999 -99999 -99999 -99999 -99999 -99999 -99999 -99999 -99999 -99999 -99999 -99999 -99999 -99999 -99999 -99999 -99999
 -99999 -99999 -99999 -99999 -99999 -99999 -99999 -99999 -99999 -99999 -99999 -99999 -99999 -99999 -99999 -99999 -99999 -99999 -99999 -99999 -99999 -99999 -99999 -99999 -99999 -99999 -99999 -99999 -99999 -99999 -99999 -99999 -99999 -99999 65.51773834228515625 80.09427642822265625 91.247406005859375 95.22422027587890625 103.16548919677734375 117.4025726318359375 129.809967041015625 137.88519287109375 143.038726806640625 145.37255859375 145.2193756103515625 143.7180328369140625 141.6852874755859375 139.2537384033203125 137.1333770751953125 135.4569854736328125 134.5024566650390625 133.9352874755859375 134.1081390380859375 134.83831787109375 135.9970245361328125 137.44024658203125 139.3527679443359375 141.3252716064453125 143.374053955078125 145.48834228515625 147.5327911376953125 149.372894287109375 151.1809539794921875 152.9032440185546875 154.5778656005859375 156.2010650634765625 157.947296142578125 159.611114501953125 161.313720703125 163.233978271484375 165.282318115234375 167.35009765625 169.56109619140625 171.9313201904296875 174.38311767578125 176.9883880615234375 179.64752197265625 182.37103271484375 185.1246490478515625 187.9356536865234375 190.7355194091796875 193.5220947265625 196.28802490234375 199.048583984375 201.6987152099609375 204.2493896484375 206.762908935546875 209.19366455078125 211.525970458984375 213.7437896728515625 215.87255859375 217.910888671875 219.830535888671875 221.6245269775390625 223.3170623779296875 224.92498779296875 226.4293060302734375 227.8233642578125 229.111328125 230.34368896484375 231.4784088134765625 232.5132293701171875 233.454071044921875 234.3229827880859375 235.1149749755859375 235.83892822265625 236.4981842041015625 237.080078125 237.5922698974609375 238.057037353515625 238.4634857177734375 238.8115081787109375 239.099090576171875 239.3240509033203125 239.5024566650390625 239.640625 239.728912353515625 239.7652130126953125 239.7446136474609375 239.6941375732421875 239.6257781982421875 239.51470947265625 239.35791015625 239.1781158447265625 238.989013671875 238.8019866943359375 238.6014556884765625 238.3779296875 238.1715240478515625 237.99163818359375 237.8449859619140625 237.7233428955078125 237.619903564453125 237.579345703125 237.6059112548828125 237.69952392578125 237.8532867431640625 238.0611572265625 238.3539581298828125 238.7209930419921875 239.154144287109375 239.632080078125 240.142547607421875 240.6943206787109375 241.2454376220703125 241.7834625244140625 242.271392822265625 242.6989288330078125 243.0586090087890625 243.302276611328125 243.4200897216796875 243.4015350341796875 243.262451171875 243.009124755859375 242.65069580078125 242.1939544677734375 241.6842498779296875 241.1650543212890625 240.6686859130859375 240.218505859375 239.8213043212890625 239.524169921875 239.3441009521484375 239.2965087890625 239.4089508056640625 239.7353363037109375 240.345306396484375 241.161865234375 242.016815185546875 242.8885498046875 243.7650299072265625 244.6650390625 245.4892730712890625 246.2630462646484375 246.971099853515625 247.6433563232421875 248.256805419921875 248.8344879150390625 249.36865234375 249.88409423828125 -99999 -99999 -99999 -99999 -99999 -99999 -99999 -99999 -99999 -99999 -99999 -99999 -99999 -99999 -99999 -99999 -99999 -99999 -99999
 -99999 -99999 -99999 -99999 -99999 -99999 -99999 -99999 -99999 -99999 -99999 -99999 -99999 -99999 -99999 -99999 -99999 -99999 -99999 -99999 -99999 -99999 -99999 -99999 -99999 -99999 -99999 -99999 -99999 -99999 -99999 -99999 -99999 -99999 74.27674102783203125 86.36006927490234375 95.64837646484375 102.2955322265625 113.15764617919921875 130.462646484375 140.786529541015625 147.651885986328125 152.2941436767578125 153.7698974609375 152.20599365234375 148.7049407958984375 145.1529388427734375 141.9736480712890625 139.3870391845703125 137.2741241455078125 135.9552001953125 135.4694366455078125 135.569000244140625 136.3158721923828125 137.6354522705078125 139.4545135498046875 141.5408172607421875 143.8089599609375 146.045166015625 148.1744842529296875 150.21661376953125 152.1775970458984375 153.8404388427734375 155.45391845703125 156.9835205078125 158.4687347412109375 159.9031219482421875 161.58758544921875 163.29315185546875 165.0190887451171875 166.9133453369140625 168.98248291015625 171.2031707763671875 173.6085662841796875 176.111053466796875 178.7170867919921875 181.428802490234375 184.22564697265625 187.0640716552734375 189.9286956787109375 192.8076324462890625 195.710662841796875 198.5105133056640625 201.26654052734375 203.9928436279296875 206.644073486328125 209.1879119873046875 211.6251983642578125 213.974365234375 216.219635009765625 218.3583831787109375 220.3638763427734375 222.2536163330078125 224.0506591796875 225.7257232666015625 227.2929840087890625 228.7507171630859375 230.13812255859375 231.4000396728515625 232.5557403564453125 233.6403656005859375 234.6214447021484375 235.51947021484375 236.339935302734375 237.1001739501953125 237.79803466796875 238.400604248046875 238.94488525390625 239.4359130859375 239.8748779296875 240.24127197265625 240.537139892578125 240.7801513671875 240.99725341796875 241.160491943359375 241.2602386474609375 241.3104095458984375 241.3246917724609375 241.309326171875 241.2564544677734375 241.1517333984375 241.019134521484375 240.868743896484375 240.7002105712890625 240.5153045654296875 240.3017425537109375 240.0879974365234375 239.88458251953125 239.6909942626953125 239.5080413818359375 239.3379058837890625 239.1993865966796875 239.1085052490234375 239.0620269775390625 239.0555572509765625 239.102783203125 239.206298828125 239.3805389404296875 239.6125640869140625 239.889190673828125 240.2221832275390625 240.596710205078125 241.0048065185546875 241.4268341064453125 241.84033203125 242.246002197265625 242.61810302734375 242.922119140625 243.1538848876953125 243.294036865234375 243.3472747802734375 243.2998504638671875 243.1271820068359375 242.8646240234375 242.5196533203125 242.1200714111328125 241.686737060546875 241.2354583740234375 240.802459716796875 240.4281463623046875 240.127349853515625 239.9193878173828125 239.8123016357421875 239.8390045166015625 240.0692596435546875 240.48260498046875 241.1143646240234375 241.8986968994140625 242.7476348876953125 243.65191650390625 244.5168304443359375 245.384918212890625 246.19805908203125 246.9759063720703125 247.70050048828125 248.363311767578125 248.9508056640625 249.495849609375 250.0115203857421875 250.509368896484375 -99999 -99999 -99999 -99999 -99999 -99999 -99999 -99999 -99999 -99999 -99999 -99999 -99999 -99999 -99999 -99999 -99999 -99999 -99999
 -99999 -99999 -99999 -99999 -99999 -99999 -99999 -99999 -99999 -99999 -99999 -99999 -99999 -99999 -99999 -99999 -99999 -99999 -99999 -99999 -99999 -99999 -99999 -99999 -99999 -99999 -99999 -99999 -99999 -99999 -99999 -99999 -99999 70.421905517578125 82.24137115478515625 93.37075042724609375 103.44857025146484375 112.58774566650390625 125.6884002685546875 139.215087890625 148.710968017578125 154.285888671875 162.7994232177734375 161.538360595703125 156.61907958984375 151.706695556640625 147.3220062255859375 143.5311737060546875 140.396697998046875 138.1506195068359375 136.801361083984375 136.154937744140625 136.4890899658203125 137.4914093017578125 139.1928863525390625 141.304779052734375 143.7621612548828125 146.2920989990234375 148.774688720703125 151.058502197265625 153.153045654296875 154.9542388916015625 156.512176513671875 157.93194580078125 159.2960052490234375 160.7108612060546875 162.1085052490234375 163.439544677734375 164.94549560546875 166.6116790771484375 168.51641845703125 170.56256103515625 172.7795562744140625 175.1496124267578125 177.69879150390625 180.388946533203125 183.18060302734375 186.0526275634765625 188.9878082275390625 191.9697265625 194.9137725830078125 197.849151611328125 200.7685699462890625 203.6354522705078125 206.3938751220703125 209.06622314453125 211.6520233154296875 214.1530914306640625 216.5256805419921875 218.7559051513671875 220.8783721923828125 222.8790130615234375 224.7672576904296875 226.5415496826171875 228.192626953125 229.7326812744140625 231.1620330810546875 232.473541259765625 233.696044921875 234.80865478515625 235.8303375244140625 236.7710113525390625 237.6621551513671875 238.444671630859375 239.1375732421875 239.769195556640625 240.33990478515625 240.8581695556640625 241.3028564453125 241.676361083984375 242.0011138916015625 242.286407470703125 242.52239990234375 242.6880645751953125 242.8050689697265625 242.8825836181640625 242.928802490234375 242.9369659423828125 242.88665771484375 242.80352783203125 242.6916351318359375 242.5618133544921875 242.407745361328125 242.21868896484375 242.015228271484375 241.804473876953125 241.5966339111328125 241.3896942138671875 241.1789703369140625 240.979644775390625 240.808990478515625 240.667144775390625 240.5571746826171875 240.4762420654296875 240.434722900390625 240.4525604248046875 240.5162811279296875 240.63031005859375 240.7855377197265625 240.986846923828125 241.234375 241.509521484375 241.8115234375 242.1194305419921875 242.425079345703125 242.705810546875 242.9553680419921875 243.1599578857421875 243.3048248291015625 243.3676300048828125 243.3435516357421875 243.24493408203125 243.064361572265625 242.8137054443359375 242.485626220703125 242.1181488037109375 241.7333221435546875 241.3555450439453125 241.0043487548828125 240.6962738037109375 240.4598388671875 240.32562255859375 240.3224029541015625 240.4513397216796875 240.73480224609375 241.193084716796875 241.841766357421875 242.62152099609375 243.4904022216796875 244.375274658203125 245.262542724609375 246.12872314453125 246.9615478515625 247.7413330078125 248.4403533935546875 249.0684356689453125 249.6330413818359375 250.1463165283203125 250.6263580322265625 251.09649658203125 251.5763397216796875 -99999 -99999 -99999 -99999 -99999 -99999 -99999 -99999 -99999 -99999 -99999 -99999 -99999 -99999 -99999 -99999 -99999 -99999
 -99999 -99999 -99999 -99999 -99999 -99999 -99999 -99999 -99999 -99999 -99999 -99999 -99999 -99999 -99999 -99999 -99999 -99999 -99999 -99999 -99999 -99999 -99999 -99999 -99999 -99999 -99999 -99999 -99999 -99999 -99999 -99999 -99999 79.121002197265625 90.260955810546875 101.1346893310546875 111.54096221923828125 122.5367889404296875 133.866119384765625 145.4096527099609375 153.2041015625 163.933807373046875 171.92425537109375 165.8196563720703125 158.197845458984375 152.37451171875 147.531646728515625 143.49652099609375 140.4242401123046875 138.0247802734375 136.7421417236328125 136.377197265625 136.92144775390625 138.3654937744140625 140.361114501953125 143.0103759765625 146.0554656982421875 148.846893310546875 151.5740509033203125 154.086761474609375 156.137542724609375 157.8402099609375 159.285675048828125 160.6440582275390625 161.7410430908203125 162.872772216796875 163.8716888427734375 165.1277923583984375 166.5562744140625 168.1321258544921875 169.9260711669921875 171.89404296875 174.159576416015625 176.6039886474609375 179.2149505615234375 181.9768218994140625 184.8567047119140625 187.864501953125 190.9535064697265625 193.977569580078125 197.0699462890625 200.1023712158203125 203.0898284912109375 206.0092010498046875 208.8554229736328125 211.623565673828125 214.24432373046875 216.73291015625 219.1031341552734375 221.3566741943359375 223.4931640625 225.508941650390625 227.3795166015625 229.1035614013671875 230.7278900146484375 232.2191162109375 233.6003570556640625 234.8544464111328125 236.0268096923828125 237.1122589111328125 238.112152099609375 238.9958038330078125 239.790191650390625 240.5303497314453125 241.1962127685546875 241.796112060546875 242.306121826171875 242.756927490234375 243.1624298095703125 243.5203094482421875 243.823455810546875 244.0516510009765625 244.236968994140625 244.38134765625 244.49298095703125 244.5603179931640625 244.5711517333984375 244.536376953125 244.4752349853515625 244.3878631591796875 244.2758941650390625 244.1156768798828125 243.934112548828125 243.7375640869140625 243.5340576171875 243.326263427734375 243.1049652099609375 242.8637542724609375 242.646026611328125 242.450775146484375 242.273895263671875 242.1007537841796875 241.9502105712890625 241.8466644287109375 241.7881011962890625 241.7620086669921875 241.76470947265625 241.8072509765625 241.90045166015625 242.037384033203125 242.1952972412109375 242.374755859375 242.57745361328125 242.777984619140625 242.989227294921875 243.1703033447265625 243.3206634521484375 243.4235687255859375 243.47320556640625 243.4801483154296875 243.4138946533203125 243.27398681640625 243.06414794921875 242.8047027587890625 242.5115509033203125 242.1874542236328125 241.8422393798828125 241.5092620849609375 241.2124176025390625 240.982025146484375 240.8362884521484375 240.768310546875 240.8150634765625 240.997955322265625 241.335906982421875 241.8341217041015625 242.5008392333984375 243.29229736328125 244.162353515625 245.0802154541015625 246.0032501220703125 246.8692474365234375 247.70159912109375 248.4780731201171875 249.1749267578125 249.7794342041015625 250.2965087890625 250.752410888671875 251.18890380859375 251.6290283203125 252.0933380126953125 -99999 -99999 -99999 -99999 -99999 -99999 -99999 -99999 -99999 -99999 -99999 -99999 -99999 -99999 -99999 -99999 -99999 -99999
 -99999 -99999 -99999 -99999 -99999 -99999 -99999 -99999 -99999 -99999 -99999 -99999 -99999 -99999 -99999 -99999 -99999 -99999 -99999 -99999 -99999 -99999 -99999 -99999 -99999 -99999 -99999 -99999 -99999 -99999 -99999 -99999 -99999 87.282501220703125 97.93003082275390625 108.4362030029296875 118.73925018310546875 129.172454833984375 139.5424041748046875 149.143524169921875 158.4210662841796875 167.1587677001953125 168.84454345703125 163.6340484619140625 156.1629486083984375 150.9141998291015625 146.4760894775390625 142.709014892578125 139.73284912109375 137.585418701171875 136.397247314453125 136.1438751220703125 136.884124755859375 138.8524627685546875 141.585968017578125 144.8590240478515625 148.4617462158203125 151.88323974609375 154.896575927734375 157.444854736328125 159.369964599609375 160.9438934326171875 162.1430816650390625 163.013397216796875 163.9790191650390625 164.80548095703125 165.652801513671875 166.6781463623046875 167.925384521484375 169.409271240234375 171.1702117919921875 173.1763916015625 175.425018310546875 177.92840576171875 180.609832763671875 183.5324249267578125 186.61102294921875 189.7027740478515625 192.8607635498046875 196.0137786865234375 199.218505859375 202.390960693359375 205.5038299560546875 208.5131072998046875 211.4302978515625 214.2104644775390625 216.8527374267578125 219.3986358642578125 221.8181304931640625 224.0906219482421875 226.19317626953125 228.157745361328125 230.029144287109375 231.7309417724609375 233.3013458251953125 234.7327880859375 236.1025848388671875 237.3497772216796875 238.4513702392578125 239.4526824951171875 240.3898162841796875 241.2378692626953125 241.994476318359375 242.6654052734375 243.25433349609375 243.797821044921875 244.2803192138671875 244.7058258056640625 245.0731964111328125 245.3754730224609375 245.6388092041015625 245.8437042236328125 246.0033111572265625 246.1292266845703125 246.21014404296875 246.225494384765625 246.214752197265625 246.1661224365234375 246.0933837890625 245.986480712890625 245.8482666015625 245.6723785400390625 245.4822235107421875 245.2681732177734375 245.0482940673828125 244.8203277587890625 244.5819091796875 244.343536376953125 244.108795166015625 243.8875885009765625 243.682708740234375 243.492431640625 243.3318328857421875 243.191253662109375 243.0839996337890625 243.009765625 242.970428466796875 242.961456298828125 242.9817657470703125 243.0427398681640625 243.12335205078125 243.205291748046875 243.314178466796875 243.429656982421875 243.528106689453125 243.6194000244140625 243.68780517578125 243.7112274169921875 243.6883544921875 243.609375 243.4995269775390625 243.3404388427734375 243.119720458984375 242.854339599609375 242.554229736328125 242.2618865966796875 241.969940185546875 241.6751251220703125 241.4285125732421875 241.23797607421875 241.15667724609375 241.1542205810546875 241.2538604736328125 241.53265380859375 241.9173431396484375 242.459228515625 243.1229705810546875 243.8978729248046875 244.7740936279296875 245.709014892578125 246.6381988525390625 247.5404815673828125 248.4120330810546875 249.2039337158203125 249.8883209228515625 250.4426422119140625 250.89776611328125 251.2956390380859375 251.688079833984375 252.095245361328125 252.551116943359375 253.064727783203125 -99999 -99999 -99999 -99999 -99999 -99999 -99999 -99999 -99999 -99999 -99999 -99999 -99999 -99999 -99999 -99999 -99999
 -99999 -99999 -99999 -99999 -99999 -99999 -99999 -99999 -99999 -99999 -99999 -99999 -99999 -99999 -99999 -99999 -99999 -99999 -99999 -99999 -99999 -99999 -99999 -99999 -99999 -99999 -99999 -99999 -99999 -99999 -99999 -99999 -99999 94.75238037109375 104.92974853515625 114.95804595947265625 124.682403564453125 134.27557373046875 143.6600799560546875 152.0052490234375 159.11456298828125 164.14251708984375 165.3504180908203125 159.9807891845703125 154.4431610107421875 149.3127593994140625 144.897552490234375 141.322357177734375 138.6761627197265625 136.724365234375 135.6374053955078125 135.654693603515625 136.8434600830078125 139.424835205078125 142.887176513671875 147.1772003173828125 151.28045654296875 155.0340576171875 158.3663177490234375 160.9711456298828125 162.90106201171875 164.1873016357421875 165.091217041015625 165.66839599609375 166.0987091064453125 166.506683349609375 167.2310791015625 168.0394744873046875 169.15496826171875 170.5060272216796875 172.14666748046875 174.181121826171875 176.4957427978515625 179.218963623046875 182.0662994384765625 185.037506103515625 188.1607513427734375 191.3809814453125 194.7772064208984375 198.1662750244140625 201.49774169921875 204.7630767822265625 207.9671173095703125 211.0703125 214.0449981689453125 216.899871826171875 219.6321563720703125 222.2019500732421875 224.5836181640625 226.8345489501953125 229.0142974853515625 230.93829345703125 232.7523040771484375 234.4238433837890625 235.989837646484375 237.381561279296875 238.6430816650390625 239.820709228515625 240.9045562744140625 241.8736114501953125 242.7134552001953125 243.4783935546875 244.175079345703125 244.8060455322265625 245.365234375 245.8585968017578125 246.294189453125 246.6884765625 246.9913787841796875 247.243316650390625 247.4555206298828125 247.6312408447265625 247.7592315673828125 247.8537750244140625 247.8931884765625 247.89532470703125 247.8650970458984375 247.8010406494140625 247.7063140869140625 247.5727386474609375 247.4128570556640625 247.230072021484375 247.026947021484375 246.8068389892578125 246.5669097900390625 246.3174896240234375 246.0641632080078125 245.811492919921875 245.5616912841796875 245.3151702880859375 245.079071044921875 244.8631439208984375 244.6702117919921875 244.498321533203125 244.34625244140625 244.21820068359375 244.128448486328125 244.070159912109375 244.031494140625 244.00848388671875 244.0024871826171875 244.028228759765625 244.0638275146484375 244.08563232421875 244.095367431640625 244.0934906005859375 244.084228515625 244.0455322265625 243.953948974609375 243.82489013671875 243.663482666015625 243.465057373046875 243.229095458984375 242.96588134765625 242.6903533935546875 242.407135009765625 242.1333770751953125 241.889617919921875 241.701629638671875 241.57421875 241.51873779296875 241.5698699951171875 241.729217529296875 242.022003173828125 242.434722900390625 242.9810791015625 243.6529388427734375 244.438812255859375 245.31121826171875 246.2397003173828125 247.192138671875 248.1221466064453125 249.0430755615234375 249.88043212890625 250.5610198974609375 251.065673828125 251.4591064453125 251.7643890380859375 252.0816802978515625 252.4593048095703125 252.9262542724609375 253.4535369873046875 254.0722198486328125 -99999 -99999 -99999 -99999 -99999 -99999 -99999 -99999 -99999 -99999 -99999 -99999 -99999 -99999 -99999 -99999
 -99999 -99999 -99999 -99999 -99999 -99999 -99999 -99999 -99999 -99999 -99999 -99999 -99999 -99999 -99999 -99999 -99999 -99999 -99999 -99999 -99999 -99999 -99999 -99999 -99999 -99999 -99999 -99999 -99999 -99999 -99999 -99999 -99999 101.7923583984375 111.21787261962890625 120.64183807373046875 129.634124755859375 138.392303466796875 146.053253173828125 153.09942626953125 158.7851104736328125 162.095062255859375 161.586151123046875 158.577423095703125 153.53033447265625 148.533660888671875 143.8147735595703125 140.354461669921875 137.994171142578125 136.1179656982421875 134.939117431640625 135.0174560546875 136.5550079345703125 139.7617034912109375 144.240264892578125 149.495513916015625 154.57476806640625 159.1274261474609375 162.5584259033203125 165.04754638671875 166.5748138427734375 167.474456787109375 167.8392333984375 167.956512451171875 168.0986175537109375 168.236328125 168.577850341796875 169.0684967041015625 169.9778289794921875 171.3213653564453125 173.013824462890625 175.2297821044921875 177.4582061767578125 180.1755523681640625 183.1091156005859375 186.308929443359375 189.7945709228515625 193.3086090087890625 196.7772979736328125 200.278350830078125 203.8013458251953125 207.2408905029296875 210.553558349609375 213.7332763671875 216.8181304931640625 219.7234954833984375 222.44268798828125 225.013916015625 227.4842376708984375 229.7630462646484375 231.84490966796875 233.7857818603515625 235.5753936767578125 237.195220947265625 238.664520263671875 240.049041748046875 241.30633544921875 242.393341064453125 243.35546875 244.245941162109375 245.0625152587890625 245.795135498046875 246.4283447265625 246.985595703125 247.4971160888671875 247.917388916015625 248.2932586669921875 248.6093292236328125 248.879638671875 249.1113739013671875 249.294647216796875 249.4409942626953125 249.5348052978515625 249.590179443359375 249.6095733642578125 249.593719482421875 249.543548583984375 249.450927734375 249.328948974609375 249.1795196533203125 249.0043487548828125 248.804534912109375 248.5781707763671875 248.3356170654296875 248.0810699462890625 247.816802978515625 247.5444488525390625 247.26544189453125 246.9893798828125 246.7227935791015625 246.46551513671875 246.2181549072265625 245.9822540283203125 245.7687835693359375 245.582061767578125 245.4173431396484375 245.26861572265625 245.13665771484375 245.034454345703125 244.9568328857421875 244.8943328857421875 244.8282928466796875 244.7646942138671875 244.7144622802734375 244.66131591796875 244.5948944091796875 244.492279052734375 244.36932373046875 244.230804443359375 244.062896728515625 243.8621063232421875 243.626708984375 243.3740081787109375 243.1071624755859375 242.832977294921875 242.5637359619140625 242.3190155029296875 242.109222412109375 241.948455810546875 241.8497772216796875 241.8382110595703125 241.928192138671875 242.1229095458984375 242.4364166259765625 242.8666839599609375 243.427764892578125 244.103057861328125 244.8847808837890625 245.754119873046875 246.680877685546875 247.64556884765625 248.6314239501953125 249.608154296875 250.4786529541015625 251.1820526123046875 251.619537353515625 251.8639678955078125 252.0958404541015625 252.36663818359375 252.715728759765625 253.2059326171875 253.80377197265625 254.47869873046875 -99999 -99999 -99999 -99999 -99999 -99999 -99999 -99999 -99999 -99999 -99999 -99999 -99999 -99999 -99999 -99999
 -99999 -99999 -99999 -99999 -99999 -99999 -99999 -99999 -99999 -99999 -99999 -99999 -99999 -99999 -99999 -99999 -99999 -99999 -99999 -99999 -99999 -99999 -99999 -99999 -99999 -99999 -99999 -99999 -99999 -99999 -99999 -99999 -99999 108.27359771728515625 117.09052276611328125 125.56339263916015625 133.7931365966796875 141.46331787109375 148.2085113525390625 153.9263763427734375 157.8772125244140625 159.898651123046875 159.5622406005859375 156.9641571044921875 152.9166107177734375 148.4136199951171875 144.0580596923828125 140.49700927734375 138.0091705322265625 135.9955596923828125 134.485382080078125 134.2741851806640625 136.0944671630859375 140.653564453125 146.4215240478515625 152.9661407470703125 158.8908233642578125 163.799530029296875 167.298309326171875 169.4822235107421875 170.6499786376953125 170.919342041015625 170.6460113525390625 170.274261474609375 169.77294921875 169.54254150390625 169.4717864990234375 169.9050445556640625 170.8906707763671875 172.16796875 173.6196136474609375 175.748291015625 178.260986328125 181.15850830078125 184.308990478515625 187.7451171875 191.3715057373046875 195.046966552734375 198.848876953125 202.61663818359375 206.2157440185546875 209.773681640625 213.258514404296875 216.55267333984375 219.655517578125 222.5978546142578125 225.43218994140625 228.091461181640625 230.475006103515625 232.73382568359375 234.81097412109375 236.737060546875 238.4508209228515625 240.0707244873046875 241.5183258056640625 242.7772674560546875 243.898681640625 244.959381103515625 245.9084014892578125 246.72265625 247.4492340087890625 248.0980224609375 248.653350830078125 249.1529083251953125 249.596649169921875 249.969482421875 250.2908172607421875 250.571929931640625 250.8091888427734375 251.00390625 251.1443634033203125 251.2484893798828125 251.3166656494140625 251.34881591796875 251.3436279296875 251.2859344482421875 251.2078094482421875 251.100372314453125 250.96356201171875 250.7885589599609375 250.5870819091796875 250.3636627197265625 250.1278228759765625 249.8717803955078125 249.59503173828125 249.30389404296875 249.00946044921875 248.7117462158203125 248.413818359375 248.1150054931640625 247.8212890625 247.5440826416015625 247.279571533203125 247.0296783447265625 246.789337158203125 246.5680389404296875 246.3734893798828125 246.1964263916015625 246.03570556640625 245.8761138916015625 245.734954833984375 245.6097259521484375 245.4880828857421875 245.3627777099609375 245.21771240234375 245.0727081298828125 244.917572021484375 244.7442779541015625 244.5453338623046875 244.3174285888671875 244.07720947265625 243.8201141357421875 243.5492095947265625 243.269561767578125 242.99444580078125 242.7369232177734375 242.5046844482421875 242.309051513671875 242.17254638671875 242.107635498046875 242.1278228759765625 242.2379608154296875 242.4464874267578125 242.7774658203125 243.2244415283203125 243.79290771484375 244.464996337890625 245.2321929931640625 246.0888519287109375 247.012359619140625 247.9823455810546875 248.9750518798828125 249.9743499755859375 250.9171600341796875 251.6556854248046875 252.0134429931640625 252.1659393310546875 252.2657318115234375 252.47686767578125 252.865142822265625 253.400421142578125 254.059356689453125 254.834320068359375 255.6857147216796875 -99999 -99999 -99999 -99999 -99999 -99999 -99999 -99999 -99999 -99999 -99999 -99999 -99999 -99999 -99999
 -99999 -99999 -99999 -99999 -99999 -99999 -99999 -99999 -99999 -99999 -99999 -99999 -99999 -99999 -99999 -99999 -99999 -99999 -99999 -99999 -99999 -99999 -99999 -99999 -99999 -99999 -99999 -99999 -99999 -99999 -99999 -99999 -99999 114.18183135986328125 122.3406524658203125 130.0710296630859375 137.3261566162109375 144.0049896240234375 149.6499481201171875 154.1686553955078125 157.3285064697265625 158.8455047607421875 158.4306488037109375 156.23370361328125 152.86212158203125 148.915496826171875 144.87060546875 141.470977783203125 138.7115020751953125 136.3367767333984375 134.451690673828125 133.6954803466796875 135.8459014892578125 141.3494873046875 149.0921783447265625 156.99365234375 164.0515594482421875 169.3360748291015625 172.9341278076171875 174.46917724609375 174.77679443359375 174.1795196533203125 172.9697265625 172.1295928955078125 171.1843719482421875 170.5774993896484375 170.475830078125 170.6997222900390625 171.090240478515625 172.28271484375 173.9903106689453125 176.2050933837890625 178.8607330322265625 181.9396209716796875 185.4438629150390625 189.16485595703125 192.9917144775390625 197.0233917236328125 200.9594573974609375 204.890533447265625 208.80853271484375 212.5491485595703125 216.0460052490234375 219.4220123291015625 222.6796112060546875 225.74432373046875 228.5048828125 231.16937255859375 233.5829010009765625 235.8402099609375 237.9088134765625 239.823883056640625 241.4871368408203125 242.9665374755859375 244.3234710693359375 245.5711517333984375 246.668487548828125 247.60205078125 248.43902587890625 249.214630126953125 249.8340911865234375 250.4067840576171875 250.915069580078125 251.3369293212890625 251.7122650146484375 252.0384979248046875 252.318939208984375 252.55316162109375 252.729522705078125 252.881103515625 252.99462890625 253.06207275390625 253.1083831787109375 253.1033477783203125 253.0650177001953125 252.9926605224609375 252.900909423828125 252.76611328125 252.6000518798828125 252.406890869140625 252.189239501953125 251.9488983154296875 251.6833343505859375 251.40155029296875 251.0980072021484375 250.7869873046875 250.4690704345703125 250.1436920166015625 249.8144073486328125 249.4859161376953125 249.16827392578125 248.8580169677734375 248.545989990234375 248.25537109375 247.9777374267578125 247.71380615234375 247.4625244140625 247.21826171875 246.99798583984375 246.7883758544921875 246.5874176025390625 246.3880462646484375 246.18621826171875 245.9925079345703125 245.793670654296875 245.5868377685546875 245.36175537109375 245.1220550537109375 244.8729705810546875 244.6092529296875 244.3319549560546875 244.0392913818359375 243.745025634765625 243.4549713134765625 243.175018310546875 242.913116455078125 242.685760498046875 242.5094451904296875 242.3901824951171875 242.3371429443359375 242.35986328125 242.4857330322265625 242.722869873046875 243.0626373291015625 243.506500244140625 244.0552520751953125 244.717437744140625 245.48297119140625 246.322174072265625 247.2213897705078125 248.1654052734375 249.1334228515625 250.105194091796875 251.031829833984375 251.794464111328125 252.147430419921875 252.1602783203125 252.2282562255859375 252.43829345703125 252.8304901123046875 253.4398040771484375 254.263763427734375 255.1934967041015625 256.148345947265625 -99999 -99999 -99999 -99999 -99999 -99999 -99999 -99999 -99999 -99999 -99999 -99999 -99999 -99999 -99999
 -99999 -99999 -99999 -99999 -99999 -99999 -99999 -99999 -99999 -99999 -99999 -99999 -99999 -99999 -99999 -99999 -99999 -99999 -99999 -99999 -99999 -99999 -99999 -99999 -99999 -99999 -99999 -99999 -99999 -99999 -99999 -99999 112.1527862548828125 119.74881744384765625 127.14752960205078125 134.0664520263671875 140.55029296875 146.3394927978515625 151.1699981689453125 154.986968994140625 157.3369903564453125 158.1837005615234375 157.6999053955078125 155.899810791015625 153.045654296875 149.7681427001953125 146.3716278076171875 143.117767333984375 140.185028076171875 137.643829345703125 135.155426025390625 133.6327362060546875 135.160186767578125 143.802581787109375 153.4258270263671875 162.7413330078125 170.5697479248046875 176.110076904296875 178.8805999755859375 179.6098175048828125 178.6822662353515625 176.9781951904296875 175.25897216796875 173.555419921875 172.0572509765625 171.355743408203125 170.6207122802734375 170.6400299072265625 171.201812744140625 172.33428955078125 174.0381622314453125 176.356231689453125 179.334503173828125 182.739410400390625 186.49176025390625 190.5128173828125 194.7500762939453125 199.0404510498046875 203.328643798828125 207.4970245361328125 211.4490509033203125 215.32373046875 219.0825958251953125 222.625823974609375 225.83587646484375 228.8495635986328125 231.711517333984375 234.412445068359375 236.8563995361328125 239.05718994140625 241.10162353515625 242.89263916015625 244.5214385986328125 246.008514404296875 247.28216552734375 248.3993988037109375 249.408203125 250.2935638427734375 251.0307769775390625 251.6922607421875 252.26385498046875 252.7449493408203125 253.1675872802734375 253.5308990478515625 253.853790283203125 254.0984039306640625 254.330047607421875 254.51080322265625 254.647003173828125 254.7674407958984375 254.83941650390625 254.8746490478515625 254.8800201416015625 254.853515625 254.7960357666015625 254.70147705078125 254.575286865234375 254.4188232421875 254.2345428466796875 254.0235443115234375 253.780487060546875 253.5139007568359375 253.2272491455078125 252.9214935302734375 252.6018524169921875 252.2632293701171875 251.9176177978515625 251.5660552978515625 251.210052490234375 250.85260009765625 250.49658203125 250.149871826171875 249.7978515625 249.4663848876953125 249.142303466796875 248.8203887939453125 248.5229644775390625 248.23828125 247.95709228515625 247.6806640625 247.41705322265625 247.15704345703125 246.89849853515625 246.6392059326171875 246.3707733154296875 246.099822998046875 245.820404052734375 245.531585693359375 245.23291015625 244.920196533203125 244.6036376953125 244.2843017578125 243.9664306640625 243.6550750732421875 243.36279296875 243.1005096435546875 242.8745574951171875 242.6937713623046875 242.567901611328125 242.5288238525390625 242.57275390625 242.7034759521484375 242.9267120361328125 243.2503662109375 243.7019195556640625 244.2537384033203125 244.8972930908203125 245.62518310546875 246.428009033203125 247.301727294921875 248.205413818359375 249.1185455322265625 250.0159149169921875 250.847900390625 251.477386474609375 251.7917022705078125 251.8899383544921875 251.92022705078125 252.1574249267578125 252.7160797119140625 253.4965972900390625 254.5075225830078125 255.5511016845703125 256.5615234375 257.63970947265625 -99999 -99999 -99999 -99999 -99999 -99999 -99999 -99999 -99999 -99999 -99999 -99999 -99999 -99999
 -99999 -99999 -99999 -99999 -99999 -99999 -99999 -99999 -99999 -99999 -99999 -99999 -99999 -99999 -99999 -99999 -99999 -99999 -99999 -99999 -99999 -99999 -99999 -99999 -99999 -99999 -99999 -99999 -99999 -99999 -99999 -99999 117.97782135009765625 124.9243316650390625 131.696990966796875 137.95062255859375 143.5881500244140625 148.6832275390625 152.80523681640625 155.74200439453125 157.6744537353515625 158.4868927001953125 158.0878753662109375 156.4440155029296875 154.1493682861328125 151.270843505859375 148.20166015625 145.2777099609375 142.632904052734375 140.318328857421875 138.327392578125 136.971771240234375 140.5761566162109375 149.1244049072265625 159.5770416259765625 169.808258056640625 178.5648345947265625 183.740081787109375 185.8282470703125 184.80908203125 182.0455169677734375 179.261016845703125 176.604034423828125 174.2380523681640625 172.5596923828125 171.4241180419921875 170.7165679931640625 170.4209442138671875 170.8129119873046875 171.958251953125 173.870361328125 176.44061279296875 179.6305694580078125 183.3389434814453125 187.515106201171875 191.982513427734375 196.533782958984375 201.1602020263671875 205.6944427490234375 210.1465301513671875 214.4728240966796875 218.5268096923828125 222.2588043212890625 225.781005859375 229.1744232177734375 232.2913970947265625 235.174072265625 237.7964324951171875 240.20556640625 242.411346435546875 244.3916778564453125 246.13397216796875 247.690643310546875 249.07366943359375 250.292266845703125 251.354339599609375 252.211334228515625 252.994842529296875 253.6557769775390625 254.2075653076171875 254.685394287109375 255.0919952392578125 255.4344024658203125 255.7286834716796875 255.960540771484375 256.165557861328125 256.33099365234375 256.464599609375 256.56341552734375 256.627288818359375 256.65472412109375 256.659423828125 256.653839111328125 256.578460693359375 256.48858642578125 256.37933349609375 256.24359130859375 256.077117919921875 255.854705810546875 255.60968017578125 255.35479736328125 255.07318115234375 254.768035888671875 254.428558349609375 254.0792388916015625 253.721649169921875 253.3511810302734375 252.9795379638671875 252.58026123046875 252.19140625 251.805206298828125 251.4188079833984375 251.0371856689453125 250.660736083984375 250.292572021484375 249.9303741455078125 249.5769805908203125 249.2329254150390625 248.89654541015625 248.567657470703125 248.2456512451171875 247.9239501953125 247.6068878173828125 247.2852783203125 246.9609832763671875 246.6320953369140625 246.2989654541015625 245.9575958251953125 245.608917236328125 245.25604248046875 244.9010009765625 244.5489044189453125 244.20343017578125 243.8728485107421875 243.5634613037109375 243.282135009765625 243.0426177978515625 242.863037109375 242.7440643310546875 242.6934051513671875 242.71844482421875 242.841583251953125 243.07354736328125 243.40069580078125 243.82330322265625 244.3401336669921875 244.9654693603515625 245.6772613525390625 246.450775146484375 247.2708587646484375 248.120330810546875 248.9709625244140625 249.7664947509765625 250.462493896484375 251.0100555419921875 251.342742919921875 251.4216461181640625 251.5418853759765625 251.79718017578125 252.579833984375 253.678375244140625 254.840667724609375 256.0355224609375 257.24993896484375 258.44915771484375 -99999 -99999 -99999 -99999 -99999 -99999 -99999 -99999 -99999 -99999 -99999 -99999 -99999 -99999
 -99999 -99999 -99999 -99999 -99999 -99999 -99999 -99999 -99999 -99999 -99999 -99999 -99999 -99999 -99999 -99999 -99999 -99999 -99999 -99999 -99999 -99999 -99999 -99999 -99999 -99999 -99999 -99999 -99999 -99999 -99999 -99999 123.5009918212890625 129.9306793212890625 135.99298095703125 141.71539306640625 146.77960205078125 151.1014556884765625 154.6600494384765625 157.2530059814453125 158.8501434326171875 159.2898406982421875 158.876556396484375 157.623565673828125 155.615142822265625 153.2118682861328125 150.8094024658203125 148.3330841064453125 146.2320556640625 144.7372589111328125 144.042999267578125 145.10455322265625 149.122711181640625 157.1913299560546875 167.3199462890625 178.0623321533203125 187.978851318359375 193.0970611572265625 193.021820068359375 189.0645599365234375 184.4345550537109375 180.302459716796875 176.869964599609375 174.3867034912109375 172.602783203125 171.0863494873046875 170.145904541015625 169.8462982177734375 170.2835845947265625 171.4368133544921875 173.3754425048828125 176.1175689697265625 179.7381134033203125 183.99139404296875 188.651336669921875 193.59320068359375 198.713409423828125 203.5947723388671875 208.550537109375 213.19830322265625 217.5738525390625 221.726593017578125 225.72442626953125 229.436248779296875 232.79443359375 235.85894775390625 238.7391815185546875 241.3802337646484375 243.7776641845703125 245.9222564697265625 247.7945709228515625 249.531341552734375 251.006744384765625 252.2509307861328125 253.3568878173828125 254.300933837890625 255.0921478271484375 255.741546630859375 256.287445068359375 256.744384765625 257.12408447265625 257.44415283203125 257.68377685546875 257.8905029296875 258.0579833984375 258.201690673828125 258.2935791015625 258.360504150390625 258.422119140625 258.471893310546875 258.506622314453125 258.47430419921875 258.409881591796875 258.333740234375 258.242340087890625 258.118011474609375 257.93505859375 257.722686767578125 257.49127197265625 257.242889404296875 256.9686279296875 256.649017333984375 256.302459716796875 255.94830322265625 255.5814208984375 255.199615478515625 254.7916107177734375 254.3677978515625 253.9499969482421875 253.532928466796875 253.11029052734375 252.6685638427734375 252.242950439453125 251.823272705078125 251.4320220947265625 251.0114898681640625 250.61236572265625 250.217254638671875 249.8319244384765625 249.4542083740234375 249.07354736328125 248.691375732421875 248.314239501953125 247.9417266845703125 247.56829833984375 247.182769775390625 246.793670654296875 246.4025115966796875 246.0074005126953125 245.61865234375 245.22369384765625 244.8352203369140625 244.457489013671875 244.0970001220703125 243.7679290771484375 243.47174072265625 243.2178802490234375 243.013916015625 242.8725128173828125 242.8147125244140625 242.8401336669921875 242.95037841796875 243.1497802734375 243.451080322265625 243.8653106689453125 244.373809814453125 244.96575927734375 245.63287353515625 246.3734130859375 247.1600799560546875 247.95526123046875 248.74188232421875 249.4788665771484375 250.125091552734375 250.60528564453125 250.9330902099609375 251.079559326171875 251.1609039306640625 251.4797821044921875 252.4383544921875 253.84320068359375 255.304962158203125 256.699737548828125 257.999176025390625 259.22381591796875 260.396087646484375 -99999 -99999 -99999 -99999 -99999 -99999 -99999 -99999 -99999 -99999 -99999 -99999 -99999
 -99999 -99999 -99999 -99999 -99999 -99999 -99999 -99999 -99999 -99999 -99999 -99999 -99999 -99999 -99999 -99999 -99999 -99999 -99999 -99999 -99999 -99999 -99999 -99999 -99999 -99999 -99999 -99999 -99999 -99999 -99999 -99999 128.83306884765625 134.7663726806640625 140.3506011962890625 145.433868408203125 149.8638458251953125 153.7135162353515625 156.8610687255859375 158.94952392578125 160.257843017578125 160.790130615234375 160.399749755859375 159.242462158203125 157.738433837890625 155.901397705078125 153.837188720703125 152.0468292236328125 150.7549896240234375 149.970550537109375 150.37921142578125 153.0273284912109375 157.8259735107421875 165.73870849609375 175.2890472412109375 186.0397491455078125 196.698516845703125 201.9819793701171875 198.2331390380859375 190.56219482421875 184.365509033203125 179.5481414794921875 176.070770263671875 173.8916473388671875 171.937774658203125 170.4877166748046875 169.600860595703125 169.05810546875 169.2407989501953125 170.3816375732421875 172.6268310546875 175.8009490966796875 179.8681488037109375 184.6269989013671875 189.7699737548828125 195.3672027587890625 200.8654632568359375 206.2556915283203125 211.49578857421875 216.4439544677734375 221.1585235595703125 225.4970550537109375 229.4542388916015625 233.0659027099609375 236.47052001953125 239.6573944091796875 242.5207366943359375 245.0920867919921875 247.4138946533203125 249.5394287109375 251.3865966796875 252.9086456298828125 254.2716064453125 255.5422821044921875 256.511688232421875 257.310516357421875 257.976287841796875 258.50830078125 258.94293212890625 259.296142578125 259.5419921875 259.7431640625 259.90838623046875 260.04095458984375 260.0841064453125 260.177734375 260.25213623046875 260.322174072265625 260.351165771484375 260.345947265625 260.315826416015625 260.2672119140625 260.1951904296875 260.111175537109375 259.99212646484375 259.811981201171875 259.616943359375 259.397613525390625 259.164703369140625 258.879150390625 258.552459716796875 258.216949462890625 257.85870361328125 257.4844970703125 257.070648193359375 256.63287353515625 256.20263671875 255.775238037109375 255.3228759765625 254.853240966796875 254.3815765380859375 253.92059326171875 253.47259521484375 253.0102691650390625 252.5439605712890625 252.084686279296875 251.6363372802734375 251.200775146484375 250.7615814208984375 250.3224945068359375 249.8868255615234375 249.466217041015625 249.0412139892578125 248.614105224609375 248.170562744140625 247.737335205078125 247.3104400634765625 246.8763427734375 246.4342803955078125 245.9951324462890625 245.559173583984375 245.1403045654296875 244.7329864501953125 244.3431549072265625 243.9803619384765625 243.650909423828125 243.37762451171875 243.157562255859375 243.000885009765625 242.9135894775390625 242.9054718017578125 242.9985198974609375 243.188079833984375 243.4725494384765625 243.84918212890625 244.322357177734375 244.893707275390625 245.542449951171875 246.253021240234375 246.9915008544921875 247.752349853515625 248.508819580078125 249.2512664794921875 249.8308868408203125 250.334136962890625 250.6968841552734375 250.948944091796875 251.142730712890625 251.4094696044921875 252.89617919921875 254.5684814453125 256.07159423828125 257.4442138671875 258.796783447265625 260.13018798828125 261.363922119140625 -99999 -99999 -99999 -99999 -99999 -99999 -99999 -99999 -99999 -99999 -99999 -99999 -99999
 -99999 -99999 -99999 -99999 -99999 -99999 -99999 -99999 -99999 -99999 -99999 -99999 -99999 -99999 -99999 -99999 -99999 -99999 -99999 -99999 -99999 -99999 -99999 -99999 -99999 -99999 -99999 -99999 -99999 -99999 -99999 -99999 134.04779052734375 139.45477294921875 144.5652923583984375 149.2364349365234375 153.272918701171875 156.5657958984375 159.235595703125 161.14111328125 162.2827301025390625 162.634063720703125 162.360107421875 161.5809326171875 160.2707366943359375 158.7048187255859375 157.1855926513671875 156.1114501953125 155.3647918701171875 155.5977935791015625 157.153900146484375 160.087249755859375 165.380157470703125 172.5101318359375 181.638641357421875 191.8843994140625 201.6106719970703125 206.215484619140625 199.06781005859375 189.2003021240234375 181.502471923828125 177.3266143798828125 174.6761016845703125 173.00006103515625 171.3486175537109375 169.9181671142578125 168.65362548828125 167.99554443359375 168.0996856689453125 169.29168701171875 171.6875457763671875 175.2669830322265625 179.8485565185546875 185.3676300048828125 191.3948516845703125 197.468292236328125 203.5179443359375 209.5098114013671875 215.021575927734375 220.219573974609375 224.9669036865234375 229.3266448974609375 233.372894287109375 237.108551025390625 240.510406494140625 243.5904541015625 246.412109375 248.97698974609375 251.2589263916015625 253.293731689453125 255.000885009765625 256.5892333984375 257.836151123046875 258.8408203125 259.6907958984375 260.392791748046875 260.92864990234375 261.30999755859375 261.58331298828125 261.785186767578125 261.943145751953125 262.05096435546875 262.035919189453125 262.13873291015625 262.190521240234375 262.206085205078125 262.21649169921875 262.20654296875 262.1746826171875 262.133392333984375 262.0858154296875 262.010650634765625 261.921478271484375 261.807586669921875 261.66070556640625 261.483428955078125 261.27685546875 261.039306640625 260.7767333984375 260.47613525390625 260.14581298828125 259.785980224609375 259.39373779296875 258.987579345703125 258.552001953125 258.1146240234375 257.66259765625 257.154052734375 256.649200439453125 256.167694091796875 255.681884765625 255.169586181640625 254.6540679931640625 254.145751953125 253.65838623046875 253.1708221435546875 252.6682281494140625 252.168304443359375 251.6793670654296875 251.207305908203125 250.733154296875 250.2455902099609375 249.7510223388671875 249.287261962890625 248.8083038330078125 248.3230438232421875 247.8335113525390625 247.344085693359375 246.8760833740234375 246.3962554931640625 245.9246826171875 245.464996337890625 245.01470947265625 244.59466552734375 244.2055816650390625 243.85064697265625 243.53997802734375 243.28118896484375 243.099212646484375 242.9890594482421875 242.9615936279296875 243.0198211669921875 243.1677093505859375 243.4305267333984375 243.7857208251953125 244.239837646484375 244.777374267578125 245.391143798828125 246.077728271484375 246.801666259765625 247.593505859375 248.296905517578125 248.999603271484375 249.645172119140625 250.230621337890625 250.72344970703125 251.14208984375 251.648529052734375 252.534271240234375 253.9011077880859375 255.54595947265625 256.93878173828125 258.347869873046875 259.73388671875 261.074981689453125 262.35418701171875 263.53900146484375 -99999 -99999 -99999 -99999 -99999 -99999 -99999 -99999 -99999 -99999 -99999 -99999
 -99999 -99999 -99999 -99999 -99999 -99999 -99999 -99999 -99999 -99999 -99999 -99999 -99999 -99999 -99999 -99999 -99999 -99999 -99999 -99999 -99999 -99999 -99999 -99999 -99999 -99999 -99999 -99999 -99999 -99999 -99999 -99999 139.16851806640625 144.1886444091796875 148.885711669921875 153.0025482177734375 156.6264495849609375 159.6364898681640625 162.0577239990234375 163.635162353515625 164.585235595703125 164.945587158203125 164.71026611328125 164.0577545166015625 163.0872802734375 162.0929107666015625 160.97503662109375 160.3588409423828125 160.2934112548828125 160.9411163330078125 162.749908447265625 166.1661376953125 171.2952117919921875 178.0264129638671875 185.50946044921875 193.736083984375 200.424835205078125 201.36083984375 194.56024169921875 184.4498443603515625 177.408782958984375 174.472564697265625 173.153289794921875 172.1397552490234375 170.9876251220703125 169.6974639892578125 167.742584228515625 166.3233489990234375 166.43536376953125 167.7760162353515625 170.3867645263671875 174.66119384765625 180.110107421875 186.4173431396484375 193.098541259765625 199.9949188232421875 206.7540283203125 213.1080322265625 219.006378173828125 224.3051910400390625 229.1296234130859375 233.6003570556640625 237.7591400146484375 241.2665863037109375 244.678863525390625 247.7335052490234375 250.5091705322265625 253.0430145263671875 255.206451416015625 257.179779052734375 258.83056640625 260.180908203125 261.346588134765625 262.271148681640625 262.979766845703125 263.48553466796875 263.827789306640625 264.080810546875 264.23382568359375 264.304534912109375 264.3023681640625 264.324493408203125 264.269561767578125 264.221649169921875 264.154296875 264.104583740234375 264.064544677734375 264.017303466796875 263.966888427734375 263.912841796875 263.847198486328125 263.765960693359375 263.65753173828125 263.52557373046875 263.3656005859375 263.17633056640625 262.956085205078125 262.69610595703125 262.404205322265625 262.081146240234375 261.7286376953125 261.345184326171875 260.927764892578125 260.486419677734375 260.02630615234375 259.557952880859375 259.05377197265625 258.53643798828125 258.0303955078125 257.50408935546875 256.933990478515625 256.388641357421875 255.8550872802734375 255.314666748046875 254.75927734375 254.206787109375 253.677154541015625 253.151611328125 252.619232177734375 252.0786895751953125 251.542266845703125 251.0248565673828125 250.507904052734375 249.9794921875 249.4432830810546875 248.9062347412109375 248.3865203857421875 247.869873046875 247.3502044677734375 246.8066253662109375 246.2961883544921875 245.8131103515625 245.3274383544921875 244.8743896484375 244.4279632568359375 244.03466796875 243.700836181640625 243.417327880859375 243.1932220458984375 243.0390472412109375 242.9794158935546875 243.0107574462890625 243.1327667236328125 243.3560638427734375 243.6685943603515625 244.099273681640625 244.627288818359375 245.240325927734375 245.9171905517578125 246.6057891845703125 247.3579559326171875 248.116455078125 248.86016845703125 249.5748443603515625 250.247100830078125 250.9162445068359375 251.6319122314453125 252.444122314453125 253.51068115234375 254.9537506103515625 256.4537353515625 257.826873779296875 259.26580810546875 260.76690673828125 262.152679443359375 263.449371337890625 264.69073486328125 265.811065673828125 -99999 -99999 -99999 -99999 -99999 -99999 -99999 -99999 -99999 -99999 -99999
 -99999 -99999 -99999 -99999 -99999 -99999 -99999 -99999 -99999 -99999 -99999 -99999 -99999 -99999 -99999 -99999 -99999 -99999 -99999 -99999 -99999 -99999 -99999 -99999 -99999 -99999 -99999 -99999 -99999 -99999 -99999 -99999 144.1771240234375 148.9622650146484375 153.2671661376953125 157.0385894775390625 160.274688720703125 162.924224853515625 164.9481353759765625 166.4038848876953125 167.2406768798828125 167.5725555419921875 167.426605224609375 166.9287261962890625 166.141326904296875 165.3578643798828125 164.730316162109375 164.49639892578125 164.73077392578125 165.79595947265625 167.8525848388671875 171.128265380859375 175.5663909912109375 180.9328765869140625 186.9426422119140625 192.4894866943359375 195.7957611083984375 195.290924072265625 189.44342041015625 180.9613189697265625 174.8097381591796875 172.6442718505859375 172.06005859375 171.995361328125 171.67572021484375 169.3684844970703125 166.81170654296875 165.193878173828125 164.746795654296875 165.9170989990234375 169.1933441162109375 174.077850341796875 180.3596343994140625 187.788543701171875 195.5632476806640625 203.3389739990234375 210.76220703125 217.417938232421875 223.429901123046875 228.94354248046875 233.9685516357421875 238.205108642578125 242.0236053466796875 245.6834716796875 249.006683349609375 252.0539093017578125 254.7353363037109375 257.137847900390625 259.294952392578125 261.155548095703125 262.701904296875 263.998687744140625 265.029754638671875 265.77264404296875 266.288787841796875 266.613128662109375 266.816802978515625 266.875457763671875 266.814361572265625 266.74224853515625 266.606201171875 266.4647216796875 266.330047607421875 266.1978759765625 266.0833740234375 265.974761962890625 265.88702392578125 265.81439208984375 265.744232177734375 265.67236328125 265.58966064453125 265.493743896484375 265.3775634765625 265.23785400390625 265.069549560546875 264.8648681640625 264.6256103515625 264.352294921875 264.0460205078125 263.702423095703125 263.320159912109375 262.908111572265625 262.46868896484375 262.00384521484375 261.509307861328125 260.98919677734375 260.45709228515625 259.91082763671875 259.35986328125 258.78277587890625 258.199920654296875 257.635498046875 257.03131103515625 256.44757080078125 255.862640380859375 255.2823944091796875 254.6953125 254.1042938232421875 253.529510498046875 252.9632568359375 252.3958282470703125 251.81768798828125 251.2365264892578125 250.67218017578125 250.109832763671875 249.54339599609375 248.9647979736328125 248.3875885009765625 247.8289642333984375 247.2769012451171875 246.7259368896484375 246.1699066162109375 245.6403045654296875 245.16082763671875 244.689666748046875 244.24993896484375 243.84912109375 243.5250244140625 243.282470703125 243.0938720703125 242.9811553955078125 242.9561309814453125 243.053985595703125 243.2628173828125 243.55352783203125 243.9457855224609375 244.4203643798828125 245.03338623046875 245.7006683349609375 246.4196624755859375 247.181060791015625 247.97552490234375 248.785064697265625 249.5991058349609375 250.4139251708984375 251.2461090087890625 252.1318206787109375 253.147369384765625 254.4014129638671875 255.84332275390625 257.2945556640625 258.754058837890625 260.267425537109375 261.763031005859375 263.1651611328125 264.50811767578125 265.7222900390625 266.801239013671875 -99999 -99999 -99999 -99999 -99999 -99999 -99999 -99999 -99999 -99999 -99999
 -99999 -99999 -99999 -99999 -99999 -99999 -99999 -99999 -99999 -99999 -99999 -99999 -99999 -99999 -99999 -99999 -99999 -99999 -99999 -99999 -99999 -99999 -99999 -99999 -99999 -99999 -99999 -99999 -99999 -99999 -99999 144.2352142333984375 149.21734619140625 153.6235198974609375 157.578277587890625 161.079010009765625 164.0248565673828125 166.418060302734375 168.19891357421875 169.4980926513671875 170.1615753173828125 170.3925628662109375 170.2556304931640625 169.8898162841796875 169.31683349609375 168.7548828125 168.364898681640625 168.346954345703125 168.876190185546875 170.117706298828125 171.9306488037109375 174.94989013671875 178.7841339111328125 183.106048583984375 187.5099945068359375 190.81378173828125 192.44622802734375 191.0497589111328125 186.36053466796875 180.2691802978515625 175.5568084716796875 172.947723388671875 171.83355712890625 173.2938690185546875 172.9041595458984375 170.2989349365234375 166.3701934814453125 163.1046600341796875 162.0570068359375 163.63818359375 167.4482574462890625 173.667877197265625 181.3505859375 189.819976806640625 198.980438232421875 207.5009307861328125 215.361083984375 222.36029052734375 228.87078857421875 234.1308441162109375 238.692169189453125 243.01763916015625 246.9909210205078125 250.373382568359375 253.499359130859375 256.436370849609375 259.085540771484375 261.473480224609375 263.5487060546875 265.31658935546875 266.77752685546875 267.884796142578125 268.701995849609375 269.30780029296875 269.652496337890625 269.781219482421875 269.72802734375 269.60577392578125 269.38714599609375 269.107696533203125 268.8463134765625 268.584228515625 268.33599853515625 268.106048583984375 267.93182373046875 267.785186767578125 267.6632080078125 267.561309814453125 267.45745849609375 267.383819580078125 267.298797607421875 267.202423095703125 267.07464599609375 266.924591064453125 266.759429931640625 266.549041748046875 266.30279541015625 266.01495361328125 265.684539794921875 265.317657470703125 264.916900634765625 264.483795166015625 264.011322021484375 263.509552001953125 262.984466552734375 262.437957763671875 261.872589111328125 261.281402587890625 260.6820068359375 260.07391357421875 259.45855712890625 258.839691162109375 258.208465576171875 257.589599609375 256.962677001953125 256.3294677734375 255.7021331787109375 255.0835723876953125 254.465667724609375 253.839599609375 253.224090576171875 252.6160888671875 252.008758544921875 251.3974761962890625 250.7756195068359375 250.167205810546875 249.5630645751953125 248.95806884765625 248.3502197265625 247.73736572265625 247.150726318359375 246.5778350830078125 246.0160980224609375 245.46826171875 244.94439697265625 244.4794769287109375 244.0627593994140625 243.6800079345703125 243.3590850830078125 243.1080322265625 242.9822235107421875 242.9351959228515625 242.9702606201171875 243.106475830078125 243.3766632080078125 243.77618408203125 244.2582550048828125 244.8208770751953125 245.481903076171875 246.23760986328125 247.0511627197265625 247.90020751953125 248.767547607421875 249.6775970458984375 250.616729736328125 251.606719970703125 252.695648193359375 253.900787353515625 255.2217864990234375 256.63336181640625 258.132232666015625 259.693084716796875 261.243133544921875 262.754974365234375 264.215118408203125 265.600616455078125 266.797760009765625 267.828582763671875 268.629791259765625 -99999 -99999 -99999 -99999 -99999 -99999 -99999 -99999 -99999 -99999
 -99999 -99999 -99999 -99999 -99999 -99999 -99999 -99999 -99999 -99999 -99999 -99999 -99999 -99999 -99999 -99999 -99999 -99999 -99999 -99999 -99999 -99999 -99999 -99999 -99999 -99999 -99999 -99999 -99999 -99999 -99999 149.422943115234375 154.0838775634765625 158.28765869140625 162.065338134765625 165.237396240234375 167.8649444580078125 169.9402008056640625 171.57403564453125 172.56964111328125 173.1984710693359375 173.4165496826171875 173.3195343017578125 172.9129486083984375 172.46759033203125 172.0611419677734375 171.82476806640625 171.959228515625 172.4676055908203125 173.57501220703125 175.4092254638671875 177.9000091552734375 180.83502197265625 183.9486541748046875 186.936309814453125 189.0478668212890625 189.367950439453125 187.8899383544921875 184.4976348876953125 180.3908233642578125 176.7498626708984375 174.6252593994140625 173.9493560791015625 174.9553985595703125 175.9636383056640625 170.24273681640625 163.500946044921875 160.6028289794921875 160.090484619140625 161.5091705322265625 166.4620361328125 173.5415191650390625 182.5868988037109375 193.00555419921875 203.1637420654296875 212.9254150390625 221.5254669189453125 228.454010009765625 234.338409423828125 239.642791748046875 244.2610931396484375 248.260711669921875 251.68780517578125 254.9635009765625 258.102569580078125 261.010955810546875 263.629180908203125 265.877105712890625 267.8673095703125 269.60113525390625 270.888153076171875 271.8629150390625 272.57861328125 272.9442138671875 273.004425048828125 272.905548095703125 272.713134765625 272.296142578125 271.82708740234375 271.42999267578125 270.987335205078125 270.587982177734375 270.242706298828125 269.944976806640625 269.702117919921875 269.50372314453125 269.3609619140625 269.240966796875 269.14447021484375 269.077239990234375 268.98797607421875 268.893157958984375 268.77801513671875 268.6356201171875 268.460418701171875 268.24212646484375 267.971466064453125 267.6710205078125 267.327880859375 266.946502685546875 266.517547607421875 266.050628662109375 265.5516357421875 265.02313232421875 264.46728515625 263.87860107421875 263.27264404296875 262.650543212890625 262.0147705078125 261.366119384765625 260.70654296875 260.0440673828125 259.378387451171875 258.71099853515625 258.04034423828125 257.37353515625 256.711639404296875 256.056854248046875 255.3890838623046875 254.733489990234375 254.0792999267578125 253.425567626953125 252.771697998046875 252.12554931640625 251.4803009033203125 250.8306884765625 250.17889404296875 249.5321197509765625 248.892913818359375 248.257354736328125 247.623382568359375 246.9947052001953125 246.3927001953125 245.814117431640625 245.260498046875 244.733367919921875 244.2414703369140625 243.8280487060546875 243.47705078125 243.1935882568359375 242.9759674072265625 242.85797119140625 242.879058837890625 243.006622314453125 243.2325897216796875 243.556304931640625 244.0269775390625 244.6313629150390625 245.325653076171875 246.0814666748046875 246.9112701416015625 247.832611083984375 248.80389404296875 249.821685791015625 250.8844146728515625 252.021942138671875 253.2318572998046875 254.5162353515625 255.933837890625 257.472503662109375 259.050689697265625 260.60858154296875 262.203887939453125 263.756378173828125 265.27447509765625 266.667022705078125 267.883880615234375 268.89947509765625 269.521728515625 -99999 -99999 -99999 -99999 -99999 -99999 -99999 -99999 -99999 -99999
 -99999 -99999 -99999 -99999 -99999 -99999 -99999 -99999 -99999 -99999 -99999 -99999 -99999 -99999 -99999 -99999 -99999 -99999 -99999 -99999 -99999 -99999 -99999 -99999 -99999 -99999 -99999 -99999 -99999 -99999 -99999 154.48577880859375 158.9925689697265625 162.9802703857421875 166.40771484375 169.3762054443359375 171.8453826904296875 173.7776336669921875 175.0648040771484375 176.0331878662109375 176.4100189208984375 176.4280548095703125 176.2867279052734375 175.959228515625 175.5055694580078125 175.0609893798828125 174.961669921875 175.0662841796875 175.642486572265625 176.6612091064453125 178.05328369140625 180.0646209716796875 182.26470947265625 184.5801849365234375 186.733673095703125 187.632537841796875 187.7012481689453125 186.4279327392578125 183.689056396484375 180.4722747802734375 177.63238525390625 175.50823974609375 175.0691070556640625 175.6244354248046875 173.2123565673828125 167.3899383544921875 161.4487457275390625 157.606842041015625 157.42352294921875 159.893524169921875 165.0685272216796875 173.944427490234375 185.356201171875 197.7791290283203125 209.400115966796875 219.5460052490234375 228.2127227783203125 235.51568603515625 241.2260894775390625 245.775238037109375 249.7923736572265625 253.4302978515625 256.858245849609375 259.900360107421875 262.76239013671875 265.566253662109375 268.12152099609375 270.440460205078125 272.41534423828125 273.929412841796875 275.212554931640625 275.97515869140625 276.419464111328125 276.5469970703125 276.43707275390625 276.06573486328125 275.499481201171875 274.845428466796875 274.258331298828125 273.614715576171875 273.004791259765625 272.484649658203125 272.00311279296875 271.663970947265625 271.344268798828125 271.1365966796875 270.98974609375 270.858154296875 270.77691650390625 270.708251953125 270.63800048828125 270.55657958984375 270.455230712890625 270.313446044921875 270.134002685546875 269.913909912109375 269.65106201171875 269.343048095703125 268.985015869140625 268.57452392578125 268.110107421875 267.635101318359375 267.0989990234375 266.535858154296875 265.938385009765625 265.318389892578125 264.676666259765625 264.015960693359375 263.337158203125 262.64794921875 261.95068359375 261.24755859375 260.541839599609375 259.8333740234375 259.125396728515625 258.418853759765625 257.71453857421875 257.015411376953125 256.31597900390625 255.6268463134765625 254.937103271484375 254.249359130859375 253.5619964599609375 252.8756103515625 252.192413330078125 251.512054443359375 250.832427978515625 250.1488494873046875 249.4668731689453125 248.7928314208984375 248.1272735595703125 247.4693603515625 246.81964111328125 246.1860198974609375 245.586761474609375 245.0226593017578125 244.495574951171875 244.0109710693359375 243.5797119140625 243.24822998046875 243.0041961669921875 242.8467254638671875 242.78155517578125 242.8273468017578125 243.051177978515625 243.4007110595703125 243.8563232421875 244.420806884765625 245.10931396484375 245.941680908203125 246.852996826171875 247.82183837890625 248.862060546875 249.97979736328125 251.16400146484375 252.3987274169921875 253.73345947265625 255.1713104248046875 256.6783447265625 258.220428466796875 259.837249755859375 261.48406982421875 263.11474609375 264.729888916015625 266.302490234375 267.77484130859375 268.891143798828125 269.789215087890625 270.57025146484375 -99999 -99999 -99999 -99999 -99999 -99999 -99999 -99999 -99999 -99999
 -99999 -99999 -99999 -99999 -99999 -99999 -99999 -99999 -99999 -99999 -99999 -99999 -99999 -99999 -99999 -99999 -99999 -99999 -99999 -99999 -99999 -99999 -99999 -99999 -99999 -99999 -99999 -99999 -99999 -99999 -99999 159.472808837890625 163.7449951171875 167.6505279541015625 170.8930511474609375 173.6659698486328125 175.840484619140625 177.46746826171875 178.62457275390625 179.3416595458984375 179.590789794921875 179.556549072265625 179.2868194580078125 178.84716796875 178.386505126953125 178.0084381103515625 177.78106689453125 177.86712646484375 178.2319488525390625 178.9716339111328125 180.148773193359375 181.6184539794921875 183.355133056640625 184.8675537109375 186.140594482421875 186.7404937744140625 186.3708648681640625 185.123504638671875 183.002197265625 180.5718536376953125 178.1366119384765625 176.1279754638671875 174.7159576416015625 173.3809356689453125 170.5113677978515625 164.399261474609375 157.163787841796875 156.843475341796875 156.210113525390625 157.9137115478515625 164.6997833251953125 175.9570465087890625 189.9819183349609375 204.4918670654296875 217.5247955322265625 228.6740875244140625 236.866668701171875 243.219512939453125 248.2008514404296875 252.1695098876953125 255.4699554443359375 258.597625732421875 261.592132568359375 264.62432861328125 267.340911865234375 270.2313232421875 272.750701904296875 275.051025390625 276.9443359375 278.4619140625 279.56805419921875 280.20562744140625 280.451629638671875 280.319244384765625 279.95751953125 279.22174072265625 278.297210693359375 277.41314697265625 276.488067626953125 275.63134765625 274.8179931640625 274.203857421875 273.62744140625 273.20526123046875 272.8660888671875 272.636444091796875 272.492340087890625 272.40216064453125 272.34527587890625 272.306060791015625 272.26092529296875 272.20355224609375 272.1171875 271.994659423828125 271.830230712890625 271.610687255859375 271.334625244140625 271.00823974609375 270.63232421875 270.208160400390625 269.73321533203125 269.210235595703125 268.646026611328125 268.037353515625 267.41766357421875 266.761871337890625 266.07568359375 265.372467041015625 264.654144287109375 263.92669677734375 263.190338134765625 262.444976806640625 261.69708251953125 260.948394775390625 260.204803466796875 259.461944580078125 258.72039794921875 257.982757568359375 257.249176025390625 256.524993896484375 255.80145263671875 255.080352783203125 254.3644256591796875 253.65045166015625 252.933685302734375 252.2174072265625 251.505218505859375 250.7976531982421875 250.0886077880859375 249.37567138671875 248.6671905517578125 247.972991943359375 247.291717529296875 246.62335205078125 245.968017578125 245.3404998779296875 244.7652740478515625 244.2384490966796875 243.7660369873046875 243.3513641357421875 243.0147857666015625 242.8078460693359375 242.7208251953125 242.749176025390625 242.893768310546875 243.1729278564453125 243.640777587890625 244.2596435546875 244.98858642578125 245.82122802734375 246.764434814453125 247.825958251953125 248.9682159423828125 250.1594390869140625 251.440887451171875 252.8043212890625 254.232940673828125 255.7137451171875 257.2718505859375 258.93817138671875 260.625579833984375 262.259124755859375 263.93316650390625 265.577789306640625 267.16290283203125 268.560577392578125 269.722259521484375 270.620086669921875 271.230712890625 -99999 -99999 -99999 -99999 -99999 -99999 -99999 -99999 -99999 -99999
 -99999 -99999 -99999 -99999 -99999 -99999 -99999 -99999 -99999 -99999 -99999 -99999 -99999 -99999 -99999 -99999 -99999 -99999 -99999 -99999 -99999 -99999 -99999 -99999 -99999 -99999 -99999 -99999 -99999 -99999 -99999 164.2613677978515625 168.4491119384765625 172.1378936767578125 175.2343902587890625 177.790496826171875 179.8466339111328125 181.2662811279296875 182.2259368896484375 182.683135986328125 182.758544921875 182.5537567138671875 182.1293182373046875 181.6050872802734375 181.0240020751953125 180.5322418212890625 180.2252349853515625 180.22491455078125 180.453277587890625 180.966644287109375 181.847442626953125 182.9853363037109375 184.0700836181640625 185.1127777099609375 186.10528564453125 186.2418975830078125 185.8043060302734375 184.7512969970703125 183.0723419189453125 180.7436981201171875 178.6301422119140625 176.514801025390625 174.68218994140625 171.9980621337890625 168.4857635498046875 164.2222137451171875 159.86773681640625 157.9574737548828125 156.834228515625 157.7619171142578125 165.5661468505859375 179.8556365966796875 197.6078643798828125 214.8061370849609375 229.0230712890625 239.133331298828125 246.6543731689453125 251.754486083984375 255.3250732421875 258.168670654296875 260.935302734375 263.6319580078125 266.30841064453125 269.104034423828125 271.866119384765625 274.828765869140625 277.4080810546875 279.863677978515625 281.874114990234375 283.3525390625 284.1719970703125 284.64776611328125 284.51666259765625 284.087860107421875 283.166107177734375 282.0535888671875 280.960205078125 279.721771240234375 278.553131103515625 277.462249755859375 276.505584716796875 275.683441162109375 275.044891357421875 274.573272705078125 274.2501220703125 274.04193115234375 273.923980712890625 273.87017822265625 273.8509521484375 273.861328125 273.864654541015625 273.847076416015625 273.7886962890625 273.68194580078125 273.52276611328125 273.30755615234375 273.034942626953125 272.70037841796875 272.304962158203125 271.849578857421875 271.344512939453125 270.79327392578125 270.20172119140625 269.566253662109375 268.89398193359375 268.19183349609375 267.467803955078125 266.73211669921875 265.9736328125 265.197052001953125 264.41534423828125 263.6304931640625 262.8505859375 262.063079833984375 261.27685546875 260.4942626953125 259.719329833984375 258.954376220703125 258.18829345703125 257.427520751953125 256.67181396484375 255.92413330078125 255.1903533935546875 254.4337005615234375 253.6978302001953125 252.960418701171875 252.2181549072265625 251.4737701416015625 250.7322998046875 250.00244140625 249.2682037353515625 248.5319366455078125 247.801666259765625 247.0896148681640625 246.408477783203125 245.7424774169921875 245.0980224609375 244.49407958984375 243.960052490234375 243.5100250244140625 243.133453369140625 242.8347015380859375 242.6485443115234375 242.626617431640625 242.7655487060546875 243.059234619140625 243.49041748046875 244.074920654296875 244.8365631103515625 245.743865966796875 246.763092041015625 247.8652496337890625 249.0709228515625 250.3715057373046875 251.7434844970703125 253.1684417724609375 254.6649169921875 256.256866455078125 257.891082763671875 259.523529052734375 261.2537841796875 262.937408447265625 264.615875244140625 266.24481201171875 267.792449951171875 269.18646240234375 270.313995361328125 271.166534423828125 272.000701904296875 272.673858642578125 -99999 -99999 -99999 -99999 -99999 -99999 -99999 -99999 -99999
 -99999 -99999 -99999 -99999 -99999 -99999 -99999 -99999 -99999 -99999 -99999 -99999 -99999 -99999 -99999 -99999 -99999 -99999 -99999 -99999 -99999 -99999 -99999 -99999 -99999 -99999 -99999 -99999 -99999 -99999 -99999 168.878997802734375 172.984771728515625 176.6060791015625 179.526153564453125 181.9373321533203125 183.7582550048828125 184.9757080078125 185.6528778076171875 185.9253387451171875 185.8267974853515625 185.4053955078125 184.8230743408203125 184.1450347900390625 183.43365478515625 182.788482666015625 182.3885955810546875 182.2094879150390625 182.26617431640625 182.607940673828125 183.2094268798828125 183.9440460205078125 184.8118743896484375 185.4960174560546875 185.9849395751953125 186.1117401123046875 185.62176513671875 184.6591033935546875 183.2432861328125 181.447418212890625 179.4281005859375 177.4675140380859375 175.1026458740234375 172.52484130859375 169.35943603515625 165.6589202880859375 162.799346923828125 160.9387664794921875 160.25396728515625 162.108306884765625 171.3083953857421875 188.14886474609375 209.1355743408203125 228.3918304443359375 242.5302581787109375 251.2777862548828125 256.28857421875 259.707855224609375 261.9498291015625 264.029937744140625 265.8636474609375 268.046295166015625 270.60162353515625 273.3392333984375 276.451904296875 279.34783935546875 282.1947021484375 284.69873046875 286.70709228515625 287.95111083984375 288.875274658203125 289.072418212890625 288.720306396484375 287.83221435546875 286.610107421875 285.06988525390625 283.48345947265625 281.891632080078125 280.372039794921875 278.98675537109375 277.916015625 276.97137451171875 276.2982177734375 275.810089111328125 275.5242919921875 275.3289794921875 275.28070068359375 275.344818115234375 275.399322509765625 275.438446044921875 275.467193603515625 275.5152587890625 275.4727783203125 275.3980712890625 275.242889404296875 275.030426025390625 274.74957275390625 274.398590087890625 273.984344482421875 273.508544921875 272.979461669921875 272.390411376953125 271.752899169921875 271.076171875 270.36859130859375 269.634429931640625 268.866241455078125 268.075286865234375 267.268524169921875 266.45965576171875 265.646240234375 264.81561279296875 263.98602294921875 263.158782958984375 262.343505859375 261.531494140625 260.719940185546875 259.91546630859375 259.1201171875 258.337005615234375 257.558258056640625 256.781829833984375 256.01202392578125 255.2558135986328125 254.5055084228515625 253.7137298583984375 252.957244873046875 252.201202392578125 251.43524169921875 250.6650238037109375 249.89569091796875 249.1410675048828125 248.39093017578125 247.637176513671875 246.8917083740234375 246.1703948974609375 245.49737548828125 244.86041259765625 244.2532196044921875 243.6996917724609375 243.2439422607421875 242.9163665771484375 242.7013702392578125 242.598175048828125 242.650848388671875 242.908050537109375 243.357940673828125 243.9883575439453125 244.767578125 245.6904754638671875 246.764495849609375 247.953582763671875 249.24053955078125 250.5926666259765625 252.0249786376953125 253.545684814453125 255.12371826171875 256.7354736328125 258.3936767578125 260.0860595703125 261.835723876953125 263.511810302734375 265.1810302734375 266.791290283203125 268.28515625 269.618133544921875 270.778167724609375 271.66021728515625 272.52825927734375 273.16119384765625 -99999 -99999 -99999 -99999 -99999 -99999 -99999 -99999 -99999
 -99999 -99999 -99999 -99999 -99999 -99999 -99999 -99999 -99999 -99999 -99999 -99999 -99999 -99999 -99999 -99999 -99999 -99999 -99999 -99999 -99999 -99999 -99999 -99999 -99999 -99999 -99999 -99999 -99999 -99999 -99999 173.2888641357421875 177.274932861328125 180.749481201171875 183.668243408203125 185.8817291259765625 187.5069427490234375 188.5495452880859375 189.068634033203125 189.0440521240234375 188.6568145751953125 188.043304443359375 187.2315826416015625 186.3457794189453125 185.5155792236328125 184.74920654296875 184.1938629150390625 183.8715667724609375 183.7801513671875 183.9211273193359375 184.2017822265625 184.814056396484375 185.3708038330078125 185.8987274169921875 186.25 186.3430023193359375 185.82330322265625 185.0500640869140625 183.7984619140625 182.489410400390625 180.72076416015625 178.8561553955078125 176.852264404296875 174.4704742431640625 172.1224517822265625 169.922760009765625 167.891937255859375 167.2222747802734375 168.113006591796875 172.4041900634765625 183.3814697265625 202.0215911865234375 225.6045989990234375 245.3964996337890625 257.56231689453125 263.899932861328125 266.48089599609375 267.403045654296875 268.0675048828125 268.545501708984375 269.845123291015625 271.755950927734375 274.247772216796875 277.297027587890625 280.3050537109375 283.89495849609375 287.0079345703125 289.71759033203125 291.823760986328125 293.385162353515625 293.820098876953125 293.8160400390625 293.052978515625 291.543060302734375 289.800079345703125 287.834075927734375 285.634613037109375 283.71087646484375 281.92425537109375 280.32501220703125 279.05224609375 278.0689697265625 277.324554443359375 276.825164794921875 276.556549072265625 276.495025634765625 276.5615234375 276.635009765625 276.747528076171875 276.90966796875 277.074981689453125 277.188262939453125 277.169677734375 277.121917724609375 277.03155517578125 276.792572021484375 276.4888916015625 276.122894287109375 275.692535400390625 275.183349609375 274.611968994140625 273.986724853515625 273.31671142578125 272.606475830078125 271.845245361328125 271.054840087890625 270.24456787109375 269.418670654296875 268.575225830078125 267.712493896484375 266.84698486328125 265.9822998046875 265.1214599609375 264.2607421875 263.40020751953125 262.547210693359375 261.710723876953125 260.88275146484375 260.06134033203125 259.24658203125 258.441253662109375 257.648284912109375 256.860626220703125 256.075653076171875 255.292999267578125 254.5186004638671875 253.7344970703125 252.9476776123046875 252.1677703857421875 251.3882598876953125 250.6031341552734375 249.80859375 249.0132293701171875 248.2361602783203125 247.4713134765625 246.7141571044921875 245.9670867919921875 245.247955322265625 244.6064453125 244.0274200439453125 243.5024566650390625 243.0543212890625 242.7353973388671875 242.6147003173828125 242.6523895263671875 242.8621978759765625 243.2778472900390625 243.9112701416015625 244.7419891357421875 245.7250213623046875 246.8472137451171875 248.07904052734375 249.42132568359375 250.85943603515625 252.36590576171875 253.9190826416015625 255.52288818359375 257.188690185546875 258.891265869140625 260.592193603515625 262.33953857421875 264.005706787109375 265.650299072265625 267.216400146484375 268.6771240234375 269.99273681640625 271.145751953125 271.95623779296875 272.921173095703125 273.582061767578125 -99999 -99999 -99999 -99999 -99999 -99999 -99999 -99999 -99999
 -99999 -99999 -99999 -99999 -99999 -99999 -99999 -99999 -99999 -99999 -99999 -99999 -99999 -99999 -99999 -99999 -99999 -99999 -99999 -99999 -99999 -99999 -99999 -99999 -99999 -99999 -99999 -99999 -99999 -99999 -99999 177.35693359375 181.2973175048828125 184.720489501953125 187.532989501953125 189.6510162353515625 191.1769866943359375 191.9180450439453125 192.146392822265625 191.889495849609375 191.2520751953125 190.4355621337890625 189.4227447509765625 188.3264923095703125 187.2855682373046875 186.333648681640625 185.6299285888671875 185.16815185546875 184.913299560546875 184.9415283203125 185.1502685546875 185.5586395263671875 185.9756622314453125 186.3931884765625 186.624847412109375 186.91607666015625 186.490478515625 185.9955291748046875 185.110931396484375 184.0667266845703125 182.847015380859375 181.285919189453125 179.636199951171875 177.9857025146484375 176.670196533203125 175.501495361328125 175.0218353271484375 176.0479583740234375 179.6240081787109375 187.153900146484375 199.760162353515625 218.6320953369140625 241.7792205810546875 260.510589599609375 270.48712158203125 273.834136962890625 274.053680419921875 272.7200927734375 271.653564453125 271.708160400390625 273.00384521484375 274.686676025390625 277.5020751953125 280.811981201171875 284.562896728515625 288.466949462890625 291.849884033203125 295.004486083984375 297.165130615234375 298.397674560546875 299.07232666015625 298.44610595703125 297.227081298828125 295.35552978515625 292.871185302734375 290.306060791015625 287.742645263671875 285.274200439453125 283.1492919921875 281.29901123046875 279.827911376953125 278.680511474609375 277.96246337890625 277.6246337890625 277.49652099609375 277.4918212890625 277.619293212890625 277.881683349609375 278.19708251953125 278.46112060546875 278.6409912109375 278.769989013671875 278.868743896484375 278.885589599609375 278.77435302734375 278.553314208984375 278.28662109375 277.89947509765625 277.40911865234375 276.868560791015625 276.267608642578125 275.6080322265625 274.88226318359375 274.1148681640625 273.316009521484375 272.488037109375 271.6318359375 270.746917724609375 269.853302001953125 268.95611572265625 268.054229736328125 267.144287109375 266.235107421875 265.336883544921875 264.44927978515625 263.570159912109375 262.698486328125 261.83673095703125 260.993072509765625 260.1612548828125 259.3392333984375 258.524871826171875 257.71820068359375 256.921539306640625 256.128326416015625 255.3440093994140625 254.5438232421875 253.756500244140625 252.955963134765625 252.15106201171875 251.34637451171875 250.5420989990234375 249.7352447509765625 248.9212646484375 248.1057586669921875 247.30926513671875 246.539306640625 245.7963409423828125 245.073394775390625 244.388519287109375 243.81146240234375 243.3397674560546875 242.9652252197265625 242.7109375 242.6533660888671875 242.8796234130859375 243.311859130859375 243.9371795654296875 244.789825439453125 245.815277099609375 246.99859619140625 248.2995147705078125 249.6894073486328125 251.1584930419921875 252.693115234375 254.303192138671875 255.9607086181640625 257.646575927734375 259.34161376953125 261.045166015625 262.7703857421875 264.424346923828125 266.03924560546875 267.577392578125 269.01239013671875 270.29595947265625 271.334808349609375 272.36627197265625 273.22064208984375 273.91351318359375 -99999 -99999 -99999 -99999 -99999 -99999 -99999 -99999 -99999
 -99999 -99999 -99999 -99999 -99999 -99999 -99999 -99999 -99999 -99999 -99999 -99999 -99999 -99999 -99999 -99999 -99999 -99999 -99999 -99999 -99999 -99999 -99999 -99999 -99999 -99999 -99999 -99999 -99999 -99999 176.5767822265625 181.1045989990234375 185.0397796630859375 188.398895263671875 191.12884521484375 193.0443572998046875 194.41015625 194.98162841796875 194.989013671875 194.50030517578125 193.5297088623046875 192.350189208984375 191.16156005859375 189.876251220703125 188.6762237548828125 187.6232452392578125 186.7132415771484375 186.1964263916015625 185.7938995361328125 185.7246246337890625 185.82666015625 186.2069244384765625 186.5517730712890625 186.9291229248046875 187.2786712646484375 187.4636993408203125 187.579559326171875 187.270904541015625 186.78216552734375 186.2765655517578125 185.4167022705078125 184.542510986328125 183.680145263671875 182.8966827392578125 182.445770263671875 182.4765777587890625 183.8659515380859375 186.9988555908203125 192.6816864013671875 201.1650848388671875 214.6616363525390625 232.50982666015625 252.0177154541015625 268.136260986328125 277.835174560546875 281.903900146484375 277.627410888671875 274.797515869140625 273.602874755859375 273.5936279296875 274.900421142578125 277.1201171875 280.021026611328125 284.101287841796875 288.40362548828125 292.82952880859375 297.26043701171875 300.4627685546875 303.009979248046875 304.3304443359375 304.6427001953125 303.65252685546875 301.55340576171875 298.6966552734375 295.8590087890625 292.493194580078125 289.356719970703125 286.446014404296875 283.821868896484375 281.621337890625 280.09521484375 279.034637451171875 278.413726806640625 278.13128662109375 278.138916015625 278.35443115234375 278.6826171875 279.13604736328125 279.540130615234375 279.9058837890625 280.283843994140625 280.53277587890625 280.65185546875 280.6500244140625 280.555938720703125 280.3790283203125 280.085174560546875 279.6617431640625 279.183685302734375 278.617218017578125 277.930999755859375 277.21636962890625 276.4522705078125 275.644561767578125 274.792572021484375 273.9019775390625 272.995513916015625 272.072296142578125 271.13653564453125 270.1865234375 269.232696533203125 268.289215087890625 267.343780517578125 266.40765380859375 265.483001708984375 264.57025146484375 263.675323486328125 262.794036865234375 261.926544189453125 261.071685791015625 260.234344482421875 259.40972900390625 258.594512939453125 257.787139892578125 256.98504638671875 256.18756103515625 255.390167236328125 254.611602783203125 253.79095458984375 252.9889984130859375 252.16455078125 251.339324951171875 250.509674072265625 249.67938232421875 248.8506622314453125 248.0258331298828125 247.2020721435546875 246.4036407470703125 245.647979736328125 244.9461822509765625 244.2940826416015625 243.6936798095703125 243.2442474365234375 242.9699249267578125 242.8655853271484375 242.9650115966796875 243.3766021728515625 244.08648681640625 244.9825897216796875 246.039764404296875 247.244598388671875 248.5760498046875 250.009033203125 251.5305633544921875 253.110382080078125 254.734222412109375 256.386688232421875 258.06390380859375 259.775970458984375 261.493743896484375 263.170166015625 264.80645751953125 266.395751953125 267.890594482421875 269.275726318359375 270.474334716796875 271.574493408203125 272.663330078125 273.48846435546875 274.1522216796875 -99999 -99999 -99999 -99999 -99999 -99999 -99999 -99999 -99999
 -99999 -99999 -99999 -99999 -99999 -99999 -99999 -99999 -99999 -99999 -99999 -99999 -99999 -99999 -99999 -99999 -99999 -99999 -99999 -99999 -99999 -99999 -99999 -99999 -99999 -99999 -99999 -99999 -99999 -99999 179.94384765625 184.382843017578125 188.2550201416015625 191.61529541015625 194.3517303466796875 196.247039794921875 197.2868804931640625 197.7590484619140625 197.394439697265625 196.53497314453125 195.3752593994140625 193.9811248779296875 192.535736083984375 191.0921630859375 189.6800079345703125 188.4781494140625 187.4211883544921875 186.7685699462890625 186.4253997802734375 186.2730255126953125 186.3582916259765625 186.6225128173828125 187.21771240234375 187.622161865234375 188.1207733154296875 188.4669647216796875 189.0049591064453125 189.053192138671875 188.9872589111328125 188.8125762939453125 188.7057037353515625 188.3262176513671875 188.35369873046875 188.4532012939453125 189.19012451171875 190.715728759765625 193.343719482421875 197.7125244140625 204.31298828125 214.305908203125 226.8621673583984375 241.78125 258.012542724609375 270.7542724609375 279.160491943359375 280.278472900390625 277.086212158203125 273.8223876953125 273.553375244140625 274.592681884765625 275.90771484375 278.46270751953125 282.390411376953125 287.10894775390625 292.534637451171875 297.95343017578125 302.73419189453125 306.47772216796875 308.92230224609375 310.420562744140625 310.049163818359375 308.483551025390625 305.92572021484375 302.319580078125 298.47869873046875 294.408721923828125 290.4471435546875 286.67974853515625 283.83087158203125 281.6212158203125 280.000640869140625 279.0443115234375 278.626434326171875 278.536651611328125 278.750579833984375 279.212890625 279.790740966796875 280.387939453125 280.978851318359375 281.5146484375 281.94805908203125 282.26678466796875 282.459320068359375 282.5277099609375 282.454437255859375 282.2327880859375 281.902130126953125 281.474700927734375 280.945587158203125 280.32696533203125 279.62286376953125 278.8719482421875 278.0303955078125 277.158843994140625 276.25372314453125 275.32000732421875 274.363189697265625 273.380279541015625 272.392791748046875 271.40093994140625 270.4083251953125 269.41845703125 268.4317626953125 267.4644775390625 266.508880615234375 265.567901611328125 264.640838623046875 263.73486328125 262.8515625 261.985015869140625 261.134368896484375 260.298553466796875 259.478363037109375 258.6688232421875 257.86590576171875 257.06732177734375 256.270660400390625 255.47210693359375 254.6690216064453125 253.859588623046875 253.0396575927734375 252.212005615234375 251.3739471435546875 250.5295257568359375 249.67718505859375 248.8265533447265625 247.9847412109375 247.1618499755859375 246.36236572265625 245.5968780517578125 244.89739990234375 244.28521728515625 243.748687744140625 243.3023834228515625 243.1150665283203125 243.26611328125 243.6785888671875 244.35076904296875 245.2634124755859375 246.3849334716796875 247.6324310302734375 248.9948883056640625 250.446258544921875 251.9709625244140625 253.557464599609375 255.183502197265625 256.85748291015625 258.553497314453125 260.234588623046875 261.89556884765625 263.60614013671875 265.177154541015625 266.7044677734375 268.166107177734375 269.51580810546875 270.686370849609375 271.8751220703125 272.824615478515625 273.668853759765625 274.397857666015625 -99999 -99999 -99999 -99999 -99999 -99999 -99999 -99999 -99999
 -99999 -99999 -99999 -99999 -99999 -99999 -99999 -99999 -99999 -99999 -99999 -99999 -99999 -99999 -99999 -99999 -99999 -99999 -99999 -99999 -99999 -99999 -99999 -99999 -99999 -99999 -99999 -99999 -99999 -99999 182.666595458984375 187.15289306640625 191.127838134765625 194.310089111328125 196.9603271484375 198.766845703125 199.8223876953125 200.0282440185546875 199.3556671142578125 198.2271881103515625 196.74578857421875 195.079315185546875 193.383697509765625 191.783966064453125 190.27972412109375 188.9944000244140625 187.873931884765625 187.11181640625 186.765350341796875 186.545135498046875 186.7209625244140625 187.0370025634765625 187.6701507568359375 188.4080963134765625 189.0877227783203125 189.778076171875 190.461456298828125 191.0495758056640625 191.5554046630859375 191.928314208984375 192.4320068359375 193.1237335205078125 193.78350830078125 194.484527587890625 196.143707275390625 198.8838958740234375 202.80902099609375 208.0362548828125 215.0895233154296875 224.6788177490234375 236.23321533203125 248.744171142578125 261.308624267578125 271.0595703125 276.871917724609375 279.117584228515625 276.769287109375 273.94610595703125 274.081329345703125 275.515228271484375 277.072113037109375 280.236663818359375 284.26177978515625 290.39202880859375 296.908172607421875 303.013580322265625 308.470855712890625 312.7666015625 315.66839599609375 316.719573974609375 316.247222900390625 313.878265380859375 309.95172119140625 305.665069580078125 300.510406494140625 295.263214111328125 290.679718017578125 286.737030029296875 283.354095458984375 281.004669189453125 279.547088623046875 278.68023681640625 278.394073486328125 278.636688232421875 279.210693359375 279.957061767578125 280.79766845703125 281.66265869140625 282.460845947265625 283.14898681640625 283.70111083984375 284.12591552734375 284.382415771484375 284.4503173828125 284.37371826171875 284.154266357421875 283.79888916015625 283.327362060546875 282.73974609375 282.0677490234375 281.310394287109375 280.484405517578125 279.6143798828125 278.679168701171875 277.71942138671875 276.723785400390625 275.70806884765625 274.67889404296875 273.641021728515625 272.599029541015625 271.5596923828125 270.527984619140625 269.506805419921875 268.498870849609375 267.50714111328125 266.536376953125 265.59417724609375 264.670166015625 263.766998291015625 262.887176513671875 262.032135009765625 261.194610595703125 260.3724365234375 259.5633544921875 258.7655029296875 257.974212646484375 257.184417724609375 256.393341064453125 255.598388671875 254.7948150634765625 253.9957275390625 253.1524658203125 252.315582275390625 251.46649169921875 250.6071929931640625 249.745635986328125 248.8866424560546875 248.036407470703125 247.2085723876953125 246.42791748046875 245.6957550048828125 245.02301025390625 244.433013916015625 243.955291748046875 243.6288299560546875 243.565338134765625 244.0741424560546875 244.852142333984375 245.8041839599609375 246.9051055908203125 248.1464691162109375 249.5248260498046875 250.98504638671875 252.509368896484375 254.0974884033203125 255.730377197265625 257.37542724609375 259.02362060546875 260.68157958984375 262.34307861328125 263.973388671875 265.55328369140625 267.026641845703125 268.39105224609375 269.6552734375 270.952545166015625 272.068878173828125 273.059844970703125 273.87109375 274.667724609375 -99999 -99999 -99999 -99999 -99999 -99999 -99999 -99999 -99999
 -99999 -99999 -99999 -99999 -99999 -99999 -99999 -99999 -99999 -99999 -99999 -99999 -99999 -99999 -99999 -99999 -99999 -99999 -99999 -99999 -99999 -99999 -99999 -99999 -99999 -99999 -99999 -99999 -99999 -99999 184.949310302734375 189.2925872802734375 193.1274261474609375 196.4103240966796875 199.1148681640625 201.03826904296875 201.730926513671875 201.547149658203125 200.59222412109375 199.1444244384765625 197.4644317626953125 195.63720703125 193.749114990234375 192.06494140625 190.39453125 188.97601318359375 187.897064208984375 187.0505218505859375 186.6703338623046875 186.6576385498046875 186.9292449951171875 187.4403533935546875 188.1734161376953125 189.2602691650390625 190.2601470947265625 191.2677459716796875 192.334381103515625 193.472991943359375 194.3531341552734375 195.4535369873046875 196.5421295166015625 197.702484130859375 199.2973480224609375 201.253662109375 203.8041534423828125 206.903839111328125 211.1701812744140625 217.23931884765625 224.626739501953125 233.4305419921875 243.424530029296875 254.2031707763671875 263.848419189453125 271.825531005859375 277.182373046875 278.716644287109375 278.123046875 276.8968505859375 276.668426513671875 276.87115478515625 278.369964599609375 281.015411376953125 286.410919189453125 293.782379150390625 301.858917236328125 309.16558837890625 315.16729736328125 319.547698974609375 322.637786865234375 323.34893798828125 322.116668701171875 319.21331787109375 314.283782958984375 308.03619384765625 301.83416748046875 295.918670654296875 289.984771728515625 285.375152587890625 282.10003662109375 279.645751953125 278.177581787109375 277.699249267578125 277.891326904296875 278.53741455078125 279.501190185546875 280.607177734375 281.8228759765625 282.9815673828125 284.0291748046875 284.9276123046875 285.61346435546875 286.0706787109375 286.388641357421875 286.475830078125 286.396209716796875 286.158050537109375 285.754730224609375 285.2252197265625 284.5770263671875 283.83526611328125 283.02197265625 282.132476806640625 281.203704833984375 280.20941162109375 279.170654296875 278.11309814453125 277.0406494140625 275.96148681640625 274.8681640625 273.77587890625 272.688751220703125 271.610687255859375 270.5538330078125 269.51214599609375 268.491790771484375 267.495025634765625 266.527069091796875 265.58367919921875 264.67138671875 263.785308837890625 262.923828125 262.08551025390625 261.27001953125 260.47216796875 259.686126708984375 258.90838623046875 258.133819580078125 257.358154296875 256.57867431640625 255.7909698486328125 254.9938812255859375 254.1858062744140625 253.3630218505859375 252.5063934326171875 251.6486968994140625 250.782470703125 249.915557861328125 249.0601806640625 248.22698974609375 247.430145263671875 246.690032958984375 246.0178985595703125 245.417572021484375 244.853851318359375 244.3138885498046875 244.399658203125 244.838043212890625 245.576751708984375 246.51947021484375 247.6404876708984375 248.879058837890625 250.2127532958984375 251.649810791015625 253.178070068359375 254.7380828857421875 256.323577880859375 257.94140625 259.582672119140625 261.222198486328125 262.808837890625 264.361785888671875 265.922882080078125 267.2896728515625 268.716888427734375 270.03472900390625 271.235626220703125 272.2742919921875 273.198394775390625 274.10137939453125 274.803985595703125 -99999 -99999 -99999 -99999 -99999 -99999 -99999 -99999 -99999
 -99999 -99999 -99999 -99999 -99999 -99999 -99999 -99999 -99999 -99999 -99999 -99999 -99999 -99999 -99999 -99999 -99999 -99999 -99999 -99999 -99999 -99999 -99999 -99999 -99999 -99999 -99999 -99999 -99999 -99999 186.435821533203125 190.7964019775390625 194.60272216796875 197.7831878662109375 200.297088623046875 202.1819610595703125 203.0865631103515625 202.644195556640625 201.0592193603515625 199.381622314453125 197.5454864501953125 195.6279296875 193.6316680908203125 191.8332061767578125 190.1536407470703125 188.66400146484375 187.49993896484375 186.7315521240234375 186.3734588623046875 186.490203857421875 186.9369049072265625 187.7791900634765625 188.80584716796875 190.1644439697265625 191.5207061767578125 192.9824371337890625 194.423095703125 195.898162841796875 197.5057830810546875 199.26361083984375 200.8783416748046875 202.6822357177734375 204.9932403564453125 207.536529541015625 210.7791595458984375 214.727569580078125 219.6876220703125 225.5571136474609375 232.5103759765625 240.624176025390625 249.4268341064453125 258.59765625 266.908203125 273.142303466796875 277.718109130859375 280.064422607421875 280.316375732421875 280.08990478515625 280.01495361328125 280.2181396484375 281.17913818359375 283.43780517578125 288.967620849609375 299.48931884765625 308.510711669921875 315.83172607421875 322.12652587890625 326.88330078125 329.63800048828125 330.656494140625 329.058624267578125 324.43695068359375 318.05169677734375 310.598724365234375 302.508880615234375 294.670166015625 288.276031494140625 283.205841064453125 279.573577880859375 277.422119140625 276.46295166015625 276.424072265625 277.112579345703125 278.219512939453125 279.779693603515625 281.414459228515625 283.022613525390625 284.485870361328125 285.742523193359375 286.797119140625 287.621429443359375 288.20111083984375 288.480133056640625 288.630615234375 288.5157470703125 288.2076416015625 287.745330810546875 287.15850830078125 286.45050048828125 285.63494873046875 284.737945556640625 283.767059326171875 282.756072998046875 281.724029541015625 280.611297607421875 279.5054931640625 278.3585205078125 277.2138671875 276.0662841796875 274.92755126953125 273.79852294921875 272.677459716796875 271.57476806640625 270.493804931640625 269.445556640625 268.42645263671875 267.43902587890625 266.482635498046875 265.5552978515625 264.6650390625 263.8062744140625 262.97735595703125 262.1724853515625 261.388427734375 260.61700439453125 259.86102294921875 259.11138916015625 258.36236572265625 257.608428955078125 256.839324951171875 256.06268310546875 255.2714080810546875 254.464752197265625 253.671722412109375 252.794403076171875 251.9410247802734375 251.072540283203125 250.208770751953125 249.3712921142578125 248.5826416015625 247.8625335693359375 247.2185821533203125 246.6651763916015625 246.181854248046875 245.7701568603515625 245.5391387939453125 245.9897613525390625 246.6649017333984375 247.517059326171875 248.5434112548828125 249.7411651611328125 251.07958984375 252.4813079833984375 253.931396484375 255.4508819580078125 257.02752685546875 258.62152099609375 260.190887451171875 261.750030517578125 263.316314697265625 264.85748291015625 266.256011962890625 267.727752685546875 269.100616455078125 270.320159912109375 271.453125 272.527923583984375 273.45916748046875 274.333221435546875 274.93231201171875 -99999 -99999 -99999 -99999 -99999 -99999 -99999 -99999 -99999
 -99999 -99999 -99999 -99999 -99999 -99999 -99999 -99999 -99999 -99999 -99999 -99999 -99999 -99999 -99999 -99999 -99999 -99999 -99999 -99999 -99999 -99999 -99999 -99999 -99999 -99999 -99999 -99999 -99999 -99999 187.530120849609375 191.642913818359375 195.261474609375 198.2658538818359375 200.6566009521484375 202.430694580078125 203.213714599609375 202.34417724609375 200.6460418701171875 198.873443603515625 196.9834442138671875 195.0720367431640625 193.0593109130859375 191.1731414794921875 189.449127197265625 187.9615478515625 186.8556976318359375 186.13543701171875 185.9019775390625 186.2706146240234375 186.9205474853515625 188.0158538818359375 189.4153594970703125 190.933929443359375 192.894287109375 194.840850830078125 196.7618560791015625 198.7835540771484375 200.886444091796875 202.9538421630859375 205.2659759521484375 207.8903656005859375 210.6286468505859375 213.745758056640625 217.546905517578125 221.965118408203125 226.9692535400390625 233.0308990478515625 239.8663787841796875 247.320648193359375 255.1541748046875 262.69964599609375 269.461639404296875 275.418365478515625 279.556793212890625 281.830230712890625 283.134246826171875 283.80242919921875 284.049713134765625 284.8719482421875 286.26885986328125 287.808807373046875 295.735198974609375 307.058197021484375 316.062103271484375 322.936614990234375 328.9451904296875 333.972076416015625 337.261322021484375 337.823486328125 335.41094970703125 329.658447265625 321.20635986328125 311.416534423828125 301.524871826171875 292.59552001953125 285.274261474609375 279.815765380859375 276.296234130859375 274.429351806640625 273.974853515625 274.5638427734375 276.13458251953125 278.089752197265625 280.240753173828125 282.29705810546875 284.3021240234375 286.138671875 287.69683837890625 288.938507080078125 289.84271240234375 290.45587158203125 290.770294189453125 290.852874755859375 290.69281005859375 290.34649658203125 289.8170166015625 289.125823974609375 288.323699951171875 287.4249267578125 286.4549560546875 285.411895751953125 284.3182373046875 283.18499755859375 282.02215576171875 280.852783203125 279.645111083984375 278.45166015625 277.253326416015625 276.055511474609375 274.86981201171875 273.706329345703125 272.571258544921875 271.45843505859375 270.375213623046875 269.325927734375 268.318450927734375 267.3531494140625 266.421844482421875 265.530975341796875 264.676727294921875 263.857330322265625 263.06500244140625 262.304779052734375 261.564422607421875 260.83843994140625 260.11419677734375 259.3909912109375 258.67120361328125 257.942535400390625 257.200927734375 256.4329833984375 255.6490478515625 254.85638427734375 254.0394287109375 253.1960906982421875 252.3485260009765625 251.503997802734375 250.6597747802734375 249.8610382080078125 249.16363525390625 248.5719451904296875 248.064605712890625 247.652191162109375 247.2455291748046875 247.178192138671875 247.3613433837890625 247.8731536865234375 248.7069549560546875 249.7071380615234375 250.8211669921875 252.0427703857421875 253.389801025390625 254.8410491943359375 256.3240966796875 257.80999755859375 259.314910888671875 260.861175537109375 262.408203125 263.890838623046875 265.329254150390625 266.708343505859375 268.1375732421875 269.527496337890625 270.69244384765625 271.783477783203125 272.845794677734375 273.68096923828125 274.44427490234375 275.12353515625 275.702117919921875 -99999 -99999 -99999 -99999 -99999 -99999 -99999 -99999
 -99999 -99999 -99999 -99999 -99999 -99999 -99999 -99999 -99999 -99999 -99999 -99999 -99999 -99999 -99999 -99999 -99999 -99999 -99999 -99999 -99999 -99999 -99999 -99999 -99999 -99999 -99999 -99999 -99999 -99999 188.0411529541015625 191.8872528076171875 195.3027801513671875 198.14288330078125 200.2220916748046875 201.5231475830078125 201.9585418701171875 201.039306640625 199.433685302734375 197.735321044921875 195.9498138427734375 194.1212158203125 192.1844635009765625 190.3141937255859375 188.598876953125 186.999298095703125 185.8759002685546875 185.286529541015625 185.08544921875 185.7005157470703125 186.800567626953125 188.180419921875 190.082183837890625 192.172698974609375 194.2737579345703125 196.620330810546875 199.1486663818359375 201.6718902587890625 204.2182159423828125 207.0513916015625 209.89996337890625 212.888916015625 216.2284698486328125 219.9637908935546875 224.0889892578125 228.7352142333984375 234.1170806884765625 239.9951171875 246.4194488525390625 253.1856231689453125 260.12005615234375 266.751434326171875 273.037445068359375 278.007476806640625 281.86492919921875 284.725433349609375 286.495819091796875 287.77783203125 288.84991455078125 290.568145751953125 292.993560791015625 297.1737060546875 304.54833984375 315.212921142578125 323.10760498046875 329.422027587890625 335.36456298828125 340.902557373046875 344.81915283203125 345.56854248046875 342.033538818359375 334.466033935546875 323.59954833984375 311.355987548828125 299.40093994140625 288.766448974609375 280.3922119140625 274.947662353515625 271.771148681640625 270.525146484375 271.189544677734375 272.925079345703125 275.225860595703125 277.84521484375 280.696197509765625 283.503662109375 286.03912353515625 288.122222900390625 289.87945556640625 291.268402099609375 292.267730712890625 292.90924072265625 293.25421142578125 293.243865966796875 292.993499755859375 292.530029296875 291.893310546875 291.119140625 290.229095458984375 289.22662353515625 288.156402587890625 287.03076171875 285.85784912109375 284.64990234375 283.418609619140625 282.173370361328125 280.9395751953125 279.651885986328125 278.39166259765625 277.152496337890625 275.927001953125 274.715545654296875 273.52935791015625 272.37860107421875 271.27197265625 270.2017822265625 269.174530029296875 268.19244384765625 267.260650634765625 266.3721923828125 265.524139404296875 264.72442626953125 263.960479736328125 263.225341796875 262.510528564453125 261.814178466796875 261.136749267578125 260.463134765625 259.778411865234375 259.082000732421875 258.375518798828125 257.656707763671875 256.918731689453125 256.1490478515625 255.372100830078125 254.5651702880859375 253.74072265625 252.882232666015625 252.0555419921875 251.264251708984375 250.5651397705078125 250.0136871337890625 249.54095458984375 249.10980224609375 248.800323486328125 248.6995086669921875 248.9181671142578125 249.393585205078125 250.065338134765625 250.92254638671875 252.0142364501953125 253.2237701416015625 254.5002593994140625 255.8267364501953125 257.214630126953125 258.68792724609375 260.176605224609375 261.635650634765625 263.058502197265625 264.46246337890625 265.87493896484375 267.30523681640625 268.599822998046875 269.82781982421875 270.983184814453125 272.054229736328125 273.03582763671875 273.90203857421875 274.67529296875 275.347076416015625 275.91741943359375 -99999 -99999 -99999 -99999 -99999 -99999 -99999 -99999
 -99999 -99999 -99999 -99999 -99999 -99999 -99999 -99999 -99999 -99999 -99999 -99999 -99999 -99999 -99999 -99999 -99999 -99999 -99999 -99999 -99999 -99999 -99999 -99999 -99999 -99999 -99999 -99999 -99999 184.007171630859375 188.128631591796875 191.6896209716796875 194.753936767578125 197.349456787109375 199.1344757080078125 200.1701812744140625 200.401641845703125 199.5903472900390625 198.1895904541015625 196.446502685546875 194.717559814453125 192.9355621337890625 191.08502197265625 189.157745361328125 187.3483123779296875 185.8567352294921875 184.6391754150390625 184.1646881103515625 184.2875213623046875 185.0151519775390625 186.5035858154296875 188.478179931640625 190.69354248046875 193.2189788818359375 196.0104827880859375 198.866363525390625 201.75250244140625 204.76336669921875 207.8465423583984375 211.0664825439453125 214.34588623046875 217.894012451171875 221.6843414306640625 225.85467529296875 230.410980224609375 235.3321075439453125 240.581268310546875 246.2685394287109375 252.5110015869140625 258.741058349609375 265.10791015625 271.018341064453125 276.45758056640625 281.171478271484375 285.1292724609375 288.033782958984375 290.4583740234375 292.355621337890625 294.3448486328125 297.155120849609375 300.5269775390625 305.52008056640625 313.043304443359375 321.46319580078125 328.961944580078125 335.1717529296875 341.11358642578125 347.152740478515625 352.137359619140625 353.31787109375 348.332061767578125 339.056427001953125 325.24957275390625 309.603546142578125 294.291290283203125 282.688690185546875 273.86370849609375 268.4207763671875 266.284088134765625 266.44464111328125 268.1019287109375 270.813507080078125 274.354156494140625 278.231414794921875 281.7696533203125 285.03802490234375 287.9732666015625 290.47418212890625 292.467926025390625 293.90814208984375 294.926727294921875 295.56512451171875 295.77105712890625 295.69384765625 295.3504638671875 294.7791748046875 294.03240966796875 293.119873046875 292.10699462890625 291.01422119140625 289.845458984375 288.625 287.368927001953125 286.0926513671875 284.788421630859375 283.466278076171875 282.150970458984375 280.848480224609375 279.5240478515625 278.218353271484375 276.930572509765625 275.682220458984375 274.463043212890625 273.277191162109375 272.130859375 271.033416748046875 269.9949951171875 269.00469970703125 268.06689453125 267.186553955078125 266.3565673828125 265.57525634765625 264.832489013671875 264.128692626953125 263.462921142578125 262.815155029296875 262.174468994140625 261.53839111328125 260.9063720703125 260.271148681640625 259.612579345703125 258.93072509765625 258.22930908203125 257.512359619140625 256.779388427734375 256.016693115234375 255.2774505615234375 254.4424285888671875 253.5862884521484375 252.7103729248046875 252.033538818359375 251.48681640625 251.03912353515625 250.6654510498046875 250.414306640625 250.35076904296875 250.50201416015625 250.9176788330078125 251.5796966552734375 252.413665771484375 253.3690643310546875 254.439178466796875 255.65283203125 256.9598388671875 258.31256103515625 259.66436767578125 261.033447265625 262.444488525390625 263.7686767578125 265.24005126953125 266.571990966796875 267.8651123046875 269.111419677734375 270.2957763671875 271.407440185546875 272.4229736328125 273.35675048828125 274.199005126953125 274.9508056640625 275.605499267578125 276.1561279296875 -99999 -99999 -99999 -99999 -99999 -99999 -99999 -99999
 -99999 -99999 -99999 -99999 -99999 -99999 -99999 -99999 -99999 -99999 -99999 -99999 -99999 -99999 -99999 -99999 -99999 -99999 -99999 -99999 -99999 -99999 -99999 -99999 -99999 -99999 -99999 -99999 -99999 183.7220001220703125 187.73468017578125 191.0832672119140625 193.8838653564453125 196.2111053466796875 197.8402557373046875 198.6342010498046875 198.65936279296875 197.9380035400390625 196.6970367431640625 195.1174468994140625 193.3972320556640625 191.63531494140625 189.867034912109375 187.98291015625 186.0625 184.39263916015625 183.2919921875 182.815155029296875 183.1400299072265625 184.3283233642578125 186.309967041015625 188.936370849609375 191.5748443603515625 194.646728515625 197.811859130859375 201.054779052734375 204.42706298828125 207.9431610107421875 211.4664764404296875 215.12762451171875 218.92962646484375 222.9520111083984375 227.1631927490234375 231.4302215576171875 236.14520263671875 241.24151611328125 246.7200927734375 252.4396514892578125 258.261383056640625 263.999481201171875 269.7896728515625 275.313720703125 280.400177001953125 284.846099853515625 288.751129150390625 291.91571044921875 294.604827880859375 297.278472900390625 300.29608154296875 303.175506591796875 307.176300048828125 312.854705810546875 319.5157470703125 327.096099853515625 334.352325439453125 340.669891357421875 346.809051513671875 352.837890625 358.5054931640625 360.505584716796875 355.63763427734375 342.7247314453125 325.0833740234375 304.75 287.375152587890625 273.60595703125 265.11724853515625 261.004150390625 260.041168212890625 261.409027099609375 264.97076416015625 269.46588134765625 274.106048583984375 278.747467041015625 283.176116943359375 287.2437744140625 290.569244384765625 293.23583984375 295.346527099609375 296.91937255859375 297.89178466796875 298.38092041015625 298.503692626953125 298.290802001953125 297.793731689453125 297.0526123046875 296.156219482421875 295.127410888671875 293.9853515625 292.764373779296875 291.491607666015625 290.197113037109375 288.850830078125 287.484100341796875 286.111114501953125 284.73602294921875 283.360809326171875 281.963958740234375 280.59857177734375 279.25128173828125 277.92291259765625 276.619110107421875 275.345367431640625 274.127532958984375 272.9573974609375 271.836822509765625 270.771514892578125 269.771087646484375 268.84149169921875 267.97039794921875 267.151031494140625 266.393341064453125 265.693634033203125 265.032958984375 264.403289794921875 263.798095703125 263.21905517578125 262.64849853515625 262.066650390625 261.47552490234375 260.870330810546875 260.25341796875 259.608428955078125 258.935394287109375 258.245086669921875 257.53936767578125 256.83612060546875 256.09173583984375 255.281494140625 254.367950439453125 253.526214599609375 253.0633087158203125 252.637054443359375 252.2927703857421875 252.0858001708984375 252.0668792724609375 252.24786376953125 252.6058349609375 253.1551055908203125 253.8995361328125 254.81781005859375 255.8598785400390625 256.982330322265625 258.1534423828125 259.406036376953125 260.7159423828125 261.978424072265625 263.35247802734375 264.6636962890625 265.99505615234375 267.2730712890625 268.51251220703125 269.698577880859375 270.812469482421875 271.86334228515625 272.84136962890625 273.741973876953125 274.5521240234375 275.265380859375 275.8863525390625 276.420806884765625 -99999 -99999 -99999 -99999 -99999 -99999 -99999 -99999
 -99999 -99999 -99999 -99999 -99999 -99999 -99999 -99999 -99999 -99999 -99999 -99999 -99999 -99999 -99999 -99999 -99999 -99999 -99999 -99999 -99999 -99999 -99999 -99999 -99999 -99999 -99999 -99999 -99999 183.287139892578125 186.988677978515625 190.073333740234375 192.6678314208984375 194.784515380859375 196.15850830078125 196.83306884765625 196.923370361328125 196.3707733154296875 195.1612396240234375 193.661346435546875 192.067413330078125 190.3356781005859375 188.6105499267578125 186.780181884765625 184.7564697265625 182.9522705078125 181.655853271484375 181.2466583251953125 181.9998931884765625 183.7314300537109375 186.134124755859375 189.1812591552734375 192.7092132568359375 196.2892608642578125 199.909576416015625 203.64398193359375 207.3544158935546875 211.2360992431640625 215.110870361328125 219.1405029296875 223.3532867431640625 227.77874755859375 232.263092041015625 236.9378814697265625 241.8543853759765625 247.2021484375 252.483184814453125 258.07025146484375 263.736572265625 269.21600341796875 274.59844970703125 279.825439453125 284.537353515625 288.807281494140625 292.6463623046875 296.047149658203125 299.126251220703125 302.16119384765625 305.462890625 309.172515869140625 313.776580810546875 319.231903076171875 325.619720458984375 332.22027587890625 339.190277099609375 345.444732666015625 351.85308837890625 358.27777099609375 364.61968994140625 367.383880615234375 361.4305419921875 345.358978271484375 320.97625732421875 296.650787353515625 276.679046630859375 262.04315185546875 254.3377532958984375 251.82257080078125 253.02685546875 257.086639404296875 262.391387939453125 268.327484130859375 274.4610595703125 280.3712158203125 285.5179443359375 289.9554443359375 293.67236328125 296.639129638671875 298.74169921875 300.1612548828125 301.04693603515625 301.443145751953125 301.3765869140625 300.94830322265625 300.270965576171875 299.36285400390625 298.288116455078125 297.09637451171875 295.81634521484375 294.495574951171875 293.1064453125 291.694488525390625 290.271728515625 288.848907470703125 287.413055419921875 285.95806884765625 284.5133056640625 283.081207275390625 281.656524658203125 280.245330810546875 278.861236572265625 277.515167236328125 276.20684814453125 274.94207763671875 273.7281494140625 272.587860107421875 271.5147705078125 270.5069580078125 269.56591796875 268.701690673828125 267.919677734375 267.194183349609375 266.523193359375 265.90155029296875 265.33416748046875 264.792327880859375 264.2667236328125 263.74945068359375 263.232879638671875 262.715576171875 262.16851806640625 261.59967041015625 261.007659912109375 260.392974853515625 259.764373779296875 259.12335205078125 258.485870361328125 257.83551025390625 257.1412353515625 256.20867919921875 255.41046142578125 254.8073577880859375 254.3721160888671875 254.0576019287109375 253.86859130859375 253.8228759765625 253.976104736328125 254.3400115966796875 254.873931884765625 255.549591064453125 256.360870361328125 257.2938232421875 258.344085693359375 259.475982666015625 260.65557861328125 261.8201904296875 263.074920654296875 264.351959228515625 265.6068115234375 266.8428955078125 268.0467529296875 269.2095947265625 270.328277587890625 271.393341064453125 272.398590087890625 273.325408935546875 274.168548583984375 274.93414306640625 275.620208740234375 276.225250244140625 276.734771728515625 -99999 -99999 -99999 -99999 -99999 -99999 -99999 -99999
 -99999 -99999 -99999 -99999 -99999 -99999 -99999 -99999 -99999 -99999 -99999 -99999 -99999 -99999 -99999 -99999 -99999 -99999 -99999 -99999 -99999 -99999 -99999 -99999 -99999 -99999 -99999 -99999 -99999 182.4965667724609375 185.9849090576171875 188.965789794921875 191.3911895751953125 193.1650238037109375 194.5477142333984375 195.1717987060546875 195.1014251708984375 194.619415283203125 193.57696533203125 192.2144012451171875 190.619964599609375 188.9550628662109375 187.254669189453125 185.4292144775390625 183.3609466552734375 181.356048583984375 179.989288330078125 179.75750732421875 180.70635986328125 182.9849090576171875 186.3181915283203125 189.985565185546875 193.988250732421875 198.143402099609375 202.2933502197265625 206.46820068359375 210.4791717529296875 214.6592864990234375 218.9139556884765625 223.2971649169921875 227.803680419921875 232.469207763671875 237.3430328369140625 242.31097412109375 247.4465789794921875 252.7223358154296875 258.092620849609375 263.55841064453125 268.989990234375 274.326568603515625 279.460601806640625 284.414886474609375 288.840179443359375 293.094207763671875 296.885528564453125 300.235137939453125 303.55181884765625 307.076812744140625 310.75384521484375 314.576416015625 318.9608154296875 324.498626708984375 329.99993896484375 336.163818359375 342.757171630859375 348.77740478515625 354.653045654296875 360.1697998046875 364.7823486328125 366.587890625 360.76568603515625 342.011383056640625 313.612091064453125 282.8936767578125 261.443023681640625 248.36444091796875 242.267059326171875 242.2046661376953125 246.535125732421875 252.850677490234375 260.687408447265625 268.561614990234375 276.021148681640625 282.847900390625 288.77130126953125 293.746826171875 297.496978759765625 300.384033203125 302.4808349609375 303.872711181640625 304.605804443359375 304.632781982421875 304.34271240234375 303.67919921875 302.75665283203125 301.629241943359375 300.37628173828125 299.02447509765625 297.590667724609375 296.116943359375 294.638916015625 293.15765380859375 291.661346435546875 290.14947509765625 288.640533447265625 287.143157958984375 285.64697265625 284.1607666015625 282.671142578125 281.209075927734375 279.773773193359375 278.3692626953125 277.01080322265625 275.7122802734375 274.472625732421875 273.297576904296875 272.1922607421875 271.17999267578125 270.254974365234375 269.40740966796875 268.636016845703125 267.93731689453125 267.320831298828125 266.76068115234375 266.244354248046875 265.7620849609375 265.304779052734375 264.86090087890625 264.412506103515625 263.953125 263.4761962890625 262.97564697265625 262.436767578125 261.871673583984375 261.288909912109375 260.70013427734375 260.126220703125 259.589996337890625 258.94073486328125 258.158966064453125 257.3023681640625 256.6424560546875 256.20465087890625 255.8596649169921875 255.6978302001953125 255.6922607421875 255.836456298828125 256.130950927734375 256.5872802734375 257.23114013671875 257.9913330078125 258.856170654296875 259.812744140625 260.84808349609375 261.9273681640625 263.035369873046875 264.24560546875 265.41876220703125 266.589874267578125 267.74676513671875 268.879058837890625 269.9791259765625 271.039642333984375 272.039459228515625 272.975860595703125 273.84906005859375 274.654998779296875 275.39013671875 276.029754638671875 276.58709716796875 277.0667724609375 -99999 -99999 -99999 -99999 -99999 -99999 -99999 -99999
 -99999 -99999 -99999 -99999 -99999 -99999 -99999 -99999 -99999 -99999 -99999 -99999 -99999 -99999 -99999 -99999 -99999 -99999 -99999 -99999 -99999 -99999 -99999 -99999 -99999 -99999 -99999 -99999 -99999 181.64251708984375 184.9232635498046875 187.7974395751953125 189.9365081787109375 191.6806182861328125 192.8274383544921875 193.4021148681640625 193.455902099609375 192.9529266357421875 192.1041107177734375 190.7380218505859375 189.2374725341796875 187.550048828125 185.7757415771484375 183.89312744140625 181.899658203125 179.7525787353515625 178.1222991943359375 177.6025543212890625 179.5295257568359375 182.823394775390625 186.9628753662109375 191.37078857421875 195.9020538330078125 200.4984588623046875 204.97198486328125 209.4108734130859375 213.837493896484375 218.2823333740234375 222.74322509765625 227.3526153564453125 232.169769287109375 237.1908416748046875 242.3240966796875 247.511566162109375 252.7798614501953125 258.167449951171875 263.560455322265625 268.969757080078125 274.28399658203125 279.56878662109375 284.416351318359375 288.989959716796875 293.352386474609375 297.53857421875 301.21905517578125 304.6883544921875 308.3121337890625 311.4678955078125 315.069915771484375 318.70440673828125 323.3851318359375 328.00775146484375 333.349517822265625 338.915557861328125 344.172576904296875 349.34271240234375 354.024993896484375 357.384735107421875 359.7220458984375 358.3109130859375 351.1986083984375 331.53363037109375 295.01312255859375 264.274627685546875 244.150604248046875 231.0871734619140625 228.9560089111328125 233.4545135498046875 241.3322296142578125 251.01025390625 260.93463134765625 270.4674072265625 279.301849365234375 286.906280517578125 293.15643310546875 298.197845458984375 302.1112060546875 304.999725341796875 306.804931640625 307.863861083984375 308.191253662109375 307.994293212890625 307.382568359375 306.41986083984375 305.21942138671875 303.8621826171875 302.368408203125 300.817535400390625 299.255767822265625 297.68280029296875 296.107574462890625 294.5196533203125 292.94189453125 291.389007568359375 289.836395263671875 288.286224365234375 286.729400634765625 285.177581787109375 283.645965576171875 282.127410888671875 280.639923095703125 279.187469482421875 277.779632568359375 276.424896240234375 275.139678955078125 273.94384765625 272.830841064453125 271.804412841796875 270.867523193359375 270.026580810546875 269.299774169921875 268.64984130859375 268.07470703125 267.569000244140625 267.113983154296875 266.711669921875 266.33087158203125 265.96044921875 265.590087890625 265.197174072265625 264.78765869140625 264.348480224609375 263.874847412109375 263.36285400390625 262.8092041015625 262.249359130859375 261.700439453125 261.157745361328125 260.594207763671875 259.857147216796875 259.15093994140625 258.546722412109375 258.053863525390625 257.75177001953125 257.5894775390625 257.548004150390625 257.685821533203125 257.987091064453125 258.415924072265625 258.9708251953125 259.645965576171875 260.464691162109375 261.3392333984375 262.277252197265625 263.2427978515625 264.37176513671875 265.45989990234375 266.552398681640625 267.644134521484375 268.726348876953125 269.793975830078125 270.821685791015625 271.805511474609375 272.743316650390625 273.629547119140625 274.459503173828125 275.203765869140625 275.878814697265625 276.48358154296875 277.01617431640625 277.47015380859375 -99999 -99999 -99999 -99999 -99999 -99999 -99999 -99999
 -99999 -99999 -99999 -99999 -99999 -99999 -99999 -99999 -99999 -99999 -99999 -99999 -99999 -99999 -99999 -99999 -99999 -99999 -99999 -99999 -99999 -99999 -99999 -99999 -99999 -99999 -99999 -99999 -99999 180.6475982666015625 183.70782470703125 186.3790740966796875 188.5806732177734375 190.0554962158203125 191.306060791015625 191.892791748046875 191.859466552734375 191.4474334716796875 190.664459228515625 189.5518035888671875 187.9324188232421875 186.3858184814453125 184.5672149658203125 182.6058807373046875 180.5509033203125 178.4516754150390625 176.4332275390625 176.2167816162109375 178.8502197265625 183.3653106689453125 188.372406005859375 193.5271148681640625 198.588409423828125 203.461273193359375 208.2542877197265625 212.7669525146484375 217.2811431884765625 221.8932647705078125 226.6505889892578125 231.4934844970703125 236.4844207763671875 241.6741180419921875 247.126251220703125 252.5433502197265625 258.02587890625 263.566314697265625 269.021820068359375 274.368377685546875 279.58197021484375 284.535552978515625 289.258453369140625 293.874176025390625 298.095916748046875 301.91552734375 305.56494140625 308.986328125 312.267822265625 315.666259765625 319.2913818359375 322.76690673828125 326.94586181640625 331.141845703125 335.365966796875 339.994293212890625 344.247833251953125 347.81427001953125 350.299896240234375 351.49072265625 349.69171142578125 343.67108154296875 331.057861328125 308.329254150390625 276.698699951171875 248.499908447265625 226.8798675537109375 216.54205322265625 218.145263671875 227.6795196533203125 239.3339691162109375 251.479705810546875 263.560699462890625 274.447113037109375 284.2047119140625 292.32861328125 298.89251708984375 303.901214599609375 307.448333740234375 309.97149658203125 311.363128662109375 312.019439697265625 311.993804931640625 311.38970947265625 310.392120361328125 309.093902587890625 307.5615234375 305.93988037109375 304.233856201171875 302.524322509765625 300.815673828125 299.09600830078125 297.4200439453125 295.791046142578125 294.191131591796875 292.583892822265625 290.970794677734375 289.36004638671875 287.762939453125 286.185302734375 284.5968017578125 283.02313232421875 281.46630859375 279.949249267578125 278.496673583984375 277.099517822265625 275.77471923828125 274.53167724609375 273.384033203125 272.349151611328125 271.428955078125 270.613433837890625 269.9013671875 269.28936767578125 268.765777587890625 268.33673095703125 267.96575927734375 267.63873291015625 267.33099365234375 267.034149169921875 266.7418212890625 266.433135986328125 266.101593017578125 265.724822998046875 265.306365966796875 264.840057373046875 264.322113037109375 263.778778076171875 263.235015869140625 262.70458984375 262.13604736328125 261.53399658203125 260.918060302734375 260.361053466796875 259.948272705078125 259.638885498046875 259.4521484375 259.474029541015625 259.5936279296875 259.83709716796875 260.2359619140625 260.769317626953125 261.3985595703125 262.10992431640625 262.83892822265625 263.817230224609375 264.7574462890625 265.7305908203125 266.727935791015625 267.740234375 268.772369384765625 269.776336669921875 270.759490966796875 271.715789794921875 272.639984130859375 273.5260009765625 274.340667724609375 275.100189208984375 275.800628662109375 276.4383544921875 277.0032958984375 277.481201171875 277.8892822265625 -99999 -99999 -99999 -99999 -99999 -99999 -99999 -99999
 -99999 -99999 -99999 -99999 -99999 -99999 -99999 -99999 -99999 -99999 -99999 -99999 -99999 -99999 -99999 -99999 -99999 -99999 -99999 -99999 -99999 -99999 -99999 -99999 -99999 -99999 -99999 -99999 -99999 179.651519775390625 182.59783935546875 185.1055755615234375 187.2140045166015625 188.7265167236328125 189.736236572265625 190.4234466552734375 190.57293701171875 190.21490478515625 189.47491455078125 188.5032806396484375 187.151611328125 185.598175048828125 183.8877105712890625 182.0738677978515625 180.106903076171875 178.0748291015625 176.4564361572265625 175.8555755615234375 179.905426025390625 185.4260101318359375 191.0631866455078125 196.6265411376953125 201.959747314453125 206.972442626953125 211.8163299560546875 216.4553985595703125 220.9942779541015625 225.6513671875 230.4890289306640625 235.5308380126953125 240.8395233154296875 246.3220977783203125 251.853546142578125 257.508941650390625 263.255279541015625 268.8358154296875 274.3668212890625 279.697235107421875 284.849456787109375 289.81414794921875 294.471405029296875 298.61944580078125 302.561859130859375 306.4210205078125 309.916259765625 313.147979736328125 316.513702392578125 319.535980224609375 322.657562255859375 326.043914794921875 329.5623779296875 332.875823974609375 336.46099853515625 339.81146240234375 342.550323486328125 344.41558837890625 345.389923095703125 343.148345947265625 338.84808349609375 329.89410400390625 313.46539306640625 291.22357177734375 265.208526611328125 238.3856048583984375 217.3069000244140625 207.327728271484375 215.4662933349609375 227.6535186767578125 241.354736328125 255.4687957763671875 268.929901123046875 281.097076416015625 291.299102783203125 299.507965087890625 305.562896728515625 310.297119140625 313.355133056640625 315.253204345703125 316.180572509765625 316.260009765625 315.7747802734375 314.7354736328125 313.3057861328125 311.632049560546875 309.7593994140625 307.844024658203125 305.905914306640625 304.006195068359375 302.149749755859375 300.381134033203125 298.67822265625 296.9888916015625 295.311920166015625 293.66351318359375 292.0526123046875 290.444122314453125 288.797698974609375 287.138275146484375 285.4884033203125 283.873443603515625 282.272308349609375 280.697265625 279.170379638671875 277.70477294921875 276.339630126953125 275.063873291015625 273.8963623046875 272.841949462890625 271.908172607421875 271.1072998046875 270.43084716796875 269.875518798828125 269.42376708984375 269.0570068359375 268.7545166015625 268.511383056640625 268.304443359375 268.103515625 267.885345458984375 267.636810302734375 267.370513916015625 267.07623291015625 266.745025634765625 266.332611083984375 265.835357666015625 265.300933837890625 264.787689208984375 264.27392578125 263.742462158203125 263.1854248046875 262.664764404296875 262.202911376953125 261.821136474609375 261.551025390625 261.40435791015625 261.361297607421875 261.48321533203125 261.745208740234375 262.103851318359375 262.558441162109375 263.141204833984375 263.77734375 264.552825927734375 265.37347412109375 266.22650146484375 267.13348388671875 268.06927490234375 269.003204345703125 269.93841552734375 270.867095947265625 271.79217529296875 272.688079833984375 273.533538818359375 274.33929443359375 275.100555419921875 275.814971923828125 276.463775634765625 277.03741455078125 277.5482177734375 277.993682861328125 278.374359130859375 -99999 -99999 -99999 -99999 -99999 -99999 -99999 -99999
 -99999 -99999 -99999 -99999 -99999 -99999 -99999 -99999 -99999 -99999 -99999 -99999 -99999 -99999 -99999 -99999 -99999 -99999 -99999 -99999 -99999 -99999 -99999 -99999 -99999 -99999 -99999 -99999 -99999 178.64019775390625 181.4541778564453125 183.909576416015625 186.0084075927734375 187.462493896484375 188.53875732421875 189.2118072509765625 189.4209136962890625 189.2058868408203125 188.6613006591796875 187.8589630126953125 186.6613006591796875 185.3819122314453125 183.898895263671875 182.2861175537109375 180.807464599609375 179.5744476318359375 178.88946533203125 179.477203369140625 183.6044464111328125 189.1848907470703125 194.9169464111328125 200.542572021484375 206.0871429443359375 211.2003173828125 215.8220977783203125 220.3780975341796875 224.7644195556640625 229.32647705078125 234.189727783203125 239.477325439453125 244.9395751953125 250.7411041259765625 256.679290771484375 262.70184326171875 268.494476318359375 274.188629150390625 279.770660400390625 285.120361328125 290.207275390625 294.896087646484375 299.272003173828125 303.544769287109375 307.467498779296875 310.874755859375 314.019378662109375 317.22216796875 320.13043212890625 322.939208984375 325.729095458984375 328.622711181640625 331.458465576171875 334.058837890625 336.700592041015625 338.82928466796875 339.88787841796875 340.402801513671875 338.956573486328125 335.114593505859375 328.24798583984375 317.346923828125 301.620147705078125 281.240020751953125 258.38238525390625 236.7978515625 219.1844635009765625 214.5553436279296875 220.9314727783203125 233.805938720703125 248.2618560791015625 263.087554931640625 277.195556640625 290.008819580078125 299.981292724609375 307.728179931640625 313.182373046875 316.8408203125 319.150726318359375 320.507965087890625 321.0517578125 320.540313720703125 319.459136962890625 317.9332275390625 316.010406494140625 313.885772705078125 311.681182861328125 309.481414794921875 307.334381103515625 305.287933349609375 303.359130859375 301.505859375 299.71734619140625 298.0169677734375 296.390167236328125 294.774658203125 293.10015869140625 291.420440673828125 289.75946044921875 288.098846435546875 286.416015625 284.730560302734375 283.02899169921875 281.392303466796875 279.81170654296875 278.292755126953125 276.85662841796875 275.521697998046875 274.325103759765625 273.2540283203125 272.3218994140625 271.538787841796875 270.894073486328125 270.38702392578125 269.98968505859375 269.707550048828125 269.517486572265625 269.3760986328125 269.2440185546875 269.11553955078125 268.984283447265625 268.821990966796875 268.62274169921875 268.38665771484375 268.1185302734375 267.813018798828125 267.36749267578125 266.845916748046875 266.349456787109375 265.852203369140625 265.360565185546875 264.880279541015625 264.418701171875 264.006011962890625 263.67755126953125 263.456634521484375 263.3319091796875 263.32293701171875 263.4251708984375 263.609588623046875 263.96917724609375 264.414459228515625 264.91168212890625 265.500579833984375 266.22271728515625 266.973724365234375 267.76885986328125 268.589141845703125 269.431671142578125 270.298919677734375 271.175262451171875 272.03857421875 272.873748779296875 273.68609619140625 274.476226806640625 275.230224609375 275.9296875 276.569000244140625 277.156097412109375 277.691375732421875 278.160247802734375 278.55523681640625 278.8836669921875 279.14208984375 -99999 -99999 -99999 -99999 -99999 -99999 -99999
 -99999 -99999 -99999 -99999 -99999 -99999 -99999 -99999 -99999 -99999 -99999 -99999 -99999 -99999 -99999 -99999 -99999 -99999 -99999 -99999 -99999 -99999 -99999 -99999 -99999 -99999 -99999 -99999 174.516387939453125 177.6579742431640625 180.427215576171875 182.80889892578125 184.820892333984375 186.4405517578125 187.4850311279296875 188.2461700439453125 188.5965423583984375 188.5001678466796875 188.1410675048828125 187.5604095458984375 186.78228759765625 185.6680450439453125 184.629638671875 183.6272735595703125 182.696563720703125 182.1391754150390625 182.4697418212890625 184.6279449462890625 188.4755706787109375 193.7242584228515625 199.250152587890625 205.0416107177734375 210.7136993408203125 215.782928466796875 220.358978271484375 224.264556884765625 228.42987060546875 232.912078857421875 237.9378509521484375 243.3061981201171875 249.149749755859375 255.176971435546875 261.356903076171875 267.60675048828125 273.66168212890625 279.54620361328125 285.23724365234375 290.56402587890625 295.546722412109375 300.233062744140625 304.561065673828125 308.37548828125 311.926544189453125 315.206390380859375 318.2366943359375 321.04278564453125 323.61749267578125 326.1644287109375 328.45220947265625 330.584320068359375 332.822174072265625 334.697479248046875 336.111785888671875 337.229034423828125 337.335540771484375 335.96575927734375 333.29852294921875 328.24139404296875 320.2718505859375 309.02484130859375 294.17974853515625 277.223663330078125 258.5833740234375 241.532196044921875 229.2942352294921875 225.6688690185546875 231.91107177734375 243.978302001953125 257.898406982421875 272.628265380859375 287.927032470703125 300.915252685546875 310.3585205078125 316.525726318359375 320.735870361328125 323.522705078125 325.220855712890625 325.7645263671875 325.46258544921875 324.5841064453125 322.89849853515625 320.78985595703125 318.392425537109375 315.855560302734375 313.27435302734375 310.7745361328125 308.46710205078125 306.296661376953125 304.25421142578125 302.403106689453125 300.693145751953125 299.032562255859375 297.35723876953125 295.7021484375 294.0946044921875 292.46337890625 290.75982666015625 289.01312255859375 287.267333984375 285.53973388671875 283.793701171875 282.076568603515625 280.39990234375 278.8079833984375 277.32073974609375 275.93878173828125 274.686614990234375 273.58392333984375 272.655181884765625 271.88482666015625 271.26165771484375 270.81365966796875 270.510101318359375 270.316070556640625 270.20086669921875 270.151885986328125 270.150177001953125 270.139373779296875 270.066375732421875 269.95306396484375 269.799957275390625 269.622711181640625 269.44873046875 269.21441650390625 268.834228515625 268.3636474609375 267.89990234375 267.443389892578125 266.990570068359375 266.5531005859375 266.154022216796875 265.81585693359375 265.540374755859375 265.34722900390625 265.244781494140625 265.2484130859375 265.351837158203125 265.5594482421875 265.863128662109375 266.214385986328125 266.6707763671875 267.304046630859375 267.92706298828125 268.59820556640625 269.31707763671875 270.08111572265625 270.866790771484375 271.657928466796875 272.44317626953125 273.2298583984375 274.008697509765625 274.76531982421875 275.48052978515625 276.152587890625 276.788909912109375 277.380584716796875 277.92144775390625 278.39495849609375 278.799072265625 279.1536865234375 279.440216064453125 279.66619873046875 -99999 -99999 -99999 -99999 -99999 -99999 -99999
 -99999 -99999 -99999 -99999 -99999 -99999 -99999 -99999 -99999 -99999 -99999 -99999 -99999 -99999 -99999 -99999 -99999 -99999 -99999 -99999 -99999 -99999 -99999 -99999 -99999 -99999 -99999 -99999 173.6837310791015625 176.7940216064453125 179.5044708251953125 181.8496246337890625 183.8199920654296875 185.492279052734375 186.661651611328125 187.4489898681640625 188.0028076171875 188.1877288818359375 188.0497894287109375 187.6903839111328125 187.2325592041015625 186.5272216796875 185.9106903076171875 185.4225921630859375 185.2281036376953125 185.6702423095703125 186.9726715087890625 189.48272705078125 193.331787109375 198.356536865234375 204.034820556640625 209.8760833740234375 215.767974853515625 221.245147705078125 224.7909088134765625 228.1265716552734375 231.9990386962890625 236.2235107421875 241.2837066650390625 247.0467529296875 253.1723175048828125 259.644134521484375 266.239349365234375 272.728515625 279.07086181640625 285.10516357421875 290.742401123046875 296.057830810546875 301.03631591796875 305.462554931640625 309.53094482421875 313.253143310546875 316.633544921875 319.604339599609375 322.20379638671875 324.743560791015625 326.940948486328125 328.824249267578125 330.6168212890625 332.457305908203125 333.954071044921875 334.7744140625 335.56585693359375 335.514892578125 334.298919677734375 332.185272216796875 328.135101318359375 322.13079833984375 313.876190185546875 303.112701416015625 289.88970947265625 275.644134521484375 260.634979248046875 249.1041412353515625 241.2404632568359375 239.900787353515625 245.0449981689453125 255.31591796875 268.643768310546875 284.103790283203125 299.825408935546875 313.004180908203125 320.767303466796875 325.585479736328125 328.26214599609375 329.7176513671875 330.444122314453125 330.428558349609375 329.6754150390625 328.22601318359375 325.93359375 323.318389892578125 320.361602783203125 317.311431884765625 314.43603515625 311.710662841796875 309.185333251953125 306.95050048828125 304.988800048828125 303.182830810546875 301.450164794921875 299.8157958984375 298.28631591796875 296.725738525390625 295.089447021484375 293.401641845703125 291.70721435546875 289.974639892578125 288.175628662109375 286.342742919921875 284.51678466796875 282.725616455078125 280.981842041015625 279.304443359375 277.716705322265625 276.26727294921875 274.98284912109375 273.85284423828125 272.8865966796875 272.126068115234375 271.562652587890625 271.170989990234375 270.927520751953125 270.812774658203125 270.8443603515625 270.920196533203125 271.019744873046875 271.08709716796875 271.121917724609375 271.07086181640625 270.93646240234375 270.77728271484375 270.621429443359375 270.467376708984375 270.204193115234375 269.8104248046875 269.403045654296875 268.995269775390625 268.604583740234375 268.2391357421875 267.89947509765625 267.606719970703125 267.372406005859375 267.221771240234375 267.153228759765625 267.17291259765625 267.27838134765625 267.469482421875 267.7509765625 268.0601806640625 268.53765869140625 269.07049560546875 269.636077880859375 270.261962890625 270.924072265625 271.6094970703125 272.31329345703125 273.040863037109375 273.769775390625 274.493194580078125 275.189849853515625 275.865203857421875 276.519195556640625 277.138885498046875 277.719757080078125 278.23785400390625 278.708099365234375 279.129791259765625 279.496826171875 279.805999755859375 280.035308837890625 280.204833984375 -99999 -99999 -99999 -99999 -99999 -99999 -99999
 -99999 -99999 -99999 -99999 -99999 -99999 -99999 -99999 -99999 -99999 -99999 -99999 -99999 -99999 -99999 -99999 -99999 -99999 -99999 -99999 -99999 -99999 -99999 -99999 -99999 -99999 -99999 -99999 172.9420928955078125 175.949249267578125 178.6505584716796875 181.039642333984375 183.0823211669921875 184.737213134765625 186.1458740234375 186.998199462890625 187.7130279541015625 188.1236572265625 188.256591796875 188.2156982421875 188.112579345703125 188.0025482177734375 187.7835845947265625 187.8790435791015625 188.370452880859375 189.3914031982421875 191.1680145263671875 194.082275390625 198.19708251953125 203.0965576171875 208.642486572265625 214.83258056640625 221.8164825439453125 226.0215301513671875 228.857635498046875 231.5880889892578125 234.896331787109375 239.1801910400390625 244.4811553955078125 250.5902099609375 257.24609375 264.113922119140625 271.06005859375 277.945953369140625 284.464691162109375 290.663665771484375 296.449127197265625 301.75714111328125 306.5145263671875 310.84686279296875 314.73419189453125 318.16241455078125 321.141387939453125 323.7271728515625 326.076416015625 328.196807861328125 329.902130126953125 331.472381591796875 332.822509765625 333.78564453125 334.6402587890625 334.838592529296875 334.588775634765625 333.81378173828125 331.96527099609375 328.857635498046875 324.237152099609375 318.189971923828125 310.25653076171875 300.26812744140625 289.300140380859375 277.49591064453125 266.246978759765625 257.6226806640625 252.25787353515625 251.9008636474609375 257.28680419921875 267.095733642578125 279.797821044921875 294.496307373046875 310.751953125 324.253326416015625 330.310882568359375 332.386016845703125 333.945892333984375 334.730316162109375 334.919708251953125 334.534423828125 333.24407958984375 331.3160400390625 328.516357421875 325.21038818359375 321.759307861328125 318.319976806640625 315.029876708984375 312.07452392578125 309.565399169921875 307.361724853515625 305.386871337890625 303.63623046875 302.130767822265625 300.655517578125 299.152862548828125 297.619842529296875 296.06732177734375 294.444549560546875 292.71038818359375 290.8924560546875 289.057220458984375 287.182373046875 285.287017822265625 283.374114990234375 281.5079345703125 279.746063232421875 278.0892333984375 276.559417724609375 275.17864990234375 274.004974365234375 273.05645751953125 272.304656982421875 271.749176025390625 271.39581298828125 271.262054443359375 271.277252197265625 271.40386962890625 271.604339599609375 271.863250732421875 272.07684326171875 272.164642333984375 272.15386962890625 272.051971435546875 271.90087890625 271.7965087890625 271.667816162109375 271.464080810546875 271.1846923828125 270.8726806640625 270.53668212890625 270.207550048828125 269.896484375 269.613189697265625 269.385467529296875 269.209014892578125 269.094573974609375 269.047515869140625 269.072021484375 269.1859130859375 269.381622314453125 269.618804931640625 269.960357666015625 270.3914794921875 270.847137451171875 271.3336181640625 271.932647705078125 272.537506103515625 273.168121337890625 273.815948486328125 274.47418212890625 275.12225341796875 275.774322509765625 276.411590576171875 277.028533935546875 277.61968994140625 278.160919189453125 278.670318603515625 279.136383056640625 279.562225341796875 279.928131103515625 280.228240966796875 280.474945068359375 280.664337158203125 280.79534912109375 -99999 -99999 -99999 -99999 -99999 -99999 -99999
 -99999 -99999 -99999 -99999 -99999 -99999 -99999 -99999 -99999 -99999 -99999 -99999 -99999 -99999 -99999 -99999 -99999 -99999 -99999 -99999 -99999 -99999 -99999 -99999 -99999 -99999 -99999 -99999 172.3116912841796875 175.2672882080078125 178.0038299560546875 180.375213623046875 182.432098388671875 184.20458984375 185.701812744140625 186.864715576171875 187.686981201171875 188.403350830078125 188.845916748046875 189.1142425537109375 189.354736328125 189.6357421875 190.0355682373046875 190.6123199462890625 191.4855499267578125 193.163909912109375 195.5247039794921875 198.6683197021484375 202.611663818359375 207.3114471435546875 212.7763519287109375 218.559906005859375 224.3114776611328125 229.0236968994140625 231.7333221435546875 234.23553466796875 237.405670166015625 241.79376220703125 247.25189208984375 254.0445098876953125 261.196258544921875 268.7091064453125 276.148773193359375 283.352935791015625 290.2144775390625 296.406158447265625 302.233245849609375 307.4627685546875 312.13922119140625 316.291473388671875 319.83624267578125 322.925872802734375 325.628570556640625 327.9910888671875 329.82342529296875 331.46685791015625 332.895904541015625 333.817474365234375 334.4700927734375 335.044281005859375 335.23089599609375 334.756683349609375 334.00445556640625 332.50677490234375 329.963165283203125 326.259674072265625 321.69830322265625 315.285400390625 307.75384521484375 299.43182373046875 289.917236328125 280.5086669921875 272.545440673828125 265.8797607421875 263.243499755859375 264.266143798828125 269.13458251953125 277.527923583984375 288.90545654296875 302.590301513671875 316.7974853515625 327.89697265625 333.5577392578125 336.903594970703125 337.850006103515625 338.07598876953125 338.0360107421875 337.430877685546875 336.04241943359375 333.784271240234375 330.391021728515625 326.5819091796875 322.5133056640625 318.5771484375 315.099884033203125 312.0377197265625 309.413909912109375 307.253875732421875 305.574310302734375 304.0870361328125 302.678741455078125 301.33026123046875 300.009521484375 298.581878662109375 297.081573486328125 295.450531005859375 293.738555908203125 291.918670654296875 289.98553466796875 288.002655029296875 286.0164794921875 284.011993408203125 282.05487060546875 280.165313720703125 278.372711181640625 276.76995849609375 275.34466552734375 274.115966796875 273.0994873046875 272.328399658203125 271.8441162109375 271.573699951171875 271.5030517578125 271.601898193359375 271.875701904296875 272.25531005859375 272.6591796875 273.01031494140625 273.257232666015625 273.26727294921875 273.176971435546875 273.083404541015625 272.9986572265625 272.901702880859375 272.748016357421875 272.53875732421875 272.29833984375 272.041900634765625 271.78314208984375 271.54473876953125 271.331390380859375 271.15362548828125 271.018829345703125 270.936004638671875 270.927734375 270.981658935546875 271.098907470703125 271.267852783203125 271.482330322265625 271.849700927734375 272.222259521484375 272.652618408203125 273.1251220703125 273.639556884765625 274.182830810546875 274.75067138671875 275.33477783203125 275.927703857421875 276.51983642578125 277.10546875 277.676300048828125 278.222137451171875 278.741058349609375 279.2305908203125 279.6796875 280.090667724609375 280.442657470703125 280.745849609375 280.999664306640625 281.200653076171875 281.338287353515625 281.40838623046875 -99999 -99999 -99999 -99999 -99999 -99999 -99999
 -99999 -99999 -99999 -99999 -99999 -99999 -99999 -99999 -99999 -99999 -99999 -99999 -99999 -99999 -99999 -99999 -99999 -99999 -99999 -99999 -99999 -99999 -99999 -99999 -99999 -99999 -99999 -99999 171.6702423095703125 174.6986846923828125 177.402801513671875 179.88385009765625 182.072784423828125 183.9187774658203125 185.571441650390625 186.8986663818359375 187.9894256591796875 188.8669281005859375 189.67510986328125 190.3353424072265625 190.9091949462890625 191.60430908203125 192.5261383056640625 193.5537872314453125 194.9309844970703125 196.8103790283203125 199.4510955810546875 202.741851806640625 206.7981719970703125 211.402587890625 216.2939605712890625 221.546966552734375 226.590728759765625 230.433990478515625 233.5762939453125 236.3265838623046875 239.218536376953125 243.609710693359375 250.09417724609375 257.62200927734375 265.6334228515625 273.6126708984375 281.490447998046875 289.07598876953125 296.03289794921875 302.4744873046875 308.26666259765625 313.3458251953125 317.83514404296875 321.727020263671875 325.020965576171875 327.810791015625 330.058685302734375 331.860504150390625 333.3660888671875 334.577545166015625 335.50421142578125 335.962982177734375 336.264678955078125 336.15728759765625 335.781005859375 334.935302734375 333.315948486328125 331.295379638671875 328.443206787109375 324.646270751953125 319.915008544921875 314.043975830078125 307.47625732421875 299.880645751953125 291.956329345703125 284.8441162109375 278.689666748046875 274.0037841796875 272.90130615234375 274.341339111328125 279.083404541015625 286.733856201171875 296.758697509765625 308.195556640625 319.35137939453125 328.376617431640625 335.035125732421875 338.281005859375 339.111541748046875 339.561920166015625 339.918609619140625 339.811004638671875 338.378143310546875 335.76727294921875 331.79132080078125 327.092041015625 322.41693115234375 318.0648193359375 314.236419677734375 311.14556884765625 308.8392333984375 307.0252685546875 305.5191650390625 304.260772705078125 303.131591796875 302.0465087890625 300.88934326171875 299.5965576171875 298.183380126953125 296.560577392578125 294.807647705078125 292.94085693359375 290.97296142578125 288.921142578125 286.788818359375 284.656341552734375 282.57305908203125 280.563201904296875 278.670867919921875 276.92889404296875 275.36895751953125 274.0860595703125 273.069244384765625 272.310821533203125 271.8116455078125 271.56500244140625 271.6002197265625 271.846527099609375 272.251708984375 272.78326416015625 273.397125244140625 273.98382568359375 274.34552001953125 274.426116943359375 274.3359375 274.26824951171875 274.201751708984375 274.12115478515625 274.015960693359375 273.881072998046875 273.709625244140625 273.528961181640625 273.348785400390625 273.177642822265625 273.023681640625 272.89617919921875 272.817901611328125 272.782928466796875 272.79522705078125 272.850738525390625 272.978515625 273.11456298828125 273.4132080078125 273.710052490234375 274.054962158203125 274.45623779296875 274.887237548828125 275.377899169921875 275.864898681640625 276.3587646484375 276.883544921875 277.414306640625 277.94952392578125 278.4688720703125 278.972747802734375 279.456390380859375 279.91522216796875 280.34381103515625 280.7255859375 281.06854248046875 281.368072509765625 281.621734619140625 281.818389892578125 281.953155517578125 282.03460693359375 282.06201171875 -99999 -99999 -99999 -99999 -99999 -99999 -99999
 -99999 -99999 -99999 -99999 -99999 -99999 -99999 -99999 -99999 -99999 -99999 -99999 -99999 -99999 -99999 -99999 -99999 -99999 -99999 -99999 -99999 -99999 -99999 -99999 -99999 -99999 -99999 -99999 171.1039276123046875 174.2711181640625 177.01190185546875 179.5231170654296875 181.79400634765625 183.8012542724609375 185.6153411865234375 187.20245361328125 188.47454833984375 189.639190673828125 190.6925201416015625 191.727020263671875 192.73138427734375 193.7956695556640625 195.0291290283203125 196.4925689697265625 198.373016357421875 200.6318359375 203.386749267578125 206.710235595703125 210.5987396240234375 214.9822998046875 219.666290283203125 224.28521728515625 228.6181182861328125 232.5546722412109375 235.76348876953125 238.45928955078125 241.24945068359375 246.12786865234375 253.194183349609375 261.686767578125 270.44097900390625 278.99609375 287.232879638671875 295.04449462890625 302.299774169921875 308.64556884765625 314.370849609375 319.32293701171875 323.557403564453125 327.086456298828125 330.054931640625 332.4678955078125 334.33734130859375 335.80560302734375 336.8587646484375 337.51177978515625 337.874908447265625 337.98651123046875 337.58465576171875 337.091583251953125 336.229400634765625 334.89898681640625 333.038360595703125 330.619720458984375 327.575897216796875 323.649139404296875 318.9281005859375 313.7716064453125 307.516082763671875 301.282073974609375 294.93731689453125 288.976531982421875 284.502655029296875 281.65179443359375 280.824859619140625 282.59283447265625 287.223114013671875 294.1021728515625 302.534454345703125 311.93768310546875 321.19744873046875 329.15655517578125 334.7816162109375 338.2857666015625 339.86651611328125 340.458099365234375 341.037933349609375 341.098663330078125 340.047515869140625 337.008209228515625 332.069244384765625 326.65533447265625 321.302398681640625 316.546600341796875 312.767974853515625 309.88616943359375 307.782684326171875 306.262298583984375 305.230010986328125 304.44732666015625 303.705596923828125 302.860992431640625 301.83233642578125 300.661407470703125 299.30828857421875 297.7830810546875 296.035308837890625 294.09710693359375 292.004638671875 289.82745361328125 287.6199951171875 285.358551025390625 283.106719970703125 280.928955078125 278.89404296875 277.040802001953125 275.4007568359375 274.009796142578125 272.89434814453125 272.1121826171875 271.666656494140625 271.51483154296875 271.619598388671875 271.94354248046875 272.4588623046875 273.161590576171875 273.975128173828125 274.83709716796875 275.538238525390625 275.56072998046875 275.458984375 275.395233154296875 275.357757568359375 275.32452392578125 275.266326904296875 275.19793701171875 275.111907958984375 275.012603759765625 274.900482177734375 274.79034423828125 274.706024169921875 274.642730712890625 274.606201171875 274.601470947265625 274.645477294921875 274.678619384765625 274.8477783203125 275.04803466796875 275.296356201171875 275.580413818359375 275.897552490234375 276.247833251953125 276.642974853515625 277.084503173828125 277.51922607421875 277.983245849609375 278.459228515625 278.93145751953125 279.399261474609375 279.85784912109375 280.30889892578125 280.735198974609375 281.122711181640625 281.48516845703125 281.80902099609375 282.1016845703125 282.3387451171875 282.52294921875 282.659027099609375 282.745208740234375 282.782806396484375 282.749969482421875 -99999 -99999 -99999 -99999 -99999 -99999 -99999
 -99999 -99999 -99999 -99999 -99999 -99999 -99999 -99999 -99999 -99999 -99999 -99999 -99999 -99999 -99999 -99999 -99999 -99999 -99999 -99999 -99999 -99999 -99999 -99999 -99999 -99999 -99999 -99999 170.7265777587890625 173.832000732421875 176.6831512451171875 179.330474853515625 181.7192840576171875 183.846893310546875 185.777679443359375 187.58544921875 189.214599609375 190.5948028564453125 191.9338226318359375 193.311676025390625 194.59930419921875 196.0359344482421875 197.7024078369140625 199.5711669921875 201.64971923828125 204.19287109375 207.205474853515625 210.5858612060546875 214.3629608154296875 218.596221923828125 222.8845672607421875 227.2965240478515625 231.4941864013671875 235.2183685302734375 238.577178955078125 241.6642608642578125 244.71649169921875 249.9015655517578125 257.830352783203125 266.835052490234375 275.955841064453125 284.805267333984375 293.39129638671875 301.428924560546875 308.62664794921875 315.04791259765625 320.58355712890625 325.368896484375 329.293212890625 332.518585205078125 335.049957275390625 337.051544189453125 338.468475341796875 339.38909912109375 339.9578857421875 340.16705322265625 340.2061767578125 339.8414306640625 339.07244873046875 338.0703125 336.7052001953125 335.037078857421875 332.71490478515625 330.123199462890625 326.972137451171875 323.195892333984375 318.861236572265625 313.96990966796875 308.783416748046875 303.27166748046875 298.00091552734375 293.39495849609375 290.023101806640625 287.890960693359375 287.86785888671875 290.017730712890625 293.94989013671875 299.6881103515625 307.16326904296875 315.033966064453125 322.546173095703125 329.2095947265625 334.38629150390625 337.799285888671875 339.84906005859375 341.032379150390625 341.67266845703125 342.092803955078125 341.376739501953125 337.697601318359375 331.61846923828125 325.32354736328125 319.21783447265625 314.091156005859375 310.33990478515625 307.811553955078125 306.395843505859375 305.604217529296875 305.1378173828125 304.702056884765625 304.19091796875 303.663543701171875 302.95611572265625 301.968780517578125 300.64886474609375 299.0794677734375 297.29461669921875 295.30328369140625 293.157684326171875 290.864044189453125 288.48944091796875 286.07342529296875 283.68072509765625 281.35321044921875 279.141387939453125 277.10101318359375 275.317474365234375 273.838653564453125 272.691558837890625 271.889312744140625 271.42926025390625 271.315338134765625 271.489166259765625 271.951507568359375 272.597015380859375 273.3868408203125 274.2908935546875 275.309722900390625 276.040985107421875 276.358978271484375 276.382568359375 276.3880615234375 276.424468994140625 276.474273681640625 276.5098876953125 276.52532958984375 276.501739501953125 276.473297119140625 276.445648193359375 276.4163818359375 276.388885498046875 276.368255615234375 276.38067626953125 276.423858642578125 276.45654296875 276.5806884765625 276.75927734375 276.947784423828125 277.16326904296875 277.418853759765625 277.728607177734375 278.07879638671875 278.435394287109375 278.8038330078125 279.23040771484375 279.631622314453125 280.041595458984375 280.46099853515625 280.884002685546875 281.2860107421875 281.668609619140625 282.022979736328125 282.36639404296875 282.67315673828125 282.933746337890625 283.1513671875 283.327301025390625 283.462188720703125 283.552032470703125 283.57061767578125 283.538787841796875 283.442474365234375 -99999 -99999 -99999 -99999 -99999 -99999 -99999
 -99999 -99999 -99999 -99999 -99999 -99999 -99999 -99999 -99999 -99999 -99999 -99999 -99999 -99999 -99999 -99999 -99999 -99999 -99999 -99999 -99999 -99999 -99999 -99999 -99999 -99999 -99999 -99999 170.3911285400390625 173.5586090087890625 176.5059967041015625 179.20758056640625 181.7281036376953125 184.064361572265625 186.17864990234375 188.111114501953125 189.9891815185546875 191.6974639892578125 193.33746337890625 194.9166259765625 196.6554107666015625 198.433502197265625 200.3236846923828125 202.503082275390625 204.957733154296875 207.6531524658203125 210.771026611328125 214.2854461669921875 218.13671875 222.1530303955078125 226.338714599609375 230.5391082763671875 234.6123809814453125 238.6237945556640625 242.4479217529296875 246.3307647705078125 250.551605224609375 256.474639892578125 263.979736328125 272.91583251953125 281.954437255859375 291.019744873046875 299.79876708984375 308.043487548828125 315.23583984375 321.563232421875 326.845062255859375 331.1915283203125 334.815277099609375 337.62237548828125 339.778961181640625 341.355682373046875 342.427276611328125 342.86395263671875 342.967132568359375 342.76934814453125 342.17364501953125 341.361602783203125 340.255950927734375 338.828338623046875 337.102874755859375 335.19683837890625 332.840667724609375 329.9278564453125 326.6502685546875 323.0487060546875 318.85986328125 314.455322265625 309.95703125 305.30999755859375 301.1474609375 297.48388671875 294.85443115234375 293.61407470703125 293.785980224609375 295.741424560546875 299.432403564453125 304.46630859375 310.37274169921875 316.819580078125 323.3485107421875 329.09796142578125 333.545654296875 336.8631591796875 339.007843017578125 340.302459716796875 341.055023193359375 341.572357177734375 340.3616943359375 335.833465576171875 329.576568603515625 322.549072265625 315.918060302734375 310.570892333984375 307.405731201171875 305.79736328125 305.11590576171875 304.8492431640625 304.810638427734375 305.054534912109375 305.14398193359375 304.882049560546875 304.218963623046875 303.2861328125 302.078216552734375 300.557464599609375 298.7242431640625 296.630340576171875 294.36065673828125 291.944732666015625 289.424774169921875 286.8587646484375 284.27215576171875 281.745635986328125 279.387725830078125 277.204437255859375 275.260589599609375 273.62579345703125 272.37646484375 271.551544189453125 271.102630615234375 271.07281494140625 271.35650634765625 271.88934326171875 272.60809326171875 273.47320556640625 274.43505859375 275.410980224609375 276.274658203125 276.748992919921875 277.041229248046875 277.276153564453125 277.466552734375 277.603515625 277.717071533203125 277.819183349609375 277.90350341796875 277.966796875 277.9971923828125 278.022552490234375 278.06072998046875 278.1075439453125 278.164215087890625 278.21575927734375 278.3031005859375 278.469512939453125 278.615570068359375 278.801849365234375 279.037506103515625 279.303009033203125 279.572845458984375 279.863525390625 280.193634033203125 280.558746337890625 280.956329345703125 281.2803955078125 281.65673828125 282.02239990234375 282.3765869140625 282.7178955078125 283.052276611328125 283.36566162109375 283.63427734375 283.869964599609375 284.07305908203125 284.242645263671875 284.368682861328125 284.430450439453125 284.445556640625 284.41497802734375 284.32318115234375 284.195159912109375 -99999 -99999 -99999 -99999 -99999 -99999 -99999
 -99999 -99999 -99999 -99999 -99999 -99999 -99999 -99999 -99999 -99999 -99999 -99999 -99999 -99999 -99999 -99999 -99999 -99999 -99999 -99999 -99999 -99999 -99999 -99999 -99999 -99999 -99999 166.7086944580078125 170.14080810546875 173.3578643798828125 176.4056549072265625 179.240570068359375 181.8698272705078125 184.333099365234375 186.631927490234375 188.8159332275390625 190.9098663330078125 192.871307373046875 194.773712158203125 196.672119140625 198.650421142578125 200.7174835205078125 202.9854736328125 205.443023681640625 208.098358154296875 211.0538330078125 214.32147216796875 217.8426055908203125 221.6104583740234375 225.718109130859375 229.94256591796875 234.1404876708984375 238.4028167724609375 242.613800048828125 246.9730377197265625 251.49176025390625 256.770965576171875 263.13873291015625 270.817047119140625 279.379364013671875 288.38592529296875 297.519866943359375 306.44659423828125 314.830108642578125 321.97918701171875 327.979339599609375 332.910980224609375 337.024200439453125 340.1805419921875 342.606842041015625 344.400421142578125 345.4066162109375 345.88037109375 346.023895263671875 345.602996826171875 344.8673095703125 343.993804931640625 342.789031982421875 341.293792724609375 339.3848876953125 337.473236083984375 335.25335693359375 332.669036865234375 329.812286376953125 326.60479736328125 323.14593505859375 319.343841552734375 315.378326416015625 311.345458984375 307.48052978515625 303.952972412109375 301.057220458984375 299.124755859375 298.10748291015625 298.492584228515625 300.5323486328125 303.47503662109375 307.748199462890625 312.88958740234375 318.34619140625 323.539398193359375 328.322998046875 332.345703125 335.347320556640625 337.34613037109375 338.504486083984375 339.01007080078125 338.532318115234375 336.451629638671875 332.15631103515625 326.220672607421875 319.488922119140625 311.46954345703125 306.20306396484375 304.1190185546875 303.6029052734375 303.739959716796875 304.449310302734375 305.342193603515625 305.8538818359375 306.109405517578125 306.127349853515625 305.78509521484375 304.9808349609375 303.696746826171875 302.10626220703125 300.236907958984375 298.079864501953125 295.689666748046875 293.1219482421875 290.453948974609375 287.725555419921875 284.97222900390625 282.28375244140625 279.677703857421875 277.255218505859375 275.175048828125 273.4195556640625 272.05023193359375 271.162139892578125 270.7589111328125 270.790283203125 271.149261474609375 271.79364013671875 272.626617431640625 273.5526123046875 274.5528564453125 275.562225341796875 276.457305908203125 277.186065673828125 277.710296630859375 278.095306396484375 278.416046142578125 278.712310791015625 278.96099853515625 279.152801513671875 279.306793212890625 279.436248779296875 279.558013916015625 279.6649169921875 279.75177001953125 279.838470458984375 279.933349609375 279.989593505859375 280.16510009765625 280.315643310546875 280.49688720703125 280.69482421875 280.899261474609375 281.12603759765625 281.40087890625 281.699920654296875 282.001220703125 282.29632568359375 282.614166259765625 282.94671630859375 283.266204833984375 283.591156005859375 283.9010009765625 284.200958251953125 284.46380615234375 284.703125 284.9234619140625 285.111785888671875 285.2606201171875 285.35430908203125 285.407440185546875 285.42138671875 285.38897705078125 285.299041748046875 285.132781982421875 284.911651611328125 -99999 -99999 -99999 -99999 -99999 -99999 -99999
 -99999 -99999 -99999 -99999 -99999 -99999 -99999 -99999 -99999 -99999 -99999 -99999 -99999 -99999 -99999 -99999 -99999 -99999 -99999 -99999 -99999 -99999 -99999 -99999 -99999 -99999 -99999 166.438385009765625 169.9217376708984375 173.2329254150390625 176.3778076171875 179.2948150634765625 182.1008453369140625 184.7532196044921875 187.231658935546875 189.5830230712890625 191.8629608154296875 194.132415771484375 196.288848876953125 198.4819793701171875 200.695281982421875 203.07171630859375 205.573944091796875 208.247589111328125 211.1646270751953125 214.259521484375 217.6600799560546875 221.336578369140625 225.2596435546875 229.3330841064453125 233.5606689453125 237.93353271484375 242.375762939453125 246.8890533447265625 251.762237548828125 256.943695068359375 262.825836181640625 269.703643798828125 277.444427490234375 285.9420166015625 294.893218994140625 303.96044921875 313.00775146484375 321.578155517578125 328.596893310546875 334.376983642578125 338.684539794921875 342.19976806640625 345.100189208984375 347.16278076171875 348.445465087890625 349.082977294921875 349.186798095703125 348.7745361328125 347.860443115234375 346.785797119140625 345.431732177734375 343.819305419921875 342.058685302734375 340.039031982421875 337.6890869140625 335.306396484375 332.690826416015625 329.77398681640625 326.59161376953125 323.279022216796875 319.77960205078125 316.16705322265625 312.655548095703125 309.407470703125 306.420318603515625 303.99383544921875 302.534942626953125 302.107513427734375 302.49005126953125 303.964263916015625 306.66278076171875 310.18017578125 314.31695556640625 318.84466552734375 323.3203125 327.34954833984375 330.70086669921875 333.262969970703125 335.079925537109375 335.89501953125 335.74169921875 334.513916015625 331.886810302734375 327.594482421875 321.82037353515625 314.576202392578125 306.690521240234375 302.230072021484375 301.848602294921875 302.327484130859375 303.257537841796875 304.5699462890625 305.765533447265625 306.92877197265625 307.7513427734375 307.87200927734375 307.48388671875 306.70843505859375 305.50848388671875 303.87506103515625 301.85113525390625 299.577178955078125 297.10504150390625 294.427032470703125 291.58123779296875 288.669158935546875 285.737335205078125 282.83807373046875 280.072235107421875 277.48150634765625 275.135894775390625 273.148406982421875 271.720672607421875 270.794281005859375 270.3651123046875 270.47406005859375 271.01312255859375 271.784912109375 272.690216064453125 273.6800537109375 274.75286865234375 275.832916259765625 276.8111572265625 277.65228271484375 278.354888916015625 278.960052490234375 279.453369140625 279.843658447265625 280.1942138671875 280.482421875 280.75274658203125 280.965545654296875 281.14208984375 281.29925537109375 281.444915771484375 281.589599609375 281.679962158203125 281.85174560546875 282.022796630859375 282.1846923828125 282.3499755859375 282.538848876953125 282.764495849609375 283.005889892578125 283.24810791015625 283.491790771484375 283.762603759765625 284.0589599609375 284.364654541015625 284.650787353515625 284.907379150390625 285.18695068359375 285.4315185546875 285.674652099609375 285.892333984375 286.087860107421875 286.248443603515625 286.363189697265625 286.447784423828125 286.493499755859375 286.497406005859375 286.446441650390625 286.33966064453125 286.14990234375 285.9744873046875 285.71484375 285.410125732421875 -99999 -99999 -99999 -99999 -99999 -99999
 -99999 -99999 -99999 -99999 -99999 -99999 -99999 -99999 -99999 -99999 -99999 -99999 -99999 -99999 -99999 -99999 -99999 -99999 -99999 -99999 -99999 -99999 -99999 -99999 -99999 -99999 -99999 166.232879638671875 169.8058013916015625 173.1702728271484375 176.4173736572265625 179.483428955078125 182.3784637451171875 185.185546875 187.8677825927734375 190.4564971923828125 192.9322967529296875 195.4257049560546875 197.8219451904296875 200.2454681396484375 202.76678466796875 205.3087615966796875 208.0858612060546875 211.0087432861328125 214.1517486572265625 217.4309539794921875 220.9623870849609375 224.70806884765625 228.692108154296875 232.871368408203125 237.271026611328125 241.7636871337890625 246.495269775390625 251.4423370361328125 256.706817626953125 262.34417724609375 268.76580810546875 275.86041259765625 283.716796875 292.13775634765625 301.081939697265625 310.22467041015625 319.396942138671875 328.11529541015625 335.249847412109375 339.842041015625 343.7344970703125 346.986541748046875 349.481231689453125 351.198394775390625 352.20208740234375 352.3541259765625 351.85809326171875 350.967559814453125 349.7734375 348.18408203125 346.506256103515625 344.595184326171875 342.49822998046875 340.233734130859375 337.743255615234375 335.252166748046875 332.525970458984375 329.724945068359375 326.655853271484375 323.50640869140625 320.260162353515625 317.076019287109375 313.97174072265625 311.0714111328125 308.463226318359375 306.6435546875 305.320037841796875 304.79180908203125 305.380096435546875 306.8402099609375 309.040435791015625 311.88604736328125 315.226654052734375 318.846038818359375 322.525726318359375 325.860504150390625 328.793670654296875 330.859466552734375 332.14459228515625 332.5894775390625 332.155548095703125 330.64727783203125 327.593536376953125 323.04840087890625 317.411224365234375 310.75750732421875 304.173828125 301.257415771484375 301.235198974609375 302.33837890625 303.699615478515625 305.373565673828125 307.2396240234375 308.63201904296875 309.465240478515625 309.832611083984375 309.588775634765625 308.686431884765625 307.337158203125 305.63909912109375 303.620880126953125 301.24383544921875 298.574005126953125 295.744232177734375 292.798126220703125 289.777374267578125 286.697509765625 283.584991455078125 280.567230224609375 277.7457275390625 275.228790283203125 273.08221435546875 271.3929443359375 270.328338623046875 270.041961669921875 270.293304443359375 270.9437255859375 271.847869873046875 272.856597900390625 273.94366455078125 275.081298828125 276.22454833984375 277.318206787109375 278.3192138671875 279.15728759765625 279.882537841796875 280.508636474609375 281.049041748046875 281.51458740234375 281.895782470703125 282.223541259765625 282.508941650390625 282.75970458984375 282.9783935546875 283.16827392578125 283.320831298828125 283.49554443359375 283.69183349609375 283.853668212890625 284.0245361328125 284.223419189453125 284.425750732421875 284.626953125 284.840118408203125 285.0706787109375 285.3228759765625 285.57501220703125 285.81121826171875 286.06854248046875 286.316314697265625 286.545562744140625 286.772552490234375 286.9862060546875 287.180206298828125 287.3438720703125 287.47528076171875 287.578094482421875 287.6466064453125 287.67822265625 287.657257080078125 287.5902099609375 287.4798583984375 287.303955078125 287.103546142578125 286.83807373046875 286.509429931640625 286.1336669921875 -99999 -99999 -99999 -99999 -99999 -99999
 -99999 -99999 -99999 -99999 -99999 -99999 -99999 -99999 -99999 -99999 -99999 -99999 -99999 -99999 -99999 -99999 -99999 -99999 -99999 -99999 -99999 -99999 -99999 -99999 -99999 -99999 -99999 166.0279388427734375 169.6801300048828125 173.1691131591796875 176.5111236572265625 179.7576904296875 182.7306976318359375 185.7047882080078125 188.553466796875 191.309234619140625 194.0063018798828125 196.6788177490234375 199.3910675048828125 202.017059326171875 204.7620697021484375 207.585357666015625 210.5294952392578125 213.57501220703125 216.9232025146484375 220.403228759765625 224.0828857421875 227.9977569580078125 232.11077880859375 236.4346466064453125 240.9201812744140625 245.6585693359375 250.61572265625 255.8320159912109375 261.4105224609375 267.459228515625 274.116241455078125 281.436737060546875 289.409942626953125 297.771087646484375 306.68145751953125 315.731964111328125 324.8353271484375 333.564697265625 339.857330322265625 344.122314453125 347.7119140625 350.91815185546875 353.340728759765625 354.79486083984375 355.213775634765625 354.933990478515625 354.057220458984375 352.77972412109375 351.117645263671875 349.098236083984375 347.16845703125 344.97930908203125 342.6065673828125 340.251007080078125 337.657623291015625 334.949127197265625 332.2998046875 329.50933837890625 326.57073974609375 323.63372802734375 320.64996337890625 317.69970703125 314.859832763671875 312.363006591796875 310.3194580078125 308.479278564453125 307.560211181640625 307.25146484375 307.47369384765625 308.498321533203125 310.38909912109375 312.860565185546875 315.657806396484375 318.518157958984375 321.48699951171875 324.08868408203125 326.40802001953125 328.078369140625 329.14849853515625 329.373291015625 328.434173583984375 326.525177001953125 323.5283203125 319.66009521484375 314.759979248046875 309.164642333984375 304.4874267578125 302.390716552734375 302.395355224609375 303.350006103515625 304.64581298828125 306.754547119140625 309.052337646484375 310.8564453125 311.859100341796875 312.016265869140625 311.59686279296875 310.73944091796875 309.4171142578125 307.5361328125 305.313446044921875 302.83331298828125 300.140380859375 297.254241943359375 294.1363525390625 290.929534912109375 287.691680908203125 284.470855712890625 281.309051513671875 278.27642822265625 275.451263427734375 273.031005859375 271.229400634765625 270.112518310546875 269.725006103515625 270.062774658203125 271.056488037109375 272.068023681640625 273.15289306640625 274.324951171875 275.58197021484375 276.838287353515625 278.024139404296875 279.11773681640625 280.103179931640625 280.976806640625 281.7037353515625 282.337432861328125 282.887847900390625 283.363677978515625 283.770782470703125 284.114898681640625 284.413818359375 284.678253173828125 284.90850830078125 285.09381103515625 285.3255615234375 285.512939453125 285.707427978515625 285.901214599609375 286.087799072265625 286.27984619140625 286.484283447265625 286.699920654296875 286.920501708984375 287.1331787109375 287.350921630859375 287.57470703125 287.81390380859375 288.039031982421875 288.202911376953125 288.38800048828125 288.55181884765625 288.691436767578125 288.80474853515625 288.888885498046875 288.94110107421875 288.946868896484375 288.91156005859375 288.834808349609375 288.70257568359375 288.523040771484375 288.30615234375 288.034393310546875 287.704803466796875 287.328125 286.89837646484375 -99999 -99999 -99999 -99999 -99999 -99999
 -99999 -99999 -99999 -99999 -99999 -99999 -99999 -99999 -99999 -99999 -99999 -99999 -99999 -99999 -99999 -99999 -99999 -99999 -99999 -99999 -99999 -99999 -99999 -99999 -99999 -99999 -99999 165.9031829833984375 169.620849609375 173.191619873046875 176.6294708251953125 179.973846435546875 183.2017059326171875 186.2205657958984375 189.274444580078125 192.21307373046875 195.0905914306640625 197.969970703125 200.839874267578125 203.71783447265625 206.668304443359375 209.721221923828125 212.854888916015625 216.13623046875 219.5943603515625 223.247161865234375 227.076263427734375 231.125732421875 235.375885009765625 239.766815185546875 244.4875946044921875 249.369903564453125 254.56890869140625 260.042755126953125 265.906219482421875 272.1575927734375 279.06597900390625 286.4508056640625 294.294647216796875 302.660430908203125 311.242095947265625 319.955413818359375 328.51678466796875 336.161285400390625 342.31268310546875 346.5576171875 350.420196533203125 353.868621826171875 356.517364501953125 357.628387451171875 357.690185546875 356.9637451171875 355.5574951171875 353.78924560546875 351.84844970703125 349.6517333984375 347.227630615234375 344.939117431640625 342.35394287109375 339.82537841796875 337.335296630859375 334.5667724609375 331.855010986328125 329.19671630859375 326.40142822265625 323.61407470703125 320.88214111328125 318.184326171875 315.6732177734375 313.385589599609375 311.44488525390625 309.90863037109375 308.819305419921875 308.457611083984375 308.93438720703125 309.75433349609375 311.237152099609375 312.94940185546875 315.204345703125 317.720001220703125 320.066497802734375 322.181549072265625 324.05474853515625 325.305694580078125 325.9566650390625 325.83856201171875 325.002716064453125 323.35870361328125 320.551422119140625 316.96478271484375 313.00164794921875 309.016815185546875 305.8734130859375 304.09197998046875 303.76129150390625 304.4503173828125 306.506011962890625 308.797027587890625 311.50030517578125 313.408599853515625 314.316253662109375 314.425079345703125 313.93829345703125 312.7841796875 311.22650146484375 309.330535888671875 307.107391357421875 304.56134033203125 301.707122802734375 298.68505859375 295.554595947265625 292.32208251953125 288.988555908203125 285.65618896484375 282.292938232421875 279.082183837890625 276.07110595703125 273.37933349609375 271.15985107421875 269.746368408203125 269.5509033203125 270.1331787109375 271.152557373046875 272.34954833984375 273.60125732421875 274.962005615234375 276.34271240234375 277.70355224609375 279.00762939453125 280.195953369140625 281.259429931640625 282.208343505859375 283.04620361328125 283.77899169921875 284.392181396484375 284.922027587890625 285.38037109375 285.7861328125 286.13330078125 286.428466796875 286.657196044921875 286.926055908203125 287.156646728515625 287.372039794921875 287.56756591796875 287.757537841796875 287.948699951171875 288.149993896484375 288.356048583984375 288.550567626953125 288.746612548828125 288.94476318359375 289.14752197265625 289.351776123046875 289.55859375 289.711395263671875 289.866973876953125 290.00665283203125 290.126312255859375 290.221588134765625 290.2906494140625 290.31854248046875 290.308624267578125 290.260955810546875 290.173431396484375 290.045684814453125 289.83349609375 289.6153564453125 289.32757568359375 288.99383544921875 288.608123779296875 288.15179443359375 287.645263671875 -99999 -99999 -99999 -99999 -99999 -99999
 -99999 -99999 -99999 -99999 -99999 -99999 -99999 -99999 -99999 -99999 -99999 -99999 -99999 -99999 -99999 -99999 -99999 -99999 -99999 -99999 -99999 -99999 -99999 -99999 -99999 -99999 -99999 165.76947021484375 169.569732666015625 173.27032470703125 176.8020172119140625 180.22833251953125 183.61175537109375 186.807281494140625 189.9579925537109375 193.1006011962890625 196.1747894287109375 199.210479736328125 202.30877685546875 205.3644561767578125 208.488433837890625 211.7219390869140625 215.0569305419921875 218.5271759033203125 222.1143341064453125 225.9158935546875 229.880615234375 234.0103759765625 238.4008331298828125 243.0163116455078125 247.812774658203125 252.8746795654296875 258.232818603515625 263.896331787109375 269.8736572265625 276.367523193359375 283.20513916015625 290.58489990234375 298.415130615234375 306.508819580078125 314.8348388671875 323.055511474609375 330.914215087890625 338.058563232421875 343.76641845703125 348.63128662109375 352.646942138671875 356.3331298828125 359.048583984375 359.978607177734375 359.23907470703125 357.871673583984375 356.13848876953125 354.104095458984375 351.89703369140625 349.568511962890625 346.998291015625 344.3409423828125 341.8043212890625 339.148468017578125 336.47772216796875 333.79034423828125 331.25146484375 328.6065673828125 326.04486083984375 323.41668701171875 320.855316162109375 318.430999755859375 316.050811767578125 313.9656982421875 312.267578125 310.880401611328125 309.74554443359375 309.34527587890625 309.468353271484375 310.0191650390625 311.2376708984375 312.86004638671875 314.557342529296875 316.367706298828125 318.367156982421875 320.123809814453125 321.5 322.477294921875 323.000091552734375 322.88763427734375 321.919036865234375 320.253509521484375 318.03302001953125 315.335784912109375 312.08331298828125 309.05242919921875 306.81634521484375 305.590545654296875 305.662078857421875 306.873992919921875 308.508514404296875 311.1253662109375 314.08367919921875 316.41802978515625 316.876495361328125 316.45831298828125 315.731964111328125 314.64984130859375 313.11004638671875 311.0924072265625 308.7059326171875 306.08538818359375 303.278564453125 300.27392578125 297.078826904296875 293.770416259765625 290.428497314453125 287.082916259765625 283.706451416015625 280.34246826171875 277.098480224609375 274.137786865234375 271.61834716796875 269.89910888671875 269.507110595703125 270.31463623046875 271.550933837890625 272.973419189453125 274.456298828125 275.965972900390625 277.463897705078125 278.91064453125 280.273406982421875 281.533660888671875 282.681488037109375 283.69488525390625 284.574371337890625 285.344940185546875 286.01898193359375 286.605377197265625 287.101898193359375 287.5272216796875 287.90008544921875 288.196746826171875 288.496185302734375 288.7843017578125 289.011505126953125 289.21954345703125 289.423370361328125 289.6292724609375 289.8363037109375 290.0224609375 290.200958251953125 290.388458251953125 290.581878662109375 290.775238037109375 290.94598388671875 291.100372314453125 291.279754638671875 291.414886474609375 291.5321044921875 291.636077880859375 291.722015380859375 291.766143798828125 291.7786865234375 291.7572021484375 291.699737548828125 291.60565185546875 291.442718505859375 291.225738525390625 290.997406005859375 290.71588134765625 290.373779296875 289.960479736328125 289.494903564453125 288.98565673828125 288.43017578125 -99999 -99999 -99999 -99999 -99999 -99999
 -99999 -99999 -99999 -99999 -99999 -99999 -99999 -99999 -99999 -99999 -99999 -99999 -99999 -99999 -99999 -99999 -99999 -99999 -99999 -99999 -99999 -99999 -99999 -99999 -99999 -99999 -99999 165.6801605224609375 169.54400634765625 173.3101959228515625 176.9720001220703125 180.542083740234375 184.027923583984375 187.3657989501953125 190.6678314208984375 193.941558837890625 197.18145751953125 200.41448974609375 203.666015625 206.925445556640625 210.2223052978515625 213.6310882568359375 217.1261138916015625 220.7162933349609375 224.5228118896484375 228.413604736328125 232.4491119384765625 236.7905426025390625 241.300140380859375 245.9548797607421875 250.91558837890625 256.078765869140625 261.536468505859375 267.330657958984375 273.455902099609375 279.944671630859375 286.876251220703125 294.118743896484375 301.59600830078125 309.5184326171875 317.356170654296875 325.161285400390625 332.63409423828125 339.2923583984375 345.05047607421875 349.90765380859375 354.16937255859375 358.031768798828125 360.898681640625 360.9635009765625 359.5863037109375 357.822845458984375 355.80340576171875 353.627777099609375 351.275665283203125 348.731536865234375 346.228118896484375 343.4232177734375 340.68096923828125 338.054046630859375 335.456146240234375 332.852569580078125 330.257110595703125 327.806182861328125 325.432952880859375 323.035858154296875 320.644012451171875 318.3585205078125 316.209136962890625 314.2091064453125 312.56512451171875 311.1754150390625 310.280548095703125 309.6317138671875 309.6160888671875 310.071075439453125 310.803802490234375 311.946197509765625 313.36566162109375 314.93487548828125 316.453125 317.881134033203125 319.002838134765625 319.80145263671875 320.118743896484375 319.861114501953125 319.1845703125 317.93603515625 316.01422119140625 313.8017578125 311.5059814453125 309.4110107421875 307.98809814453125 307.3212890625 307.455047607421875 308.5408935546875 310.458953857421875 312.997772216796875 316.031036376953125 317.7991943359375 318.312164306640625 318.053253173828125 317.427520751953125 316.349090576171875 314.5791015625 312.49884033203125 310.18072509765625 307.577911376953125 304.7479248046875 301.756011962890625 298.643280029296875 295.431793212890625 292.111785888671875 288.774627685546875 285.4727783203125 282.125396728515625 278.862457275390625 275.7113037109375 272.782958984375 270.480621337890625 270.0772705078125 271.206878662109375 272.66510009765625 274.232025146484375 275.83148193359375 277.433135986328125 278.995147705078125 280.491973876953125 281.8980712890625 283.18658447265625 284.342559814453125 285.377166748046875 286.2972412109375 287.0994873046875 287.792572021484375 288.385009765625 288.90142822265625 289.351287841796875 289.730804443359375 290.052581787109375 290.3756103515625 290.627960205078125 290.868804931640625 291.1029052734375 291.320770263671875 291.50982666015625 291.68572998046875 291.873809814453125 292.071685791015625 292.256195068359375 292.4161376953125 292.563690185546875 292.72259521484375 292.88751220703125 293.0595703125 293.11798095703125 293.21429443359375 293.27581787109375 293.309539794921875 293.312835693359375 293.286865234375 293.2216796875 293.103485107421875 292.917999267578125 292.72161865234375 292.49285888671875 292.193084716796875 291.820465087890625 291.39678955078125 290.932098388671875 290.42462158203125 289.845550537109375 289.204498291015625 -99999 -99999 -99999 -99999 -99999 -99999
 -99999 -99999 -99999 -99999 -99999 -99999 -99999 -99999 -99999 -99999 -99999 -99999 -99999 -99999 -99999 -99999 -99999 -99999 -99999 -99999 -99999 -99999 -99999 -99999 -99999 -99999 161.4814605712890625 165.5774383544921875 169.525238037109375 173.391937255859375 177.140899658203125 180.7994384765625 184.411468505859375 187.9459228515625 191.3673553466796875 194.7603302001953125 198.1900177001953125 201.5478668212890625 204.9166107177734375 208.3814849853515625 211.828094482421875 215.372100830078125 219.0274658203125 222.7939605712890625 226.6702117919921875 230.728668212890625 234.9081268310546875 239.2274627685546875 243.8405303955078125 248.669342041015625 253.7046966552734375 258.95477294921875 264.52215576171875 270.33489990234375 276.473358154296875 282.97491455078125 289.76190185546875 296.874603271484375 304.223785400390625 311.683929443359375 319.221038818359375 326.511749267578125 333.39447021484375 339.7996826171875 345.31524658203125 350.222259521484375 354.481658935546875 358.29705810546875 360.34564208984375 360.210418701171875 358.50347900390625 356.560791015625 354.55438232421875 352.34454345703125 349.9805908203125 347.440277099609375 344.784332275390625 341.9312744140625 339.1571044921875 336.552947998046875 333.9520263671875 331.568450927734375 329.134613037109375 326.843780517578125 324.578643798828125 322.382293701171875 320.250579833984375 318.136016845703125 316.099639892578125 314.221160888671875 312.59307861328125 311.125335693359375 310.06500244140625 309.481536865234375 309.1480712890625 309.394866943359375 309.980499267578125 310.83355712890625 311.971954345703125 313.053863525390625 314.32427978515625 315.507965087890625 316.47247314453125 317.12506103515625 317.437896728515625 317.299896240234375 316.685699462890625 315.676422119140625 314.396942138671875 312.83892822265625 311.232208251953125 309.8853759765625 308.878082275390625 308.491058349609375 309.0555419921875 310.173675537109375 312.000244140625 314.25823974609375 316.406097412109375 318.18194580078125 318.757354736328125 318.75799560546875 318.628753662109375 317.481903076171875 315.730987548828125 313.645355224609375 311.327972412109375 308.81719970703125 306.138275146484375 303.228668212890625 300.195159912109375 297.093414306640625 293.969970703125 290.8446044921875 287.69854736328125 284.530548095703125 281.351531982421875 278.22052001953125 275.36029052734375 273.24639892578125 272.23712158203125 273.394775390625 274.77777099609375 276.288665771484375 277.86279296875 279.447265625 281.00384521484375 282.49151611328125 283.86328125 285.129669189453125 286.282958984375 287.310699462890625 288.2220458984375 289.005828857421875 289.694183349609375 290.291778564453125 290.806396484375 291.251800537109375 291.592620849609375 291.95947265625 292.256591796875 292.5357666015625 292.781494140625 292.9854736328125 293.17462158203125 293.37994384765625 293.58258056640625 293.76300048828125 293.9176025390625 294.0677490234375 294.244537353515625 294.402252197265625 294.54010009765625 294.643646240234375 294.758514404296875 294.8304443359375 294.885345458984375 294.91510009765625 294.91729736328125 294.881500244140625 294.798858642578125 294.673095703125 294.5078125 294.3060302734375 294.046905517578125 293.727203369140625 293.348663330078125 292.93646240234375 292.473785400390625 291.933197021484375 291.331695556640625 290.681549072265625 290.00830078125 -99999 -99999 -99999 -99999 -99999 -99999
 -99999 -99999 -99999 -99999 -99999 -99999 -99999 -99999 -99999 -99999 -99999 -99999 -99999 -99999 -99999 -99999 -99999 -99999 -99999 -99999 -99999 -99999 -99999 -99999 -99999 -99999 161.292572021484375 165.4641265869140625 169.475830078125 173.4299468994140625 177.30291748046875 181.090728759765625 184.7786407470703125 188.4509429931640625 192.0084686279296875 195.54974365234375 199.0605316162109375 202.60595703125 206.1551055908203125 209.7539825439453125 213.32403564453125 217.00970458984375 220.77880859375 224.636077880859375 228.642242431640625 232.802764892578125 237.071746826171875 241.56121826171875 246.204742431640625 251.0733489990234375 256.16986083984375 261.483734130859375 267.052764892578125 272.883026123046875 278.986083984375 285.399871826171875 292.065704345703125 298.9442138671875 305.968780517578125 313.132171630859375 320.132598876953125 327.069915771484375 333.558380126953125 339.591552734375 344.86376953125 349.525787353515625 353.398834228515625 356.34814453125 357.971160888671875 357.688079833984375 356.25286865234375 354.44256591796875 352.4949951171875 350.435089111328125 348.155914306640625 345.654327392578125 342.96685791015625 340.249420166015625 337.37298583984375 334.631072998046875 332.051300048828125 329.851348876953125 327.7166748046875 325.596435546875 323.553375244140625 321.57177734375 319.529541015625 317.58880615234375 315.694000244140625 313.917694091796875 312.168670654296875 310.820404052734375 309.682373046875 308.78314208984375 308.306640625 308.448883056640625 308.6510009765625 309.339202880859375 310.174102783203125 311.11572265625 312.0948486328125 313.043975830078125 313.914642333984375 314.577056884765625 314.8968505859375 314.9071044921875 314.527496337890625 313.82489013671875 312.922149658203125 311.923797607421875 310.8441162109375 309.92510986328125 309.548370361328125 309.682708740234375 310.242645263671875 311.3033447265625 312.9654541015625 314.8560791015625 316.764678955078125 318.058380126953125 318.79986572265625 319.049896240234375 319.123016357421875 317.98162841796875 316.231475830078125 314.323516845703125 312.178741455078125 309.807159423828125 307.254486083984375 304.569854736328125 301.774139404296875 298.8505859375 295.90423583984375 292.9986572265625 290.25372314453125 287.502288818359375 284.627410888671875 281.66851806640625 279.120513916015625 277.29083251953125 276.53582763671875 276.869384765625 277.80517578125 279.132598876953125 280.57830810546875 282.055023193359375 283.486480712890625 284.87078857421875 286.1851806640625 287.400146484375 288.499725341796875 289.464874267578125 290.3260498046875 291.082122802734375 291.744720458984375 292.314361572265625 292.798980712890625 293.197113037109375 293.577056884765625 293.92193603515625 294.19708251953125 294.439239501953125 294.6578369140625 294.883270263671875 295.096954345703125 295.274200439453125 295.433349609375 295.59613037109375 295.774658203125 295.949066162109375 296.072052001953125 296.190399169921875 296.30267333984375 296.4356689453125 296.51934814453125 296.542449951171875 296.57257080078125 296.567413330078125 296.521484375 296.439910888671875 296.3082275390625 296.15362548828125 295.92578125 295.654144287109375 295.34783935546875 294.98455810546875 294.56939697265625 294.06903076171875 293.512786865234375 292.914276123046875 292.268463134765625 291.565826416015625 290.82366943359375 -99999 -99999 -99999 -99999 -99999 -99999
 -99999 -99999 -99999 -99999 -99999 -99999 -99999 -99999 -99999 -99999 -99999 -99999 -99999 -99999 -99999 -99999 -99999 -99999 -99999 -99999 -99999 -99999 -99999 -99999 -99999 -99999 161.0677947998046875 165.3433380126953125 169.439422607421875 173.4738006591796875 177.431671142578125 181.302581787109375 185.1271820068359375 188.9210968017578125 192.59039306640625 196.2684783935546875 199.9139404296875 203.5657501220703125 207.2241058349609375 210.93389892578125 214.6717071533203125 218.4513702392578125 222.3583831787109375 226.347808837890625 230.432769775390625 234.6688079833984375 239.03887939453125 243.5601654052734375 248.221893310546875 253.1338043212890625 258.259368896484375 263.58404541015625 269.160064697265625 274.9534912109375 280.981353759765625 287.251953125 293.72943115234375 300.36505126953125 307.130584716796875 313.87335205078125 320.494415283203125 326.952728271484375 333.0091552734375 338.568695068359375 343.570587158203125 347.78228759765625 351.238037109375 353.798095703125 355.022125244140625 354.887176513671875 353.63067626953125 351.92236328125 350.03564453125 348.04736328125 345.908294677734375 343.5198974609375 340.79156494140625 337.931396484375 335.125091552734375 332.53936767578125 329.95806884765625 327.771636962890625 325.89569091796875 324.05535888671875 322.410675048828125 320.659149169921875 318.79034423828125 316.935821533203125 315.0377197265625 313.174896240234375 311.543701171875 309.903900146484375 308.738800048828125 307.890289306640625 307.21551513671875 306.992340087890625 307.15252685546875 307.4742431640625 308.034576416015625 308.913177490234375 309.80743408203125 310.649383544921875 311.35845947265625 311.95904541015625 312.408233642578125 312.59808349609375 312.525299072265625 312.17218017578125 311.5718994140625 311.0196533203125 310.565765380859375 310.208038330078125 310.112579345703125 310.331756591796875 311.0498046875 312.181549072265625 313.57666015625 315.0872802734375 316.505584716796875 317.69189453125 318.48638916015625 318.87908935546875 318.58587646484375 317.68389892578125 316.1490478515625 314.49609375 312.6160888671875 310.545562744140625 308.232940673828125 305.7373046875 303.162078857421875 300.527587890625 297.93121337890625 295.395416259765625 293.045257568359375 290.809234619140625 288.518218994140625 285.873443603515625 283.496673583984375 281.9112548828125 281.0911865234375 281.128662109375 281.742706298828125 282.707000732421875 283.845703125 285.118804931640625 286.417388916015625 287.680572509765625 288.86602783203125 289.944580078125 290.93988037109375 291.83721923828125 292.635772705078125 293.323760986328125 293.913421630859375 294.42974853515625 294.870269775390625 295.258270263671875 295.60693359375 295.883514404296875 296.137359619140625 296.384429931640625 296.608154296875 296.791015625 296.958526611328125 297.133697509765625 297.3170166015625 297.484527587890625 297.616973876953125 297.73992919921875 297.878204345703125 298.011932373046875 298.11334228515625 298.199249267578125 298.231597900390625 298.258575439453125 298.250885009765625 298.21136474609375 298.135955810546875 298.021697998046875 297.848724365234375 297.626007080078125 297.364837646484375 297.06146240234375 296.6885986328125 296.240966796875 295.740509033203125 295.19580078125 294.598175048828125 293.935821533203125 293.193084716796875 292.43994140625 291.585052490234375 -99999 -99999 -99999 -99999 -99999 -99999
 -99999 -99999 -99999 -99999 -99999 -99999 -99999 -99999 -99999 -99999 -99999 -99999 -99999 -99999 -99999 -99999 -99999 -99999 -99999 -99999 -99999 -99999 -99999 -99999 -99999 -99999 160.83319091796875 165.1431732177734375 169.3637847900390625 173.47088623046875 177.5451202392578125 181.5193328857421875 185.4265899658203125 189.317138671875 193.13824462890625 196.912139892578125 200.676544189453125 204.4350738525390625 208.2196197509765625 212.041351318359375 215.8735809326171875 219.77862548828125 223.75665283203125 227.8226165771484375 231.97265625 236.27667236328125 240.69195556640625 245.2678375244140625 250.021759033203125 254.930755615234375 260.02593994140625 265.34552001953125 270.85748291015625 276.564361572265625 282.45330810546875 288.5802001953125 294.8255615234375 301.19091796875 307.59747314453125 313.995208740234375 320.14288330078125 326.226409912109375 331.881317138671875 337.10089111328125 341.7198486328125 345.5367431640625 348.634033203125 350.699249267578125 351.69696044921875 351.65692138671875 350.78448486328125 349.264068603515625 347.40704345703125 345.41778564453125 343.432098388671875 341.074066162109375 338.335693359375 335.380950927734375 332.379669189453125 329.612884521484375 327.568084716796875 325.57073974609375 324.00177001953125 322.550384521484375 321.0283203125 319.481842041015625 317.86895751953125 316.066650390625 314.247467041015625 312.39788818359375 310.44952392578125 309.013824462890625 307.4493408203125 306.291656494140625 305.60833740234375 305.12353515625 305.06658935546875 305.439117431640625 305.937713623046875 306.55682373046875 307.223785400390625 308.08929443359375 308.945037841796875 309.61663818359375 310.055694580078125 310.37408447265625 310.565643310546875 310.5921630859375 310.4921875 310.2774658203125 310.113922119140625 310.101287841796875 310.28778076171875 310.740020751953125 311.493316650390625 312.519775390625 313.788848876953125 315.087921142578125 316.2720947265625 317.224578857421875 317.75567626953125 317.89306640625 317.600830078125 316.83306884765625 315.678802490234375 314.287689208984375 312.661346435546875 310.86474609375 308.850555419921875 306.7252197265625 304.484222412109375 302.158843994140625 299.807647705078125 297.58404541015625 295.805328369140625 294.5107421875 292.574798583984375 290.406341552734375 288.358123779296875 286.920989990234375 286.0093994140625 285.759735107421875 286.041412353515625 286.742340087890625 287.647674560546875 288.67474365234375 289.732635498046875 290.785552978515625 291.810546875 292.767120361328125 293.64459228515625 294.409942626953125 295.08544921875 295.683746337890625 296.206268310546875 296.65850830078125 297.01287841796875 297.35748291015625 297.641632080078125 297.90557861328125 298.143218994140625 298.3236083984375 298.505340576171875 298.6842041015625 298.86358642578125 299.02874755859375 299.162261962890625 299.30120849609375 299.449493408203125 299.586700439453125 299.703155517578125 299.787689208984375 299.8651123046875 299.948822021484375 299.969329833984375 299.96612548828125 299.93597412109375 299.871124267578125 299.745391845703125 299.5721435546875 299.378204345703125 299.13067626953125 298.819793701171875 298.4332275390625 297.99029541015625 297.508819580078125 296.962158203125 296.347869873046875 295.658172607421875 294.919830322265625 294.14996337890625 293.294647216796875 292.362335205078125 291.4012451171875 -99999 -99999 -99999 -99999 -99999
 -99999 -99999 -99999 -99999 -99999 -99999 -99999 -99999 -99999 -99999 -99999 -99999 -99999 -99999 -99999 -99999 -99999 -99999 -99999 -99999 -99999 -99999 -99999 -99999 -99999 -99999 160.5615692138671875 164.9314117431640625 169.2479400634765625 173.4481201171875 177.5837860107421875 181.6679534912109375 185.6801910400390625 189.6495208740234375 193.60302734375 197.46856689453125 201.3477325439453125 205.2194366455078125 209.059967041015625 212.982452392578125 216.9599761962890625 220.908172607421875 224.9751129150390625 229.1085968017578125 233.347076416015625 237.68682861328125 242.1468963623046875 246.74273681640625 251.4742431640625 256.3502197265625 261.386627197265625 266.675628662109375 272.096771240234375 277.722320556640625 283.496124267578125 289.374755859375 295.397735595703125 301.472625732421875 307.55938720703125 313.567108154296875 319.428955078125 325.057159423828125 330.281280517578125 334.98284912109375 339.238067626953125 342.74578857421875 345.424224853515625 347.306976318359375 348.366912841796875 348.38629150390625 347.579803466796875 346.315093994140625 344.62652587890625 342.7457275390625 340.758819580078125 338.538787841796875 335.602203369140625 332.30218505859375 329.3995361328125 326.6688232421875 324.400482177734375 322.932861328125 321.825408935546875 320.76483154296875 319.6322021484375 318.464080810546875 316.87152099609375 315.129241943359375 313.2615966796875 311.227142333984375 309.360931396484375 307.46356201171875 305.934112548828125 304.718963623046875 303.61053466796875 303.030517578125 302.952911376953125 302.932525634765625 303.31158447265625 304.007110595703125 304.8236083984375 305.566253662109375 306.311981201171875 307.113494873046875 307.862060546875 308.45794677734375 308.798004150390625 309.05029296875 309.27532958984375 309.451873779296875 309.65020751953125 309.927459716796875 310.3509521484375 310.910888671875 311.762298583984375 312.731292724609375 313.74261474609375 314.771453857421875 315.718597412109375 316.420654296875 316.82470703125 316.904815673828125 316.5848388671875 315.78643798828125 314.735626220703125 313.529144287109375 312.19793701171875 310.768096923828125 309.138580322265625 307.303680419921875 305.56396484375 303.70318603515625 301.67205810546875 299.61181640625 298.054229736328125 297.215118408203125 296.491790771484375 294.76898193359375 293.1455078125 291.825897216796875 290.9952392578125 290.68487548828125 290.73760986328125 291.11297607421875 291.720458984375 292.507110595703125 293.346710205078125 294.199798583984375 295.03411865234375 295.795623779296875 296.499908447265625 297.13287353515625 297.694000244140625 298.184814453125 298.587066650390625 298.921966552734375 299.23443603515625 299.5098876953125 299.74725341796875 299.932220458984375 300.102935791015625 300.274322509765625 300.4412841796875 300.595367431640625 300.72955322265625 300.86376953125 301.0106201171875 301.150482177734375 301.274749755859375 301.384368896484375 301.484130859375 301.58074951171875 301.659637451171875 301.73394775390625 301.697601318359375 301.6822509765625 301.618896484375 301.49951171875 301.365936279296875 301.173980712890625 300.92724609375 300.613800048828125 300.24798583984375 299.81903076171875 299.339752197265625 298.783966064453125 298.16217041015625 297.48345947265625 296.73980712890625 295.945556640625 295.089996337890625 294.139190673828125 293.15948486328125 292.108123779296875 -99999 -99999 -99999 -99999 -99999
 -99999 -99999 -99999 -99999 -99999 -99999 -99999 -99999 -99999 -99999 -99999 -99999 -99999 -99999 -99999 -99999 -99999 -99999 -99999 -99999 -99999 -99999 -99999 -99999 -99999 -99999 160.2489013671875 164.70220947265625 169.100616455078125 173.368194580078125 177.5986480712890625 181.7670135498046875 185.8712615966796875 189.932952880859375 193.96600341796875 197.9387054443359375 201.90478515625 205.8628692626953125 209.81982421875 213.7924041748046875 217.8189849853515625 221.8809967041015625 226.0080413818359375 230.18048095703125 234.4303131103515625 238.80364990234375 243.279815673828125 247.8706207275390625 252.6103515625 257.4893798828125 262.4803466796875 267.6417236328125 272.982635498046875 278.4266357421875 284.01043701171875 289.74951171875 295.46502685546875 301.275909423828125 307.0086669921875 312.6611328125 318.162384033203125 323.25323486328125 328.160736083984375 332.594024658203125 336.44732666015625 339.712615966796875 342.1783447265625 343.796539306640625 344.622314453125 344.7327880859375 344.199493408203125 343.082916259765625 341.508544921875 339.735321044921875 337.778961181640625 335.390777587890625 332.336334228515625 328.91619873046875 325.550537109375 323.046295166015625 321.3101806640625 320.3330078125 319.529876708984375 319.1502685546875 318.33782958984375 317.2440185546875 315.85528564453125 314.159820556640625 312.107818603515625 309.9769287109375 307.723785400390625 305.8065185546875 303.884063720703125 302.306640625 301.245849609375 300.472503662109375 300.30029296875 300.3807373046875 300.75006103515625 301.32122802734375 301.942840576171875 302.919158935546875 303.969207763671875 304.856842041015625 305.639556884765625 306.37860107421875 307.105255126953125 307.715362548828125 308.169403076171875 308.613525390625 309.092041015625 309.59002685546875 310.18585205078125 310.91998291015625 311.685394287109375 312.5755615234375 313.518768310546875 314.380462646484375 315.064788818359375 315.5843505859375 315.82037353515625 315.673583984375 315.21270751953125 314.5093994140625 313.56536865234375 312.409515380859375 311.207763671875 310.000640869140625 308.73736572265625 307.545806884765625 306.43359375 305.27105712890625 303.53875732421875 301.6171875 300.231658935546875 300.047149658203125 299.7147216796875 298.9156494140625 297.835113525390625 296.775482177734375 296.04388427734375 295.58099365234375 295.484130859375 295.668121337890625 296.052703857421875 296.56390380859375 297.165008544921875 297.800811767578125 298.41387939453125 298.992340087890625 299.523712158203125 300.00433349609375 300.401336669921875 300.743560791015625 301.02581787109375 301.28192138671875 301.509429931640625 301.673492431640625 301.816680908203125 301.96112060546875 302.10076904296875 302.22454833984375 302.343017578125 302.454803466796875 302.584869384765625 302.716766357421875 302.842437744140625 302.9625244140625 303.066375732421875 303.17926025390625 303.2781982421875 303.354339599609375 303.413726806640625 303.433197021484375 303.42291259765625 303.378997802734375 303.290802001953125 303.1619873046875 302.995635986328125 302.75689697265625 302.46282958984375 302.11181640625 301.699005126953125 301.223541259765625 300.672607421875 300.056640625 299.3773193359375 298.637115478515625 297.8223876953125 296.970184326171875 296.00677490234375 294.99383544921875 293.926910400390625 292.806304931640625 -99999 -99999 -99999 -99999 -99999
 -99999 -99999 -99999 -99999 -99999 -99999 -99999 -99999 -99999 -99999 -99999 -99999 -99999 -99999 -99999 -99999 -99999 -99999 -99999 -99999 -99999 -99999 -99999 -99999 -99999 -99999 159.8940277099609375 164.419036865234375 168.88104248046875 173.26104736328125 177.5427093505859375 181.802947998046875 186.003387451171875 190.1307220458984375 194.252105712890625 198.3168487548828125 202.359954833984375 206.4035491943359375 210.43701171875 214.467437744140625 218.559814453125 222.6545562744140625 226.800811767578125 231.0346527099609375 235.3400421142578125 239.7189178466796875 244.181854248046875 248.762298583984375 253.434722900390625 258.23187255859375 263.17779541015625 268.203857421875 273.42694091796875 278.745880126953125 284.142364501953125 289.591339111328125 295.08758544921875 300.60791015625 306.02734375 311.359527587890625 316.49066162109375 321.293792724609375 325.75567626953125 329.788970947265625 333.326629638671875 336.324432373046875 338.547332763671875 340.035186767578125 340.943878173828125 341.065277099609375 340.473785400390625 339.46185302734375 338.012176513671875 336.2421875 334.2288818359375 331.69952392578125 328.451324462890625 325.008026123046875 321.788909912109375 319.04803466796875 317.35247802734375 317.066192626953125 317.50860595703125 317.603729248046875 317.124359130859375 316.363555908203125 314.977691650390625 313.1446533203125 310.911376953125 308.48455810546875 306.064178466796875 303.61480712890625 301.615570068359375 299.89801025390625 298.457794189453125 297.648040771484375 297.3292236328125 297.27978515625 297.615234375 298.431304931640625 299.372039794921875 300.336669921875 301.32568359375 302.4622802734375 303.608917236328125 304.615631103515625 305.4813232421875 306.29058837890625 307.07073974609375 307.810150146484375 308.47528076171875 309.187713623046875 309.930084228515625 310.692901611328125 311.5440673828125 312.36138916015625 313.114593505859375 313.82562255859375 314.384765625 314.680419921875 314.688446044921875 314.457122802734375 313.9459228515625 313.0968017578125 312.073486328125 310.981170654296875 309.872039794921875 308.801361083984375 307.8685302734375 307.173980712890625 307.0245361328125 306.864227294921875 305.656768798828125 304.038177490234375 303.582183837890625 303.75634765625 303.79937744140625 303.24822998046875 302.42608642578125 301.616668701171875 300.934051513671875 300.443634033203125 300.22979736328125 300.24847412109375 300.413116455078125 300.733642578125 301.1058349609375 301.504913330078125 301.90802001953125 302.31756591796875 302.644805908203125 302.9278564453125 303.160797119140625 303.366668701171875 303.545928955078125 303.65509033203125 303.746185302734375 303.83551025390625 303.922943115234375 303.999847412109375 304.059417724609375 304.12225341796875 304.219024658203125 304.32427978515625 304.428619384765625 304.523040771484375 304.63079833984375 304.742828369140625 304.862640380859375 304.961517333984375 305.040557861328125 305.097503662109375 305.1593017578125 305.184295654296875 305.134674072265625 305.090118408203125 304.962646484375 304.82611083984375 304.603912353515625 304.336700439453125 304.0164794921875 303.623016357421875 303.1553955078125 302.6141357421875 302.012847900390625 301.3519287109375 300.604278564453125 299.782806396484375 298.9140625 297.955474853515625 296.92279052734375 295.840728759765625 294.703643798828125 293.503326416015625 -99999 -99999 -99999 -99999 -99999
 -99999 -99999 -99999 -99999 -99999 -99999 -99999 -99999 -99999 -99999 -99999 -99999 -99999 -99999 -99999 -99999 -99999 -99999 -99999 -99999 -99999 -99999 -99999 -99999 -99999 -99999 159.5192108154296875 164.0783843994140625 168.5970001220703125 173.08050537109375 177.4333038330078125 181.7595672607421875 186.0391387939453125 190.2645263671875 194.4464111328125 198.62713623046875 202.707855224609375 206.81146240234375 210.907318115234375 215.0103912353515625 219.136932373046875 223.2829437255859375 227.4681549072265625 231.7010498046875 235.981964111328125 240.341888427734375 244.8223876953125 249.342437744140625 253.990814208984375 258.719482421875 263.54473876953125 268.497894287109375 273.540191650390625 278.655426025390625 283.874114990234375 289.14019775390625 294.359954833984375 299.579559326171875 304.679656982421875 309.674835205078125 314.49029541015625 318.92510986328125 323.100921630859375 326.837921142578125 330.074981689453125 332.768798828125 334.8839111328125 336.267852783203125 336.976409912109375 337.110260009765625 336.708648681640625 335.7530517578125 334.352020263671875 332.548858642578125 330.31005859375 327.70379638671875 324.52069091796875 321.064117431640625 317.492889404296875 314.322906494140625 313.826873779296875 314.59197998046875 315.64306640625 316.317413330078125 316.418670654296875 315.529083251953125 314.01300048828125 311.963531494140625 309.485870361328125 306.677947998046875 303.790435791015625 301.240631103515625 298.802581787109375 296.778656005859375 295.2489013671875 294.355438232421875 294.000335693359375 294.2794189453125 294.66046142578125 295.392730712890625 296.39154052734375 297.61279296875 298.960052490234375 300.304443359375 301.545013427734375 302.7591552734375 303.949462890625 305.0477294921875 306.029632568359375 306.967376708984375 307.86737060546875 308.747467041015625 309.590057373046875 310.453216552734375 311.236724853515625 312.034454345703125 312.750213623046875 313.28466796875 313.631134033203125 313.791259765625 313.72064208984375 313.277679443359375 312.565948486328125 311.654754638671875 310.58343505859375 309.4256591796875 308.29669189453125 307.34625244140625 306.673797607421875 306.3404541015625 306.391448974609375 306.9571533203125 307.02593994140625 307.145965576171875 307.74298095703125 308.131561279296875 308.03839111328125 307.617034912109375 306.996917724609375 306.258636474609375 305.615966796875 305.15045166015625 304.855194091796875 304.71343994140625 304.743133544921875 304.878631591796875 305.055572509765625 305.283111572265625 305.474029541015625 305.633026123046875 305.769378662109375 305.9002685546875 305.9825439453125 306.00396728515625 306.009429931640625 306.0072021484375 306.014892578125 305.997528076171875 305.972808837890625 305.960784912109375 305.98358154296875 306.03466796875 306.07373046875 306.12481689453125 306.203125 306.29461669921875 306.423797607421875 306.515960693359375 306.599761962890625 306.687591552734375 306.78106689453125 306.8604736328125 306.941741943359375 306.8836669921875 306.84326171875 306.777923583984375 306.639739990234375 306.463775634765625 306.241241455078125 305.939208984375 305.5538330078125 305.113555908203125 304.607940673828125 304.035430908203125 303.369537353515625 302.624420166015625 301.81005859375 300.941741943359375 299.992645263671875 298.940887451171875 297.856048583984375 296.69085693359375 295.4556884765625 294.174072265625 -99999 -99999 -99999 -99999 -99999
 -99999 -99999 -99999 -99999 -99999 -99999 -99999 -99999 -99999 -99999 -99999 -99999 -99999 -99999 -99999 -99999 -99999 -99999 -99999 -99999 -99999 -99999 -99999 -99999 -99999 154.33642578125 159.05224609375 163.6953277587890625 168.275299072265625 172.8368072509765625 177.25933837890625 181.6709442138671875 186.014190673828125 190.2985076904296875 194.55010986328125 198.77764892578125 202.9537811279296875 207.1120452880859375 211.2604827880859375 215.397369384765625 219.5423583984375 223.7116851806640625 227.9100799560546875 232.15142822265625 236.44635009765625 240.8007354736328125 245.22027587890625 249.690032958984375 254.2465972900390625 258.905853271484375 263.642120361328125 268.4464111328125 273.336822509765625 278.30633544921875 283.292205810546875 288.280364990234375 293.31219482421875 298.25421142578125 303.090484619140625 307.73419189453125 312.1942138671875 316.371734619140625 320.218231201171875 323.64031982421875 326.6304931640625 329.15679931640625 331.07891845703125 332.329620361328125 333.057708740234375 333.19464111328125 332.798004150390625 331.862335205078125 330.533660888671875 328.788665771484375 326.64923095703125 324.029693603515625 321.017974853515625 317.710205078125 313.79852294921875 311.129608154296875 310.862640380859375 312.76458740234375 314.722625732421875 315.783447265625 315.906158447265625 315.036468505859375 313.324462890625 310.902862548828125 307.94610595703125 304.775238037109375 301.4293212890625 298.41259765625 295.659332275390625 293.43670654296875 291.685699462890625 290.76947021484375 290.470489501953125 290.683837890625 291.279022216796875 292.26483154296875 293.577362060546875 295.020111083984375 296.525390625 298.049530029296875 299.625274658203125 301.11541748046875 302.51556396484375 303.811737060546875 305.034454345703125 306.19354248046875 307.26165771484375 308.2587890625 309.233978271484375 310.14111328125 310.993682861328125 311.699798583984375 312.293914794921875 312.774505615234375 313.067108154296875 313.037078857421875 312.74005126953125 312.194305419921875 311.3948974609375 310.347137451171875 309.109375 307.84393310546875 306.680755615234375 305.758514404296875 305.173858642578125 305.0889892578125 305.43463134765625 306.1259765625 307.51922607421875 309.619781494140625 311.511871337890625 312.269256591796875 312.2232666015625 311.779571533203125 311.20068359375 310.612579345703125 310.057525634765625 309.57568359375 309.228790283203125 309.034332275390625 308.943023681640625 308.91107177734375 308.937347412109375 308.987457275390625 308.989105224609375 308.983612060546875 308.926910400390625 308.8302001953125 308.720977783203125 308.6063232421875 308.488189697265625 308.342376708984375 308.19915771484375 308.07061767578125 307.988494873046875 307.933380126953125 307.875213623046875 307.836517333984375 307.8426513671875 307.906524658203125 307.97698974609375 308.040313720703125 308.11126708984375 308.21038818359375 308.333038330078125 308.443206787109375 308.506866455078125 308.560089111328125 308.59759521484375 308.61297607421875 308.5377197265625 308.461700439453125 308.33538818359375 308.1240234375 307.843414306640625 307.499420166015625 307.11395263671875 306.646087646484375 306.071502685546875 305.424102783203125 304.702911376953125 303.91741943359375 303.049713134765625 302.113922119140625 301.055419921875 299.943572998046875 298.755767822265625 297.4913330078125 296.20233154296875 294.82177734375 -99999 -99999 -99999 -99999 -99999
 -99999 -99999 -99999 -99999 -99999 -99999 -99999 -99999 -99999 -99999 -99999 -99999 -99999 -99999 -99999 -99999 -99999 -99999 -99999 -99999 -99999 -99999 -99999 -99999 -99999 153.7606964111328125 158.550201416015625 163.2588348388671875 167.888214111328125 172.5142822265625 177.0219879150390625 181.477569580078125 185.9049530029296875 190.2715911865234375 194.5783843994140625 198.8656158447265625 203.081634521484375 207.2909698486328125 211.48193359375 215.6544342041015625 219.8226470947265625 224.0156402587890625 228.2022247314453125 232.4442291259765625 236.7049713134765625 241.00128173828125 245.36578369140625 249.7980499267578125 254.2959747314453125 258.824951171875 263.41607666015625 268.105621337890625 272.8087158203125 277.59234619140625 282.4111328125 287.22613525390625 291.972991943359375 296.611114501953125 301.15765380859375 305.559600830078125 309.761444091796875 313.644134521484375 317.213226318359375 320.398193359375 323.119384765625 325.416229248046875 327.195526123046875 328.43365478515625 329.06744384765625 329.202667236328125 328.809967041015625 328.019287109375 326.80322265625 325.1456298828125 323.12384033203125 320.762603759765625 318.0201416015625 314.942047119140625 311.7606201171875 310.077911376953125 310.42486572265625 312.366241455078125 314.212860107421875 315.845123291015625 315.9613037109375 314.630157470703125 312.305206298828125 309.383148193359375 305.995269775390625 302.254058837890625 298.398773193359375 295.0098876953125 291.933135986328125 289.39654541015625 287.664794921875 286.768096923828125 286.512481689453125 286.90814208984375 287.890625 289.1470947265625 290.6466064453125 292.3214111328125 294.15643310546875 296.0081787109375 297.825714111328125 299.526123046875 301.152374267578125 302.701568603515625 304.151580810546875 305.48114013671875 306.706756591796875 307.837005615234375 308.90899658203125 309.846893310546875 310.700164794921875 311.4388427734375 312.019989013671875 312.36474609375 312.498443603515625 312.411224365234375 312.0599365234375 311.391845703125 310.40716552734375 309.2001953125 307.845062255859375 306.44378662109375 305.14727783203125 304.19866943359375 303.776519775390625 303.933349609375 304.6326904296875 306.19219970703125 308.45880126953125 311.323516845703125 313.6773681640625 315.21875 315.549713134765625 315.395782470703125 315.009124755859375 314.514129638671875 314.0289306640625 313.64971923828125 313.341033935546875 313.101348876953125 312.931976318359375 312.815826416015625 312.702667236328125 312.563140869140625 312.403656005859375 312.237518310546875 311.967437744140625 311.714385986328125 311.44354248046875 311.148773193359375 310.85076904296875 310.576995849609375 310.339263916015625 310.1337890625 309.933837890625 309.766876220703125 309.66448974609375 309.62005615234375 309.60919189453125 309.60015869140625 309.62298583984375 309.7081298828125 309.8212890625 309.92791748046875 310.009521484375 310.088836669921875 310.192474365234375 310.259674072265625 310.285919189453125 310.284515380859375 310.261444091796875 310.141693115234375 309.969512939453125 309.752166748046875 309.474151611328125 309.1138916015625 308.66180419921875 308.122528076171875 307.523284912109375 306.84521484375 306.0712890625 305.194244384765625 304.263641357421875 303.228424072265625 302.1038818359375 300.916290283203125 299.659820556640625 298.348663330078125 296.91900634765625 295.44482421875 -99999 -99999 -99999 -99999 -99999
 -99999 -99999 -99999 -99999 -99999 -99999 -99999 -99999 -99999 -99999 -99999 -99999 -99999 -99999 -99999 -99999 -99999 -99999 -99999 -99999 -99999 -99999 -99999 -99999 -99999 153.1275482177734375 157.957305908203125 162.74560546875 167.4636993408203125 172.07257080078125 176.72998046875 181.2412261962890625 185.7129058837890625 190.1338043212890625 194.502593994140625 198.83831787109375 203.1220550537109375 207.3485107421875 211.5752716064453125 215.7771759033203125 219.958587646484375 224.141143798828125 228.3324127197265625 232.5283050537109375 236.75018310546875 241.0151824951171875 245.33258056640625 249.6533203125 254.0503692626953125 258.49822998046875 263.001617431640625 267.525665283203125 272.09259033203125 276.686614990234375 281.26068115234375 285.8134765625 290.37860107421875 294.793975830078125 299.095611572265625 303.164337158203125 307.11676025390625 310.75360107421875 314.003631591796875 317.014251708984375 319.56549072265625 321.687774658203125 323.31842041015625 324.51055908203125 325.085784912109375 325.230133056640625 324.928436279296875 324.272674560546875 323.171295166015625 321.660614013671875 319.87652587890625 317.762420654296875 315.56396484375 313.16015625 311.271209716796875 310.25140380859375 310.8531494140625 312.581451416015625 314.65789794921875 316.211273193359375 315.987457275390625 313.954833984375 311.16766357421875 307.77606201171875 303.878082275390625 299.633270263671875 295.256500244140625 291.32861328125 287.6031494140625 284.851593017578125 283.165252685546875 282.305450439453125 282.348876953125 283.147064208984375 284.271759033203125 285.7767333984375 287.746307373046875 289.855865478515625 291.964935302734375 294.047027587890625 296.06988525390625 298.09320068359375 299.9931640625 301.73309326171875 303.347808837890625 304.835418701171875 306.23883056640625 307.50653076171875 308.6220703125 309.624481201171875 310.5123291015625 311.222564697265625 311.755218505859375 312.105377197265625 312.227874755859375 312.0501708984375 311.576812744140625 310.81640625 309.775177001953125 308.476776123046875 306.9471435546875 305.32037353515625 303.8609619140625 302.85589599609375 302.553253173828125 303.17205810546875 304.572601318359375 306.652374267578125 309.333099365234375 312.237213134765625 314.89642333984375 316.879547119140625 317.776763916015625 318.15509033203125 318.116119384765625 317.91668701171875 317.62445068359375 317.310089111328125 317.03936767578125 316.84075927734375 316.675445556640625 316.494232177734375 316.280120849609375 316.031524658203125 315.72857666015625 315.32818603515625 314.929534912109375 314.4715576171875 314.011444091796875 313.567901611328125 313.141632080078125 312.755035400390625 312.3729248046875 312.036102294921875 311.770294189453125 311.569610595703125 311.420440673828125 311.294647216796875 311.228363037109375 311.235382080078125 311.294281005859375 311.358001708984375 311.42694091796875 311.5262451171875 311.663177490234375 311.786773681640625 311.8544921875 311.9775390625 311.985626220703125 311.963134765625 311.904205322265625 311.806915283203125 311.650848388671875 311.40753173828125 311.078369140625 310.68572998046875 310.20654296875 309.657012939453125 308.9959716796875 308.23681640625 307.399444580078125 306.491607666015625 305.47467041015625 304.35028076171875 303.168731689453125 301.925445556640625 300.528106689453125 299.10540771484375 297.614105224609375 296.045867919921875 -99999 -99999 -99999 -99999 -99999
 -99999 -99999 -99999 -99999 -99999 -99999 -99999 -99999 -99999 -99999 -99999 -99999 -99999 -99999 -99999 -99999 -99999 -99999 -99999 -99999 -99999 -99999 -99999 -99999 -99999 152.423583984375 157.32122802734375 162.1629180908203125 166.933563232421875 171.64031982421875 176.3292236328125 180.8995208740234375 185.44415283203125 189.933837890625 194.3421478271484375 198.711212158203125 203.0402679443359375 207.308624267578125 211.5531158447265625 215.7557373046875 219.9340667724609375 224.1231536865234375 228.2806396484375 232.461334228515625 236.6529693603515625 240.8529205322265625 245.053009033203125 249.34112548828125 253.6351776123046875 257.950286865234375 262.2861328125 266.667327880859375 271.07574462890625 275.4739990234375 279.88336181640625 284.251678466796875 288.5350341796875 292.705413818359375 296.770477294921875 300.661895751953125 304.306365966796875 307.7391357421875 310.858489990234375 313.579254150390625 315.922882080078125 317.91357421875 319.4969482421875 320.577117919921875 321.187469482421875 321.427490234375 321.15203857421875 320.5252685546875 319.544342041015625 318.33929443359375 316.873046875 315.171295166015625 313.317962646484375 311.722442626953125 310.716156005859375 310.34918212890625 310.916290283203125 312.363739013671875 314.626617431640625 316.556915283203125 315.3438720703125 312.6693115234375 309.151763916015625 305.478118896484375 301.182403564453125 296.3739013671875 291.359222412109375 286.628021240234375 282.9290771484375 279.753936767578125 278.2506103515625 277.548370361328125 278.0548095703125 278.894775390625 280.6563720703125 282.773681640625 285.059478759765625 287.405364990234375 289.81134033203125 292.29083251953125 294.6611328125 296.866943359375 298.92010498046875 300.865478515625 302.70489501953125 304.365936279296875 305.862396240234375 307.218353271484375 308.451690673828125 309.52984619140625 310.422576904296875 311.1424560546875 311.69537353515625 312.0087890625 312.090850830078125 311.911468505859375 311.451568603515625 310.67889404296875 309.57598876953125 308.169677734375 306.541046142578125 304.7852783203125 303.0731201171875 301.817352294921875 301.8817138671875 303.027069091796875 304.92510986328125 307.39141845703125 310.20843505859375 313.0577392578125 315.667724609375 317.798675537109375 319.304107666015625 320.240875244140625 320.59075927734375 320.6971435546875 320.6307373046875 320.512908935546875 320.387298583984375 320.242095947265625 320.08795166015625 319.919830322265625 319.661773681640625 319.28680419921875 318.811004638671875 318.280609130859375 317.71826171875 317.085968017578125 316.463775634765625 315.87353515625 315.2890625 314.751922607421875 314.274078369140625 313.87615966796875 313.531097412109375 313.2314453125 313.006683349609375 312.891754150390625 312.83087158203125 312.80792236328125 312.823760986328125 312.894775390625 313.024261474609375 313.150665283203125 313.262939453125 313.372283935546875 313.5020751953125 313.588531494140625 313.61749267578125 313.6353759765625 313.58782958984375 313.470855712890625 313.28155517578125 313.02801513671875 312.701873779296875 312.272247314453125 311.76068115234375 311.147369384765625 310.446258544921875 309.65380859375 308.76318359375 307.776611328125 306.665283203125 305.481170654296875 304.2022705078125 302.842254638671875 301.402862548828125 299.887542724609375 298.288116455078125 296.607421875 -99999 -99999 -99999 -99999 -99999
 -99999 -99999 -99999 -99999 -99999 -99999 -99999 -99999 -99999 -99999 -99999 -99999 -99999 -99999 -99999 -99999 -99999 -99999 -99999 -99999 -99999 -99999 -99999 -99999 -99999 151.683837890625 156.5980682373046875 161.51666259765625 166.3535003662109375 171.1217498779296875 175.8715972900390625 180.51617431640625 185.085174560546875 189.6215362548828125 194.0902252197265625 198.5018310546875 202.89178466796875 207.1478118896484375 211.404296875 215.63287353515625 219.8170928955078125 223.95233154296875 228.10577392578125 232.2275390625 236.3304443359375 240.4697723388671875 244.65087890625 248.79388427734375 252.9772796630859375 257.173309326171875 261.39715576171875 265.62969970703125 269.86920166015625 274.094940185546875 278.308837890625 282.4599609375 286.5657958984375 290.5423583984375 294.340423583984375 297.959930419921875 301.434661865234375 304.69537353515625 307.508209228515625 310.123504638671875 312.386322021484375 314.173919677734375 315.585540771484375 316.695220947265625 317.250732421875 317.50115966796875 317.3946533203125 316.952239990234375 316.15362548828125 315.11614990234375 313.87384033203125 312.49853515625 311.1776123046875 310.206878662109375 309.390960693359375 309.44140625 310.2313232421875 311.56549072265625 313.0433349609375 314.07940673828125 312.418731689453125 309.705413818359375 306.3505859375 302.608306884765625 298.123504638671875 292.500762939453125 286.854339599609375 281.6767578125 277.043212890625 274.45703125 272.617218017578125 272.330169677734375 273.323272705078125 274.998779296875 277.196044921875 279.639495849609375 282.37335205078125 285.21881103515625 288.0423583984375 290.75457763671875 293.315155029296875 295.768524169921875 298.1038818359375 300.259124755859375 302.196746826171875 303.98388671875 305.636962890625 307.095123291015625 308.38458251953125 309.500244140625 310.457672119140625 311.2276611328125 311.77325439453125 312.125762939453125 312.233917236328125 312.087860107421875 311.653289794921875 310.899749755859375 309.839874267578125 308.4696044921875 306.838775634765625 304.98712158203125 303.10150146484375 301.6334228515625 301.97613525390625 303.55743408203125 305.7747802734375 308.311676025390625 311.087127685546875 313.931304931640625 316.587615966796875 318.75408935546875 320.441925048828125 321.675018310546875 322.4925537109375 322.9864501953125 323.174041748046875 323.24072265625 323.255035400390625 323.25970458984375 323.214111328125 323.051666259765625 322.74371337890625 322.298980712890625 321.71734619140625 321.0013427734375 320.2491455078125 319.52667236328125 318.730987548828125 317.965972900390625 317.269378662109375 316.64178466796875 316.06219482421875 315.5439453125 315.102783203125 314.787689208984375 314.55902099609375 314.37860107421875 314.284027099609375 314.264068603515625 314.323699951171875 314.41876220703125 314.527099609375 314.665679931640625 314.828216552734375 314.993804931640625 315.099822998046875 315.203338623046875 315.265167236328125 315.2723388671875 315.2259521484375 315.118255615234375 314.934814453125 314.670623779296875 314.3104248046875 313.852264404296875 313.31103515625 312.66290283203125 311.91754150390625 311.051177978515625 310.1016845703125 309.03863525390625 307.873321533203125 306.595062255859375 305.235626220703125 303.7879638671875 302.24212646484375 300.61944580078125 298.912811279296875 297.15423583984375 295.331390380859375 -99999 -99999 -99999 -99999
 -99999 -99999 -99999 -99999 -99999 -99999 -99999 -99999 -99999 -99999 -99999 -99999 -99999 -99999 -99999 -99999 -99999 -99999 -99999 -99999 -99999 -99999 -99999 -99999 -99999 150.8113861083984375 155.81524658203125 160.773223876953125 165.6822052001953125 170.521148681640625 175.2965087890625 180.004669189453125 184.6581268310546875 189.2350616455078125 193.7415924072265625 198.183502197265625 202.5698699951171875 206.88824462890625 211.1554107666015625 215.3570404052734375 219.5193023681640625 223.6626739501953125 227.75213623046875 231.834503173828125 235.9205780029296875 239.9610443115234375 243.9901885986328125 248.025726318359375 252.1477508544921875 256.215667724609375 260.29425048828125 264.380706787109375 268.433990478515625 272.510833740234375 276.530487060546875 280.500030517578125 284.4134521484375 288.21124267578125 291.795989990234375 295.2757568359375 298.460418701171875 301.5108642578125 304.24298095703125 306.586181640625 308.7010498046875 310.467559814453125 311.89703369140625 312.852020263671875 313.51641845703125 313.7762451171875 313.68365478515625 313.337890625 312.746978759765625 311.925811767578125 310.94403076171875 309.90533447265625 308.963775634765625 308.24261474609375 307.93719482421875 307.936981201171875 308.3375244140625 309.129730224609375 309.84161376953125 309.54632568359375 308.508026123046875 305.962432861328125 302.702362060546875 299.559814453125 294.5208740234375 287.991302490234375 281.43585205078125 275.175811767578125 270.786895751953125 267.918487548828125 266.846221923828125 267.234619140625 268.70306396484375 270.960174560546875 273.6673583984375 276.812469482421875 280.172271728515625 283.37225341796875 286.5035400390625 289.50701904296875 292.35400390625 295.0264892578125 297.467803955078125 299.774566650390625 301.886962890625 303.817657470703125 305.553680419921875 307.098602294921875 308.47998046875 309.64288330078125 310.626495361328125 311.427947998046875 312.035491943359375 312.438140869140625 312.59942626953125 312.535797119140625 312.20208740234375 311.592041015625 310.661773681640625 309.3665771484375 307.837554931640625 306.120758056640625 304.48284912109375 303.48663330078125 303.612457275390625 305.053680419921875 307.13140869140625 309.590087890625 312.256927490234375 314.89483642578125 317.3944091796875 319.65887451171875 321.561309814453125 322.972747802734375 324.00494384765625 324.747955322265625 325.241058349609375 325.54193115234375 325.739013671875 325.866363525390625 325.92498779296875 325.8712158203125 325.622039794921875 325.051422119140625 324.308135986328125 323.460235595703125 322.55731201171875 321.64080810546875 320.74462890625 319.888519287109375 319.076690673828125 318.313201904296875 317.630584716796875 317.070465087890625 316.603912353515625 316.2122802734375 315.91314697265625 315.7318115234375 315.6529541015625 315.66790771484375 315.719085693359375 315.824981689453125 315.979034423828125 316.157928466796875 316.348236083984375 316.520599365234375 316.667327880859375 316.7940673828125 316.876983642578125 316.904083251953125 316.8656005859375 316.75970458984375 316.56805419921875 316.291778564453125 315.91290283203125 315.4385986328125 314.86468505859375 314.167510986328125 313.365966796875 312.45123291015625 311.4517822265625 310.31512451171875 309.04779052734375 307.702423095703125 306.24835205078125 304.696533203125 303.056427001953125 301.316497802734375 299.529022216796875 297.64959716796875 295.714813232421875 -99999 -99999 -99999 -99999
 -99999 -99999 -99999 -99999 -99999 -99999 -99999 -99999 -99999 -99999 -99999 -99999 -99999 -99999 -99999 -99999 -99999 -99999 -99999 -99999 -99999 -99999 -99999 -99999 -99999 149.8847808837890625 154.932952880859375 159.9680328369140625 164.933929443359375 169.8235931396484375 174.6688690185546875 179.4372406005859375 184.1200714111328125 188.7522430419921875 193.3122406005859375 197.7831573486328125 202.194549560546875 206.51898193359375 210.7845306396484375 215.000213623046875 219.1406707763671875 223.21258544921875 227.2639617919921875 231.2942047119140625 235.2639007568359375 239.2323760986328125 243.2393798828125 247.212371826171875 251.1172943115234375 255.078704833984375 258.991119384765625 262.924591064453125 266.855743408203125 270.739959716796875 274.60174560546875 278.413055419921875 282.122894287109375 285.696136474609375 289.09027099609375 292.358978271484375 295.472320556640625 298.359100341796875 300.92449951171875 303.242462158203125 305.192352294921875 306.749786376953125 308.093994140625 309.165802001953125 309.677642822265625 310.0545654296875 310.113067626953125 309.850341796875 309.31597900390625 308.6947021484375 307.915283203125 307.137664794921875 306.503997802734375 305.891876220703125 305.46478271484375 305.328887939453125 305.803070068359375 306.017608642578125 305.9510498046875 305.6435546875 303.8828125 301.619384765625 298.998626708984375 295.723236083984375 290.785675048828125 283.020263671875 275.08282470703125 268.184783935546875 263.6385498046875 261.153961181640625 260.569427490234375 261.686126708984375 264.023773193359375 267.290771484375 270.89404296875 274.661956787109375 278.377685546875 281.983795166015625 285.4368896484375 288.640838623046875 291.666473388671875 294.516357421875 297.152008056640625 299.599090576171875 301.8319091796875 303.8529052734375 305.655517578125 307.275482177734375 308.705291748046875 309.943878173828125 310.99285888671875 311.819549560546875 312.45843505859375 312.919830322265625 313.18402099609375 313.250335693359375 313.07623291015625 312.652557373046875 311.978424072265625 310.879119873046875 309.481292724609375 308.032684326171875 306.686431884765625 305.8062744140625 305.998504638671875 307.146514892578125 308.958526611328125 311.12493896484375 313.54632568359375 316.058837890625 318.490203857421875 320.635772705078125 322.496124267578125 324.07720947265625 325.342529296875 326.263671875 326.93878173828125 327.445770263671875 327.8203125 328.099273681640625 328.299530029296875 328.386322021484375 328.121337890625 327.476348876953125 326.578033447265625 325.580780029296875 324.53668212890625 323.53826904296875 322.514434814453125 321.524749755859375 320.62591552734375 319.805419921875 319.071136474609375 318.4075927734375 317.850006103515625 317.439697265625 317.166259765625 317.00146484375 316.916229248046875 316.915069580078125 317.0103759765625 317.169952392578125 317.37200927734375 317.583984375 317.791229248046875 318.023101806640625 318.2222900390625 318.355377197265625 318.46282958984375 318.520599365234375 318.498382568359375 318.398406982421875 318.198272705078125 317.911163330078125 317.528594970703125 317.02423095703125 316.4073486328125 315.672515869140625 314.831817626953125 313.8653564453125 312.781005859375 311.56085205078125 310.230377197265625 308.786773681640625 307.2362060546875 305.587554931640625 303.832427978515625 302.00360107421875 300.087371826171875 298.098236083984375 296.054931640625 -99999 -99999 -99999 -99999
 -99999 -99999 -99999 -99999 -99999 -99999 -99999 -99999 -99999 -99999 -99999 -99999 -99999 -99999 -99999 -99999 -99999 -99999 -99999 -99999 -99999 -99999 -99999 -99999 -99999 148.86370849609375 153.989410400390625 159.0576934814453125 164.100341796875 169.066131591796875 173.9458160400390625 178.8355560302734375 183.5143890380859375 188.1855621337890625 192.7787017822265625 197.2822418212890625 201.7148895263671875 206.07733154296875 210.314788818359375 214.490509033203125 218.62451171875 222.694732666015625 226.6960601806640625 230.6229400634765625 234.5729827880859375 238.43707275390625 242.2808837890625 246.1036376953125 249.9115142822265625 253.753875732421875 257.568756103515625 261.347747802734375 265.108184814453125 268.855133056640625 272.5361328125 276.14910888671875 279.71343994140625 283.220123291015625 286.46380615234375 289.537017822265625 292.457977294921875 295.157806396484375 297.5748291015625 299.62109375 301.594879150390625 303.21636962890625 304.495758056640625 305.385040283203125 306.090972900390625 306.38958740234375 306.416717529296875 306.317962646484375 306.0103759765625 305.506866455078125 304.8760986328125 304.269989013671875 303.57733154296875 303.066925048828125 302.767669677734375 302.620025634765625 302.464996337890625 302.186981201171875 301.69305419921875 300.555206298828125 298.938018798828125 296.492889404296875 293.649261474609375 290.579742431640625 284.49505615234375 276.33953857421875 267.278076171875 260.37030029296875 255.6973876953125 253.5408782958984375 254.0827178955078125 256.506622314453125 260.110504150390625 264.40087890625 268.74737548828125 273.07080078125 277.169677734375 281.06634521484375 284.730499267578125 288.17352294921875 291.38983154296875 294.351593017578125 297.088623046875 299.636993408203125 301.927398681640625 304.048919677734375 305.972381591796875 307.666259765625 309.123626708984375 310.373260498046875 311.44024658203125 312.337127685546875 313.048248291015625 313.564239501953125 313.916748046875 314.117279052734375 314.134552001953125 313.99658203125 313.598602294921875 312.81072998046875 311.5928955078125 310.20849609375 309.1190185546875 308.521759033203125 308.583282470703125 309.494476318359375 310.957916259765625 312.87030029296875 315.071929931640625 317.308197021484375 319.5340576171875 321.646514892578125 323.533538818359375 325.10498046875 326.43328857421875 327.52069091796875 328.39837646484375 329.06365966796875 329.5631103515625 329.971466064453125 330.342193603515625 330.62701416015625 330.393798828125 329.547149658203125 328.433807373046875 327.296478271484375 326.163604736328125 325.06695556640625 323.988525390625 322.96075439453125 321.985107421875 321.062713623046875 320.251953125 319.55841064453125 319.000946044921875 318.580108642578125 318.253875732421875 318.06756591796875 318.029266357421875 318.109161376953125 318.261077880859375 318.445892333984375 318.6915283203125 318.9581298828125 319.21990966796875 319.48138427734375 319.707244873046875 319.912200927734375 320.053680419921875 320.10430908203125 320.107391357421875 320.017822265625 319.83380126953125 319.537109375 319.122467041015625 318.597198486328125 317.961212158203125 317.222259521484375 316.284637451171875 315.26031494140625 314.101776123046875 312.80035400390625 311.38482666015625 309.857208251953125 308.22430419921875 306.459625244140625 304.583099365234375 302.635467529296875 300.609405517578125 298.511444091796875 296.3214111328125 -99999 -99999 -99999 -99999
 -99999 -99999 -99999 -99999 -99999 -99999 -99999 -99999 -99999 -99999 -99999 -99999 -99999 -99999 -99999 -99999 -99999 -99999 -99999 -99999 -99999 -99999 -99999 -99999 142.479248046875 147.721893310546875 152.9487762451171875 158.0786895751953125 163.166290283203125 168.1934356689453125 173.1467132568359375 178.039581298828125 182.8138275146484375 187.5413970947265625 192.178070068359375 196.7033538818359375 201.1430511474609375 205.5043792724609375 209.766265869140625 213.93865966796875 218.0118865966796875 222.009521484375 225.9664306640625 229.8285369873046875 233.6866302490234375 237.4686431884765625 241.2184906005859375 244.9549407958984375 248.6208038330078125 252.3231201171875 255.970489501953125 259.61688232421875 263.244171142578125 266.804931640625 270.366912841796875 273.871978759765625 277.2508544921875 280.477020263671875 283.584930419921875 286.582733154296875 289.3702392578125 291.965118408203125 294.326019287109375 296.35888671875 298.08319091796875 299.567047119140625 300.86407470703125 301.6942138671875 302.36199951171875 302.7713623046875 302.959503173828125 302.847686767578125 302.5484619140625 302.1134033203125 301.572479248046875 301.040374755859375 300.54241943359375 300.0208740234375 299.595184326171875 299.100341796875 298.59320068359375 297.92755126953125 297.01190185546875 295.589599609375 293.3621826171875 290.551666259765625 287.197296142578125 282.578094482421875 276.366912841796875 267.75262451171875 258.870361328125 251.826080322265625 247.4637603759765625 246.27484130859375 248.3426971435546875 252.5270843505859375 257.39739990234375 262.394927978515625 267.34368896484375 272.16009521484375 276.642822265625 280.783966064453125 284.591400146484375 288.0966796875 291.3941650390625 294.42669677734375 297.260833740234375 299.914794921875 302.35845947265625 304.52593994140625 306.433990478515625 308.1456298828125 309.673736572265625 310.996551513671875 312.0809326171875 312.970306396484375 313.7005615234375 314.2879638671875 314.73541259765625 315.05743408203125 315.284759521484375 315.44189453125 315.385162353515625 314.904449462890625 313.776092529296875 312.513458251953125 311.5137939453125 310.990875244140625 311.05712890625 311.762939453125 313.050384521484375 314.68841552734375 316.59246826171875 318.612579345703125 320.6732177734375 322.652374267578125 324.45697021484375 326.064239501953125 327.466644287109375 328.615081787109375 329.56298828125 330.3406982421875 330.9805908203125 331.492218017578125 331.9227294921875 332.250518798828125 331.9219970703125 330.998321533203125 329.796661376953125 328.6075439453125 327.44927978515625 326.342742919921875 325.200103759765625 324.12811279296875 323.11309814453125 322.16363525390625 321.299102783203125 320.55218505859375 319.95086669921875 319.460113525390625 319.195587158203125 319.068328857421875 319.092071533203125 319.175506591796875 319.34783935546875 319.622344970703125 319.9481201171875 320.27142333984375 320.607330322265625 320.930419921875 321.195220947265625 321.413116455078125 321.584381103515625 321.693939208984375 321.71881103515625 321.62774658203125 321.438140869140625 321.138702392578125 320.7264404296875 320.184112548828125 319.51214599609375 318.680694580078125 317.738739013671875 316.64776611328125 315.403106689453125 314.044586181640625 312.554168701171875 310.910675048828125 309.15411376953125 307.258148193359375 305.31402587890625 303.245025634765625 301.0770263671875 298.865386962890625 296.571136474609375 -99999 -99999 -99999 -99999
 -99999 -99999 -99999 -99999 -99999 -99999 -99999 -99999 -99999 -99999 -99999 -99999 -99999 -99999 -99999 -99999 -99999 -99999 -99999 -99999 -99999 -99999 -99999 -99999 141.20513916015625 146.5246429443359375 151.836456298828125 156.9948577880859375 162.163299560546875 167.2633056640625 172.255523681640625 177.19708251953125 182.0494384765625 186.8009796142578125 191.4745025634765625 196.038543701171875 200.498077392578125 204.8826751708984375 209.09210205078125 213.2514495849609375 217.32269287109375 221.297210693359375 225.1528472900390625 228.9372406005859375 232.7293548583984375 236.39556884765625 240.0206298828125 243.6480560302734375 247.1755523681640625 250.7479248046875 254.26434326171875 257.757171630859375 261.22979736328125 264.706939697265625 268.085845947265625 271.386932373046875 274.6351318359375 277.884918212890625 280.883880615234375 283.63446044921875 286.336761474609375 288.797515869140625 290.893524169921875 292.870758056640625 294.6475830078125 296.119171142578125 297.3616943359375 298.262176513671875 298.839385986328125 299.1505126953125 299.339569091796875 299.310943603515625 299.08551025390625 298.771270751953125 298.38848876953125 297.83734130859375 297.14080810546875 296.625732421875 296.03729248046875 295.2205810546875 294.49407958984375 293.474945068359375 292.06329345703125 290.16461181640625 287.6246337890625 284.2667236328125 280.13702392578125 274.777252197265625 267.907379150390625 259.656341552734375 251.0383758544921875 243.9642486572265625 239.3874664306640625 239.90032958984375 244.2152099609375 249.5415191650390625 255.4484710693359375 261.5164794921875 267.19586181640625 272.310333251953125 276.900054931640625 281.101165771484375 284.898193359375 288.469451904296875 291.76324462890625 294.874969482421875 297.838775634765625 300.462860107421875 302.875732421875 305.107177734375 307.138214111328125 308.92181396484375 310.398193359375 311.683135986328125 312.79449462890625 313.724365234375 314.476837158203125 315.076324462890625 315.5770263671875 315.98773193359375 316.329498291015625 316.63006591796875 316.865020751953125 316.693267822265625 315.68145751953125 314.577667236328125 313.763946533203125 313.3714599609375 313.4337158203125 314.032318115234375 315.062042236328125 316.45843505859375 318.1951904296875 320.0255126953125 321.866912841796875 323.680938720703125 325.40362548828125 326.964874267578125 328.335205078125 329.5172119140625 330.530242919921875 331.349945068359375 332.02685546875 332.562713623046875 332.927520751953125 333.053802490234375 332.733367919921875 331.835845947265625 330.7010498046875 329.556915283203125 328.416717529296875 327.269012451171875 326.188934326171875 325.09918212890625 324.03662109375 323.04998779296875 322.1468505859375 321.37347412109375 320.72393798828125 320.29449462890625 320.031005859375 319.9058837890625 319.947509765625 320.17279052734375 320.4586181640625 320.78424072265625 321.167022705078125 321.597808837890625 321.94329833984375 322.2933349609375 322.64678955078125 322.923126220703125 323.135711669921875 323.253204345703125 323.288970947265625 323.22540283203125 323.05255126953125 322.750579833984375 322.321746826171875 321.787811279296875 321.037933349609375 320.193939208984375 319.189208984375 318.029205322265625 316.730438232421875 315.265289306640625 313.665283203125 311.93328857421875 310.058990478515625 308.082183837890625 305.972625732421875 303.768402099609375 301.49334716796875 299.138580322265625 296.703857421875 -99999 -99999 -99999 -99999
 -99999 -99999 -99999 -99999 -99999 -99999 -99999 -99999 -99999 -99999 -99999 -99999 -99999 -99999 -99999 -99999 -99999 -99999 -99999 -99999 -99999 -99999 -99999 -99999 139.862762451171875 145.2171478271484375 150.57781982421875 155.835784912109375 161.041534423828125 166.2097930908203125 171.2855377197265625 176.27783203125 181.1799774169921875 185.9960174560546875 190.69366455078125 195.2896575927734375 199.7691192626953125 204.1432952880859375 208.3588409423828125 212.505828857421875 216.5040283203125 220.4287261962890625 224.270416259765625 227.97564697265625 231.628631591796875 235.263641357421875 238.740997314453125 242.2061767578125 245.6911163330078125 249.05462646484375 252.4097137451171875 255.779754638671875 259.162353515625 262.409515380859375 265.70184326171875 268.955963134765625 272.06988525390625 275.009979248046875 277.91357421875 280.6844482421875 283.242218017578125 285.645660400390625 287.809173583984375 289.606719970703125 291.2039794921875 292.64642333984375 293.75335693359375 294.57373046875 295.243988037109375 295.696075439453125 295.891204833984375 295.819976806640625 295.70379638671875 295.40423583984375 294.8758544921875 294.37109375 293.751495361328125 293.06890869140625 292.24859619140625 291.374969482421875 290.319244384765625 288.968048095703125 287.161102294921875 284.787139892578125 281.914764404296875 278.296112060546875 273.489990234375 267.808807373046875 261.22088623046875 253.5303497314453125 245.68902587890625 238.6295623779296875 233.41058349609375 234.9935760498046875 241.5522918701171875 248.637451171875 255.747589111328125 262.274505615234375 268.218231201171875 273.485870361328125 277.97161865234375 281.989837646484375 285.706512451171875 289.17205810546875 292.49725341796875 295.57666015625 298.455474853515625 301.19622802734375 303.75408935546875 306.0052490234375 307.969696044921875 309.729736328125 311.28302001953125 312.599853515625 313.646453857421875 314.52606201171875 315.283843994140625 315.90411376953125 316.4228515625 316.850677490234375 317.232940673828125 317.576171875 317.811676025390625 317.694000244140625 317.094085693359375 316.373748779296875 315.753936767578125 315.468292236328125 315.572265625 316.090728759765625 317.0504150390625 318.2635498046875 319.7066650390625 321.33251953125 323.028533935546875 324.708587646484375 326.296966552734375 327.76580810546875 329.095611572265625 330.264251708984375 331.2742919921875 332.1068115234375 332.7706298828125 333.246673583984375 333.531402587890625 333.559539794921875 333.155487060546875 332.40216064453125 331.345245361328125 330.2469482421875 329.117950439453125 328.025787353515625 326.9400634765625 325.86798095703125 324.83343505859375 323.800140380859375 322.81524658203125 322.020294189453125 321.371368408203125 320.870025634765625 320.649810791015625 320.678466796875 320.84503173828125 321.070709228515625 321.43670654296875 321.874237060546875 322.339813232421875 322.73724365234375 323.2606201171875 323.700164794921875 324.0704345703125 324.388275146484375 324.639617919921875 324.806060791015625 324.8671875 324.80853271484375 324.638275146484375 324.3411865234375 323.8955078125 323.3214111328125 322.5758056640625 321.683258056640625 320.62628173828125 319.395660400390625 318.013153076171875 316.476318359375 314.794342041015625 312.9415283203125 310.9300537109375 308.825927734375 306.60150146484375 304.279632568359375 301.863372802734375 299.3570556640625 296.802032470703125 -99999 -99999 -99999 -99999
 -99999 -99999 -99999 -99999 -99999 -99999 -99999 -99999 -99999 -99999 -99999 -99999 -99999 -99999 -99999 -99999 -99999 -99999 -99999 -99999 -99999 -99999 -99999 -99999 138.3920745849609375 143.8192138671875 149.2261199951171875 154.549530029296875 159.8466033935546875 165.0693359375 170.20220947265625 175.2593841552734375 180.232757568359375 185.0893096923828125 189.8358306884765625 194.4749908447265625 198.95440673828125 203.3285064697265625 207.5617523193359375 211.667877197265625 215.6668243408203125 219.5243072509765625 223.251129150390625 226.9123077392578125 230.4848785400390625 233.9615478515625 237.3949127197265625 240.7396697998046875 243.98931884765625 247.2013702392578125 250.5047149658203125 253.74420166015625 256.9136962890625 260.162994384765625 263.2681884765625 266.3701171875 269.389678955078125 272.368499755859375 275.1263427734375 277.725799560546875 280.214935302734375 282.486907958984375 284.41961669921875 286.292083740234375 287.91802978515625 289.2218017578125 290.384429931640625 291.24810791015625 291.803375244140625 292.19573974609375 292.4166259765625 292.39013671875 292.227264404296875 291.896484375 291.498565673828125 290.89471435546875 290.183441162109375 289.399017333984375 288.479095458984375 287.3692626953125 286.077392578125 284.411529541015625 282.2625732421875 279.702667236328125 276.571746826171875 272.585418701171875 267.901458740234375 262.397613525390625 256.0394287109375 249.29736328125 242.76983642578125 236.897186279296875 233.1919097900390625 236.1288299560546875 242.9814300537109375 250.236846923828125 257.65582275390625 264.80364990234375 270.749237060546875 275.534881591796875 279.697357177734375 283.422607421875 286.856414794921875 290.156402587890625 293.365264892578125 296.48187255859375 299.467132568359375 302.211212158203125 304.6966552734375 306.993011474609375 309.073272705078125 310.826171875 312.290130615234375 313.538238525390625 314.6126708984375 315.4661865234375 316.134552001953125 316.70947265625 317.225189208984375 317.686737060546875 318.066558837890625 318.3702392578125 318.59173583984375 318.574676513671875 318.2432861328125 317.79998779296875 317.436553955078125 317.33203125 317.498382568359375 317.98297119140625 318.798980712890625 319.89068603515625 321.188507080078125 322.62884521484375 324.12335205078125 325.63720703125 327.112457275390625 328.4990234375 329.77313232421875 330.885772705078125 331.841033935546875 332.63330078125 333.26092529296875 333.712127685546875 333.90008544921875 333.810791015625 333.415435791015625 332.727142333984375 331.8170166015625 330.7872314453125 329.68048095703125 328.621856689453125 327.564239501953125 326.503509521484375 325.433685302734375 324.410308837890625 323.435546875 322.491943359375 321.75537109375 321.40472412109375 321.279510498046875 321.301788330078125 321.524749755859375 321.926605224609375 322.3929443359375 322.9034423828125 323.4742431640625 324.01287841796875 324.529693603515625 325.02276611328125 325.478668212890625 325.856719970703125 326.13104248046875 326.321044921875 326.4112548828125 326.395843505859375 326.270416259765625 325.927459716796875 325.47955322265625 324.8621826171875 324.097503662109375 323.16387939453125 322.0472412109375 320.761993408203125 319.31536865234375 317.66827392578125 315.859832763671875 313.882598876953125 311.7899169921875 309.55242919921875 307.159698486328125 304.704925537109375 302.13494873046875 299.485748291015625 296.784271240234375 -99999 -99999 -99999 -99999
 -99999 -99999 -99999 -99999 -99999 -99999 -99999 -99999 -99999 -99999 -99999 -99999 -99999 -99999 -99999 -99999 -99999 -99999 -99999 -99999 -99999 -99999 -99999 -99999 136.8270263671875 142.3048553466796875 147.783660888671875 153.2153472900390625 158.516448974609375 163.8274688720703125 169.04449462890625 174.1485748291015625 179.22265625 184.0986785888671875 188.873291015625 193.5465087890625 198.0717926025390625 202.4597930908203125 206.7430572509765625 210.7688140869140625 214.70074462890625 218.5244903564453125 222.2555389404296875 225.7784576416015625 229.1863555908203125 232.642486572265625 235.890899658203125 239.038238525390625 242.2883148193359375 245.399688720703125 248.469970703125 251.5482330322265625 254.66339111328125 257.66925048828125 260.7353515625 263.76446533203125 266.7208251953125 269.4864501953125 272.25103759765625 274.812652587890625 277.21319580078125 279.4854736328125 281.375701904296875 283.0985107421875 284.590484619140625 285.99212646484375 286.951019287109375 287.78759765625 288.411834716796875 288.84759521484375 289.013092041015625 289.070404052734375 288.854034423828125 288.503204345703125 288.035552978515625 287.384979248046875 286.61181640625 285.7012939453125 284.580413818359375 283.40716552734375 281.87774658203125 280.00592041015625 277.782501220703125 275.166259765625 271.876617431640625 268.042327880859375 263.573822021484375 258.393035888671875 253.07940673828125 247.592010498046875 242.6782989501953125 238.9031829833984375 238.3135833740234375 241.06719970703125 246.4630126953125 253.2852325439453125 261.62841796875 268.716796875 274.32879638671875 278.562469482421875 281.93035888671875 285.075592041015625 288.21734619140625 291.315399169921875 294.5447998046875 297.62371826171875 300.54632568359375 303.33966064453125 305.955322265625 308.262542724609375 310.25543212890625 312.01446533203125 313.52069091796875 314.697418212890625 315.6258544921875 316.387451171875 317.03863525390625 317.569366455078125 318.033599853515625 318.448638916015625 318.8448486328125 319.180572509765625 319.3814697265625 319.417205810546875 319.302032470703125 319.1143798828125 318.95367431640625 318.948211669921875 319.179443359375 319.661956787109375 320.40386962890625 321.36407470703125 322.50335693359375 323.799072265625 325.15606689453125 326.531494140625 327.886505126953125 329.14984130859375 330.31744384765625 331.363739013671875 332.274932861328125 333.0330810546875 333.58038330078125 333.929351806640625 334.065826416015625 333.967926025390625 333.606231689453125 332.955078125 332.1173095703125 331.156463623046875 330.107452392578125 329.06298828125 328.0286865234375 327.0211181640625 326.01483154296875 324.928466796875 323.780242919921875 322.877532958984375 322.1983642578125 321.74066162109375 321.6312255859375 321.890411376953125 322.247344970703125 322.7410888671875 323.319244384765625 323.93060302734375 324.55340576171875 325.193359375 325.81048583984375 326.361297607421875 326.8443603515625 327.265228271484375 327.604766845703125 327.834625244140625 327.95916748046875 327.9388427734375 327.7806396484375 327.47406005859375 327.022003173828125 326.4180908203125 325.619903564453125 324.63885498046875 323.48681640625 322.117889404296875 320.5654296875 318.834503173828125 316.90008544921875 314.83880615234375 312.575164794921875 310.1864013671875 307.675811767578125 305.06268310546875 302.332305908203125 299.55450439453125 296.68804931640625 -99999 -99999 -99999 -99999
 -99999 -99999 -99999 -99999 -99999 -99999 -99999 -99999 -99999 -99999 -99999 -99999 -99999 -99999 -99999 -99999 -99999 -99999 -99999 -99999 -99999 -99999 -99999 -99999 135.138214111328125 140.6819000244140625 146.190093994140625 151.6949310302734375 157.0984649658203125 162.4585113525390625 167.7461090087890625 172.933258056640625 178.03515625 182.9350128173828125 187.8524932861328125 192.5694732666015625 197.100616455078125 201.48297119140625 205.742340087890625 209.8016357421875 213.700347900390625 217.4555816650390625 221.0654296875 224.5775604248046875 227.97723388671875 231.197998046875 234.4801025390625 237.5178985595703125 240.4990081787109375 243.330352783203125 246.305633544921875 249.31634521484375 252.277130126953125 255.22686767578125 258.198394775390625 261.12054443359375 263.958465576171875 266.759490966796875 269.42742919921875 271.9071044921875 274.235748291015625 276.34320068359375 278.27459716796875 279.97857666015625 281.46319580078125 282.776580810546875 283.78289794921875 284.49371337890625 285.098114013671875 285.5216064453125 285.741485595703125 285.666046142578125 285.502532958984375 285.1607666015625 284.62445068359375 283.93377685546875 283.083526611328125 282.10467529296875 280.9808349609375 279.524200439453125 277.931488037109375 276.02069091796875 273.689117431640625 271.10516357421875 267.912017822265625 264.287933349609375 260.2008056640625 256.02825927734375 251.6103057861328125 247.5198211669921875 243.9722442626953125 242.1362457275390625 242.635467529296875 245.5827789306640625 251.2159881591796875 258.5413818359375 266.707733154296875 274.420867919921875 278.971893310546875 281.614898681640625 284.18585205078125 286.755340576171875 289.56243896484375 292.634002685546875 295.687103271484375 298.7947998046875 301.86590576171875 304.738677978515625 307.33575439453125 309.68463134765625 311.73651123046875 313.410369873046875 314.789764404296875 315.922088623046875 316.825592041015625 317.49090576171875 317.950775146484375 318.350982666015625 318.79833984375 319.30560302734375 319.693389892578125 319.98468017578125 320.211822509765625 320.308349609375 320.303955078125 320.26690673828125 320.26806640625 320.3753662109375 320.65692138671875 321.120941162109375 321.818756103515625 322.699676513671875 323.7398681640625 324.8697509765625 326.0867919921875 327.330810546875 328.548187255859375 329.7120361328125 330.797882080078125 331.772491455078125 332.5849609375 333.24853515625 333.74871826171875 334.0706787109375 334.16741943359375 334.00433349609375 333.62518310546875 333.058441162109375 332.28448486328125 331.368133544921875 330.3955078125 329.372222900390625 328.359588623046875 327.403076171875 326.412750244140625 325.3548583984375 324.3382568359375 323.1015625 322.15191650390625 321.947845458984375 322.092742919921875 322.426239013671875 322.955230712890625 323.556182861328125 324.207855224609375 324.915130615234375 325.666595458984375 326.368927001953125 327.02557373046875 327.65716552734375 328.222381591796875 328.6734619140625 329.027740478515625 329.320220947265625 329.451141357421875 329.436187744140625 329.307891845703125 329.038330078125 328.58819580078125 327.945068359375 327.142303466796875 326.110107421875 324.882659912109375 323.45001220703125 321.81927490234375 319.968170166015625 317.926422119140625 315.713104248046875 313.32208251953125 310.785980224609375 308.1378173828125 305.32745361328125 302.444305419921875 299.485748291015625 296.4705810546875 -99999 -99999 -99999 -99999
 -99999 -99999 -99999 -99999 -99999 -99999 -99999 -99999 -99999 -99999 -99999 -99999 -99999 -99999 -99999 -99999 -99999 -99999 -99999 -99999 -99999 -99999 -99999 127.67486572265625 133.306304931640625 138.9247283935546875 144.4992828369140625 150.0713043212890625 155.5259246826171875 160.977874755859375 166.3532257080078125 171.593597412109375 176.83038330078125 181.789764404296875 186.6856231689453125 191.4651641845703125 196.0537261962890625 200.4801177978515625 204.6613311767578125 208.7425384521484375 212.630126953125 216.34478759765625 219.91461181640625 223.30322265625 226.5472412109375 229.6582489013671875 232.7928466796875 235.6673583984375 238.569091796875 241.460113525390625 244.1583251953125 246.95751953125 249.8170013427734375 252.6885986328125 255.504364013671875 258.44122314453125 261.28436279296875 264.0284423828125 266.63818359375 269.154022216796875 271.4151611328125 273.483978271484375 275.292510986328125 276.9405517578125 278.382293701171875 279.54388427734375 280.4739990234375 281.357818603515625 281.96685791015625 282.36480712890625 282.517364501953125 282.4971923828125 282.26019287109375 281.8624267578125 281.310455322265625 280.580230712890625 279.713775634765625 278.650970458984375 277.38983154296875 275.925811767578125 274.267303466796875 272.314605712890625 270.1448974609375 267.51904296875 264.723358154296875 261.570281982421875 258.228759765625 254.7865753173828125 251.1377105712890625 248.314544677734375 246.4075469970703125 245.7337493896484375 247.34130859375 250.799041748046875 256.073822021484375 263.1507568359375 271.757659912109375 279.041015625 282.304656982421875 284.117706298828125 285.818328857421875 287.9310302734375 290.649658203125 293.680389404296875 296.974517822265625 300.25213623046875 303.353424072265625 306.29388427734375 308.94677734375 311.308563232421875 313.328460693359375 315.006195068359375 316.3701171875 317.330535888671875 318.032440185546875 318.581390380859375 318.992034912109375 319.265411376953125 319.630035400390625 320.073486328125 320.505218505859375 320.835662841796875 321.05389404296875 321.1927490234375 321.27191162109375 321.31243896484375 321.39990234375 321.588714599609375 321.916961669921875 322.395416259765625 323.04010009765625 323.826934814453125 324.772979736328125 325.83380126953125 326.9154052734375 328.0289306640625 329.13629150390625 330.20684814453125 331.17724609375 332.047607421875 332.800628662109375 333.419219970703125 333.84698486328125 334.080047607421875 334.12750244140625 333.98956298828125 333.63995361328125 333.0843505859375 332.350372314453125 331.479248046875 330.518280029296875 329.525360107421875 328.52789306640625 327.542755126953125 326.575927734375 325.681427001953125 324.48382568359375 323.130706787109375 322.254302978515625 322.15106201171875 322.47113037109375 323.041229248046875 323.656280517578125 324.367950439453125 325.12896728515625 325.9344482421875 326.746673583984375 327.548126220703125 328.273956298828125 328.93084716796875 329.514068603515625 330.0396728515625 330.4664306640625 330.73236083984375 330.900177001953125 330.949737548828125 330.829833984375 330.547576904296875 330.103790283203125 329.467559814453125 328.621612548828125 327.56414794921875 326.29510498046875 324.791900634765625 323.047454833984375 321.072906494140625 318.91510009765625 316.56005859375 314.052764892578125 311.337554931640625 308.490234375 305.508758544921875 302.442962646484375 299.318145751953125 296.10552978515625 292.915740966796875 -99999 -99999 -99999
 -99999 -99999 -99999 -99999 -99999 -99999 -99999 -99999 -99999 -99999 -99999 -99999 -99999 -99999 -99999 -99999 -99999 -99999 -99999 -99999 -99999 -99999 119.982879638671875 125.68138885498046875 131.357666015625 137.03192138671875 142.6501922607421875 148.327880859375 153.8493194580078125 159.3445587158203125 164.801727294921875 170.147369384765625 175.3854217529296875 180.4163055419921875 185.4801483154296875 190.2819366455078125 194.9178619384765625 199.3487548828125 203.6132049560546875 207.6700897216796875 211.461822509765625 215.1069183349609375 218.6233062744140625 222.0142364501953125 225.2248382568359375 228.199462890625 231.202239990234375 233.986602783203125 236.59454345703125 239.1939697265625 241.8130340576171875 244.5313720703125 247.2401123046875 249.9790496826171875 252.8610687255859375 255.7407379150390625 258.546234130859375 261.3333740234375 263.872161865234375 266.30474853515625 268.58880615234375 270.568695068359375 272.392333984375 274.00506591796875 275.488494873046875 276.581695556640625 277.51678466796875 278.311126708984375 278.8995361328125 279.267333984375 279.39593505859375 279.37603759765625 279.15557861328125 278.7525634765625 278.15179443359375 277.36749267578125 276.407867431640625 275.298858642578125 273.996612548828125 272.54876708984375 270.9283447265625 269.0430908203125 266.952362060546875 264.7340087890625 262.23284912109375 259.59844970703125 256.7601318359375 254.1161041259765625 251.7722625732421875 250.0993194580078125 249.05096435546875 249.3537445068359375 251.3562469482421875 254.8940582275390625 260.3270263671875 266.911346435546875 273.884490966796875 279.9925537109375 283.242706298828125 285.179107666015625 286.68731689453125 288.763458251953125 291.61712646484375 294.947967529296875 298.309051513671875 301.649566650390625 304.926116943359375 308.013397216796875 310.820343017578125 313.225921630859375 315.178558349609375 316.71539306640625 317.911529541015625 318.81207275390625 319.47705078125 319.90618896484375 320.147674560546875 320.364105224609375 320.6400146484375 321.063140869140625 321.438232421875 321.6920166015625 321.8876953125 322.02667236328125 322.1431884765625 322.268096923828125 322.42987060546875 322.642547607421875 322.982269287109375 323.461090087890625 324.081939697265625 324.83294677734375 325.69293212890625 326.61663818359375 327.620452880859375 328.66864013671875 329.670684814453125 330.59771728515625 331.48876953125 332.288665771484375 332.9515380859375 333.478240966796875 333.853759765625 334.077911376953125 334.096649169921875 333.9461669921875 333.576171875 333.00299072265625 332.2977294921875 331.48211669921875 330.577178955078125 329.60052490234375 328.596435546875 327.587371826171875 326.580535888671875 325.544036865234375 324.522552490234375 322.91107177734375 322.113067626953125 322.482421875 323.034027099609375 323.679473876953125 324.43365478515625 325.24517822265625 326.102264404296875 326.972259521484375 327.8306884765625 328.654937744140625 329.442291259765625 330.18280029296875 330.835296630859375 331.402984619140625 331.80181884765625 332.12164306640625 332.31768798828125 332.380218505859375 332.2952880859375 332.0533447265625 331.60736083984375 330.9779052734375 330.11761474609375 329.021820068359375 327.671234130859375 326.078643798828125 324.2227783203125 322.188446044921875 319.922637939453125 317.356353759765625 314.652923583984375 311.770538330078125 308.73101806640625 305.56982421875 302.352752685546875 299.034149169921875 295.658447265625 292.269500732421875 -99999 -99999 -99999
 -99999 -99999 -99999 -99999 -99999 -99999 -99999 -99999 -99999 -99999 -99999 -99999 -99999 -99999 -99999 -99999 -99999 -99999 -99999 -99999 -99999 -99999 117.81512451171875 123.5540313720703125 129.25152587890625 134.997467041015625 140.7022705078125 146.3675994873046875 152.0165863037109375 157.59344482421875 163.1152496337890625 168.53106689453125 173.866180419921875 179.04681396484375 184.0802764892578125 188.9907684326171875 193.6945037841796875 198.1620635986328125 202.4256591796875 206.481353759765625 210.271270751953125 213.8884735107421875 217.3003997802734375 220.553314208984375 223.6966094970703125 226.5969085693359375 229.4996490478515625 232.11041259765625 234.6437225341796875 237.161773681640625 239.5815887451171875 241.97967529296875 244.6829833984375 247.508941650390625 250.096405029296875 253.0215301513671875 255.9120025634765625 258.606964111328125 261.2889404296875 263.73114013671875 265.90863037109375 267.882232666015625 269.66815185546875 271.224761962890625 272.528778076171875 273.620758056640625 274.590972900390625 275.380615234375 275.94793701171875 276.2735595703125 276.4989013671875 276.443878173828125 276.21136474609375 275.755126953125 275.1292724609375 274.30889892578125 273.280792236328125 272.159637451171875 270.8436279296875 269.43365478515625 267.85491943359375 266.160858154296875 264.27630615234375 262.2913818359375 260.35302734375 258.174224853515625 256.087982177734375 254.374908447265625 252.6890869140625 251.729583740234375 251.8555755615234375 252.88250732421875 255.07965087890625 258.9649658203125 263.693817138671875 269.38336181640625 275.239105224609375 280.1427001953125 283.53656005859375 285.5477294921875 287.151153564453125 289.209259033203125 292.40496826171875 295.942108154296875 299.70574951171875 303.371612548828125 306.840423583984375 309.955718994140625 312.6962890625 315.144439697265625 317.167449951171875 318.7061767578125 319.699249267578125 320.404205322265625 320.840484619140625 321.172637939453125 321.430694580078125 321.638641357421875 321.875732421875 322.095855712890625 322.313934326171875 322.519989013671875 322.703826904296875 322.847808837890625 322.95721435546875 323.079315185546875 323.270050048828125 323.543853759765625 323.91046142578125 324.376922607421875 324.958831787109375 325.650970458984375 326.443328857421875 327.3104248046875 328.22265625 329.14642333984375 330.055511474609375 330.9306640625 331.772369384765625 332.4852294921875 333.0604248046875 333.51519775390625 333.843658447265625 334.0057373046875 333.98541259765625 333.774932861328125 333.4039306640625 332.890655517578125 332.23309326171875 331.449432373046875 330.56976318359375 329.61505126953125 328.6121826171875 327.597747802734375 326.595458984375 325.52252197265625 324.211151123046875 323.041839599609375 322.831207275390625 323.174713134765625 323.779144287109375 324.50390625 325.309539794921875 326.177978515625 327.064788818359375 327.9754638671875 328.889404296875 329.78631591796875 330.617279052734375 331.37908935546875 332.074066162109375 332.62042236328125 333.08868408203125 333.44635009765625 333.692108154296875 333.7828369140625 333.728607177734375 333.498931884765625 333.086029052734375 332.4530029296875 331.56744384765625 330.43389892578125 329.035888671875 327.35601806640625 325.45904541015625 323.23406982421875 320.756011962890625 318.077178955078125 315.19561767578125 312.103759765625 308.901947021484375 305.549041748046875 302.105682373046875 298.586029052734375 295.02630615234375 291.474609375 -99999 -99999 -99999
 -99999 -99999 -99999 -99999 -99999 -99999 -99999 -99999 -99999 -99999 -99999 -99999 -99999 -99999 -99999 -99999 -99999 -99999 -99999 -99999 -99999 109.728973388671875 115.47673797607421875 121.30594635009765625 127.0334930419921875 132.801788330078125 138.5513458251953125 144.3007659912109375 150.0633544921875 155.6550140380859375 161.2859039306640625 166.805267333984375 172.1825103759765625 177.475067138671875 182.59503173828125 187.5373382568359375 192.3183441162109375 196.8475189208984375 201.1761016845703125 205.223968505859375 208.918060302734375 212.4600677490234375 215.8831634521484375 219.1911468505859375 222.2165069580078125 225.049072265625 227.7572479248046875 230.3301239013671875 232.6194000244140625 234.8772125244140625 237.0917816162109375 239.29022216796875 241.9170989990234375 244.405609130859375 247.3509674072265625 250.2534942626953125 253.212493896484375 256.026519775390625 258.71728515625 261.194854736328125 263.4176025390625 265.284515380859375 266.958953857421875 268.492401123046875 269.773651123046875 270.823516845703125 271.7734375 272.5843505859375 273.10321044921875 273.5321044921875 273.728668212890625 273.6741943359375 273.461883544921875 272.980224609375 272.293701171875 271.423614501953125 270.408294677734375 269.214935302734375 267.930450439453125 266.550567626953125 265.089508056640625 263.562530517578125 261.98583984375 260.418792724609375 258.684417724609375 257.12091064453125 255.7671356201171875 254.591156005859375 253.9293060302734375 253.8759918212890625 254.5295257568359375 256.05389404296875 258.66314697265625 262.185546875 266.653961181640625 271.51898193359375 276.54168701171875 280.756195068359375 283.96759033203125 286.251708984375 287.932037353515625 290.112945556640625 293.619293212890625 297.714447021484375 301.504852294921875 305.20672607421875 308.71923828125 312.014312744140625 314.989044189453125 317.420501708984375 319.274383544921875 320.663970947265625 321.53192138671875 321.995086669921875 322.274505615234375 322.5601806640625 322.758209228515625 322.87158203125 322.956878662109375 323.101654052734375 323.2525634765625 323.35894775390625 323.4344482421875 323.512939453125 323.65020751953125 323.814697265625 324.010986328125 324.274383544921875 324.63421630859375 325.11248779296875 325.6778564453125 326.336212158203125 327.072479248046875 327.873504638671875 328.704833984375 329.544158935546875 330.375762939453125 331.17132568359375 331.89569091796875 332.52471923828125 333.063720703125 333.460205078125 333.737335205078125 333.84991455078125 333.804901123046875 333.60955810546875 333.25531005859375 332.764068603515625 332.125213623046875 331.370361328125 330.524139404296875 329.6226806640625 328.692169189453125 327.691619873046875 326.6346435546875 325.60418701171875 324.691162109375 323.8912353515625 323.709014892578125 324.06878662109375 324.6646728515625 325.406829833984375 326.269866943359375 327.133026123046875 328.040557861328125 328.976715087890625 329.912872314453125 330.83203125 331.740264892578125 332.52008056640625 333.219696044921875 333.826446533203125 334.322906494140625 334.70159912109375 334.96807861328125 335.08502197265625 335.093994140625 334.914093017578125 334.527984619140625 333.900054931640625 333.003143310546875 331.85968017578125 330.393096923828125 328.61224365234375 326.56195068359375 324.212432861328125 321.62530517578125 318.75030517578125 315.6650390625 312.388458251953125 308.925994873046875 305.37432861328125 301.718048095703125 298.01287841796875 294.251739501953125 290.517242431640625 -99999 -99999 -99999
 -99999 -99999 -99999 -99999 -99999 -99999 -99999 -99999 -99999 -99999 -99999 -99999 -99999 -99999 -99999 -99999 -99999 -99999 -99999 -99999 101.47022247314453125 107.236541748046875 113.01470947265625 118.83672332763671875 124.62265777587890625 130.4597015380859375 136.29840087890625 142.077056884765625 147.8993377685546875 153.5903778076171875 159.25579833984375 164.861083984375 170.34393310546875 175.641845703125 180.9114837646484375 185.9656829833984375 190.802947998046875 195.385650634765625 199.778411865234375 203.8412933349609375 207.483184814453125 210.9875640869140625 214.3038482666015625 217.506072998046875 220.6144256591796875 223.560394287109375 226.058502197265625 228.5948486328125 230.6285858154296875 232.4279327392578125 234.5450897216796875 236.659637451171875 239.21435546875 241.9854736328125 244.625885009765625 247.57611083984375 250.689849853515625 253.5109405517578125 256.19036865234375 258.631591796875 260.827606201171875 262.784759521484375 264.429046630859375 265.872314453125 267.095428466796875 268.16314697265625 269.091339111328125 269.8919677734375 270.500701904296875 270.931854248046875 271.134246826171875 271.125762939453125 270.873504638671875 270.332275390625 269.650543212890625 268.740325927734375 267.669830322265625 266.501708984375 265.25872802734375 263.911163330078125 262.5677490234375 261.211883544921875 259.911102294921875 258.6995849609375 257.478271484375 256.460784912109375 255.8289947509765625 255.3521575927734375 255.352996826171875 255.7759246826171875 257.055633544921875 259.05987548828125 261.829010009765625 265.349853515625 269.416900634765625 273.762603759765625 278.033966064453125 281.9324951171875 285.085357666015625 287.514404296875 289.733489990234375 292.43206787109375 295.939178466796875 299.6300048828125 303.451171875 307.246612548828125 311.00018310546875 314.320404052734375 317.1202392578125 319.61322021484375 321.6439208984375 322.938385009765625 323.4534912109375 323.527313232421875 323.75933837890625 323.917236328125 323.990509033203125 324.0528564453125 324.08319091796875 324.06768798828125 324.0286865234375 324.0379638671875 324.097900390625 324.162689208984375 324.231475830078125 324.354156494140625 324.5711669921875 324.86737060546875 325.228607177734375 325.679962158203125 326.223236083984375 326.870147705078125 327.5645751953125 328.29718017578125 329.074920654296875 329.865325927734375 330.634002685546875 331.34613037109375 331.9892578125 332.565582275390625 333.05108642578125 333.399505615234375 333.61541748046875 333.68914794921875 333.634613037109375 333.4442138671875 333.086395263671875 332.597747802734375 331.985748291015625 331.290435791015625 330.512420654296875 329.638916015625 328.699188232421875 327.79461669921875 326.9124755859375 326.083709716796875 325.243194580078125 324.74627685546875 324.719757080078125 325.0130615234375 325.577728271484375 326.359893798828125 327.216033935546875 328.06298828125 328.96392822265625 329.916107177734375 330.8896484375 331.8758544921875 332.767425537109375 333.5860595703125 334.31524658203125 334.942626953125 335.464141845703125 335.873443603515625 336.11920166015625 336.354461669921875 336.4278564453125 336.265380859375 335.90155029296875 335.31817626953125 334.431915283203125 333.23858642578125 331.758819580078125 329.851226806640625 327.680450439453125 325.15472412109375 322.377410888671875 319.319732666015625 315.998382568359375 312.50982666015625 308.867156982421875 305.07940673828125 301.16864013671875 297.219970703125 293.273712158203125 289.337890625 -99999 -99999 -99999
 -99999 -99999 -99999 -99999 -99999 -99999 -99999 -99999 -99999 -99999 -99999 -99999 -99999 -99999 -99999 -99999 -99999 -99999 -99999 93.0038299560546875 98.814361572265625 104.61429595947265625 110.4178314208984375 116.28182220458984375 122.12050628662109375 127.9615325927734375 133.8292236328125 139.6682891845703125 145.50830078125 151.3210296630859375 157.061676025390625 162.7590484619140625 168.2786102294921875 173.7775115966796875 179.1166229248046875 184.1534423828125 189.10247802734375 193.7650299072265625 198.3288726806640625 202.3750762939453125 205.8142852783203125 209.2349395751953125 212.5879364013671875 215.869384765625 218.955291748046875 221.792388916015625 224.384735107421875 226.702301025390625 228.533599853515625 230.32470703125 232.0859375 233.612701416015625 236.1825103759765625 238.5990447998046875 241.719268798828125 244.9801177978515625 248.03875732421875 251.207366943359375 254.03668212890625 256.55609130859375 258.63140869140625 260.456695556640625 262.084930419921875 263.3984375 264.58837890625 265.65142822265625 266.563720703125 267.37286376953125 268.03338623046875 268.49932861328125 268.802398681640625 268.80767822265625 268.526580810546875 268.023895263671875 267.23016357421875 266.254547119140625 265.14398193359375 263.94500732421875 262.661895751953125 261.4300537109375 260.2620849609375 259.10675048828125 258.17840576171875 257.190032958984375 256.567108154296875 256.150146484375 255.9257354736328125 256.0128173828125 256.6624755859375 257.833221435546875 259.5126953125 261.803863525390625 264.68194580078125 268.143280029296875 272.05059814453125 276.075225830078125 279.9906005859375 283.589202880859375 286.820159912109375 289.666717529296875 292.290802001953125 295.0751953125 298.37469482421875 301.93511962890625 305.666534423828125 309.56256103515625 313.294586181640625 316.535308837890625 319.47552490234375 321.93170166015625 323.85888671875 325.26177978515625 325.684722900390625 325.514129638671875 325.346466064453125 325.327362060546875 325.281463623046875 325.17596435546875 325.00421142578125 324.83612060546875 324.752197265625 324.67974853515625 324.6015625 324.595458984375 324.66912841796875 324.8082275390625 324.989654541015625 325.258758544921875 325.639862060546875 326.108428955078125 326.6392822265625 327.23046875 327.899658203125 328.6322021484375 329.364044189453125 330.078277587890625 330.773193359375 331.44342041015625 332.0679931640625 332.57513427734375 332.975555419921875 333.274871826171875 333.470184326171875 333.545196533203125 333.452606201171875 333.2222900390625 332.879852294921875 332.432159423828125 331.871337890625 331.193328857421875 330.429840087890625 329.649871826171875 328.8541259765625 328.03436279296875 327.176971435546875 326.45220947265625 325.90478515625 325.6171875 325.59857177734375 325.91510009765625 326.484771728515625 327.218414306640625 328.040283203125 328.916900634765625 329.82806396484375 330.7808837890625 331.764678955078125 332.760955810546875 333.69439697265625 334.571075439453125 335.34503173828125 335.949005126953125 336.463348388671875 336.878448486328125 337.258270263671875 337.501678466796875 337.598114013671875 337.551666259765625 337.26873779296875 336.66754150390625 335.800933837890625 334.544281005859375 332.997802734375 331.02587890625 328.68243408203125 326.037994384765625 323.0592041015625 319.789703369140625 316.279571533203125 312.53875732421875 308.593536376953125 304.560150146484375 300.457427978515625 296.268646240234375 292.113433837890625 287.984771728515625 -99999 -99999 -99999
 -99999 -99999 -99999 -99999 -99999 -99999 -99999 -99999 -99999 -99999 -99999 -99999 -99999 -99999 -99999 -99999 -99999 -99999 -99999 90.25923919677734375 96.03433990478515625 101.8361663818359375 107.6695709228515625 113.509735107421875 119.42456817626953125 125.2755584716796875 131.2019500732421875 137.10284423828125 142.987213134765625 148.8541412353515625 154.6488494873046875 160.4232635498046875 166.06634521484375 171.46856689453125 177.01171875 182.19024658203125 187.1837310791015625 191.952850341796875 196.4487762451171875 200.4665374755859375 203.9067840576171875 207.28521728515625 210.689117431640625 214.008819580078125 217.193145751953125 220.2342376708984375 222.7831573486328125 225.040191650390625 226.6475982666015625 227.549041748046875 229.048675537109375 231.012359619140625 233.1292572021484375 236.0235137939453125 239.140625 242.5241241455078125 245.8274383544921875 249.0699920654296875 251.996063232421875 254.568878173828125 256.660369873046875 258.141693115234375 259.787750244140625 260.988433837890625 262.1563720703125 263.168731689453125 264.192047119140625 264.973480224609375 265.786285400390625 266.38531494140625 266.696441650390625 266.791259765625 266.483673095703125 265.891632080078125 265.060211181640625 264.015380859375 262.762786865234375 261.53533935546875 260.262359619140625 259.11712646484375 258.031005859375 257.159576416015625 256.397430419921875 255.9213409423828125 255.7108917236328125 255.7248077392578125 256.161163330078125 256.895172119140625 258.097991943359375 259.655517578125 261.71533203125 264.3681640625 267.453094482421875 270.94207763671875 274.623138427734375 278.38330078125 282.18963623046875 285.790802001953125 289.01983642578125 291.9581298828125 294.833038330078125 297.926116943359375 301.2193603515625 304.564727783203125 308.075531005859375 311.951873779296875 315.853057861328125 318.885894775390625 321.3184814453125 323.849029541015625 326.161956787109375 327.650146484375 328.0220947265625 327.443603515625 327.0086669921875 326.682464599609375 326.391510009765625 326.0782470703125 325.77508544921875 325.50830078125 325.287567138671875 325.077392578125 324.975738525390625 324.927215576171875 324.93023681640625 325.034759521484375 325.239105224609375 325.538238525390625 325.88958740234375 326.326568603515625 326.874969482421875 327.49847412109375 328.146240234375 328.808746337890625 329.497406005859375 330.20947265625 330.89984130859375 331.49908447265625 332.02874755859375 332.496337890625 332.88909912109375 333.1734619140625 333.30255126953125 333.312164306640625 333.22308349609375 333.0225830078125 332.69873046875 332.237213134765625 331.680419921875 331.071685791015625 330.413330078125 329.697357177734375 328.91168212890625 328.170745849609375 327.483184814453125 326.962554931640625 326.551849365234375 326.3798828125 326.460693359375 326.774688720703125 327.2742919921875 327.979034423828125 328.8072509765625 329.67877197265625 330.605438232421875 331.57672119140625 332.559661865234375 333.564239501953125 334.573089599609375 335.482696533203125 336.248046875 336.85882568359375 337.380126953125 337.8092041015625 338.1832275390625 338.52789306640625 338.74139404296875 338.73583984375 338.549224853515625 338.04962158203125 337.1610107421875 335.865936279296875 334.19281005859375 332.1380615234375 329.718475341796875 326.881134033203125 323.671966552734375 320.181976318359375 316.353546142578125 312.3804931640625 308.194732666015625 303.89141845703125 299.497344970703125 295.10693359375 290.723724365234375 286.34271240234375 -99999 -99999 -99999
 -99999 -99999 -99999 -99999 -99999 -99999 -99999 -99999 -99999 -99999 -99999 -99999 -99999 -99999 -99999 -99999 -99999 -99999 81.6430816650390625 87.3554229736328125 93.10352325439453125 98.9253082275390625 104.75904083251953125 110.6210174560546875 116.51753997802734375 122.45468902587890625 128.3780517578125 134.3260345458984375 140.251129150390625 146.283111572265625 152.041717529296875 157.8583984375 163.544921875 169.1808624267578125 174.6802215576171875 179.8863372802734375 184.9822845458984375 189.8106536865234375 194.2525787353515625 198.3199310302734375 201.9100494384765625 205.31475830078125 208.71282958984375 212.0382537841796875 215.393218994140625 218.4785308837890625 221.29132080078125 223.5604705810546875 224.6526031494140625 225.7102813720703125 226.1689910888671875 227.1609344482421875 229.8666839599609375 232.7379608154296875 236.2688446044921875 240.072113037109375 243.8093109130859375 247.3069610595703125 250.2678985595703125 252.85089111328125 254.784515380859375 256.58160400390625 257.676300048828125 258.751617431640625 259.671478271484375 260.940765380859375 261.827484130859375 262.808258056640625 263.675506591796875 264.472747802734375 264.91033935546875 264.996185302734375 264.738433837890625 264.12860107421875 263.15655517578125 261.915679931640625 260.654144287109375 259.28076171875 258.00909423828125 256.86090087890625 255.92218017578125 255.257171630859375 254.7964935302734375 254.751708984375 254.984649658203125 255.51983642578125 256.429656982421875 257.658233642578125 259.3043212890625 261.451324462890625 263.958038330078125 266.827789306640625 270.0406494140625 273.55682373046875 277.25341796875 281.063812255859375 284.679473876953125 288.1357421875 291.4383544921875 294.62506103515625 297.74188232421875 300.72412109375 303.80499267578125 307.192352294921875 310.695831298828125 314.5675048828125 318.070098876953125 320.4310302734375 322.647705078125 325.136932373046875 327.765350341796875 329.552337646484375 329.692352294921875 328.98480224609375 328.278289794921875 327.721466064453125 327.2335205078125 326.772369384765625 326.33709716796875 325.935302734375 325.59686279296875 325.316253662109375 325.129638671875 325.038177490234375 325.0445556640625 325.131134033203125 325.29754638671875 325.57122802734375 325.97503662109375 326.459442138671875 326.982086181640625 327.55950927734375 328.20953369140625 328.908660888671875 329.60882568359375 330.251800537109375 330.864044189453125 331.45599365234375 331.99310302734375 332.43572998046875 332.74591064453125 332.96014404296875 333.092529296875 333.119110107421875 333.01324462890625 332.77130126953125 332.433258056640625 332.02154541015625 331.53826904296875 330.9591064453125 330.300567626953125 329.64202880859375 328.985687255859375 328.40118408203125 327.846893310546875 327.417083740234375 327.134429931640625 327.041656494140625 327.125885009765625 327.47174072265625 328.029083251953125 328.705291748046875 329.496673583984375 330.378387451171875 331.30908203125 332.26177978515625 333.25750732421875 334.28741455078125 335.313934326171875 336.287750244140625 337.031280517578125 337.586029052734375 338.051910400390625 338.49713134765625 338.975433349609375 339.39349365234375 339.7213134765625 339.929779052734375 339.77203369140625 339.275665283203125 338.382537841796875 337.1348876953125 335.4544677734375 333.248931884765625 330.63330078125 327.5970458984375 324.15155029296875 320.404876708984375 316.346771240234375 312.04217529296875 307.55877685546875 302.980438232421875 298.335113525390625 293.681304931640625 289.07171630859375 284.530914306640625 -99999 -99999 -99999
 -99999 -99999 -99999 -99999 -99999 -99999 -99999 -99999 -99999 -99999 -99999 -99999 -99999 -99999 -99999 -99999 -99999 72.96161651611328125 78.59664154052734375 84.269989013671875 90.054290771484375 95.83902740478515625 101.6851806640625 107.552825927734375 113.49672698974609375 119.39815521240234375 125.37627410888671875 131.3555450439453125 137.310546875 143.2617950439453125 149.18328857421875 155.0437774658203125 160.8474884033203125 166.3668365478515625 172.1309967041015625 177.3626708984375 182.4209442138671875 187.2815093994140625 191.7929229736328125 195.9685516357421875 199.7971649169921875 203.2950897216796875 206.7329864501953125 210.1213531494140625 213.4353790283203125 216.6576080322265625 219.70147705078125 222.0007781982421875 222.935546875 222.038787841796875 222.1325836181640625 224.1614990234375 226.58502197265625 230.0357818603515625 233.7278289794921875 237.969268798828125 242.005126953125 245.7769622802734375 248.9854888916015625 251.3935089111328125 253.146270751953125 254.7483978271484375 255.63641357421875 256.404144287109375 257.431396484375 258.48626708984375 259.590057373046875 260.652099609375 261.906219482421875 262.86322021484375 263.481109619140625 263.681427001953125 263.42071533203125 262.611785888671875 261.488983154296875 260.126312255859375 258.675994873046875 257.107635498046875 255.7364349365234375 254.66143798828125 253.8900299072265625 253.3704681396484375 253.2823486328125 253.589630126953125 254.2494964599609375 255.244415283203125 256.642822265625 258.4356689453125 260.620025634765625 263.11883544921875 265.96142578125 269.12103271484375 272.576080322265625 276.2696533203125 279.938720703125 283.609619140625 287.294525146484375 290.873504638671875 294.250518798828125 297.35955810546875 300.348785400390625 303.414794921875 306.531158447265625 309.621368408203125 312.7567138671875 315.9056396484375 318.7464599609375 320.951171875 322.91845703125 325.53350830078125 327.905303955078125 329.48699951171875 329.887115478515625 329.3829345703125 328.832611083984375 328.2606201171875 327.6900634765625 327.126495361328125 326.59161376953125 326.097412109375 325.667449951171875 325.3179931640625 325.073944091796875 324.937713623046875 324.883331298828125 324.9764404296875 325.18463134765625 325.47528076171875 325.860076904296875 326.31817626953125 326.897674560546875 327.541259765625 328.204193115234375 328.86016845703125 329.5194091796875 330.1968994140625 330.84027099609375 331.39947509765625 331.862762451171875 332.24847412109375 332.572296142578125 332.79730224609375 332.884796142578125 332.85052490234375 332.717132568359375 332.509185791015625 332.20892333984375 331.77850341796875 331.285186767578125 330.740997314453125 330.19171142578125 329.630767822265625 329.0592041015625 328.541046142578125 328.09600830078125 327.75970458984375 327.54736328125 327.562255859375 327.738525390625 328.0880126953125 328.58306884765625 329.275299072265625 330.08331298828125 330.9490966796875 331.885009765625 332.871826171875 333.8843994140625 334.913848876953125 335.9505615234375 336.96258544921875 337.7044677734375 338.1424560546875 338.499359130859375 338.96026611328125 339.548126220703125 340.191192626953125 340.67572021484375 340.925018310546875 340.8980712890625 340.50738525390625 339.742950439453125 338.385406494140625 336.543182373046875 334.255767822265625 331.47662353515625 328.2027587890625 324.507904052734375 320.4732666015625 316.10894775390625 311.496551513671875 306.720184326171875 301.8033447265625 296.882110595703125 291.97186279296875 287.127349853515625 282.389923095703125 -99999 -99999 -99999
 -99999 -99999 -99999 -99999 -99999 -99999 -99999 -99999 -99999 -99999 -99999 -99999 -99999 -99999 -99999 -99999 -99999 69.80500030517578125 75.42023468017578125 81.0312042236328125 86.8396453857421875 92.61089324951171875 98.455108642578125 104.3362884521484375 110.23906707763671875 116.26146697998046875 122.16241455078125 128.170318603515625 134.1530914306640625 140.1867523193359375 146.106903076171875 151.9826202392578125 157.80010986328125 163.5011749267578125 169.10308837890625 174.4988861083984375 179.616424560546875 184.5338287353515625 189.084747314453125 193.3165130615234375 197.3321533203125 200.9936065673828125 204.5253753662109375 207.962677001953125 211.293548583984375 214.483245849609375 217.4658203125 219.8683624267578125 220.4891357421875 219.0914764404296875 218.1148834228515625 220.1310272216796875 223.83721923828125 227.31463623046875 231.5904998779296875 236.221435546875 240.9298095703125 244.823028564453125 248.1811981201171875 250.3299407958984375 251.9392547607421875 252.9472503662109375 253.679290771484375 254.3715667724609375 255.2297821044921875 256.204193115234375 257.3387451171875 258.764190673828125 260.470947265625 261.602020263671875 262.413299560546875 262.81781005859375 262.503173828125 261.62255859375 260.2113037109375 258.569793701171875 256.697418212890625 255.0052947998046875 253.5845794677734375 252.478271484375 251.7175140380859375 251.5236053466796875 251.7876434326171875 252.3660125732421875 253.3950042724609375 254.9583282470703125 256.886383056640625 259.22857666015625 261.7476806640625 264.698272705078125 267.95782470703125 271.430328369140625 275.0908203125 278.821319580078125 282.640350341796875 286.48651123046875 290.181060791015625 293.646392822265625 296.933197021484375 300.155426025390625 303.264556884765625 306.165557861328125 308.94793701171875 311.701873779296875 314.451995849609375 317.111663818359375 319.330322265625 321.18231201171875 322.982208251953125 324.929718017578125 327.382659912109375 328.498565673828125 328.969451904296875 329.015106201171875 328.78167724609375 328.306976318359375 327.73455810546875 327.150726318359375 326.53228759765625 325.9521484375 325.462493896484375 325.067047119140625 324.788177490234375 324.612213134765625 324.56634521484375 324.643585205078125 324.82220458984375 325.131378173828125 325.575347900390625 326.10650634765625 326.6964111328125 327.324188232421875 327.996246337890625 328.725128173828125 329.434295654296875 330.090240478515625 330.681976318359375 331.21942138671875 331.71044921875 332.107666015625 332.375823974609375 332.526214599609375 332.591461181640625 332.58099365234375 332.451568603515625 332.19635009765625 331.86834716796875 331.4732666015625 331.0595703125 330.557098388671875 330.0384521484375 329.525970458984375 329.036956787109375 328.595458984375 328.222137451171875 328.05364990234375 327.901580810546875 327.90521240234375 328.10345458984375 328.50433349609375 329.066375732421875 329.728729248046875 330.47186279296875 331.37432861328125 332.332061767578125 333.328216552734375 334.362060546875 335.416015625 336.47589111328125 337.47760009765625 338.267547607421875 338.37286376953125 338.495880126953125 339.116119384765625 340.003143310546875 340.765869140625 341.456207275390625 341.937774658203125 342.01068115234375 341.6986083984375 340.88671875 339.551025390625 337.671844482421875 335.267486572265625 332.160614013671875 328.697540283203125 324.726318359375 320.362640380859375 315.651153564453125 310.679595947265625 305.540130615234375 300.3511962890625 295.137359619140625 290.0325927734375 284.8856201171875 279.94091796875 275.0870361328125 -99999 -99999
 -99999 -99999 -99999 -99999 -99999 -99999 -99999 -99999 -99999 -99999 -99999 -99999 -99999 -99999 -99999 -99999 61.0044708251953125 66.53800201416015625 72.1218719482421875 77.74231719970703125 83.515960693359375 89.2376251220703125 95.06642913818359375 100.94792938232421875 106.8463592529296875 112.81158447265625 118.76673126220703125 124.786346435546875 130.8068389892578125 136.7909698486328125 142.8712921142578125 148.687469482421875 154.5290985107421875 160.2707672119140625 165.8980255126953125 171.348663330078125 176.4956817626953125 181.4496307373046875 186.1095123291015625 190.4946746826171875 194.601409912109375 198.428131103515625 201.99957275390625 205.400909423828125 208.7018890380859375 211.8414154052734375 214.6892242431640625 216.510711669921875 216.943450927734375 215.274017333984375 214.1397857666015625 218.0037689208984375 221.7481231689453125 224.8055267333984375 229.2317657470703125 234.6220245361328125 240.1282806396484375 244.3721771240234375 247.60980224609375 249.63690185546875 250.87249755859375 251.3121795654296875 251.69354248046875 252.2569427490234375 252.9219970703125 253.914031982421875 255.092010498046875 257.012969970703125 259.077423095703125 260.781768798828125 262.1351318359375 262.51910400390625 262.12261962890625 260.963409423828125 259.18505859375 257.034820556640625 254.818115234375 252.87750244140625 251.2724609375 250.1337432861328125 249.498291015625 249.5035247802734375 249.9735565185546875 251.1247711181640625 252.7001953125 254.665985107421875 256.992919921875 259.78765869140625 262.936370849609375 266.32342529296875 269.889739990234375 273.618560791015625 277.569488525390625 281.54473876953125 285.473358154296875 289.28106689453125 292.959075927734375 296.562286376953125 299.95758056640625 303.072296142578125 305.938934326171875 308.666290283203125 311.341796875 313.862762451171875 316.086761474609375 318.07965087890625 319.8577880859375 321.646881103515625 323.21826171875 324.791107177734375 326.0538330078125 327.21282958984375 327.952880859375 328.2423095703125 328.24078369140625 327.9837646484375 327.5223388671875 326.838653564453125 326.173858642578125 325.53118896484375 324.9803466796875 324.53302001953125 324.221527099609375 324.036529541015625 323.963226318359375 324.07513427734375 324.303558349609375 324.658477783203125 325.1136474609375 325.663787841796875 326.299285888671875 327.0211181640625 327.763580322265625 328.48614501953125 329.19024658203125 329.861572265625 330.5028076171875 331.06927490234375 331.506195068359375 331.84320068359375 332.10223388671875 332.266937255859375 332.30487060546875 332.24383544921875 332.07965087890625 331.851104736328125 331.5469970703125 331.161407470703125 330.729217529296875 330.272216796875 329.804901123046875 329.336578369140625 328.8985595703125 328.609100341796875 328.298065185546875 328.07696533203125 328.015472412109375 328.125732421875 328.3887939453125 328.775604248046875 329.3074951171875 329.9931640625 330.77056884765625 331.653411865234375 332.604095458984375 333.608123779296875 334.643768310546875 335.67718505859375 336.712615966796875 337.66253662109375 338.081634521484375 337.975341796875 338.2535400390625 339.302459716796875 340.372039794921875 341.341217041015625 342.169708251953125 342.8006591796875 343.032806396484375 342.87823486328125 342.076141357421875 340.681732177734375 338.680206298828125 336.04266357421875 332.817291259765625 328.96978759765625 324.698211669921875 319.985992431640625 314.97314453125 309.585205078125 304.201263427734375 298.689453125 293.086517333984375 287.57733154296875 282.230743408203125 277.08917236328125 272.152862548828125 -99999 -99999
 -99999 -99999 -99999 -99999 -99999 -99999 -99999 -99999 -99999 -99999 -99999 -99999 -99999 -99999 -99999 52.23511505126953125 57.660770416259765625 63.145656585693359375 68.6992950439453125 74.29816436767578125 80.01660919189453125 85.75362396240234375 91.53585052490234375 97.3921051025390625 103.282806396484375 109.24706268310546875 115.2004241943359375 121.21646881103515625 127.24663543701171875 133.23809814453125 139.2397613525390625 145.1831512451171875 151.00054931640625 156.8081817626953125 162.4447479248046875 168.01019287109375 173.155609130859375 178.1425323486328125 182.9056549072265625 187.3401947021484375 191.5719757080078125 195.516937255859375 199.1785125732421875 202.723388671875 205.84912109375 208.7896881103515625 211.21478271484375 212.824981689453125 213.1979217529296875 213.033905029296875 213.9257049560546875 216.2236328125 219.668792724609375 222.712921142578125 227.97344970703125 234.126739501953125 239.9298095703125 244.416778564453125 247.4532470703125 249.3076171875 249.9488983154296875 249.7149505615234375 249.77655029296875 249.9361419677734375 250.435882568359375 251.3513946533203125 253.0982208251953125 255.50738525390625 258.022430419921875 260.425079345703125 262.226776123046875 262.83172607421875 262.368499755859375 260.70684814453125 258.226715087890625 255.5328826904296875 252.9621734619140625 250.66448974609375 248.8674163818359375 247.5940093994140625 247.158111572265625 247.505126953125 248.4037322998046875 249.768768310546875 251.6993865966796875 254.320343017578125 257.227996826171875 260.511260986328125 264.01922607421875 267.7650146484375 271.7911376953125 275.9105224609375 280.087554931640625 284.18023681640625 288.225860595703125 292.212615966796875 296.040435791015625 299.57769775390625 302.8125 305.8604736328125 308.722137451171875 311.36590576171875 313.653564453125 315.7198486328125 317.58599853515625 319.212493896484375 320.573760986328125 321.9058837890625 323.369598388671875 324.513092041015625 325.473236083984375 326.160247802734375 326.76251220703125 327.37127685546875 327.5970458984375 327.512908935546875 327.03118896484375 326.2490234375 325.439300537109375 324.77679443359375 324.207672119140625 323.750518798828125 323.4224853515625 323.22930908203125 323.1956787109375 323.304656982421875 323.553375244140625 323.945831298828125 324.45849609375 325.10076904296875 325.822509765625 326.580230712890625 327.3524169921875 328.136474609375 328.918426513671875 329.641998291015625 330.254669189453125 330.7841796875 331.2384033203125 331.581573486328125 331.833038330078125 331.939239501953125 331.94757080078125 331.875946044921875 331.713134765625 331.457183837890625 331.129913330078125 330.754974365234375 330.340118408203125 329.9027099609375 329.4610595703125 329.078582763671875 328.705352783203125 328.37860107421875 328.134124755859375 328.01434326171875 328.0352783203125 328.158294677734375 328.438995361328125 328.86346435546875 329.4149169921875 330.074554443359375 330.866607666015625 331.741973876953125 332.681884765625 333.680511474609375 334.70233154296875 335.734954833984375 336.6300048828125 337.359619140625 337.83807373046875 337.945770263671875 338.4842529296875 339.659759521484375 340.75189208984375 341.8309326171875 342.8409423828125 343.62628173828125 344.016448974609375 343.91412353515625 343.106048583984375 341.6910400390625 339.508331298828125 336.58209228515625 333.10546875 329.1112060546875 324.55078125 319.4364013671875 314.011016845703125 308.279449462890625 302.3656005859375 296.455596923828125 290.571746826171875 284.81396484375 279.26361083984375 273.941680908203125 268.8946533203125 -99999 -99999
 -99999 -99999 -99999 -99999 -99999 -99999 -99999 -99999 -99999 -99999 -99999 -99999 -99999 -99999 43.543521881103515625 48.85140228271484375 54.2635498046875 59.662517547607421875 65.1624603271484375 70.7259063720703125 76.38101959228515625 82.0949554443359375 87.85416412353515625 93.69065093994140625 99.57291412353515625 105.49591064453125 111.51602935791015625 117.4574737548828125 123.49268341064453125 129.4940643310546875 135.4898834228515625 141.4481048583984375 147.2726898193359375 153.0950469970703125 158.7551422119140625 164.2834930419921875 169.647979736328125 174.6141510009765625 179.4457855224609375 183.9988555908203125 188.2869110107421875 192.37847900390625 196.0882568359375 199.4781494140625 202.8380126953125 205.7178497314453125 208.0132904052734375 209.776153564453125 211.035400390625 211.76629638671875 213.146575927734375 215.640533447265625 218.89752197265625 222.36920166015625 227.659942626953125 233.912994384765625 239.8678741455078125 244.3316497802734375 247.2471466064453125 249.0658721923828125 248.9434661865234375 247.8205108642578125 247.5436553955078125 247.6750335693359375 248.0233306884765625 249.25628662109375 250.94482421875 253.685638427734375 257.265838623046875 260.942169189453125 263.21746826171875 264.24285888671875 263.201751708984375 260.781768798828125 257.7177734375 254.251251220703125 250.832275390625 248.08734130859375 246.13604736328125 245.0758209228515625 244.8090362548828125 245.1995391845703125 246.3671875 248.398040771484375 250.958953857421875 253.93048095703125 257.32135009765625 261.05078125 265.154388427734375 269.41595458984375 273.72613525390625 278.112457275390625 282.532867431640625 286.886016845703125 291.174591064453125 295.201751708984375 298.98468017578125 302.5367431640625 305.820281982421875 308.872802734375 311.44189453125 313.754302978515625 315.845733642578125 317.68896484375 319.2489013671875 320.382080078125 321.313201904296875 322.240203857421875 323.418243408203125 324.429443359375 325.0693359375 325.556732177734375 325.980377197265625 326.44415283203125 327.004058837890625 326.9840087890625 326.168212890625 325.343475341796875 324.525115966796875 323.76202392578125 323.12799072265625 322.701934814453125 322.3739013671875 322.1856689453125 322.167755126953125 322.313018798828125 322.6318359375 323.07635498046875 323.676910400390625 324.374755859375 325.1549072265625 325.998687744140625 326.888580322265625 327.766021728515625 328.560272216796875 329.2847900390625 329.943145751953125 330.50244140625 330.963531494140625 331.27349853515625 331.485137939453125 331.581817626953125 331.5745849609375 331.46258544921875 331.2579345703125 330.982086181640625 330.64715576171875 330.268310546875 329.855224609375 329.45831298828125 329.063262939453125 328.66552734375 328.31280517578125 328.043304443359375 327.8817138671875 327.815093994140625 327.8555908203125 328.014129638671875 328.319854736328125 328.721710205078125 329.2919921875 329.97869873046875 330.75848388671875 331.626434326171875 332.558319091796875 333.616729736328125 334.51495361328125 335.4617919921875 336.3846435546875 337.185028076171875 337.710845947265625 338.1898193359375 338.9541015625 340.011627197265625 341.1337890625 342.252288818359375 343.328582763671875 344.258453369140625 344.905548095703125 344.85833740234375 344.070281982421875 342.4517822265625 340.0367431640625 337.081146240234375 333.33233642578125 328.95361328125 323.99072265625 318.419677734375 312.595306396484375 306.472198486328125 300.190643310546875 293.89892578125 287.69403076171875 281.6634521484375 275.88421630859375 270.400848388671875 265.261993408203125 -99999 -99999
 -99999 -99999 -99999 -99999 -99999 -99999 -99999 -99999 -99999 -99999 -99999 -99999 -99999 -99999 40.123691558837890625 45.3736419677734375 50.70853424072265625 56.075839996337890625 61.509723663330078125 67.02552032470703125 72.63605499267578125 78.31830596923828125 84.0347747802734375 89.827301025390625 95.70069122314453125 101.60143280029296875 107.575164794921875 113.552001953125 119.53851318359375 125.54767608642578125 131.5434722900390625 137.583282470703125 143.377716064453125 149.2154998779296875 154.8928985595703125 160.4034576416015625 165.8016204833984375 170.878326416015625 175.797119140625 180.4284515380859375 184.8721160888671875 189.0045623779296875 192.84033203125 196.4939117431640625 199.7495880126953125 202.5412750244140625 205.1007080078125 206.83905029296875 208.622833251953125 210.2133331298828125 212.4728240966796875 214.9329376220703125 218.31121826171875 222.453399658203125 227.6406707763671875 233.652740478515625 239.302459716796875 243.4238128662109375 246.436920166015625 248.335357666015625 248.0723876953125 245.8444671630859375 245.190216064453125 245.885711669921875 246.118011474609375 246.40472412109375 248.1105804443359375 252.142974853515625 257.0853271484375 261.764617919921875 265.395660400390625 266.33734130859375 264.894775390625 261.54046630859375 256.960418701171875 252.57135009765625 248.5604095458984375 245.388580322265625 243.324005126953125 242.0945892333984375 241.98388671875 242.97149658203125 244.6334228515625 246.96441650390625 249.9738006591796875 253.519378662109375 257.5594482421875 261.833831787109375 266.303680419921875 270.916168212890625 275.651519775390625 280.4271240234375 285.140167236328125 289.6661376953125 293.98358154296875 298.116790771484375 302.04315185546875 305.662628173828125 308.7947998046875 311.5599365234375 314.053924560546875 316.240631103515625 318.073028564453125 319.51220703125 320.740142822265625 321.67449951171875 322.377288818359375 323.01068115234375 323.717529296875 324.288299560546875 324.74993896484375 325.10894775390625 325.498779296875 325.918243408203125 326.377532958984375 326.347991943359375 325.317352294921875 324.027862548828125 323.060455322265625 322.413055419921875 321.873779296875 321.3651123046875 321.061431884765625 320.916015625 320.93438720703125 321.1104736328125 321.461822509765625 321.989044189453125 322.6746826171875 323.4754638671875 324.40399169921875 325.380584716796875 326.3270263671875 327.244140625 328.127593994140625 328.925933837890625 329.62274169921875 330.180877685546875 330.6146240234375 330.923309326171875 331.113616943359375 331.174560546875 331.118988037109375 330.966949462890625 330.737152099609375 330.440338134765625 330.078582763671875 329.702728271484375 329.29583740234375 328.8868408203125 328.465423583984375 328.11102294921875 327.82794189453125 327.608551025390625 327.455230712890625 327.38909912109375 327.4747314453125 327.67474365234375 327.967254638671875 328.404632568359375 329.00006103515625 329.672576904296875 330.4412841796875 331.32598876953125 332.2242431640625 333.164825439453125 334.16949462890625 335.149688720703125 336.02520751953125 336.785736083984375 337.56536865234375 338.31353759765625 339.20416259765625 340.268890380859375 341.413787841796875 342.57513427734375 343.67596435546875 344.7528076171875 345.5313720703125 345.7333984375 344.828582763671875 343.125701904296875 340.451629638671875 337.05712890625 333.209869384765625 328.382293701171875 323.06707763671875 317.199981689453125 310.871063232421875 304.271148681640625 297.581298828125 290.920654296875 284.372344970703125 278.0462646484375 272.127105712890625 266.527679443359375 261.26959228515625 -99999 -99999
 -99999 -99999 -99999 -99999 -99999 -99999 -99999 -99999 -99999 -99999 -99999 -99999 -99999 31.52147674560546875 36.635894775390625 41.80440521240234375 47.05600738525390625 52.39199066162109375 57.73467254638671875 63.251003265380859375 68.79644012451171875 74.41426849365234375 80.09374237060546875 85.85469818115234375 91.679107666015625 97.53632354736328125 103.4626007080078125 109.4454193115234375 115.423309326171875 121.4427642822265625 127.41886138916015625 133.399993896484375 139.2874298095703125 145.0928192138671875 150.8203125 156.4093475341796875 161.8990631103515625 167.014495849609375 171.992706298828125 176.72235107421875 181.22900390625 185.5292510986328125 189.4745941162109375 193.2286834716796875 196.54022216796875 199.6564788818359375 202.1092376708984375 204.6833343505859375 207.1334381103515625 209.428436279296875 211.4221954345703125 214.8626251220703125 218.47845458984375 222.584197998046875 227.6020965576171875 232.9326934814453125 237.9160003662109375 242.0456085205078125 245.017669677734375 246.7368011474609375 245.34246826171875 242.352020263671875 243.3404388427734375 244.6230621337890625 244.3435211181640625 243.5878448486328125 245.3878021240234375 249.873046875 256.9417724609375 264.71685791015625 269.242523193359375 270.29290771484375 267.141265869140625 262.216583251953125 256.449432373046875 250.575103759765625 245.7134246826171875 242.2083282470703125 239.921630859375 239.108551025390625 239.3050689697265625 240.4652252197265625 242.6561126708984375 245.68267822265625 249.2032012939453125 253.3480224609375 257.786376953125 262.531707763671875 267.53570556640625 272.60443115234375 277.663604736328125 282.715301513671875 287.612152099609375 292.33978271484375 296.97900390625 301.2469482421875 305.107635498046875 308.522552490234375 311.66546630859375 314.430206298828125 316.71514892578125 318.51849365234375 320.00982666015625 321.247222900390625 322.2000732421875 322.83544921875 323.246368408203125 323.55682373046875 323.8671875 324.227996826171875 324.4798583984375 324.601470947265625 324.762115478515625 325.084930419921875 325.631866455078125 325.09332275390625 323.39361572265625 322.065216064453125 321.399932861328125 320.800689697265625 320.290130615234375 319.881744384765625 319.57763671875 319.3985595703125 319.449554443359375 319.693695068359375 320.128997802734375 320.738983154296875 321.519195556640625 322.440582275390625 323.498321533203125 324.582977294921875 325.66546630859375 326.7144775390625 327.689300537109375 328.52886962890625 329.236328125 329.813140869140625 330.255615234375 330.541229248046875 330.6754150390625 330.692474365234375 330.604217529296875 330.42144775390625 330.137451171875 329.81048583984375 329.429718017578125 329.01971435546875 328.571929931640625 328.158935546875 327.796875 327.459747314453125 327.158721923828125 326.93609619140625 326.835662841796875 326.839935302734375 326.93170166015625 327.1055908203125 327.440185546875 327.90985107421875 328.463165283203125 329.134674072265625 329.9281005859375 330.75885009765625 331.6800537109375 332.6475830078125 333.598602294921875 334.53961181640625 335.4705810546875 336.39447021484375 337.258514404296875 338.20184326171875 339.192413330078125 340.33135986328125 341.53680419921875 342.734954833984375 343.897918701171875 345.038604736328125 346.18853759765625 346.27496337890625 345.315673828125 343.012298583984375 340.217376708984375 336.80096435546875 332.565704345703125 327.54547119140625 321.749359130859375 315.44512939453125 308.691650390625 301.7041015625 294.5079345703125 287.403228759765625 280.488677978515625 274.05792236328125 267.878753662109375 262.16876220703125 256.957061767578125 -99999 -99999
 -99999 -99999 -99999 -99999 -99999 -99999 -99999 -99999 -99999 -99999 -99999 -99999 23.059457778930664062 28.0152740478515625 33.069545745849609375 38.18080902099609375 43.356922149658203125 48.612041473388671875 53.903507232666015625 59.32303619384765625 64.823822021484375 70.3794097900390625 76.07425689697265625 81.724578857421875 87.51039886474609375 93.35025787353515625 99.24939727783203125 105.2093505859375 111.1601715087890625 117.153350830078125 123.128814697265625 129.105987548828125 134.992706298828125 140.855865478515625 146.613922119140625 152.2205810546875 157.717803955078125 163.0418853759765625 168.0317535400390625 172.9346160888671875 177.552520751953125 181.9370880126953125 186.103759765625 189.946136474609375 193.446563720703125 196.73785400390625 199.83233642578125 202.8215789794921875 205.3636627197265625 207.9454803466796875 210.6810302734375 214.002166748046875 217.9616546630859375 222.3420257568359375 226.9935760498046875 231.9235687255859375 236.4085693359375 239.973114013671875 242.67620849609375 243.595062255859375 242.8529052734375 242.1179656982421875 242.8020782470703125 244.6572265625 242.6864776611328125 240.616668701171875 240.6215362548828125 247.6043243408203125 258.159149169921875 268.501556396484375 274.695159912109375 274.805419921875 270.656585693359375 263.122894287109375 254.9217071533203125 247.6563262939453125 242.1899566650390625 238.6024932861328125 236.459503173828125 235.7792816162109375 236.41485595703125 238.2945404052734375 240.8368988037109375 244.25958251953125 248.498931884765625 253.1135101318359375 258.183197021484375 263.469329833984375 268.866790771484375 274.313873291015625 279.73968505859375 285.098602294921875 290.2501220703125 295.246063232421875 299.813323974609375 304.06842041015625 308.05694580078125 311.62750244140625 314.617950439453125 317.037322998046875 319.048248291015625 320.693206787109375 321.9259033203125 322.775634765625 323.3555908203125 323.706298828125 323.880126953125 323.991485595703125 323.9525146484375 323.891082763671875 323.8123779296875 323.814483642578125 323.833984375 323.70245361328125 323.277313232421875 322.366943359375 320.97021484375 319.83306884765625 319.37567138671875 319.20513916015625 318.6282958984375 318.094818115234375 317.78118896484375 317.7191162109375 317.81103515625 318.085357666015625 318.56390380859375 319.26776123046875 320.205169677734375 321.29193115234375 322.483551025390625 323.73199462890625 324.974945068359375 326.128509521484375 327.172821044921875 328.08721923828125 328.85601806640625 329.428466796875 329.8299560546875 330.08343505859375 330.19732666015625 330.181884765625 330.01715087890625 329.764251708984375 329.46417236328125 329.06781005859375 328.615814208984375 328.18994140625 327.767486572265625 327.340423583984375 326.93365478515625 326.58380126953125 326.33203125 326.153350830078125 326.049224853515625 326.02227783203125 326.1051025390625 326.36895751953125 326.693145751953125 327.15838623046875 327.755157470703125 328.4193115234375 329.16448974609375 330.003875732421875 330.907440185546875 331.842010498046875 332.81585693359375 333.81536865234375 334.793792724609375 335.778533935546875 336.737640380859375 337.775604248046875 338.889373779296875 340.07342529296875 341.30902099609375 342.5692138671875 343.797149658203125 345.009124755859375 346.022003173828125 346.43463134765625 344.668426513671875 342.373748779296875 339.439483642578125 335.944610595703125 331.45391845703125 326.105682373046875 320.074920654296875 313.383819580078125 306.065155029296875 298.4949951171875 290.888458251953125 283.3751220703125 276.211029052734375 269.507598876953125 263.26025390625 257.530364990234375 252.238525390625 -99999 -99999
 -99999 -99999 -99999 -99999 -99999 -99999 -99999 -99999 -99999 -99999 -99999 -99999 19.594167709350585938 24.479188919067382812 29.4329681396484375 34.46471405029296875 39.559169769287109375 44.7415771484375 49.927082061767578125 55.33325958251953125 60.748111724853515625 66.2357330322265625 71.80213165283203125 77.48321533203125 83.1987762451171875 89.00070953369140625 94.867767333984375 100.83065032958984375 106.7377166748046875 112.71332550048828125 118.70319366455078125 124.6153411865234375 130.63873291015625 136.4676513671875 142.2683868408203125 147.9217987060546875 153.4793548583984375 158.8725433349609375 164.0303192138671875 169.00836181640625 173.779510498046875 178.3657684326171875 182.6937103271484375 186.6779632568359375 190.58489990234375 194.0561676025390625 197.1811981201171875 200.5650634765625 203.776641845703125 206.6166229248046875 210.1461944580078125 213.926483154296875 217.553253173828125 222.1630096435546875 226.5470428466796875 230.919891357421875 234.934722900390625 238.294403076171875 240.6893463134765625 241.902313232421875 241.8994903564453125 241.6340484619140625 242.5238037109375 242.079833984375 241.0541534423828125 238.825531005859375 238.8683624267578125 246.7005462646484375 260.87310791015625 274.8941650390625 284.107513427734375 282.770721435546875 273.80242919921875 262.88397216796875 252.1963348388671875 243.9660186767578125 238.0684967041015625 234.373291015625 232.5684356689453125 232.4651641845703125 233.642974853515625 235.993408203125 239.254150390625 243.272857666015625 247.9847869873046875 253.2682037353515625 258.835418701171875 264.5841064453125 270.39251708984375 276.191436767578125 281.8912353515625 287.5360107421875 292.80902099609375 297.882965087890625 302.72698974609375 307.208984375 311.078582763671875 314.404266357421875 317.24676513671875 319.615020751953125 321.45599365234375 322.6746826171875 323.501556396484375 324.021331787109375 324.309906005859375 324.397369384765625 324.224945068359375 323.930816650390625 323.65753173828125 323.391357421875 323.095977783203125 322.66827392578125 322.203094482421875 321.783966064453125 321.26934814453125 320.245208740234375 318.79754638671875 317.621795654296875 318.030853271484375 317.43963623046875 316.637115478515625 316.118072509765625 315.89520263671875 315.839996337890625 315.941986083984375 316.256927490234375 316.823333740234375 317.633087158203125 318.6995849609375 319.960662841796875 321.36822509765625 322.8154296875 324.21929931640625 325.529541015625 326.690704345703125 327.641082763671875 328.409149169921875 328.99383544921875 329.399139404296875 329.62158203125 329.653045654296875 329.567901611328125 329.3560791015625 329.038421630859375 328.63433837890625 328.194976806640625 327.738128662109375 327.256439208984375 326.756439208984375 326.304443359375 325.92242431640625 325.59063720703125 325.30316162109375 325.0880126953125 325.00714111328125 324.987396240234375 325.131927490234375 325.376068115234375 325.73895263671875 326.20867919921875 326.74822998046875 327.408203125 328.169097900390625 328.992431640625 329.888214111328125 330.8446044921875 331.829071044921875 332.778564453125 333.820068359375 334.8489990234375 335.90545654296875 337.00286865234375 338.1505126953125 339.353485107421875 340.585418701171875 341.8155517578125 343.019561767578125 344.07342529296875 344.787628173828125 344.61102294921875 343.2724609375 340.5897216796875 337.873626708984375 334.515716552734375 330.090728759765625 324.532073974609375 317.805755615234375 310.5419921875 302.80804443359375 294.782989501953125 286.67791748046875 278.83709716796875 271.3836669921875 264.42779541015625 258.05181884765625 252.3485107421875 247.1544189453125 -99999 -99999
 -99999 -99999 -99999 -99999 -99999 -99999 -99999 -99999 -99999 -99999 -99999 11.331894874572753906 16.116582870483398438 20.873050689697265625 25.742830276489257812 30.688749313354492188 35.7042694091796875 40.76969146728515625 45.97199249267578125 51.203189849853515625 56.560638427734375 61.985637664794921875 67.51041412353515625 73.103271484375 78.77862548828125 84.543914794921875 90.37237548828125 96.23407745361328125 102.2100372314453125 108.1327972412109375 114.11417388916015625 120.07851409912109375 126.0860595703125 131.9647674560546875 137.786956787109375 143.5693206787109375 149.19293212890625 154.7033538818359375 159.9554901123046875 165.078582763671875 169.984771728515625 174.83551025390625 179.2400360107421875 183.5047607421875 187.535430908203125 191.378936767578125 195.1097869873046875 198.81793212890625 202.1091461181640625 205.580230712890625 209.3885345458984375 213.2899627685546875 217.2343597412109375 221.3920440673828125 225.811767578125 229.855316162109375 233.5808563232421875 236.62506103515625 238.9769287109375 240.2028961181640625 241.097930908203125 241.459564208984375 241.90203857421875 242.3491973876953125 241.85369873046875 241.702850341796875 243.2940826416015625 251.6335296630859375 266.608673095703125 282.662384033203125 293.053192138671875 288.023193359375 275.047821044921875 260.014678955078125 247.7245330810546875 238.3180694580078125 232.5324859619140625 229.7557373046875 229.036712646484375 229.6245269775390625 231.42974853515625 234.1400604248046875 237.8971099853515625 242.4978485107421875 247.933349609375 253.7238311767578125 259.74591064453125 265.993927001953125 272.18182373046875 278.26116943359375 284.202972412109375 289.9505615234375 295.468170166015625 300.74603271484375 305.555511474609375 309.9156494140625 313.83624267578125 317.2564697265625 320.008392333984375 321.94500732421875 323.363525390625 324.33111572265625 324.8741455078125 325.073150634765625 325.004638671875 324.659149169921875 324.23504638671875 323.7330322265625 323.171356201171875 322.47686767578125 321.814300537109375 321.257049560546875 320.65533447265625 319.949676513671875 318.97088623046875 317.9560546875 317.0791015625 316.532806396484375 316.072296142578125 315.3621826171875 314.326019287109375 313.79681396484375 313.70806884765625 313.826507568359375 314.0028076171875 314.316070556640625 314.858154296875 315.747467041015625 317.007843017578125 318.5343017578125 320.200347900390625 321.8975830078125 323.464996337890625 324.910614013671875 326.1578369140625 327.192840576171875 328.00299072265625 328.567352294921875 328.904541015625 329.071197509765625 329.057159423828125 328.883270263671875 328.55035400390625 328.170654296875 327.729400634765625 327.20806884765625 326.64825439453125 326.11248779296875 325.611785888671875 325.140960693359375 324.70697021484375 324.328460693359375 324.05780029296875 323.83489990234375 323.7655029296875 323.79498291015625 323.933013916015625 324.185821533203125 324.495819091796875 324.95904541015625 325.532989501953125 326.18133544921875 326.92694091796875 327.761138916015625 328.6536865234375 329.575897216796875 330.511322021484375 331.5440673828125 332.578887939453125 333.62823486328125 334.7030029296875 335.819671630859375 336.98651123046875 338.163360595703125 339.375732421875 340.44036865234375 341.4998779296875 342.161834716796875 342.700042724609375 341.99798583984375 340.379669189453125 338.3380126953125 335.93389892578125 332.927947998046875 328.09112548828125 321.88690185546875 314.87664794921875 307.2806396484375 299.036834716796875 290.4412841796875 281.890045166015625 273.52215576171875 265.79473876953125 258.770660400390625 252.50048828125 246.936676025390625 242.0081634521484375 -99999 -99999
 -99999 -99999 -99999 -99999 -99999 -99999 -99999 -99999 -99999 -99999 3.3053233623504638672 7.877483367919921875 12.514077186584472656 17.249071121215820312 22.000896453857421875 26.85987091064453125 31.771785736083984375 36.7620849609375 41.82958221435546875 47.03021240234375 52.295955657958984375 57.6540069580078125 63.08562469482421875 68.65018463134765625 74.23561859130859375 79.96392059326171875 85.7438507080078125 91.5872039794921875 97.50383758544921875 103.44110870361328125 109.44309234619140625 115.41082000732421875 121.40105438232421875 127.42502593994140625 133.277740478515625 139.046905517578125 144.750579833984375 150.4233551025390625 155.8176727294921875 161.1091461181640625 166.2793121337890625 171.2171478271484375 175.866729736328125 180.4074859619140625 184.8337860107421875 188.864990234375 193.055694580078125 196.73516845703125 200.45452880859375 204.3698272705078125 208.3493194580078125 212.3485565185546875 216.5595703125 220.858978271484375 225.0083465576171875 229.133819580078125 232.6340179443359375 235.7196197509765625 237.9401702880859375 239.6384124755859375 240.944549560546875 241.5973052978515625 242.5993194580078125 243.1477813720703125 244.0447540283203125 245.9103851318359375 250.3806915283203125 258.897674560546875 271.236968994140625 285.51214599609375 294.898956298828125 287.674774169921875 271.78924560546875 254.9927520751953125 240.489288330078125 231.740570068359375 227.5729522705078125 226.0561676025390625 226.1321258544921875 227.3179168701171875 229.644744873046875 232.98974609375 237.28460693359375 242.344970703125 248.1919097900390625 254.6613616943359375 261.271392822265625 267.82879638671875 274.249481201171875 280.50433349609375 286.557037353515625 292.471954345703125 297.990692138671875 303.2501220703125 308.202850341796875 312.709259033203125 316.64471435546875 319.781524658203125 322.225067138671875 323.96807861328125 325.106903076171875 325.71929931640625 325.830657958984375 325.701324462890625 325.282928466796875 324.678497314453125 323.942291259765625 323.0927734375 322.217041015625 321.384429931640625 320.518890380859375 319.610198974609375 318.651153564453125 317.70806884765625 316.85113525390625 315.911346435546875 314.8935546875 314.19134521484375 313.584381103515625 312.64794921875 311.637451171875 311.460357666015625 311.671600341796875 311.868927001953125 311.9395751953125 312.119476318359375 312.684600830078125 313.707244873046875 315.172637939453125 316.991912841796875 318.938995361328125 320.92626953125 322.741424560546875 324.3646240234375 325.679229736328125 326.7509765625 327.551849365234375 328.091400146484375 328.39483642578125 328.462646484375 328.320587158203125 328.074920654296875 327.709503173828125 327.197906494140625 326.615081787109375 326.01971435546875 325.431640625 324.84613037109375 324.26422119140625 323.729827880859375 323.280364990234375 322.9041748046875 322.606109619140625 322.411773681640625 322.34130859375 322.35845947265625 322.471832275390625 322.732635498046875 323.0682373046875 323.5166015625 324.074249267578125 324.73388671875 325.477264404296875 326.280548095703125 327.118988037109375 328.05828857421875 329.010528564453125 330.014862060546875 331.03851318359375 332.0875244140625 333.181304931640625 334.325897216796875 335.397857666015625 336.4144287109375 337.506500244140625 338.42486572265625 339.2901611328125 339.667266845703125 339.53594970703125 338.9775390625 337.5181884765625 335.5032958984375 333.068450927734375 329.874755859375 324.88812255859375 318.428436279296875 311.332275390625 303.242095947265625 294.544891357421875 285.51458740234375 276.47869873046875 267.74676513671875 259.79766845703125 252.692291259765625 246.547943115234375 241.1992340087890625 236.5819549560546875 -99999 -99999
 -99999 -99999 -99999 -99999 -99999 -99999 -99999 -99999 -99999 -99999 -99999 4.4229221343994140625 8.96515655517578125 13.579409599304199219 18.235233306884765625 22.97969818115234375 27.801839828491210938 32.6835479736328125 37.699459075927734375 42.766933441162109375 47.95148468017578125 53.23052978515625 58.608856201171875 64.07137298583984375 69.64739227294921875 75.272552490234375 81.00904083251953125 86.8269500732421875 92.75026702880859375 98.664398193359375 104.615264892578125 110.646728515625 116.66487884521484375 122.6807403564453125 128.6162872314453125 134.5815277099609375 140.42901611328125 146.122894287109375 151.7046356201171875 157.1638031005859375 162.4406280517578125 167.524566650390625 172.5540618896484375 177.307220458984375 181.96588134765625 186.340301513671875 190.825225830078125 195.00830078125 199.132232666015625 203.3194122314453125 207.5979156494140625 211.693359375 216.022308349609375 220.2435302734375 224.3671112060546875 228.221038818359375 231.82867431640625 234.7830963134765625 237.2350006103515625 239.2486572265625 240.83746337890625 242.075469970703125 243.51123046875 245.1843109130859375 247.168304443359375 250.1749114990234375 255.1682891845703125 262.4764404296875 271.972747802734375 282.028228759765625 285.58636474609375 279.047088623046875 265.82928466796875 249.2919769287109375 234.818115234375 226.9488372802734375 223.6844024658203125 223.3195648193359375 224.768280029296875 226.6658782958984375 229.2062530517578125 232.54571533203125 237.0046234130859375 242.7174835205078125 249.2577056884765625 256.21575927734375 263.200775146484375 270.113525390625 276.688385009765625 282.962921142578125 289.03228759765625 294.825103759765625 300.41839599609375 305.8182373046875 310.8094482421875 315.1309814453125 318.9071044921875 322.081146240234375 324.402099609375 325.80224609375 326.358734130859375 326.507110595703125 326.354248046875 325.91558837890625 325.14215087890625 324.2982177734375 323.26153564453125 322.1915283203125 321.115142822265625 319.9454345703125 318.77130126953125 317.64532470703125 316.605712890625 315.577880859375 314.478057861328125 313.45721435546875 312.58245849609375 311.727203369140625 310.915771484375 310.111175537109375 309.45843505859375 309.31207275390625 309.759613037109375 309.947357177734375 309.803466796875 309.775665283203125 310.219879150390625 311.375640869140625 313.18084716796875 315.3988037109375 317.774169921875 320.046142578125 322.075897216796875 323.806976318359375 325.246612548828125 326.336639404296875 327.083099365234375 327.532257080078125 327.752197265625 327.76300048828125 327.5726318359375 327.16143798828125 326.625030517578125 326.030487060546875 325.38916015625 324.699310302734375 323.999114990234375 323.314727783203125 322.690521240234375 322.153594970703125 321.64154052734375 321.23309326171875 320.95941162109375 320.753936767578125 320.6737060546875 320.70257568359375 320.809173583984375 321.04730224609375 321.40350341796875 321.851348876953125 322.411651611328125 323.050811767578125 323.752471923828125 324.545135498046875 325.387359619140625 326.27752685546875 327.238250732421875 328.21124267578125 329.2421875 330.29400634765625 331.26165771484375 332.309356689453125 333.261138916015625 334.267181396484375 335.197235107421875 335.88165283203125 336.295379638671875 336.439117431640625 336.24871826171875 335.37725830078125 333.784515380859375 331.6805419921875 328.990142822265625 325.43499755859375 320.10528564453125 313.942657470703125 306.890899658203125 298.5552978515625 289.6864013671875 280.213287353515625 270.390625 261.166168212890625 253.1096343994140625 246.0960693359375 240.405303955078125 235.4900054931640625 231.227691650390625 227.4290618896484375 -99999
 -99999 -99999 -99999 -99999 -99999 -99999 -99999 -99999 -99999 -99999 -99999 0.94284832477569580078 5.3693037033081054688 9.886470794677734375 14.429257392883300781 19.072191238403320312 23.793193817138671875 28.58684539794921875 33.4666900634765625 38.502353668212890625 43.550060272216796875 48.74213409423828125 54.032924652099609375 59.411991119384765625 64.91425323486328125 70.51010894775390625 76.19953155517578125 81.9828948974609375 87.83516693115234375 93.79132843017578125 99.737030029296875 105.79691314697265625 111.85559844970703125 117.96028900146484375 124.00519561767578125 129.9470672607421875 135.810638427734375 141.779144287109375 147.5246734619140625 153.250518798828125 158.7518310546875 164.1741790771484375 169.2563018798828125 174.3836669921875 179.2715301513671875 184.1189117431640625 188.78411865234375 193.261199951171875 197.71575927734375 202.3099822998046875 206.6080322265625 211.0224609375 215.5130615234375 219.73028564453125 223.86474609375 227.789459228515625 231.2131805419921875 234.4440460205078125 237.0071563720703125 239.35107421875 241.404571533203125 243.0087127685546875 244.9138031005859375 247.1026153564453125 249.751251220703125 253.31103515625 258.249359130859375 264.47589111328125 271.032470703125 275.679443359375 276.51983642578125 270.788604736328125 259.9173583984375 246.854949951171875 233.962677001953125 226.4627532958984375 223.3796844482421875 223.8070831298828125 225.3985595703125 227.2049102783203125 229.6884765625 233.1990509033203125 237.69873046875 243.71942138671875 250.816253662109375 258.5009765625 266.00933837890625 273.008392333984375 279.51580810546875 285.68463134765625 291.51007080078125 297.13751220703125 302.8087158203125 308.042724609375 312.869293212890625 317.239837646484375 320.9913330078125 323.954376220703125 326.110931396484375 326.938262939453125 327.128326416015625 326.940582275390625 326.458404541015625 325.662750244140625 324.683837890625 323.52667236328125 322.28253173828125 320.965972900390625 319.57476806640625 318.166168212890625 316.845489501953125 315.602386474609375 314.317291259765625 313.091033935546875 311.966033935546875 310.942718505859375 309.997589111328125 309.1475830078125 308.3935546875 307.707763671875 307.27032470703125 307.2978515625 307.624786376953125 307.8863525390625 307.3905029296875 307.028076171875 307.406005859375 308.721435546875 310.934844970703125 313.817626953125 316.70233154296875 319.2635498046875 321.529571533203125 323.3961181640625 324.774383544921875 325.806671142578125 326.54315185546875 326.973602294921875 327.10906982421875 326.942901611328125 326.5762939453125 326.0784912109375 325.45703125 324.71710205078125 323.929412841796875 323.1190185546875 322.343994140625 321.621856689453125 320.92132568359375 320.300506591796875 319.77978515625 319.3834228515625 319.081817626953125 318.8779296875 318.76690673828125 318.791412353515625 318.922332763671875 319.164947509765625 319.518585205078125 319.9652099609375 320.502655029296875 321.128082275390625 321.82940673828125 322.567169189453125 323.416015625 324.285186767578125 325.230682373046875 326.17047119140625 327.06927490234375 328.051361083984375 328.988861083984375 329.94805908203125 330.848968505859375 331.6246337890625 332.259674072265625 332.807647705078125 333.03070068359375 332.93377685546875 332.283905029296875 331.1533203125 329.4798583984375 327.162261962890625 323.95416259765625 319.779052734375 314.61297607421875 308.49859619140625 301.380615234375 293.10418701171875 284.27154541015625 274.2264404296875 263.826263427734375 253.9170684814453125 245.8555755615234375 239.4947509765625 234.228118896484375 229.7070159912109375 225.849273681640625 222.559722900390625 -99999
 -99999 -99999 -99999 -99999 -99999 -99999 -99999 -99999 -99999 -99999 -99999 -99999 1.7941331863403320312 6.1620635986328125 10.661705970764160156 15.145551681518554688 19.73758697509765625 24.414823532104492188 29.236789703369140625 34.1373748779296875 39.110260009765625 44.20102691650390625 49.3861083984375 54.686504364013671875 60.137104034423828125 65.65573883056640625 71.292083740234375 77.05371856689453125 82.9005126953125 88.812896728515625 94.8020782470703125 100.86712646484375 106.9728546142578125 113.110931396484375 119.22077178955078125 125.38162994384765625 131.4878082275390625 137.4845733642578125 143.4022064208984375 149.289154052734375 154.963043212890625 160.5105133056640625 166.10284423828125 171.42816162109375 176.6547698974609375 181.735137939453125 186.752288818359375 191.62908935546875 196.2826080322265625 201.2210845947265625 205.819427490234375 210.402557373046875 214.963104248046875 219.3309478759765625 223.5259246826171875 227.5010833740234375 231.100372314453125 234.3011627197265625 237.129241943359375 239.6815185546875 242.015380859375 244.0497894287109375 246.447296142578125 248.849700927734375 251.8223876953125 255.371826171875 259.496124267578125 264.088104248046875 268.12054443359375 270.74114990234375 269.903167724609375 264.913116455078125 256.326446533203125 245.9373931884765625 236.4347991943359375 229.856475830078125 226.608184814453125 226.281005859375 227.4889068603515625 229.3260040283203125 231.7337493896484375 234.55078125 239.0265655517578125 245.707733154296875 253.641510009765625 261.83233642578125 269.58905029296875 276.72442626953125 282.884918212890625 288.362762451171875 293.934173583984375 299.223663330078125 304.579498291015625 310.0389404296875 314.958099365234375 319.006195068359375 322.247772216796875 324.86602783203125 326.68603515625 327.324371337890625 327.120361328125 326.680328369140625 325.922210693359375 324.88787841796875 323.768218994140625 322.434661865234375 320.946929931640625 319.32635498046875 317.74462890625 316.25836181640625 314.678192138671875 313.134979248046875 311.75048828125 310.506134033203125 309.380340576171875 308.284271240234375 307.2906494140625 306.454345703125 305.7308349609375 305.15850830078125 304.795806884765625 304.783233642578125 304.950531005859375 304.92852783203125 304.351837158203125 303.871124267578125 304.06854248046875 305.689361572265625 308.727386474609375 312.298797607421875 315.803436279296875 318.791717529296875 321.097076416015625 322.878387451171875 324.31768798828125 325.343414306640625 325.98626708984375 326.253997802734375 326.237457275390625 325.988494873046875 325.5146484375 324.8155517578125 324.02301025390625 323.1427001953125 322.24017333984375 321.357147216796875 320.470123291015625 319.62811279296875 318.88629150390625 318.27459716796875 317.72491455078125 317.29107666015625 316.954132080078125 316.7501220703125 316.65338134765625 316.67486572265625 316.810791015625 317.063140869140625 317.409027099609375 317.843505859375 318.370819091796875 318.9775390625 319.625701904296875 320.393585205078125 321.234039306640625 322.051116943359375 322.910186767578125 323.795623779296875 324.669830322265625 325.561981201171875 326.421142578125 327.18115234375 327.946533203125 328.598297119140625 329.045135498046875 329.288482666015625 329.20550537109375 328.797271728515625 327.99749755859375 326.681304931640625 324.45977783203125 321.757080078125 318.262603759765625 313.89764404296875 308.568939208984375 302.198974609375 294.921875 286.801727294921875 278.08349609375 268.38916015625 255.73199462890625 245.864837646484375 238.471282958984375 232.702239990234375 228.0191192626953125 224.3584747314453125 221.027923583984375 217.9853668212890625 -99999
 -99999 -99999 -99999 -99999 -99999 -99999 -99999 -99999 -99999 -99999 -99999 -99999 -99999 2.4766411781311035156 6.8214845657348632812 11.223208427429199219 15.692740440368652344 20.285070419311523438 24.934743881225585938 29.725994110107421875 34.61234283447265625 39.591602325439453125 44.715839385986328125 49.941867828369140625 55.2767333984375 60.74953460693359375 66.34464263916015625 72.04558563232421875 77.85556793212890625 83.78060150146484375 89.78304290771484375 95.90155029296875 102.0489959716796875 108.2409820556640625 114.49434661865234375 120.72882080078125 126.889007568359375 133.0980377197265625 139.2899169921875 145.2779693603515625 151.301849365234375 157.2551727294921875 162.9682769775390625 168.59991455078125 174.146514892578125 179.551910400390625 184.8267822265625 190.022552490234375 195.2179718017578125 200.1453399658203125 204.9683074951171875 209.905487060546875 214.510986328125 218.9861297607421875 223.332977294921875 227.270294189453125 230.9338226318359375 234.4203338623046875 237.2984161376953125 240.14031982421875 242.7474517822265625 245.0580291748046875 247.699920654296875 250.461761474609375 253.428985595703125 256.574462890625 260.11126708984375 263.44915771484375 266.16302490234375 266.95208740234375 265.2191162109375 260.7701416015625 254.4112548828125 246.8733367919921875 239.5369720458984375 233.926513671875 230.73138427734375 230.111328125 230.8949432373046875 232.4868316650390625 234.77081298828125 237.6909637451171875 241.6865997314453125 248.7769317626953125 257.668792724609375 266.340972900390625 274.343048095703125 281.097015380859375 286.623260498046875 291.370574951171875 295.738067626953125 300.887420654296875 306.54595947265625 311.780792236328125 316.419342041015625 320.138214111328125 322.929443359375 325.031890869140625 326.133331298828125 326.581298828125 326.298095703125 325.71026611328125 324.836181640625 323.775421142578125 322.3900146484375 320.8447265625 319.231597900390625 317.54541015625 315.707794189453125 313.8394775390625 312.130126953125 310.668060302734375 309.2451171875 307.821136474609375 306.51611328125 305.39923095703125 304.517822265625 303.712188720703125 303.026824951171875 302.5296630859375 302.175445556640625 301.954376220703125 301.791961669921875 301.58978271484375 301.12567138671875 300.491363525390625 300.51458740234375 302.28509521484375 306.3441162109375 311.44232177734375 315.3865966796875 318.364898681640625 320.7193603515625 322.515228271484375 323.79937744140625 324.669708251953125 325.206268310546875 325.4178466796875 325.292999267578125 324.808990478515625 324.16571044921875 323.321319580078125 322.36846923828125 321.36175537109375 320.294525146484375 319.264862060546875 318.2928466796875 317.43780517578125 316.6463623046875 315.962615966796875 315.39361572265625 314.940521240234375 314.60064697265625 314.385589599609375 314.3094482421875 314.346588134765625 314.485626220703125 314.722259521484375 315.059356689453125 315.50067138671875 316.009246826171875 316.592041015625 317.302337646484375 317.996246337890625 318.77960205078125 319.557037353515625 320.35986328125 321.178253173828125 321.98291015625 322.759674072265625 323.521759033203125 324.19842529296875 324.784637451171875 325.169036865234375 325.375579833984375 325.38336181640625 325.115142822265625 324.450592041015625 323.21875 321.486785888671875 319.203887939453125 316.157440185546875 312.324127197265625 307.563232421875 301.9447021484375 295.38958740234375 288.01080322265625 279.8311767578125 270.68408203125 259.514495849609375 247.2922210693359375 237.206634521484375 231.0380859375 226.418304443359375 222.6974029541015625 219.40814208984375 216.58978271484375 213.9717864990234375 -99999
 -99999 -99999 -99999 -99999 -99999 -99999 -99999 -99999 -99999 -99999 -99999 -99999 -99999 -99999 3.0148003101348876953 7.2818708419799804688 11.623870849609375 16.0981597900390625 20.669137954711914062 25.320692062377929688 30.104833602905273438 34.978733062744140625 39.9676361083984375 45.107452392578125 50.399463653564453125 55.8274383544921875 61.32762908935546875 66.99514007568359375 72.756195068359375 78.657318115234375 84.7497100830078125 90.84854888916015625 97.0622406005859375 103.32735443115234375 109.7133636474609375 116.026702880859375 122.4445953369140625 128.8545684814453125 135.1230926513671875 141.5118408203125 147.71221923828125 153.789947509765625 159.8650970458984375 165.8324127197265625 171.67529296875 177.3545989990234375 183.0625457763671875 188.5051116943359375 193.951934814453125 199.251861572265625 204.35028076171875 209.328826904296875 214.1612548828125 218.7988739013671875 223.1640625 227.3018646240234375 231.1477508544921875 234.6813812255859375 237.884765625 240.968353271484375 243.57196044921875 246.30340576171875 249.0455322265625 251.5920562744140625 254.463958740234375 257.331329345703125 260.175048828125 262.596099853515625 263.908050537109375 264.124237060546875 262.59228515625 259.239501953125 254.0042572021484375 248.04034423828125 242.661224365234375 238.5238037109375 236.06103515625 234.9462890625 235.36260986328125 237.05712890625 239.5001220703125 242.6540374755859375 247.51226806640625 254.3957672119140625 262.94244384765625 271.669189453125 279.585235595703125 286.451751708984375 290.98388671875 293.9478759765625 297.589874267578125 302.21942138671875 307.546356201171875 313.214813232421875 317.86761474609375 321.1929931640625 322.841400146484375 324.040924072265625 324.81976318359375 325.00286865234375 324.76031494140625 324.1817626953125 323.282012939453125 322.10443115234375 320.727264404296875 319.129486083984375 317.2357177734375 315.194305419921875 313.301849365234375 311.27947998046875 309.4984130859375 307.7667236328125 306.171722412109375 304.790679931640625 303.540435791015625 302.47637939453125 301.564056396484375 300.832794189453125 300.2530517578125 299.7532958984375 299.42767333984375 299.183807373046875 299.02008056640625 298.659942626953125 298.18670654296875 297.625396728515625 297.25079345703125 298.873779296875 305.19671630859375 311.0233154296875 315.513458251953125 318.4365234375 320.36761474609375 321.8577880859375 323.0166015625 323.849151611328125 324.317626953125 324.310791015625 324.04119873046875 323.438507080078125 322.58782958984375 321.571197509765625 320.410308837890625 319.2177734375 318.02880859375 316.9344482421875 315.871124267578125 314.934295654296875 314.10162353515625 313.38690185546875 312.7919921875 312.328582763671875 312.018310546875 311.82196044921875 311.748504638671875 311.769256591796875 311.913299560546875 312.1734619140625 312.518768310546875 312.937957763671875 313.476318359375 314.0594482421875 314.70196533203125 315.37860107421875 316.096282958984375 316.83453369140625 317.588470458984375 318.325531005859375 319.064849853515625 319.732574462890625 320.351470947265625 320.85369873046875 321.230255126953125 321.404510498046875 321.507171630859375 321.288787841796875 320.702850341796875 319.68951416015625 318.239837646484375 316.1884765625 313.55670166015625 310.203887939453125 306.091522216796875 301.17218017578125 295.351348876953125 288.685272216796875 280.96588134765625 272.4168701171875 262.83526611328125 252.0822601318359375 240.4241180419921875 231.576812744140625 225.7369537353515625 221.0159149169921875 217.9206390380859375 215.512451171875 212.961151123046875 210.5432891845703125 -99999
 -99999 -99999 -99999 -99999 -99999 -99999 -99999 -99999 -99999 -99999 -99999 -99999 -99999 -99999 -99999 3.3868966102600097656 7.5576372146606445312 11.930346488952636719 16.36769866943359375 20.914575576782226562 25.564256668090820312 30.32331085205078125 35.25069427490234375 40.278839111328125 45.4381256103515625 50.753871917724609375 56.2554779052734375 61.85616302490234375 67.61457061767578125 73.572265625 79.60947418212890625 85.773040771484375 92.057373046875 98.447784423828125 104.84995269775390625 111.4378509521484375 117.93297576904296875 124.46520233154296875 131.1163482666015625 137.56695556640625 144.03326416015625 150.561187744140625 156.8856353759765625 163.192230224609375 169.40838623046875 175.425689697265625 181.3212432861328125 187.071075439453125 192.8926239013671875 198.2970123291015625 203.72930908203125 209.0618743896484375 213.98834228515625 218.7924652099609375 223.3450775146484375 227.584747314453125 231.4492034912109375 235.12786865234375 238.452606201171875 241.4990386962890625 244.501800537109375 247.1168975830078125 250.004730224609375 252.7062530517578125 255.42071533203125 257.880126953125 260.316314697265625 261.909149169921875 262.9886474609375 262.891876220703125 261.19427490234375 258.370880126953125 254.6200103759765625 250.566253662109375 246.4529266357421875 243.0670928955078125 240.9967498779296875 240.6490020751953125 241.216217041015625 242.8804779052734375 245.588134765625 249.4224700927734375 254.4399566650390625 261.214630126953125 269.03759765625 277.242828369140625 285.102996826171875 291.568206787109375 294.708251953125 295.7164306640625 297.7369384765625 302.9365234375 308.749176025390625 314.1766357421875 318.976531982421875 321.12225341796875 322.020050048828125 322.459014892578125 322.784088134765625 322.882904052734375 322.676910400390625 322.123291015625 321.32684326171875 320.1820068359375 318.673004150390625 316.911346435546875 315.019989013671875 312.8302001953125 310.677947998046875 308.64752197265625 306.6763916015625 304.71514892578125 302.97509765625 301.63848876953125 300.4193115234375 299.4185791015625 298.5860595703125 297.906158447265625 297.413665771484375 297.02532958984375 296.737213134765625 296.49566650390625 296.3369140625 296.278167724609375 296.253692626953125 296.271240234375 297.02294921875 300.29766845703125 306.473907470703125 313.088531494140625 316.13726806640625 318.048736572265625 319.541107177734375 320.86419677734375 321.96563720703125 322.667724609375 323.046661376953125 322.97613525390625 322.530364990234375 321.7413330078125 320.654754638671875 319.41522216796875 318.090850830078125 316.76922607421875 315.44036865234375 314.24566650390625 313.11187744140625 312.11273193359375 311.23394775390625 310.505523681640625 309.93389892578125 309.5013427734375 309.159759521484375 308.975433349609375 308.918060302734375 308.98248291015625 309.147613525390625 309.41070556640625 309.77606201171875 310.192626953125 310.72003173828125 311.2747802734375 311.89111328125 312.544158935546875 313.227813720703125 313.9212646484375 314.602447509765625 315.24365234375 315.88201904296875 316.438385009765625 316.907806396484375 317.24371337890625 317.486846923828125 317.560821533203125 317.34771728515625 316.853302001953125 315.999755859375 314.70928955078125 313.026123046875 310.714569091796875 307.86572265625 304.22027587890625 300.001373291015625 294.818206787109375 288.759033203125 281.931884765625 274.32171630859375 265.906280517578125 256.498748779296875 246.4846649169921875 236.7052001953125 228.3979949951171875 221.5396575927734375 217.4668426513671875 214.7708740234375 212.6221160888671875 210.1641387939453125 207.55670166015625 -99999
 -99999 -99999 -99999 -99999 -99999 -99999 -99999 -99999 -99999 -99999 -99999 -99999 -99999 -99999 -99999 -99999 3.6020293235778808594 7.8137636184692382812 12.095445632934570312 16.483509063720703125 21.013731002807617188 25.713834762573242188 30.440023422241210938 35.408657073974609375 40.49230194091796875 45.7490234375 51.1451263427734375 56.73395538330078125 62.464145660400390625 68.37969970703125 74.41080474853515625 80.659698486328125 87.00182342529296875 93.47784423828125 100.10808563232421875 106.68474578857421875 113.4539337158203125 120.2791748046875 127.0113677978515625 133.84423828125 140.593231201171875 147.2888031005859375 153.969757080078125 160.5934295654296875 167.0159912109375 173.4578094482421875 179.76226806640625 185.951202392578125 191.9299163818359375 197.6785125732421875 203.3249664306640625 208.7552490234375 213.97271728515625 218.8923492431640625 223.5435638427734375 227.8950347900390625 232.03570556640625 235.716766357421875 239.2424468994140625 242.5502166748046875 245.42034912109375 248.3045654296875 251.1389312744140625 253.61370849609375 256.159912109375 258.2957763671875 260.369964599609375 261.810882568359375 262.3984375 262.30169677734375 261.2265625 259.094085693359375 256.28399658203125 253.11956787109375 250.20086669921875 248.158172607421875 246.8585205078125 246.5113372802734375 247.3944244384765625 249.476959228515625 252.509307861328125 256.629486083984375 261.75177001953125 268.059326171875 275.325653076171875 282.68145751953125 289.56976318359375 295.258209228515625 297.961181640625 297.327850341796875 300.340057373046875 305.3314208984375 309.872406005859375 313.78350830078125 317.52587890625 319.44281005859375 319.719696044921875 320.019378662109375 320.30908203125 320.307037353515625 320.166717529296875 319.772674560546875 319.039093017578125 317.956024169921875 316.5638427734375 314.671722412109375 312.556396484375 310.35235595703125 307.983917236328125 305.54095458984375 303.30889892578125 301.434539794921875 299.8028564453125 298.358428955078125 297.170196533203125 296.18878173828125 295.509124755859375 294.97314453125 294.56671142578125 294.267242431640625 294.109588623046875 294.04833984375 294.085968017578125 294.255157470703125 294.710723876953125 295.726287841796875 297.75836181640625 301.677886962890625 308.048614501953125 312.954742431640625 315.69329833984375 316.8299560546875 317.955780029296875 319.14398193359375 320.23956298828125 321.05218505859375 321.450958251953125 321.294586181640625 320.6322021484375 319.601959228515625 318.330474853515625 316.884490966796875 315.373016357421875 313.9254150390625 312.474853515625 311.160247802734375 309.973724365234375 308.943817138671875 308.077301025390625 307.368408203125 306.76995849609375 306.33233642578125 306.055389404296875 305.9140625 305.888519287109375 305.9864501953125 306.1729736328125 306.449920654296875 306.7943115234375 307.247772216796875 307.756134033203125 308.318634033203125 308.919647216796875 309.540374755859375 310.164276123046875 310.77239990234375 311.407379150390625 311.9813232421875 312.506988525390625 312.978302001953125 313.256317138671875 313.5399169921875 313.572540283203125 313.3975830078125 312.970733642578125 312.244232177734375 311.1929931640625 309.73858642578125 307.749267578125 305.199737548828125 302.219818115234375 298.4012451171875 293.819976806640625 288.579345703125 282.630767822265625 275.85406494140625 268.25543212890625 260.0299072265625 251.2645263671875 242.39752197265625 233.56463623046875 226.0312957763671875 220.1837615966796875 215.7639617919921875 212.9353179931640625 210.5681304931640625 207.88177490234375 205.1967926025390625 -99999
 -99999 -99999 -99999 -99999 -99999 -99999 -99999 -99999 -99999 -99999 -99999 -99999 -99999 -99999 -99999 -99999 -99999 3.6719908714294433594 7.8691344261169433594 12.12564849853515625 16.512529373168945312 21.024408340454101562 25.711307525634765625 30.533657073974609375 35.500247955322265625 40.676151275634765625 46.032054901123046875 51.534687042236328125 57.25281524658203125 63.18195343017578125 69.28094482421875 75.5341644287109375 81.9497222900390625 88.52780914306640625 95.24979400634765625 102.119537353515625 109.0088043212890625 115.97216033935546875 123.04531097412109375 130.07977294921875 137.0947723388671875 144.203338623046875 151.158935546875 158.057037353515625 164.9050140380859375 171.6057281494140625 178.2435760498046875 184.64862060546875 190.99774169921875 197.101898193359375 202.977447509765625 208.72100830078125 214.05584716796875 219.218109130859375 224.057403564453125 228.5285797119140625 232.7253875732421875 236.4959564208984375 240.0691680908203125 243.43035888671875 246.438201904296875 249.2137908935546875 252.0738067626953125 254.5168914794921875 256.89678955078125 258.972076416015625 260.78369140625 261.969970703125 262.6942138671875 262.602264404296875 261.769927978515625 260.33612060546875 258.461822509765625 256.5076904296875 254.6005859375 253.1853485107421875 252.515625 252.8666839599609375 254.242767333984375 256.504486083984375 259.67510986328125 263.86688232421875 269.074066162109375 275.045501708984375 281.48626708984375 288.040069580078125 294.303253173828125 298.874664306640625 301.82098388671875 303.801116943359375 306.11859130859375 310.055816650390625 314.21893310546875 313.394866943359375 313.838623046875 315.439422607421875 316.712249755859375 317.1002197265625 317.247039794921875 317.45782470703125 317.47979736328125 317.283721923828125 316.7703857421875 315.829498291015625 314.354156494140625 312.454193115234375 310.107177734375 307.500640869140625 304.863555908203125 302.41802978515625 300.121826171875 297.996368408203125 296.1912841796875 294.78863525390625 293.7645263671875 292.99029541015625 292.40557861328125 291.989837646484375 291.716583251953125 291.5758056640625 291.53302001953125 291.607696533203125 291.876800537109375 292.3858642578125 293.280242919921875 294.841217041015625 297.410797119140625 301.285888671875 305.98260498046875 310.505859375 312.706298828125 313.866607666015625 315.032073974609375 316.63330078125 318.030853271484375 319.036895751953125 319.411956787109375 319.144134521484375 318.3577880859375 317.058258056640625 315.51568603515625 313.900299072265625 312.1866455078125 310.560882568359375 309.052947998046875 307.687469482421875 306.4989013671875 305.46966552734375 304.58331298828125 303.877777099609375 303.3392333984375 302.975677490234375 302.7386474609375 302.64105224609375 302.642547607421875 302.7684326171875 302.958282470703125 303.28887939453125 303.689971923828125 304.148162841796875 304.658203125 305.195220947265625 305.759002685546875 306.351654052734375 306.94384765625 307.511444091796875 308.062652587890625 308.571258544921875 308.96734619140625 309.31512451171875 309.48541259765625 309.58282470703125 309.449127197265625 309.107025146484375 308.516204833984375 307.6016845703125 306.3253173828125 304.579345703125 302.4783935546875 299.79644775390625 296.47747802734375 292.57781982421875 288.042236328125 282.760009765625 276.742523193359375 270.1041259765625 262.880584716796875 255.085235595703125 246.8939971923828125 238.7428131103515625 231.08251953125 224.2656707763671875 218.63671875 214.3252410888671875 211.0401611328125 208.606964111328125 205.5990142822265625 202.9239044189453125 -99999
 -99999 -99999 -99999 -99999 -99999 -99999 -99999 -99999 -99999 -99999 -99999 -99999 -99999 -99999 -99999 -99999 -99999 -99999 3.6497695446014404297 7.7593550682067871094 12.0352630615234375 16.436740875244140625 20.980365753173828125 25.677240371704101562 30.562286376953125 35.654453277587890625 40.888896942138671875 46.343738555908203125 52.060779571533203125 57.947174072265625 64.0663604736328125 70.4044189453125 76.87760162353515625 83.5444183349609375 90.42279052734375 97.3960113525390625 104.55422210693359375 111.757568359375 119.0775909423828125 126.38482666015625 133.78582763671875 141.1113128662109375 148.4262847900390625 155.7602386474609375 162.831024169921875 169.99627685546875 176.9389495849609375 183.7725372314453125 190.307464599609375 196.700408935546875 202.9073944091796875 208.797149658203125 214.346527099609375 219.64312744140625 224.5816192626953125 229.1582183837890625 233.492156982421875 237.3145904541015625 241.01904296875 244.39874267578125 247.4553985595703125 250.3274078369140625 253.09417724609375 255.476654052734375 257.724700927734375 259.662994384765625 261.42437744140625 262.569305419921875 263.251373291015625 263.517333984375 263.214447021484375 262.320098876953125 261.214691162109375 260.0108642578125 258.9365234375 258.39739990234375 258.533905029296875 259.349212646484375 260.983306884765625 263.47796630859375 266.9404296875 271.190826416015625 276.140533447265625 281.772705078125 287.7772216796875 293.652374267578125 298.967437744140625 303.5377197265625 306.957305908203125 309.69677734375 313.052642822265625 317.051971435546875 319.235870361328125 316.017425537109375 312.908447265625 313.09124755859375 313.899505615234375 314.293212890625 314.519927978515625 314.7384033203125 314.836029052734375 314.791351318359375 314.45330810546875 313.636383056640625 312.19879150390625 310.111053466796875 307.5411376953125 304.700653076171875 301.80279541015625 298.989227294921875 296.438690185546875 294.25543212890625 292.582244873046875 291.311370849609375 290.32464599609375 289.626739501953125 289.24627685546875 289.05999755859375 288.963714599609375 288.930389404296875 288.98699951171875 289.189239501953125 289.6046142578125 290.3048095703125 291.490814208984375 293.244964599609375 295.779052734375 299.20294189453125 303.012451171875 306.256591796875 308.6802978515625 310.053863525390625 311.54595947265625 313.44580078125 315.22967529296875 316.53729248046875 316.98773193359375 316.6090087890625 315.48272705078125 313.956298828125 312.131500244140625 310.272613525390625 308.4554443359375 306.750640869140625 305.204010009765625 303.822662353515625 302.61566162109375 301.5823974609375 300.783233642578125 300.148773193359375 299.68243408203125 299.368560791015625 299.1756591796875 299.1407470703125 299.207733154296875 299.36456298828125 299.639556884765625 300.005828857421875 300.418304443359375 300.872833251953125 301.376739501953125 301.92205810546875 302.47698974609375 303.0283203125 303.6005859375 304.110443115234375 304.593170166015625 304.98480224609375 305.292144775390625 305.514923095703125 305.599578857421875 305.5328369140625 305.26226806640625 304.7529296875 303.979095458984375 302.857330322265625 301.452728271484375 299.60845947265625 297.2681884765625 294.410400390625 291.009674072265625 287.05419921875 282.416290283203125 277.15142822265625 271.358642578125 264.9525146484375 257.918304443359375 250.4945220947265625 243.1232757568359375 235.715179443359375 228.651702880859375 222.3052520751953125 216.898712158203125 212.8263702392578125 209.4608917236328125 206.40948486328125 203.609954833984375 200.9192657470703125 -99999
 -99999 -99999 -99999 -99999 -99999 -99999 -99999 -99999 -99999 -99999 -99999 -99999 -99999 -99999 -99999 -99999 -99999 -99999 -99999 3.5215611457824707031 7.6215224266052246094 11.838626861572265625 16.296115875244140625 20.850955963134765625 25.62896728515625 30.607515335083007812 35.7788848876953125 41.182750701904296875 46.860805511474609375 52.730792999267578125 58.879344940185546875 65.2359466552734375 71.8230743408203125 78.6479034423828125 85.65175628662109375 92.7999725341796875 100.167938232421875 107.5897064208984375 115.1347808837890625 122.75653076171875 130.412933349609375 138.0357666015625 145.767425537109375 153.316802978515625 160.8443756103515625 168.31939697265625 175.6063690185546875 182.808685302734375 189.684326171875 196.393768310546875 202.84808349609375 208.9745330810546875 214.761444091796875 220.233795166015625 225.3160552978515625 230.03887939453125 234.4259490966796875 238.3367767333984375 242.0838165283203125 245.4526519775390625 248.53533935546875 251.3867034912109375 254.07781982421875 256.421173095703125 258.653228759765625 260.556884765625 262.228668212890625 263.5118408203125 264.331207275390625 264.750335693359375 264.8431396484375 264.668487548828125 264.22882080078125 263.822998046875 263.62762451171875 263.73211669921875 264.331878662109375 265.562957763671875 267.66265869140625 270.446746826171875 273.9810791015625 278.218414306640625 283.1075439453125 288.331939697265625 293.6898193359375 299.168914794921875 304.235565185546875 308.635009765625 312.12445068359375 315.44476318359375 319.109375 321.51629638671875 321.33526611328125 318.24169921875 314.769683837890625 313.5137939453125 313.134613037109375 312.687255859375 312.3382568359375 312.385833740234375 312.48419189453125 312.524688720703125 312.34759521484375 311.76141357421875 310.2572021484375 307.943206787109375 305.008758544921875 301.746612548828125 298.49371337890625 295.405181884765625 292.7513427734375 290.619476318359375 288.831451416015625 287.491363525390625 286.763946533203125 286.435516357421875 286.274658203125 286.194366455078125 286.22943115234375 286.342559814453125 286.501312255859375 286.7568359375 287.216644287109375 287.958251953125 289.152557373046875 290.834991455078125 293.1749267578125 296.12677001953125 299.057403564453125 301.89288330078125 304.212158203125 306.0506591796875 307.85699462890625 309.8983154296875 312.0491943359375 313.6910400390625 314.20208740234375 313.494964599609375 311.972808837890625 310.07806396484375 308.066680908203125 306.064117431640625 304.1583251953125 302.417388916015625 300.8492431640625 299.473724365234375 298.359375 297.423370361328125 296.708984375 296.137603759765625 295.740264892578125 295.52996826171875 295.43438720703125 295.44769287109375 295.5943603515625 295.82733154296875 296.16717529296875 296.5423583984375 296.984832763671875 297.487884521484375 297.992950439453125 298.54132080078125 299.094024658203125 299.601531982421875 300.133514404296875 300.569549560546875 300.965240478515625 301.291107177734375 301.53460693359375 301.65814208984375 301.623382568359375 301.41900634765625 300.99951171875 300.33099365234375 299.4300537109375 298.193878173828125 296.608489990234375 294.565155029296875 292.09814453125 289.191802978515625 285.697784423828125 281.6851806640625 277.15283203125 271.978240966796875 266.430908203125 260.134552001953125 253.5345916748046875 246.70440673828125 239.8373565673828125 232.879364013671875 226.5282745361328125 220.750885009765625 215.7118988037109375 211.367584228515625 207.7784576416015625 204.67962646484375 201.8389434814453125 199.0548858642578125 -99999
 -99999 -99999 -99999 -99999 -99999 -99999 -99999 -99999 -99999 -99999 -99999 -99999 -99999 -99999 -99999 -99999 -99999 -99999 -99999 -99999 3.2767179012298583984 7.3852858543395996094 11.659786224365234375 16.0966949462890625 20.750768661499023438 25.590419769287109375 30.67287445068359375 36.03885650634765625 41.642059326171875 47.56412506103515625 53.708667755126953125 60.080211639404296875 66.7389068603515625 73.7065582275390625 80.8339385986328125 88.23006439208984375 95.71825408935546875 103.48937225341796875 111.35121917724609375 119.1688690185546875 127.22332000732421875 135.2786407470703125 143.2260284423828125 151.23724365234375 159.1165313720703125 166.9572906494140625 174.580963134765625 182.0696868896484375 189.307220458984375 196.2698211669921875 203.0799560546875 209.4110260009765625 215.4236297607421875 221.0085906982421875 226.225860595703125 231.0168914794921875 235.477081298828125 239.4680938720703125 243.1377105712890625 246.5645294189453125 249.5789031982421875 252.4527435302734375 255.1066131591796875 257.467529296875 259.5833740234375 261.578948974609375 263.244293212890625 264.570831298828125 265.66778564453125 266.470489501953125 266.9879150390625 267.2625732421875 267.448974609375 267.706268310546875 268.09197998046875 268.764251708984375 270.028076171875 271.769256591796875 274.10467529296875 277.059600830078125 280.65264892578125 284.843902587890625 289.52069091796875 294.549407958984375 299.68975830078125 304.650543212890625 309.107025146484375 313.13995361328125 316.87811279296875 320.18072509765625 322.622955322265625 323.741668701171875 322.533355712890625 319.881378173828125 317.0301513671875 314.81671142578125 313.305877685546875 312.18475341796875 311.402801513671875 310.97515869140625 310.775665283203125 310.642364501953125 310.54364013671875 310.0355224609375 308.774078369140625 305.914459228515625 302.36248779296875 298.606292724609375 294.9503173828125 291.731719970703125 288.815277099609375 286.501861572265625 284.84185791015625 283.7823486328125 283.342620849609375 283.19842529296875 283.25616455078125 283.511627197265625 283.699676513671875 283.836517333984375 284.02337646484375 284.256561279296875 284.638885498046875 285.295196533203125 286.36761474609375 287.874267578125 289.839599609375 292.1209716796875 294.666015625 297.2432861328125 299.507659912109375 301.54632568359375 303.650970458984375 305.940887451171875 308.266815185546875 310.2442626953125 310.716094970703125 309.491851806640625 307.563018798828125 305.392974853515625 303.22882080078125 301.139434814453125 299.214141845703125 297.481170654296875 296.009002685546875 294.760406494140625 293.772674560546875 292.913238525390625 292.29449462890625 291.892333984375 291.619720458984375 291.492584228515625 291.484039306640625 291.60638427734375 291.851959228515625 292.154052734375 292.543121337890625 292.984161376953125 293.457000732421875 293.97705078125 294.505950927734375 295.052032470703125 295.601654052734375 296.082550048828125 296.539215087890625 296.9344482421875 297.276824951171875 297.56549072265625 297.70843505859375 297.720245361328125 297.571075439453125 297.245330810546875 296.71539306640625 295.94927978515625 294.925445556640625 293.493438720703125 291.76361083984375 289.67352294921875 287.1243896484375 284.074188232421875 280.616302490234375 276.58209228515625 272.159423828125 267.190093994140625 261.72283935546875 255.9063568115234375 249.73175048828125 243.3199615478515625 236.85888671875 230.5843353271484375 224.658203125 219.1704559326171875 214.3259429931640625 210.0666046142578125 206.3686981201171875 203.0633087158203125 200.2108917236328125 -99999 -99999
 -99999 -99999 -99999 -99999 -99999 -99999 -99999 -99999 -99999 -99999 -99999 -99999 -99999 -99999 -99999 -99999 -99999 -99999 -99999 -99999 -99999 2.9603941440582275391 7.1042590141296386719 11.409508705139160156 15.92214202880859375 20.680141448974609375 25.622707366943359375 30.918819427490234375 36.4936981201171875 42.359371185302734375 48.49521636962890625 54.98491668701171875 61.772571563720703125 68.80588531494140625 76.12935638427734375 83.69557952880859375 91.45619964599609375 99.4423980712890625 107.5170440673828125 115.74076080322265625 124.10170745849609375 132.3265838623046875 140.7766571044921875 149.112640380859375 157.295501708984375 165.5198974609375 173.6149139404296875 181.4426116943359375 189.035919189453125 196.388336181640625 203.334625244140625 209.983978271484375 216.1313018798828125 221.9162445068359375 227.2449493408203125 232.14202880859375 236.6364288330078125 240.6367034912109375 244.434326171875 247.7396392822265625 250.7432098388671875 253.654815673828125 256.14556884765625 258.581390380859375 260.66326904296875 262.64215087890625 264.360809326171875 265.875335693359375 267.1881103515625 268.27093505859375 269.1783447265625 270.024932861328125 270.765106201171875 271.544769287109375 272.596649169921875 273.847137451171875 275.46331787109375 277.506011962890625 280.063323974609375 283.2255859375 286.903778076171875 291.00103759765625 295.49951171875 300.19793701171875 304.93463134765625 309.534820556640625 313.857635498046875 317.64599609375 320.76361083984375 323.16387939453125 324.62738037109375 324.740814208984375 323.439453125 321.020538330078125 318.22442626953125 315.7874755859375 313.859710693359375 312.334991455078125 311.100189208984375 310.195587158203125 309.575897216796875 309.17462158203125 308.9266357421875 308.753326416015625 306.9609375 303.6629638671875 299.49078369140625 295.379974365234375 291.414154052734375 287.9520263671875 284.980438232421875 282.5679931640625 280.858184814453125 280.13385009765625 280.000152587890625 280.17083740234375 280.6224365234375 280.96282958984375 281.286651611328125 281.500213623046875 281.570648193359375 281.683990478515625 281.9190673828125 282.35894775390625 283.079132080078125 284.242034912109375 285.846527099609375 287.756622314453125 289.869293212890625 292.04449462890625 294.2193603515625 296.389892578125 298.620758056640625 300.969268798828125 303.438629150390625 305.639678955078125 306.034759521484375 304.272705078125 302.037353515625 299.694915771484375 297.482391357421875 295.425872802734375 293.618377685546875 292.05596923828125 290.76129150390625 289.640167236328125 288.771881103515625 288.151336669921875 287.698089599609375 287.408966064453125 287.266143798828125 287.30169677734375 287.40185546875 287.65093994140625 287.9854736328125 288.376556396484375 288.8143310546875 289.337310791015625 289.833740234375 290.399169921875 290.942413330078125 291.473541259765625 291.998809814453125 292.48834228515625 292.8798828125 293.29180908203125 293.57275390625 293.752593994140625 293.81011962890625 293.7327880859375 293.50909423828125 293.09381103515625 292.46929931640625 291.530120849609375 290.37017822265625 288.91180419921875 287.07183837890625 284.832061767578125 282.240631103515625 279.19012451171875 275.7716064453125 271.957275390625 267.517822265625 262.725372314453125 257.46832275390625 251.89556884765625 246.0794677734375 240.120330810546875 234.3234100341796875 228.3364715576171875 222.7914276123046875 217.604583740234375 212.8990478515625 208.7125396728515625 205.0169219970703125 201.930816650390625 -99999 -99999 -99999
 -99999 -99999 -99999 -99999 -99999 -99999 -99999 -99999 -99999 -99999 -99999 -99999 -99999 -99999 -99999 -99999 -99999 -99999 -99999 -99999 -99999 -99999 2.6421771049499511719 6.8142571449279785156 11.190526008605957031 15.72735595703125 20.668836593627929688 25.929088592529296875 31.418928146362304688 37.255084991455078125 43.44097900390625 49.9393463134765625 56.715007781982421875 63.955768585205078125 71.43723297119140625 79.2116241455078125 87.22422027587890625 95.44390106201171875 103.8725128173828125 112.37346649169921875 121.03050994873046875 129.792816162109375 138.45794677734375 147.1894378662109375 155.9091033935546875 164.3958587646484375 172.787567138671875 181.06585693359375 188.957672119140625 196.56927490234375 203.9235382080078125 210.764251708984375 217.1886138916015625 223.1396026611328125 228.582672119140625 233.49951171875 237.943817138671875 242.0420074462890625 245.6844482421875 248.9094696044921875 251.832183837890625 254.65631103515625 257.2144775390625 259.54791259765625 261.612030029296875 263.72930908203125 265.52685546875 267.22906494140625 268.753631591796875 270.218902587890625 271.522979736328125 272.871856689453125 274.046478271484375 275.284637451171875 276.848052978515625 278.51739501953125 280.5147705078125 282.90191650390625 285.69476318359375 288.88226318359375 292.474029541015625 296.470306396484375 300.79168701171875 305.266082763671875 309.77557373046875 314.090240478515625 317.860076904296875 321.000274658203125 323.443878173828125 325.21954345703125 325.972259521484375 325.359649658203125 323.79217529296875 321.579864501953125 319.048583984375 316.638458251953125 314.35211181640625 312.44183349609375 310.919036865234375 309.656219482421875 308.676422119140625 307.88409423828125 307.1654052734375 306.18927001953125 304.40777587890625 300.677703857421875 296.341461181640625 291.9527587890625 287.78607177734375 283.998138427734375 280.994537353515625 278.496673583984375 277.0335693359375 276.4610595703125 276.71435546875 277.4420166015625 278.239288330078125 278.8355712890625 279.1756591796875 279.23870849609375 279.18316650390625 279.088287353515625 278.960906982421875 279.101593017578125 279.548370361328125 280.29888916015625 281.397857666015625 282.808746337890625 284.555755615234375 286.454010009765625 288.436065673828125 290.47613525390625 292.53533935546875 294.701416015625 296.781524658203125 298.4036865234375 298.5819091796875 297.12652587890625 295.037841796875 292.883697509765625 290.8575439453125 289.058624267578125 287.445526123046875 286.102294921875 285.036956787109375 284.206451416015625 283.570037841796875 283.118621826171875 282.83154296875 282.7666015625 282.771240234375 282.959503173828125 283.23223876953125 283.595672607421875 284.01312255859375 284.5172119140625 285.04083251953125 285.5909423828125 286.164398193359375 286.74102783203125 287.314849853515625 287.86126708984375 288.350494384765625 288.84197998046875 289.233428955078125 289.560516357421875 289.78594970703125 289.909759521484375 289.938140869140625 289.779022216796875 289.43988037109375 288.90545654296875 288.188262939453125 287.215576171875 285.927398681640625 284.362945556640625 282.457305908203125 280.230682373046875 277.618560791015625 274.654632568359375 271.244110107421875 267.3475341796875 263.085296630859375 258.46722412109375 253.5079193115234375 248.2897186279296875 242.80133056640625 237.282989501953125 231.681121826171875 226.1956787109375 220.9739837646484375 216.1226806640625 211.607025146484375 207.536346435546875 203.9296875 -99999 -99999 -99999 -99999
 -99999 -99999 -99999 -99999 -99999 -99999 -99999 -99999 -99999 -99999 -99999 -99999 -99999 -99999 -99999 -99999 -99999 -99999 -99999 -99999 -99999 -99999 -99999 2.3741731643676757812 6.5768642425537109375 11.042492866516113281 15.828168869018554688 20.8796539306640625 26.360223770141601562 32.13222503662109375 38.2964630126953125 44.915203094482421875 51.962993621826171875 59.160739898681640625 66.8821563720703125 74.85010528564453125 83.07958984375 91.5832977294921875 100.28195953369140625 109.14089202880859375 118.16699981689453125 127.09765625 136.14532470703125 145.3818359375 154.27874755859375 163.31890869140625 172.202545166015625 180.755828857421875 189.0694122314453125 197.0523529052734375 204.6090850830078125 211.756256103515625 218.3252105712890625 224.423828125 229.85833740234375 234.9384307861328125 239.3561248779296875 243.3502044677734375 247.05474853515625 250.195648193359375 253.045684814453125 255.9532928466796875 258.217132568359375 260.544830322265625 262.71002197265625 264.832855224609375 266.7230224609375 268.615692138671875 270.383270263671875 272.10955810546875 273.83447265625 275.45062255859375 277.176910400390625 279.02447509765625 280.8160400390625 282.92840576171875 285.214019775390625 287.755523681640625 290.608154296875 293.846710205078125 297.3720703125 301.238861083984375 305.359130859375 309.60888671875 313.79766845703125 317.738525390625 321.149322509765625 323.775482177734375 325.668060302734375 326.474456787109375 326.47662353515625 325.617919921875 324.10107421875 321.892486572265625 319.380401611328125 316.843109130859375 314.523681640625 312.437957763671875 310.589019775390625 309.00347900390625 307.581695556640625 306.30615234375 305.02850341796875 303.3709716796875 300.711212158203125 297.195068359375 293.04022216796875 288.60546875 284.101043701171875 280.58984375 277.390411376953125 274.63751220703125 272.875640869140625 272.96673583984375 273.902740478515625 275.103057861328125 276.21685791015625 277.061767578125 277.45013427734375 277.390045166015625 276.991973876953125 276.411773681640625 275.939422607421875 275.646942138671875 275.56536865234375 275.909942626953125 276.606292724609375 277.620391845703125 278.914886474609375 280.44500732421875 282.171722412109375 283.919036865234375 285.6890869140625 287.44775390625 288.932830810546875 289.682647705078125 289.60113525390625 288.515899658203125 286.885223388671875 285.146514892578125 283.513214111328125 282.042999267578125 280.797943115234375 279.839569091796875 279.06280517578125 278.480194091796875 278.08648681640625 277.911102294921875 277.89129638671875 277.96612548828125 278.207061767578125 278.56317138671875 278.977996826171875 279.4697265625 280.0052490234375 280.58843994140625 281.19207763671875 281.822845458984375 282.455322265625 283.0732421875 283.659881591796875 284.2047119140625 284.712005615234375 285.17010498046875 285.542755126953125 285.851806640625 286.05157470703125 286.096405029296875 286.013275146484375 285.784637451171875 285.413116455078125 284.813201904296875 283.978179931640625 282.9178466796875 281.5850830078125 279.98541259765625 278.010833740234375 275.81414794921875 273.223236083984375 270.173370361328125 266.78863525390625 263.07464599609375 259.021820068359375 254.571685791015625 249.8271331787109375 244.9316558837890625 239.81549072265625 234.540679931640625 229.3259735107421875 224.2303466796875 219.3151397705078125 214.65057373046875 210.3355560302734375 206.4683074951171875 -99999 -99999 -99999 -99999 -99999
 -99999 -99999 -99999 -99999 -99999 -99999 -99999 -99999 -99999 -99999 -99999 -99999 -99999 -99999 -99999 -99999 -99999 -99999 -99999 -99999 -99999 -99999 -99999 -99999 2.0699794292449951172 6.41179656982421875 11.103549957275390625 16.075099945068359375 21.435413360595703125 27.18537139892578125 33.409881591796875 39.962131500244140625 46.974605560302734375 54.442111968994140625 62.360973358154296875 70.51495361328125 79.08174896240234375 87.85813140869140625 96.85570526123046875 106.0497283935546875 115.29479217529296875 124.8234710693359375 134.2897186279296875 143.69195556640625 153.174713134765625 162.4868011474609375 171.664886474609375 180.7207794189453125 189.3708038330078125 197.6688690185546875 205.6063995361328125 213.017303466796875 219.790802001953125 226.0265045166015625 231.630767822265625 236.6502227783203125 240.9857635498046875 244.9464874267578125 248.441314697265625 251.53594970703125 254.188507080078125 256.882965087890625 259.13482666015625 261.4691162109375 263.577972412109375 265.71539306640625 267.774658203125 269.853851318359375 271.83221435546875 273.862060546875 275.94610595703125 278.08697509765625 280.134857177734375 282.224395751953125 284.45770263671875 286.891693115234375 289.35797119140625 292.039093017578125 294.947540283203125 298.1007080078125 301.562164306640625 305.2679443359375 309.05206298828125 312.92169189453125 316.7977294921875 320.549102783203125 323.71307373046875 325.672271728515625 326.6766357421875 327.07952880859375 326.810699462890625 325.7044677734375 323.97625732421875 321.736907958984375 319.30712890625 316.83795166015625 314.431121826171875 312.122283935546875 310.01556396484375 308.083953857421875 306.291351318359375 304.563629150390625 302.602630615234375 300.33489990234375 297.544036865234375 294.02862548828125 289.939208984375 285.645721435546875 281.5555419921875 277.768646240234375 274.56805419921875 271.035614013671875 269.594512939453125 270.157440185546875 271.750885009765625 273.372222900390625 274.775177001953125 275.710784912109375 275.987701416015625 275.635650634765625 274.75042724609375 273.79193115234375 272.82904052734375 272.018280029296875 271.486114501953125 271.311676025390625 271.4664306640625 272.0889892578125 273.0194091796875 274.1885986328125 275.498016357421875 276.967193603515625 278.42486572265625 279.562957763671875 280.399627685546875 280.7119140625 280.338043212890625 279.398773193359375 278.165740966796875 276.821502685546875 275.6676025390625 274.680328369140625 273.89263916015625 273.261627197265625 272.802001953125 272.5970458984375 272.54241943359375 272.6258544921875 272.82965087890625 273.145050048828125 273.60211181640625 274.115753173828125 274.67779541015625 275.313690185546875 275.974151611328125 276.680816650390625 277.364105224609375 278.065673828125 278.74188232421875 279.37542724609375 279.998199462890625 280.542083740234375 281.08843994140625 281.539398193359375 281.884002685546875 282.12060546875 282.248626708984375 282.27191162109375 282.174530029296875 281.883331298828125 281.41680908203125 280.75140380859375 279.868194580078125 278.759857177734375 277.349273681640625 275.785247802734375 273.823486328125 271.50732421875 268.8919677734375 265.98101806640625 262.724884033203125 259.0810546875 255.1202239990234375 250.9150390625 246.464385986328125 241.7589263916015625 236.91473388671875 232.034637451171875 227.1433563232421875 222.3078765869140625 217.645477294921875 213.3411407470703125 -99999 -99999 -99999 -99999 -99999 -99999 -99999
 -99999 -99999 -99999 -99999 -99999 -99999 -99999 -99999 -99999 -99999 -99999 -99999 -99999 -99999 -99999 -99999 -99999 -99999 -99999 -99999 -99999 -99999 -99999 -99999 -99999 1.9981502294540405273 6.4671034812927246094 11.311138153076171875 16.618732452392578125 22.310964584350585938 28.493249893188476562 35.205432891845703125 42.33893585205078125 49.908802032470703125 57.9590911865234375 66.47711181640625 75.2809295654296875 84.24308013916015625 93.68328857421875 103.191497802734375 112.782073974609375 122.44972991943359375 132.277008056640625 142.2635345458984375 151.982696533203125 161.798187255859375 171.475677490234375 180.839752197265625 189.950592041015625 198.583404541015625 206.837890625 214.42242431640625 221.4310760498046875 227.7645263671875 233.36376953125 238.4415740966796875 242.6839141845703125 246.4918060302734375 249.812255859375 252.724517822265625 255.3563385009765625 257.843994140625 260.02105712890625 262.13818359375 264.32659912109375 266.51568603515625 268.64990234375 270.923370361328125 273.126708984375 275.47503662109375 277.91192626953125 280.26910400390625 282.764923095703125 285.371856689453125 287.933563232421875 290.451080322265625 293.068511962890625 295.853363037109375 298.75384521484375 301.809844970703125 304.956695556640625 308.290985107421875 311.786376953125 315.40997314453125 318.97119140625 322.179351806640625 324.7420654296875 326.305267333984375 327.150970458984375 327.20086669921875 326.533660888671875 325.239288330078125 323.469573974609375 321.351287841796875 318.94744873046875 316.423614501953125 313.929931640625 311.477569580078125 309.1956787109375 306.978729248046875 304.804412841796875 302.613983154296875 300.310333251953125 297.7235107421875 294.66162109375 291.130401611328125 287.27392578125 283.17718505859375 279.10565185546875 275.77252197265625 272.393035888671875 269.314849853515625 267.6390380859375 268.736785888671875 270.377685546875 272.19805908203125 273.857696533203125 274.941192626953125 275.108154296875 274.100677490234375 272.628631591796875 271.084747314453125 269.62890625 268.315216064453125 267.250762939453125 266.601287841796875 266.343231201171875 266.458953857421875 266.953155517578125 267.800689697265625 268.875946044921875 269.959075927734375 270.975860595703125 271.747039794921875 271.988006591796875 271.8172607421875 271.197967529296875 270.227020263671875 269.195159912109375 268.398773193359375 267.72198486328125 267.20489501953125 266.815521240234375 266.66455078125 266.642242431640625 266.749053955078125 266.965911865234375 267.29266357421875 267.733489990234375 268.331878662109375 268.97802734375 269.688568115234375 270.4432373046875 271.20220947265625 271.99688720703125 272.786163330078125 273.57086181640625 274.328399658203125 275.06756591796875 275.7451171875 276.41217041015625 276.9881591796875 277.47283935546875 277.8837890625 278.20501708984375 278.43609619140625 278.559234619140625 278.530548095703125 278.355224609375 278.023040771484375 277.50811767578125 276.785400390625 275.83544921875 274.779296875 273.333709716796875 271.630126953125 269.657684326171875 267.422821044921875 264.858154296875 261.96038818359375 258.7591552734375 255.29571533203125 251.5630950927734375 247.558837890625 243.2801971435546875 238.81329345703125 234.266357421875 229.653076171875 225.035247802734375 220.5336761474609375 216.12005615234375 -99999 -99999 -99999 -99999 -99999 -99999 -99999 -99999
 -99999 -99999 -99999 -99999 -99999 -99999 -99999 -99999 -99999 -99999 -99999 -99999 -99999 -99999 -99999 -99999 -99999 -99999 -99999 -99999 -99999 -99999 -99999 -99999 -99999 -99999 2.09467315673828125 6.8219838142395019531 11.992137908935546875 17.617395401000976562 23.805589675903320312 30.427328109741210938 37.715702056884765625 45.5595855712890625 53.779506683349609375 62.517147064208984375 71.5741424560546875 80.989410400390625 90.60565185546875 100.40280914306640625 110.358673095703125 120.48581695556640625 130.633758544921875 140.860931396484375 150.9837799072265625 161.182098388671875 171.228057861328125 181.0834197998046875 190.584808349609375 199.684356689453125 208.230133056640625 216.196807861328125 223.314117431640625 229.81170654296875 235.4127960205078125 240.33221435546875 244.4819183349609375 248.2443695068359375 251.21990966796875 253.939971923828125 256.43017578125 258.539306640625 260.784515380859375 262.785003662109375 264.798858642578125 266.98785400390625 269.256072998046875 271.6817626953125 274.157958984375 276.7548828125 279.513916015625 282.310455322265625 285.169158935546875 288.004425048828125 290.83184814453125 293.671966552734375 296.40228271484375 299.140960693359375 301.851470947265625 304.621307373046875 307.581939697265625 310.719573974609375 313.879547119140625 316.93902587890625 319.8917236328125 322.689422607421875 324.9422607421875 326.280487060546875 326.660247802734375 326.522003173828125 325.745697021484375 324.5201416015625 322.667877197265625 320.62139892578125 318.191741943359375 315.640655517578125 313.0887451171875 310.571044921875 308.05841064453125 305.59661865234375 303.2103271484375 300.74530029296875 298.112457275390625 295.250152587890625 292.072723388671875 288.577117919921875 284.8231201171875 281.13934326171875 277.566253662109375 273.983917236328125 270.9288330078125 268.536041259765625 267.654327392578125 267.971099853515625 269.35882568359375 271.18695068359375 272.907257080078125 274.24517822265625 274.07684326171875 272.470977783203125 270.465301513671875 268.36126708984375 266.33837890625 264.493377685546875 263.052093505859375 261.980987548828125 261.25927734375 260.960968017578125 261.052947998046875 261.56396484375 262.348297119140625 263.17205810546875 263.859405517578125 264.23846435546875 264.1676025390625 263.58575439453125 262.424163818359375 261.29534912109375 260.56060791015625 260.129486083984375 259.917449951171875 259.95111083984375 260.05645751953125 260.26287841796875 260.538665771484375 260.934295654296875 261.525421142578125 262.105194091796875 262.82366943359375 263.649627685546875 264.494964599609375 265.349639892578125 266.2393798828125 267.166656494140625 268.086029052734375 268.984100341796875 269.82867431640625 270.6424560546875 271.427490234375 272.179656982421875 272.83203125 273.403594970703125 273.894378662109375 274.300994873046875 274.6341552734375 274.82476806640625 274.8951416015625 274.832763671875 274.61517333984375 274.225860595703125 273.639862060546875 273.00244140625 271.989501953125 270.79119873046875 269.353302001953125 267.661834716796875 265.713897705078125 263.467437744140625 260.94964599609375 258.171783447265625 255.0825653076171875 251.7328338623046875 248.1526336669921875 244.2662811279296875 240.239044189453125 236.0538482666015625 231.7672119140625 227.4159698486328125 223.037261962890625 218.8067169189453125 -99999 -99999 -99999 -99999 -99999 -99999 -99999 -99999 -99999
 -99999 -99999 -99999 -99999 -99999 -99999 -99999 -99999 -99999 -99999 -99999 -99999 -99999 -99999 -99999 -99999 -99999 -99999 -99999 -99999 -99999 -99999 -99999 -99999 -99999 -99999 -99999 2.5378034114837646484 7.5528855323791503906 13.1167755126953125 19.251827239990234375 26.014789581298828125 33.340972900390625 41.25258636474609375 49.76586151123046875 58.8300628662109375 68.17452239990234375 77.92580413818359375 87.8897857666015625 98.00070953369140625 108.1814117431640625 118.585540771484375 129.0590362548828125 139.6752471923828125 150.2271881103515625 160.863067626953125 171.3068695068359375 181.667572021484375 191.5887603759765625 201.0181427001953125 210.024688720703125 218.09820556640625 225.58099365234375 231.9384613037109375 237.64532470703125 242.4769439697265625 246.429168701171875 249.946380615234375 252.677459716796875 255.033966064453125 257.2698974609375 259.211212158203125 261.125030517578125 263.01397705078125 265.00604248046875 267.19744873046875 269.53515625 272.036285400390625 274.770416259765625 277.726470947265625 280.82794189453125 283.9140625 287.129852294921875 290.342681884765625 293.48089599609375 296.464202880859375 299.21240234375 301.825286865234375 304.384490966796875 306.983367919921875 309.608642578125 312.22265625 314.934234619140625 317.76776123046875 320.393707275390625 322.650390625 324.2529296875 325.341796875 325.761566162109375 325.565826416015625 324.63873291015625 323.289764404296875 321.549896240234375 319.4193115234375 317.0062255859375 314.552520751953125 311.96881103515625 309.329132080078125 306.7451171875 304.13238525390625 301.49212646484375 298.79443359375 295.99365234375 292.9423828125 289.698455810546875 286.372528076171875 282.948150634765625 279.309173583984375 275.94610595703125 272.865234375 270.247589111328125 268.236419677734375 267.29248046875 267.4798583984375 268.45428466796875 269.786773681640625 271.37603759765625 272.636077880859375 272.187103271484375 270.247039794921875 267.845458984375 265.408935546875 263.09619140625 260.94281005859375 258.993988037109375 257.402069091796875 256.305206298828125 255.6630401611328125 255.428863525390625 255.6202850341796875 256.17620849609375 256.8804931640625 257.427490234375 257.611480712890625 257.18426513671875 256.09820556640625 254.5454254150390625 253.133392333984375 252.4280548095703125 252.4994354248046875 252.8365478515625 253.23272705078125 253.6125946044921875 254.1190185546875 254.775726318359375 255.464141845703125 256.26068115234375 257.12353515625 258.100555419921875 259.071136474609375 260.09375 261.15972900390625 262.237457275390625 263.274169921875 264.292572021484375 265.298675537109375 266.211395263671875 267.107879638671875 267.9232177734375 268.66265869140625 269.322052001953125 269.915924072265625 270.421478271484375 270.817413330078125 271.107696533203125 271.272308349609375 271.3177490234375 271.216949462890625 270.939483642578125 270.5845947265625 269.968170166015625 269.178466796875 268.176849365234375 266.96661376953125 265.53851318359375 263.843017578125 261.91265869140625 259.70953369140625 257.25555419921875 254.5572967529296875 251.6806488037109375 248.3502044677734375 244.88525390625 241.24395751953125 237.414947509765625 233.4362335205078125 229.3541107177734375 225.2269439697265625 221.2244110107421875 -99999 -99999 -99999 -99999 -99999 -99999 -99999 -99999 -99999 -99999
 -99999 -99999 -99999 -99999 -99999 -99999 -99999 -99999 -99999 -99999 -99999 -99999 -99999 -99999 -99999 -99999 -99999 -99999 -99999 -99999 -99999 -99999 -99999 -99999 -99999 -99999 -99999 -99999 3.3657846450805664062 8.870639801025390625 14.948490142822265625 21.671236038208007812 29.198101043701171875 37.35198974609375 46.05863189697265625 55.343563079833984375 65.09645843505859375 75.1317138671875 85.34332275390625 95.8140716552734375 106.395782470703125 116.8898773193359375 127.64366912841796875 138.558563232421875 149.4172515869140625 160.4625244140625 171.4185333251953125 182.2371368408203125 192.6198272705078125 202.589263916015625 211.8708343505859375 220.35748291015625 227.85369873046875 234.512664794921875 240.0222320556640625 244.6478424072265625 248.401214599609375 251.5506591796875 253.9960784912109375 255.965667724609375 257.946746826171875 259.542755126953125 261.3115234375 262.9847412109375 264.92657470703125 266.9951171875 269.386474609375 272.085052490234375 275.010101318359375 278.192535400390625 281.54254150390625 285.097198486328125 288.7423095703125 292.3377685546875 295.7056884765625 298.80413818359375 301.6239013671875 304.18719482421875 306.45654296875 308.543182373046875 310.72833251953125 313.134735107421875 315.595611572265625 317.94464111328125 319.975341796875 321.910064697265625 323.366607666015625 324.229766845703125 324.329803466796875 323.955322265625 323.136199951171875 321.761993408203125 319.999969482421875 317.95556640625 315.661956787109375 313.158843994140625 310.545562744140625 307.91632080078125 305.180145263671875 302.48284912109375 299.72821044921875 296.805694580078125 293.857147216796875 290.878204345703125 287.77239990234375 284.41845703125 281.074737548828125 277.822601318359375 274.742523193359375 271.90789794921875 269.631591796875 267.9498291015625 267.053924560546875 266.87591552734375 267.2911376953125 268.2393798828125 269.288238525390625 269.739410400390625 269.2398681640625 267.400482177734375 265.05914306640625 262.57373046875 260.0003662109375 257.435333251953125 255.203948974609375 253.33184814453125 251.852752685546875 250.69708251953125 250.1208953857421875 250.176300048828125 250.621917724609375 251.318572998046875 251.920318603515625 252.06103515625 251.558319091796875 250.319244384765625 248.3328399658203125 246.0861358642578125 245.7014007568359375 246.12518310546875 246.581817626953125 247.1712646484375 247.88201904296875 248.629547119140625 249.383270263671875 250.2957305908203125 251.3538818359375 252.4062042236328125 253.5593719482421875 254.804718017578125 255.97393798828125 257.19610595703125 258.376983642578125 259.553955078125 260.67877197265625 261.740875244140625 262.723876953125 263.6619873046875 264.50274658203125 265.269195556640625 265.94976806640625 266.5458984375 267.031707763671875 267.408905029296875 267.680267333984375 267.819854736328125 267.8408203125 267.7156982421875 267.419525146484375 266.974609375 266.33428955078125 265.528472900390625 264.529266357421875 263.301971435546875 261.85125732421875 260.16552734375 258.266021728515625 256.14434814453125 253.8248443603515625 251.09588623046875 248.22869873046875 245.1594085693359375 241.841888427734375 238.3466796875 234.6701507568359375 230.9186859130859375 227.05517578125 223.0953826904296875 -99999 -99999 -99999 -99999 -99999 -99999 -99999 -99999 -99999 -99999 -99999
 -99999 -99999 -99999 -99999 -99999 -99999 -99999 -99999 -99999 -99999 -99999 -99999 -99999 -99999 -99999 -99999 -99999 -99999 -99999 -99999 -99999 -99999 -99999 -99999 -99999 -99999 -99999 -99999 -99999 4.8714451789855957031 10.899845123291015625 17.6741943359375 25.238643646240234375 33.55226898193359375 42.687389373779296875 52.33309173583984375 62.5848236083984375 72.9264678955078125 83.39788055419921875 94.02936553955078125 104.7431640625 115.603485107421875 126.6728057861328125 137.776123046875 149.1465606689453125 160.409576416015625 171.819580078125 183.1025848388671875 193.9268341064453125 204.3370361328125 214.1610107421875 222.79095458984375 230.669097900390625 237.182159423828125 242.8175201416015625 247.0281219482421875 250.5579376220703125 253.3123931884765625 255.3444976806640625 256.92108154296875 258.38543701171875 259.5460205078125 261.0401611328125 262.454803466796875 264.24432373046875 266.359283447265625 268.800811767578125 271.59344482421875 274.701324462890625 278.186370849609375 281.890869140625 285.876953125 289.87738037109375 293.78094482421875 297.516937255859375 300.983734130859375 303.833587646484375 306.010345458984375 307.80413818359375 309.566650390625 311.531890869140625 313.43756103515625 315.403717041015625 317.503875732421875 319.422210693359375 320.97998046875 321.904632568359375 322.4510498046875 322.49835205078125 322.145172119140625 321.260345458984375 319.91534423828125 318.240509033203125 316.216796875 313.946441650390625 311.506866455078125 308.90673828125 306.23968505859375 303.510955810546875 300.676971435546875 297.803070068359375 294.939117431640625 292.02227783203125 288.9083251953125 285.7596435546875 282.6190185546875 279.520599365234375 276.468292236328125 273.6697998046875 271.160675048828125 269.062896728515625 267.4691162109375 266.478240966796875 266.08526611328125 266.125091552734375 266.47955322265625 266.762115478515625 266.73876953125 265.981292724609375 264.435821533203125 262.321929931640625 259.838287353515625 257.237274169921875 254.6008758544921875 252.027618408203125 249.8750457763671875 248.074249267578125 246.596710205078125 245.5731201171875 245.3229217529296875 245.9683685302734375 246.8171844482421875 247.546661376953125 247.90985107421875 247.6244049072265625 246.2152252197265625 244.1631011962890625 241.9580230712890625 241.10467529296875 241.1746063232421875 241.60235595703125 242.1622314453125 242.7894134521484375 243.566070556640625 244.4882049560546875 245.6109466552734375 246.798309326171875 248.0709075927734375 249.403106689453125 250.7398834228515625 252.107330322265625 253.49200439453125 254.8236846923828125 256.02215576171875 257.24322509765625 258.356658935546875 259.41534423828125 260.378631591796875 261.25592041015625 262.02667236328125 262.700592041015625 263.291534423828125 263.788787841796875 264.167999267578125 264.3521728515625 264.486175537109375 264.460662841796875 264.285736083984375 263.96661376953125 263.494171142578125 262.858795166015625 262.017913818359375 260.975830078125 259.740966796875 258.3250732421875 256.706390380859375 254.86822509765625 252.6999053955078125 250.3948822021484375 247.8303375244140625 245.06005859375 242.0510406494140625 238.91107177734375 235.58367919921875 232.0984954833984375 228.5990447998046875 -99999 -99999 -99999 -99999 -99999 -99999 -99999 -99999 -99999 -99999 -99999 -99999 -99999
 -99999 -99999 -99999 -99999 -99999 -99999 -99999 -99999 -99999 -99999 -99999 -99999 -99999 -99999 -99999 -99999 -99999 -99999 -99999 -99999 -99999 -99999 -99999 -99999 -99999 -99999 -99999 -99999 -99999 1.3777110576629638672 7.3584551811218261719 14.058069229125976562 21.76282501220703125 30.291866302490234375 39.582149505615234375 49.634433746337890625 60.220600128173828125 70.92714691162109375 81.6949310302734375 92.70439910888671875 103.57138824462890625 114.30228424072265625 125.3275299072265625 136.8838653564453125 148.51605224609375 160.2731170654296875 172.18011474609375 184.072174072265625 195.395263671875 206.41412353515625 216.502410888671875 225.5792388916015625 233.519989013671875 240.0689239501953125 245.53350830078125 249.5047607421875 252.5875396728515625 254.7086029052734375 256.270721435546875 257.4425048828125 258.57659912109375 259.397216796875 260.403778076171875 261.623565673828125 263.290435791015625 265.1717529296875 267.559478759765625 270.525146484375 273.870086669921875 277.586822509765625 281.677642822265625 286.059814453125 290.491058349609375 294.997833251953125 299.14990234375 302.660919189453125 305.4774169921875 307.64996337890625 309.115081787109375 310.035736083984375 311.23126220703125 313.1744384765625 315.11322021484375 316.853179931640625 318.23480224609375 319.3409423828125 320.123687744140625 320.571502685546875 320.534149169921875 320.02239990234375 319.13330078125 317.765167236328125 316.1630859375 314.228302001953125 312.0384521484375 309.63177490234375 307.079803466796875 304.416412353515625 301.655914306640625 298.843231201171875 296.01776123046875 293.01226806640625 289.947418212890625 286.97454833984375 284.02764892578125 281.00390625 278.06207275390625 275.254058837890625 272.67291259765625 270.3560791015625 268.37451171875 266.91143798828125 265.8841552734375 265.255157470703125 264.954193115234375 264.8218994140625 264.633819580078125 264.238983154296875 263.243865966796875 261.73809814453125 259.787017822265625 257.517791748046875 255.02630615234375 252.410247802734375 249.89398193359375 247.57086181640625 245.39697265625 243.328338623046875 241.8210601806640625 241.61456298828125 242.3503875732421875 243.498748779296875 244.5838165283203125 245.1532135009765625 245.2194061279296875 243.95849609375 241.8195343017578125 239.5513458251953125 238.1858978271484375 237.60748291015625 237.5998687744140625 237.921905517578125 238.5338897705078125 239.3022308349609375 240.265899658203125 241.4440460205078125 242.73291015625 244.1366729736328125 245.576019287109375 247.099761962890625 248.61358642578125 250.073333740234375 251.487274169921875 252.808624267578125 254.07366943359375 255.2453460693359375 256.31866455078125 257.2713623046875 258.1517333984375 258.949981689453125 259.643798828125 260.217437744140625 260.61102294921875 260.975311279296875 261.16754150390625 261.245452880859375 261.191741943359375 261.008575439453125 260.6748046875 260.149505615234375 259.463470458984375 258.6204833984375 257.6083984375 256.42779541015625 254.983978271484375 253.3240509033203125 251.4873046875 249.435455322265625 247.1334991455078125 244.6689300537109375 242.05316162109375 239.1830291748046875 236.1707916259765625 233.0250396728515625 229.761993408203125 -99999 -99999 -99999 -99999 -99999 -99999 -99999 -99999 -99999 -99999 -99999 -99999 -99999 -99999
 -99999 -99999 -99999 -99999 -99999 -99999 -99999 -99999 -99999 -99999 -99999 -99999 -99999 -99999 -99999 -99999 -99999 -99999 -99999 -99999 -99999 -99999 -99999 -99999 -99999 -99999 -99999 -99999 -99999 -99999 4.0464472770690917969 10.860653877258300781 18.50234222412109375 27.278718948364257812 37.098247528076171875 47.552623748779296875 58.633716583251953125 69.9189910888671875 80.8568572998046875 91.78093719482421875 102.63455963134765625 113.63600921630859375 125.07220458984375 136.3485260009765625 148.5384979248046875 160.4584197998046875 172.8376617431640625 185.0648345947265625 197.0362091064453125 208.3908538818359375 219.041900634765625 228.5830078125 236.6936798095703125 243.3347015380859375 248.411895751953125 252.0518035888671875 254.8783111572265625 256.21624755859375 257.097137451171875 258.133209228515625 258.181549072265625 258.6337890625 259.335296630859375 260.094268798828125 261.43548583984375 263.362335205078125 265.84075927734375 268.805450439453125 272.286163330078125 276.31201171875 280.77490234375 285.507659912109375 290.53546142578125 295.4346923828125 300.117767333984375 304.289581298828125 307.423248291015625 309.117340087890625 309.750152587890625 310.034088134765625 311.028076171875 312.7935791015625 314.284454345703125 315.58050537109375 316.7242431640625 317.580291748046875 318.1396484375 318.344512939453125 318.16815185546875 317.59130859375 316.6715087890625 315.4666748046875 313.90716552734375 312.034881591796875 309.928680419921875 307.61700439453125 305.092803955078125 302.498687744140625 299.766448974609375 296.887939453125 293.920989990234375 291.018096923828125 288.163726806640625 285.213348388671875 282.301483154296875 279.4522705078125 276.700653076171875 274.029296875 271.66424560546875 269.5703125 267.777252197265625 266.2098388671875 265.1048583984375 264.327301025390625 263.757049560546875 263.283660888671875 262.77301025390625 262.116546630859375 261.01568603515625 259.5596923828125 257.803802490234375 255.722015380859375 253.4181060791015625 251.017333984375 248.564727783203125 246.1999969482421875 243.939300537109375 241.7518310546875 240.0060577392578125 239.389556884765625 240.4439697265625 241.7839813232421875 243.007171630859375 243.732025146484375 243.7960052490234375 242.4762115478515625 240.1226348876953125 237.7323760986328125 235.9613037109375 234.9949493408203125 234.6414337158203125 234.7134246826171875 235.0548553466796875 235.707122802734375 236.6561431884765625 237.8199462890625 239.1596221923828125 240.6608734130859375 242.2614288330078125 243.88232421875 245.4762420654296875 247.05072021484375 248.49658203125 249.8972930908203125 251.1801910400390625 252.3593597412109375 253.4427337646484375 254.4470062255859375 255.3259429931640625 256.067474365234375 256.689910888671875 257.2237548828125 257.646209716796875 257.945343017578125 258.118621826171875 258.176177978515625 258.078857421875 257.840850830078125 257.460479736328125 256.944976806640625 256.288604736328125 255.4394683837890625 254.3734130859375 253.1325836181640625 251.714141845703125 250.106597900390625 248.289703369140625 246.3072509765625 244.1577606201171875 241.7565155029296875 239.186309814453125 236.4893035888671875 233.6381683349609375 230.5755462646484375 -99999 -99999 -99999 -99999 -99999 -99999 -99999 -99999 -99999 -99999 -99999 -99999 -99999 -99999 -99999
 -99999 -99999 -99999 -99999 -99999 -99999 -99999 -99999 -99999 -99999 -99999 -99999 -99999 -99999 -99999 -99999 -99999 -99999 -99999 -99999 -99999 -99999 -99999 -99999 -99999 -99999 -99999 -99999 -99999 -99999 1.5573581457138061523 8.1586694717407226562 15.893105506896972656 24.806911468505859375 34.95757293701171875 45.90435791015625 57.735614776611328125 69.4180145263671875 80.70075225830078125 91.64485931396484375 102.29864501953125 112.89780426025390625 123.99906158447265625 135.8633575439453125 148.0843048095703125 160.5903472900390625 173.49102783203125 186.2727813720703125 198.8126678466796875 210.8716888427734375 222.010009765625 231.7480621337890625 240.0631561279296875 246.49005126953125 251.3330078125 254.4736175537109375 256.746551513671875 257.674530029296875 257.598052978515625 257.832794189453125 257.582366943359375 257.600830078125 257.549163818359375 258.10418701171875 259.313140869140625 260.905303955078125 263.19696044921875 266.2733154296875 270.01666259765625 274.32659912109375 279.097991943359375 284.2908935546875 289.78790283203125 295.429656982421875 300.74700927734375 305.422210693359375 308.92498779296875 310.872039794921875 311.0693359375 310.973907470703125 311.154571533203125 312.202362060546875 313.235565185546875 314.18682861328125 314.8475341796875 315.42724609375 315.734130859375 315.743438720703125 315.470672607421875 314.953643798828125 314.111358642578125 312.95159912109375 311.46563720703125 309.72650146484375 307.68389892578125 305.475921630859375 303.02716064453125 300.405242919921875 297.635772705078125 294.89288330078125 292.043487548828125 289.133148193359375 286.266876220703125 283.4273681640625 280.639007568359375 277.923431396484375 275.3109130859375 272.932891845703125 270.70220947265625 268.687347412109375 266.9312744140625 265.491485595703125 264.35986328125 263.357666015625 262.61798095703125 261.950775146484375 261.221710205078125 260.3516845703125 259.274383544921875 257.95208740234375 256.31219482421875 254.454254150390625 252.442169189453125 250.342132568359375 248.1612396240234375 245.993896484375 243.9369964599609375 241.8948211669921875 240.5588531494140625 240.284332275390625 240.92486572265625 242.2690582275390625 243.2151336669921875 243.837738037109375 243.5868988037109375 241.7636871337890625 238.8116912841796875 236.1793060302734375 234.2948150634765625 233.15679931640625 232.476470947265625 232.18438720703125 232.265472412109375 232.763427734375 233.5888214111328125 234.7966766357421875 236.2201385498046875 237.84454345703125 239.4979248046875 241.168212890625 242.82763671875 244.433319091796875 245.928985595703125 247.3244476318359375 248.6166229248046875 249.812774658203125 250.9197540283203125 251.84033203125 252.6438140869140625 253.36944580078125 253.9831695556640625 254.4838104248046875 254.8560638427734375 255.1167449951171875 255.22174072265625 255.2339019775390625 255.1110076904296875 254.8684234619140625 254.47955322265625 253.9347076416015625 253.190460205078125 252.302276611328125 251.2570343017578125 250.0506134033203125 248.63677978515625 247.1157379150390625 245.34539794921875 243.38641357421875 241.2639007568359375 239.0045928955078125 236.5420379638671875 233.9253387451171875 231.134124755859375 -99999 -99999 -99999 -99999 -99999 -99999 -99999 -99999 -99999 -99999 -99999 -99999 -99999 -99999 -99999 -99999
 -99999 -99999 -99999 -99999 -99999 -99999 -99999 -99999 -99999 -99999 -99999 -99999 -99999 -99999 -99999 -99999 -99999 -99999 -99999 -99999 -99999 -99999 -99999 -99999 -99999 -99999 -99999 -99999 -99999 -99999 -99999 6.1544957160949707031 13.7723388671875 22.828390121459960938 33.462505340576171875 45.117527008056640625 57.534847259521484375 69.903167724609375 81.48325347900390625 92.07379150390625 102.256744384765625 112.5037841796875 123.64929962158203125 135.430419921875 148.1038360595703125 161.1004638671875 174.2021026611328125 187.3822174072265625 200.514434814453125 213.120635986328125 224.92962646484375 235.2258758544921875 243.6952056884765625 250.2046356201171875 254.4324188232421875 257.10272216796875 258.3211669921875 258.418182373046875 258.042388916015625 257.437652587890625 256.34130859375 255.7878265380859375 255.533203125 255.57501220703125 256.18701171875 257.74224853515625 260.047821044921875 263.072357177734375 266.878173828125 271.414459228515625 276.621185302734375 282.257781982421875 288.185882568359375 294.35223388671875 300.325958251953125 306.2894287109375 310.725128173828125 312.687469482421875 312.35150146484375 311.4500732421875 311.30950927734375 311.5133056640625 311.79364013671875 312.206207275390625 312.556121826171875 312.863494873046875 312.90863037109375 312.936737060546875 312.7001953125 312.177520751953125 311.33404541015625 310.2734375 308.91619873046875 307.280029296875 305.359222412109375 303.201080322265625 300.80511474609375 298.297882080078125 295.6199951171875 292.81768798828125 290.011688232421875 287.18182373046875 284.3717041015625 281.61737060546875 278.933319091796875 276.427703857421875 274.019317626953125 271.756439208984375 269.670745849609375 267.83648681640625 266.199920654296875 264.75994873046875 263.53204345703125 262.513671875 261.614288330078125 260.7420654296875 259.9095458984375 258.997344970703125 257.920135498046875 256.683319091796875 255.290496826171875 253.76080322265625 252.025360107421875 250.2513275146484375 248.440338134765625 246.58642578125 244.833953857421875 243.2741546630859375 242.1282806396484375 241.8167572021484375 242.700592041015625 244.47906494140625 245.445465087890625 245.2696685791015625 243.9517059326171875 241.4362945556640625 237.9027252197265625 234.978271484375 233.0186614990234375 231.816070556640625 230.9681854248046875 230.3468017578125 230.214141845703125 230.470550537109375 231.2889251708984375 232.4306793212890625 233.93389892578125 235.5119171142578125 237.2418212890625 238.9537200927734375 240.646728515625 242.26434326171875 243.746612548828125 245.1386260986328125 246.4745635986328125 247.558441162109375 248.5717926025390625 249.4990386962890625 250.29876708984375 250.9402618408203125 251.4851531982421875 251.9267730712890625 252.2134857177734375 252.423370361328125 252.517486572265625 252.4827728271484375 252.347625732421875 252.025146484375 251.560699462890625 250.9643096923828125 250.2682342529296875 249.3748016357421875 248.3275146484375 247.149200439453125 245.7599029541015625 244.2042083740234375 242.497283935546875 240.633941650390625 238.58502197265625 236.3757171630859375 233.9497528076171875 231.4186859130859375 -99999 -99999 -99999 -99999 -99999 -99999 -99999 -99999 -99999 -99999 -99999 -99999 -99999 -99999 -99999 -99999 -99999
 -99999 -99999 -99999 -99999 -99999 -99999 -99999 -99999 -99999 -99999 -99999 -99999 -99999 -99999 -99999 -99999 -99999 -99999 -99999 -99999 -99999 -99999 -99999 -99999 -99999 -99999 -99999 -99999 -99999 -99999 -99999 4.95253753662109375 12.430943489074707031 21.310495376586914062 32.27288055419921875 45.037097930908203125 58.547821044921875 71.3375396728515625 83.35092926025390625 93.24334716796875 102.584014892578125 111.88582611083984375 122.837738037109375 135.0627288818359375 148.1578216552734375 161.4139862060546875 175.046661376953125 188.707122802734375 202.43743896484375 215.60247802734375 227.85198974609375 238.482391357421875 247.275787353515625 253.5167083740234375 257.450042724609375 259.46417236328125 259.721649169921875 258.963714599609375 257.964813232421875 256.2779541015625 254.8188323974609375 253.618194580078125 252.528656005859375 252.276641845703125 252.95953369140625 254.1301422119140625 256.042724609375 259.0498046875 263.068817138671875 267.900421142578125 273.43170166015625 279.33929443359375 285.584381103515625 292.218994140625 298.76458740234375 305.38861083984375 310.888580322265625 313.181488037109375 312.27008056640625 311.119415283203125 310.258880615234375 309.875701904296875 309.705902099609375 309.7333984375 309.77215576171875 309.909637451171875 309.993255615234375 309.872314453125 309.566070556640625 309.13543701171875 308.43853759765625 307.499664306640625 306.260345458984375 304.783355712890625 303.00592041015625 300.927001953125 298.632232666015625 296.09619140625 293.45709228515625 290.75 287.92926025390625 285.161865234375 282.452667236328125 279.854278564453125 277.30718994140625 274.91522216796875 272.655853271484375 270.633209228515625 268.6865234375 266.9505615234375 265.3551025390625 264.032379150390625 262.8114013671875 261.6964111328125 260.69122314453125 259.76226806640625 258.8304443359375 257.867919921875 256.883148193359375 255.8059539794921875 254.608184814453125 253.3621978759765625 252.08551025390625 250.7387542724609375 249.241546630859375 247.7935943603515625 246.3904571533203125 245.02410888671875 243.9968719482421875 243.5901031494140625 244.1170196533203125 245.646697998046875 246.50537109375 245.477203369140625 243.786285400390625 240.5477294921875 237.071807861328125 234.157989501953125 232.3008270263671875 231.156585693359375 230.2404327392578125 229.41351318359375 228.7681427001953125 228.75732421875 229.3728485107421875 230.62054443359375 232.242034912109375 233.8830413818359375 235.647613525390625 237.3129730224609375 239.027923583984375 240.5726470947265625 242.0608062744140625 243.372406005859375 244.576446533203125 245.6819305419921875 246.6331329345703125 247.39794921875 248.12176513671875 248.71771240234375 249.168121337890625 249.533416748046875 249.786407470703125 249.929229736328125 249.997100830078125 249.8672332763671875 249.6284637451171875 249.2942047119140625 248.8522186279296875 248.2168731689453125 247.4789581298828125 246.6138458251953125 245.55743408203125 244.3520660400390625 243.020172119140625 241.492401123046875 239.8471832275390625 237.9953765869140625 235.951141357421875 233.8043670654296875 -99999 -99999 -99999 -99999 -99999 -99999 -99999 -99999 -99999 -99999 -99999 -99999 -99999 -99999 -99999 -99999 -99999 -99999 -99999
 -99999 -99999 -99999 -99999 -99999 -99999 -99999 -99999 -99999 -99999 -99999 -99999 -99999 -99999 -99999 -99999 -99999 -99999 -99999 -99999 -99999 -99999 -99999 -99999 -99999 -99999 -99999 -99999 -99999 -99999 -99999 4.924591064453125 12.204266548156738281 20.603473663330078125 32.032138824462890625 45.510211944580078125 59.980224609375 73.80942535400390625 85.8818206787109375 95.18305206298828125 102.54724884033203125 110.97751617431640625 121.88799285888671875 134.93414306640625 148.5956573486328125 162.136810302734375 175.775665283203125 189.7542266845703125 203.916961669921875 217.777313232421875 230.7440643310546875 242.1742095947265625 250.946075439453125 257.175872802734375 260.267822265625 261.418212890625 260.690765380859375 258.83251953125 257.145050048828125 254.7294769287109375 252.5236358642578125 250.568756103515625 249.4696044921875 248.8730621337890625 248.6813812255859375 249.448150634765625 251.6180572509765625 254.52593994140625 258.514862060546875 263.59674072265625 269.365234375 275.728179931640625 282.22515869140625 288.8067626953125 295.570556640625 302.164794921875 308.132354736328125 310.11187744140625 309.752227783203125 308.769622802734375 307.804595947265625 307.171051025390625 306.78271484375 306.6357421875 306.611907958984375 306.614593505859375 306.57647705078125 306.49798583984375 306.344268798828125 306.002899169921875 305.458221435546875 304.688629150390625 303.651458740234375 302.255615234375 300.564453125 298.60357666015625 296.376556396484375 293.914703369140625 291.278961181640625 288.591705322265625 285.872833251953125 283.1419677734375 280.47265625 277.88641357421875 275.5244140625 273.29803466796875 271.2769775390625 269.355255126953125 267.672698974609375 266.11712646484375 264.6759033203125 263.31402587890625 262.065185546875 260.954833984375 259.9158935546875 258.926300048828125 257.94744873046875 256.996185302734375 256.04107666015625 255.1133270263671875 254.23175048828125 253.334564208984375 252.4048614501953125 251.45166015625 250.538055419921875 249.5290374755859375 248.41229248046875 247.182708740234375 246.145172119140625 245.223876953125 244.8608551025390625 245.6157379150390625 246.019775390625 245.041168212890625 242.9403076171875 240.1450347900390625 236.926177978515625 234.3040008544921875 232.6180419921875 231.279296875 230.04290771484375 228.9605560302734375 227.8385772705078125 227.48345947265625 228.4542388916015625 229.72259521484375 231.3011474609375 232.9519195556640625 234.67254638671875 236.3076324462890625 237.909576416015625 239.4234161376953125 240.830352783203125 242.0110626220703125 243.1121063232421875 244.0442352294921875 244.913787841796875 245.6446075439453125 246.2415008544921875 246.6954803466796875 247.07666015625 247.3853759765625 247.56182861328125 247.6063079833984375 247.526702880859375 247.413543701171875 247.1544189453125 246.7514190673828125 246.2713623046875 245.6421661376953125 244.869110107421875 243.972900390625 242.94219970703125 241.744781494140625 240.4351043701171875 238.8939208984375 237.2308807373046875 235.446014404296875 233.53753662109375 -99999 -99999 -99999 -99999 -99999 -99999 -99999 -99999 -99999 -99999 -99999 -99999 -99999 -99999 -99999 -99999 -99999 -99999 -99999 -99999
 -99999 -99999 -99999 -99999 -99999 -99999 -99999 -99999 -99999 -99999 -99999 -99999 -99999 -99999 -99999 -99999 -99999 -99999 -99999 -99999 -99999 -99999 -99999 -99999 -99999 -99999 -99999 -99999 -99999 -99999 -99999 6.227756500244140625 13.489964485168457031 22.099090576171875 33.501251220703125 47.336719512939453125 62.104526519775390625 76.17783355712890625 88.5035552978515625 96.97754669189453125 103.03031158447265625 109.94228363037109375 121.24355316162109375 135.2362060546875 149.8347015380859375 163.2982940673828125 176.624847412109375 190.8103485107421875 205.512054443359375 219.59271240234375 233.2191925048828125 245.145416259765625 254.2408447265625 260.220611572265625 262.71148681640625 262.286956787109375 260.538543701171875 258.35858154296875 255.935638427734375 252.7357025146484375 249.802154541015625 247.1897430419921875 245.3515625 244.3132476806640625 244.2982940673828125 244.998931884765625 246.4441375732421875 249.1106414794921875 253.3704681396484375 258.768035888671875 264.993804931640625 271.609375 278.232391357421875 284.640625 290.887481689453125 296.977142333984375 301.938079833984375 304.68731689453125 305.160003662109375 304.793701171875 304.048370361328125 303.515411376953125 303.17010498046875 302.98394775390625 302.872344970703125 302.853271484375 302.932861328125 302.9766845703125 302.900970458984375 302.743682861328125 302.3968505859375 301.805419921875 300.93634033203125 299.791778564453125 298.25738525390625 296.355560302734375 294.181121826171875 291.735198974609375 289.140289306640625 286.4503173828125 283.69329833984375 280.95196533203125 278.369873046875 275.96539306640625 273.793182373046875 271.783233642578125 269.949493408203125 268.25390625 266.69091796875 265.256866455078125 263.94512939453125 262.686187744140625 261.5142822265625 260.3798828125 259.2884521484375 258.212158203125 257.21722412109375 256.292999267578125 255.433624267578125 254.653076171875 253.94854736328125 253.355987548828125 252.92767333984375 252.577362060546875 252.0377349853515625 251.4126434326171875 250.644805908203125 249.648223876953125 248.4583740234375 247.2202606201171875 246.2740478515625 246.0861968994140625 245.6090850830078125 244.4712371826171875 242.545257568359375 240.101409912109375 237.490142822265625 235.17950439453125 233.2722320556640625 231.8052520751953125 230.41064453125 229.063262939453125 227.60443115234375 227.487396240234375 228.2566986083984375 229.592864990234375 231.1176605224609375 232.7509613037109375 234.403778076171875 235.9349822998046875 237.4248199462890625 238.74884033203125 239.9663848876953125 241.0777740478515625 242.0322418212890625 242.8587799072265625 243.551239013671875 244.0855255126953125 244.5516204833984375 244.9532012939453125 245.237548828125 245.36956787109375 245.4580535888671875 245.4678802490234375 245.3344573974609375 245.1143798828125 244.8134613037109375 244.395416259765625 243.8504791259765625 243.20703125 242.4011688232421875 241.495025634765625 240.4471893310546875 239.2353668212890625 237.892486572265625 236.4503173828125 234.8657684326171875 233.1119537353515625 -99999 -99999 -99999 -99999 -99999 -99999 -99999 -99999 -99999 -99999 -99999 -99999 -99999 -99999 -99999 -99999 -99999 -99999 -99999 -99999 -99999
 -99999 -99999 -99999 -99999 -99999 -99999 -99999 -99999 -99999 -99999 -99999 -99999 -99999 -99999 -99999 -99999 -99999 -99999 -99999 -99999 -99999 -99999 -99999 -99999 -99999 -99999 -99999 -99999 -99999 -99999 2.3461618423461914062 8.70627593994140625 16.319871902465820312 25.466539382934570312 36.65338134765625 49.756710052490234375 63.769245147705078125 77.250579833984375 89.197998046875 97.4002227783203125 103.58036041259765625 110.73418426513671875 121.763702392578125 136.5095367431640625 151.55499267578125 164.2029571533203125 176.7031707763671875 191.773773193359375 206.8403472900390625 221.298065185546875 235.592926025390625 248.1070098876953125 256.83056640625 263.025787353515625 264.564666748046875 262.55926513671875 259.499664306640625 257.416473388671875 254.131622314453125 249.8904571533203125 246.0889739990234375 243.0725860595703125 241.26348876953125 240.002716064453125 239.218048095703125 239.481170654296875 240.8638153076171875 243.5502166748046875 247.6607666015625 253.3839569091796875 260.38067626953125 267.55487060546875 274.29461669921875 280.42901611328125 286.162689208984375 291.827789306640625 296.077239990234375 298.545684814453125 299.42718505859375 299.5748291015625 299.405029296875 299.0875244140625 298.752716064453125 298.641632080078125 298.706817626953125 298.90472412109375 299.048126220703125 299.202545166015625 299.34710693359375 299.3974609375 299.25933837890625 298.961578369140625 298.3350830078125 297.312744140625 295.9566650390625 294.178436279296875 292.032501220703125 289.6474609375 286.985015869140625 284.146453857421875 281.379364013671875 278.80499267578125 276.3094482421875 274.032989501953125 272.01788330078125 270.188751220703125 268.539886474609375 267.080841064453125 265.768280029296875 264.505767822265625 263.295501708984375 262.14581298828125 261.004302978515625 259.86724853515625 258.75018310546875 257.673675537109375 256.644134521484375 255.7016143798828125 254.8766632080078125 254.2092132568359375 253.7930908203125 253.5721282958984375 253.5122528076171875 253.5059661865234375 253.5684356689453125 253.529144287109375 252.9859771728515625 252.04962158203125 250.80517578125 249.30389404296875 247.95648193359375 246.917572021484375 245.8692169189453125 244.4962005615234375 242.6762542724609375 240.5610809326171875 238.3532257080078125 236.284576416015625 234.3662872314453125 232.7717437744140625 231.423797607421875 230.1635894775390625 228.925323486328125 228.5917510986328125 229.33441162109375 230.531402587890625 231.9152069091796875 233.306854248046875 234.756927490234375 236.155792236328125 237.4443511962890625 238.642059326171875 239.646942138671875 240.5469512939453125 241.2765045166015625 241.899627685546875 242.405059814453125 242.87591552734375 243.199005126953125 243.3831634521484375 243.55963134765625 243.60980224609375 243.5690765380859375 243.4657135009765625 243.2868194580078125 243.021148681640625 242.647064208984375 242.150482177734375 241.5642547607421875 240.889068603515625 240.0753173828125 239.119171142578125 238.0625457763671875 236.9094085693359375 235.5957183837890625 234.14813232421875 232.5590057373046875 -99999 -99999 -99999 -99999 -99999 -99999 -99999 -99999 -99999 -99999 -99999 -99999 -99999 -99999 -99999 -99999 -99999 -99999 -99999 -99999 -99999 -99999
 -99999 -99999 -99999 -99999 -99999 -99999 -99999 -99999 -99999 -99999 -99999 -99999 -99999 -99999 -99999 -99999 -99999 -99999 -99999 -99999 -99999 -99999 -99999 -99999 -99999 -99999 -99999 -99999 -99999 -99999 5.6314525604248046875 12.370219230651855469 20.219234466552734375 29.431379318237304688 40.353626251220703125 52.529750823974609375 65.4331512451171875 77.8008880615234375 88.7488861083984375 97.634674072265625 105.524566650390625 114.2602691650390625 125.64044952392578125 138.7437744140625 152.9488525390625 165.70892333984375 178.816864013671875 193.2462158203125 207.839447021484375 221.60772705078125 236.5331268310546875 248.6213836669921875 257.650604248046875 264.5482177734375 264.952239990234375 260.51214599609375 256.404571533203125 254.9907073974609375 251.79559326171875 246.718536376953125 241.462646484375 238.52252197265625 236.436065673828125 234.7567138671875 234.144287109375 234.157379150390625 234.81927490234375 237.0473785400390625 241.6301422119140625 248.01251220703125 255.8776397705078125 264.274871826171875 271.449859619140625 277.7061767578125 283.081146240234375 287.303558349609375 290.3253173828125 292.488983154296875 293.68121337890625 293.9559326171875 293.84423828125 293.79705810546875 293.879302978515625 294.081878662109375 294.273284912109375 294.616668701171875 294.988067626953125 295.340789794921875 295.670928955078125 296.027313232421875 296.216522216796875 296.16973876953125 295.80853271484375 295.055633544921875 293.8447265625 292.1622314453125 289.9736328125 287.377655029296875 284.66851806640625 281.987396240234375 279.1668701171875 276.54443359375 274.137298583984375 271.962890625 270.101318359375 268.522125244140625 267.171722412109375 266.0009765625 264.867767333984375 263.8370361328125 262.825592041015625 261.77264404296875 260.652984619140625 259.506591796875 258.35980224609375 257.210296630859375 256.141143798828125 255.176361083984375 254.3560638427734375 253.8201141357421875 253.564605712890625 253.53643798828125 253.884002685546875 254.47784423828125 255.083709716796875 255.531982421875 255.325469970703125 254.3568572998046875 252.83599853515625 251.07745361328125 249.4605865478515625 247.97296142578125 246.56646728515625 245.07159423828125 243.3748779296875 241.4597015380859375 239.46832275390625 237.6382904052734375 235.97216796875 234.4559326171875 233.0822296142578125 231.916717529296875 231.14874267578125 230.964996337890625 231.375 232.30712890625 233.4339752197265625 234.65972900390625 235.9022216796875 237.0061798095703125 238.0455322265625 238.9535369873046875 239.7170562744140625 240.3712921142578125 240.8823699951171875 241.35736083984375 241.66790771484375 241.8453826904296875 242.0150909423828125 242.082122802734375 242.0695343017578125 242.006256103515625 241.879669189453125 241.7002105712890625 241.3859405517578125 241.02862548828125 240.5908203125 240.0819091796875 239.4467620849609375 238.7071685791015625 237.873321533203125 236.9409027099609375 235.8878173828125 234.6951751708984375 233.369720458984375 231.9317169189453125 -99999 -99999 -99999 -99999 -99999 -99999 -99999 -99999 -99999 -99999 -99999 -99999 -99999 -99999 -99999 -99999 -99999 -99999 -99999 -99999 -99999 -99999 -99999
 -99999 -99999 -99999 -99999 -99999 -99999 -99999 -99999 -99999 -99999 -99999 -99999 -99999 -99999 -99999 -99999 -99999 -99999 -99999 -99999 -99999 -99999 -99999 -99999 -99999 -99999 -99999 -99999 -99999 4.0179247856140136719 9.82946014404296875 16.78218841552734375 24.62653350830078125 33.86049652099609375 44.198757171630859375 55.623443603515625 67.21701812744140625 78.62546539306640625 89.40332794189453125 99.06362152099609375 108.1343994140625 117.9352264404296875 128.742523193359375 141.5499267578125 154.4411163330078125 167.402374267578125 180.7893218994140625 194.8991851806640625 208.7714080810546875 222.7855072021484375 236.2067108154296875 247.6909942626953125 255.869415283203125 261.19061279296875 262.232391357421875 257.52783203125 252.95404052734375 252.705902099609375 249.772186279296875 241.4238433837890625 236.359619140625 233.61981201171875 231.40789794921875 229.76416015625 228.8498077392578125 228.61663818359375 229.047943115234375 230.5785980224609375 234.42706298828125 242.384674072265625 252.5031280517578125 262.405181884765625 271.1490478515625 277.940277099609375 281.590301513671875 283.695068359375 285.4232177734375 286.464996337890625 287.2576904296875 287.892333984375 288.227996826171875 288.365234375 288.646697998046875 289.1060791015625 289.700225830078125 290.261932373046875 290.816741943359375 291.438232421875 292.068756103515625 292.571319580078125 293.160552978515625 293.488616943359375 293.377288818359375 292.93499755859375 291.7999267578125 290.0745849609375 287.891571044921875 285.433349609375 282.60797119140625 279.63739013671875 276.833587646484375 274.168792724609375 271.8294677734375 269.822021484375 268.217987060546875 266.912872314453125 265.84625244140625 264.952423095703125 264.154266357421875 263.334136962890625 262.4600830078125 261.5125732421875 260.484619140625 259.333709716796875 258.11810302734375 256.91412353515625 255.7213287353515625 254.6504974365234375 253.803802490234375 253.29705810546875 253.14697265625 253.32550048828125 254.0037841796875 255.0268402099609375 256.1207275390625 257.03533935546875 257.338165283203125 256.068359375 254.2010498046875 252.3216552734375 250.5650177001953125 248.9778900146484375 247.38995361328125 245.8397216796875 244.25146484375 242.581390380859375 240.942413330078125 239.363128662109375 237.93389892578125 236.6529693603515625 235.5476531982421875 234.5836181640625 234.044189453125 233.9529571533203125 234.2651824951171875 234.8720550537109375 235.720977783203125 236.6655426025390625 237.574981689453125 238.398895263671875 239.100830078125 239.7062530517578125 240.190948486328125 240.639801025390625 240.880157470703125 241.057861328125 241.1174163818359375 241.11907958984375 241.06256103515625 240.95416259765625 240.803497314453125 240.618927001953125 240.3398895263671875 240.0037841796875 239.65997314453125 239.24371337890625 238.7321624755859375 238.12744140625 237.4580078125 236.707183837890625 235.8556060791015625 234.8651275634765625 233.7826995849609375 232.61834716796875 -99999 -99999 -99999 -99999 -99999 -99999 -99999 -99999 -99999 -99999 -99999 -99999 -99999 -99999 -99999 -99999 -99999 -99999 -99999 -99999 -99999 -99999 -99999 -99999 -99999
 -99999 -99999 -99999 -99999 -99999 -99999 -99999 -99999 -99999 -99999 -99999 -99999 -99999 -99999 -99999 -99999 -99999 -99999 -99999 -99999 -99999 -99999 -99999 -99999 -99999 -99999 -99999 -99999 3.3952798843383789062 8.6018733978271484375 14.657841682434082031 21.562574386596679688 29.403165817260742188 38.443695068359375 48.367488861083984375 58.915557861328125 69.94876861572265625 80.8481597900390625 91.2824859619140625 101.16888427734375 110.93685150146484375 121.24301910400390625 132.3577728271484375 144.39739990234375 156.9593353271484375 169.62957763671875 182.432891845703125 195.8419647216796875 209.072723388671875 221.8815460205078125 234.003753662109375 243.8185882568359375 251.5237579345703125 256.081268310546875 256.2515869140625 253.460906982421875 250.0198516845703125 246.7752685546875 243.7567901611328125 237.4333648681640625 231.5932464599609375 228.627197265625 226.2151336669921875 224.4669036865234375 223.5660400390625 223.389068603515625 223.4225311279296875 224.416046142578125 227.813385009765625 238.0655364990234375 250.80560302734375 263.853485107421875 274.59588623046875 279.758270263671875 280.4188232421875 279.722137451171875 279.624908447265625 280.640411376953125 281.4769287109375 282.04412841796875 282.382659912109375 282.681671142578125 283.333343505859375 284.189666748046875 285.121002197265625 286.06591796875 286.772216796875 287.4176025390625 288.2518310546875 289.19219970703125 290.1778564453125 290.939910888671875 291.300567626953125 291.027801513671875 290.07867431640625 288.4931640625 286.229461669921875 283.40533447265625 280.34185791015625 277.268707275390625 274.376556396484375 271.698974609375 269.43829345703125 267.620147705078125 266.208160400390625 265.21441650390625 264.558502197265625 264.051177978515625 263.5679931640625 263.029022216796875 262.343994140625 261.491790771484375 260.50152587890625 259.369842529296875 258.128082275390625 256.7882080078125 255.45892333984375 254.2452545166015625 253.227203369140625 252.523895263671875 252.3617095947265625 252.77532958984375 253.6800079345703125 254.9569244384765625 256.469390869140625 257.586334228515625 257.530242919921875 256.468048095703125 254.779998779296875 252.9492340087890625 251.212188720703125 249.64227294921875 248.1837921142578125 246.7872161865234375 245.3723907470703125 243.9966888427734375 242.684051513671875 241.481903076171875 240.3080902099609375 239.2535858154296875 238.4878692626953125 237.951202392578125 237.5308074951171875 237.35479736328125 237.601287841796875 238.06414794921875 238.5944671630859375 239.2551116943359375 239.7845458984375 240.2960205078125 240.6802978515625 240.9907684326171875 241.1203765869140625 241.1930999755859375 241.12884521484375 241.0125732421875 240.798004150390625 240.5465545654296875 240.34075927734375 240.0618896484375 239.711883544921875 239.32684326171875 238.9746551513671875 238.5866851806640625 238.1020355224609375 237.574462890625 236.991119384765625 236.345916748046875 235.6276092529296875 234.829010009765625 233.9573974609375 232.993896484375 231.9182586669921875 -99999 -99999 -99999 -99999 -99999 -99999 -99999 -99999 -99999 -99999 -99999 -99999 -99999 -99999 -99999 -99999 -99999 -99999 -99999 -99999 -99999 -99999 -99999 -99999 -99999 -99999
 -99999 -99999 -99999 -99999 -99999 -99999 -99999 -99999 -99999 -99999 -99999 -99999 -99999 -99999 -99999 -99999 -99999 -99999 -99999 -99999 -99999 -99999 -99999 -99999 -99999 -99999 -99999 3.5652015209197998047 8.3491163253784179688 13.747670173645019531 19.8016510009765625 26.771738052368164062 34.77342987060546875 43.295581817626953125 52.826038360595703125 62.9613037109375 73.225738525390625 83.6425018310546875 93.9212799072265625 104.02875518798828125 114.1876068115234375 124.455841064453125 135.5070953369140625 147.1969757080078125 159.06097412109375 171.5452117919921875 184.08050537109375 196.6194915771484375 208.9844970703125 220.8076629638671875 231.4329681396484375 240.423858642578125 246.66009521484375 249.996978759765625 250.4617462158203125 248.6316680908203125 245.6217803955078125 242.7837677001953125 237.6490020751953125 231.96624755859375 227.2851104736328125 223.684112548828125 220.8045806884765625 218.6842193603515625 217.8163909912109375 217.825439453125 218.6324615478515625 220.2420501708984375 226.044403076171875 235.834228515625 250.6568756103515625 264.87298583984375 276.320404052734375 281.3531494140625 278.464019775390625 274.919708251953125 273.873321533203125 275.0562744140625 276.050445556640625 276.529296875 276.726226806640625 277.183258056640625 278.107147216796875 279.428802490234375 280.81134033203125 281.948455810546875 282.835601806640625 283.5863037109375 284.5352783203125 285.869537353515625 287.3563232421875 288.638458251953125 289.434814453125 289.40948486328125 288.55731201171875 286.850921630859375 284.462432861328125 281.4678955078125 278.132476806640625 274.93304443359375 271.84564208984375 269.105560302734375 266.875732421875 265.2208251953125 264.141510009765625 263.631500244140625 263.47137451171875 263.39306640625 263.264068603515625 262.974884033203125 262.483978271484375 261.79266357421875 260.822601318359375 259.634674072265625 258.303436279296875 256.859344482421875 255.3381195068359375 253.9112091064453125 252.6543426513671875 251.782562255859375 251.4576263427734375 251.771942138671875 252.781585693359375 254.2159271240234375 255.7312469482421875 256.71380615234375 256.769317626953125 255.8338623046875 254.4720611572265625 253.0013885498046875 251.543975830078125 250.163421630859375 248.84552001953125 247.6912994384765625 246.6337738037109375 245.6214752197265625 244.64752197265625 243.8246612548828125 243.1158447265625 242.430084228515625 241.854766845703125 241.4941558837890625 241.3314971923828125 241.2958831787109375 241.44085693359375 241.7180633544921875 241.978912353515625 242.2677154541015625 242.4701690673828125 242.6232757568359375 242.6548614501953125 242.55682373046875 242.32177734375 241.995208740234375 241.5668487548828125 241.17144775390625 240.7719268798828125 240.2900848388671875 239.7476959228515625 239.240692138671875 238.77679443359375 238.3067474365234375 237.781707763671875 237.2388916015625 236.6514434814453125 236.068450927734375 235.43304443359375 234.7396240234375 233.984039306640625 233.159515380859375 232.250335693359375 231.20660400390625 -99999 -99999 -99999 -99999 -99999 -99999 -99999 -99999 -99999 -99999 -99999 -99999 -99999 -99999 -99999 -99999 -99999 -99999 -99999 -99999 -99999 -99999 -99999 -99999 -99999 -99999 -99999
 -99999 -99999 -99999 -99999 -99999 -99999 -99999 -99999 -99999 -99999 -99999 -99999 -99999 -99999 -99999 -99999 -99999 -99999 -99999 -99999 -99999 -99999 -99999 -99999 -99999 0.54211950302124023438 4.4273395538330078125 8.8119983673095703125 13.699388504028320312 19.204864501953125 25.4385986328125 32.37107086181640625 39.984088897705078125 48.50653839111328125 57.579868316650390625 67.090728759765625 77.00662994384765625 87.18621063232421875 97.2788543701171875 107.1840667724609375 117.4239349365234375 127.98775482177734375 138.7751922607421875 149.9446868896484375 161.48809814453125 173.3741455078125 185.1482696533203125 196.7979888916015625 207.98455810546875 218.656402587890625 227.8326873779296875 235.6335906982421875 240.7080078125 243.91705322265625 244.2337188720703125 242.7446746826171875 240.31927490234375 236.4846954345703125 232.4036102294921875 227.42266845703125 222.57269287109375 218.2939910888671875 215.027008056640625 212.9151763916015625 212.03570556640625 212.4739990234375 214.669525146484375 218.9099578857421875 226.0069122314453125 236.4778900146484375 248.48394775390625 261.151214599609375 271.023712158203125 274.64239501953125 273.43084716796875 270.150238037109375 269.18115234375 270.30401611328125 271.139556884765625 271.557708740234375 271.608154296875 272.115020751953125 273.259765625 275.164825439453125 277.027679443359375 278.35418701171875 279.16876220703125 279.71514892578125 280.757598876953125 282.441619873046875 284.57373046875 286.576934814453125 287.857330322265625 287.98822021484375 287.201751708984375 285.628326416015625 283.086669921875 279.72247314453125 275.865692138671875 272.35296630859375 269.23211669921875 266.533782958984375 264.361114501953125 262.811065673828125 262.10577392578125 262.112548828125 262.500762939453125 262.8897705078125 263.141143798828125 263.16949462890625 262.8612060546875 262.240325927734375 261.37774658203125 260.257080078125 258.850830078125 257.2584228515625 255.4993896484375 253.7543182373046875 252.162384033203125 250.96746826171875 250.34619140625 250.6277313232421875 251.7750396728515625 253.3130340576171875 254.6125335693359375 255.3928680419921875 255.4642333984375 254.8872833251953125 253.9114837646484375 252.6971893310546875 251.5332183837890625 250.4887542724609375 249.500701904296875 248.671051025390625 247.9602813720703125 247.363983154296875 246.81884765625 246.3525543212890625 246.017791748046875 245.766571044921875 245.67669677734375 245.554412841796875 245.5133209228515625 245.5614166259765625 245.6209564208984375 245.6463165283203125 245.6845245361328125 245.6618804931640625 245.531585693359375 245.2248687744140625 244.8433380126953125 244.2897186279296875 243.6211700439453125 242.996002197265625 242.340057373046875 241.5574798583984375 240.7609100341796875 240.0352783203125 239.349090576171875 238.676422119140625 238.019775390625 237.312591552734375 236.680206298828125 236.0587615966796875 235.37762451171875 234.71160888671875 234.024322509765625 233.28082275390625 232.4250640869140625 231.52685546875 230.59698486328125 -99999 -99999 -99999 -99999 -99999 -99999 -99999 -99999 -99999 -99999 -99999 -99999 -99999 -99999 -99999 -99999 -99999 -99999 -99999 -99999 -99999 -99999 -99999 -99999 -99999 -99999 -99999 -99999
 -99999 -99999 -99999 -99999 -99999 -99999 -99999 -99999 -99999 -99999 -99999 -99999 -99999 -99999 -99999 -99999 -99999 -99999 -99999 -99999 -99999 -99999 -99999 -99999 1.9896930456161499023 5.7725548744201660156 9.8300828933715820312 14.378741264343261719 19.496257781982421875 25.036329269409179688 31.309230804443359375 38.141376495361328125 45.613597869873046875 53.81574249267578125 62.57988739013671875 71.79815673828125 81.425872802734375 91.132598876953125 100.90674591064453125 110.89083099365234375 121.086151123046875 131.3220977783203125 141.82611083984375 152.644500732421875 163.77178955078125 174.9630126953125 186.07550048828125 196.87213134765625 207.2716064453125 216.7526092529296875 224.848419189453125 231.4355316162109375 235.9074859619140625 238.692596435546875 238.8254852294921875 237.9361724853515625 235.3746490478515625 231.3863983154296875 227.153167724609375 222.2187347412109375 217.333953857421875 213.029998779296875 209.44659423828125 206.9771728515625 206.1002044677734375 207.1557159423828125 210.471832275390625 216.29571533203125 224.33966064453125 233.9854888916015625 244.2608642578125 254.385528564453125 262.230743408203125 266.347381591796875 267.033721923828125 266.084564208984375 265.75970458984375 266.11163330078125 266.84625244140625 267.27935791015625 267.531951904296875 268.20892333984375 269.55975341796875 271.54742431640625 273.594085693359375 275.059051513671875 275.848968505859375 276.312896728515625 277.355255126953125 279.533905029296875 282.1661376953125 284.75213623046875 286.43048095703125 286.598175048828125 285.76580810546875 284.301483154296875 281.73626708984375 277.905609130859375 273.40765380859375 269.864837646484375 266.73760986328125 263.94708251953125 261.7095947265625 260.3839111328125 260.141082763671875 260.652984619140625 261.59130859375 262.730499267578125 263.5118408203125 263.733489990234375 263.52691650390625 262.981109619140625 262.1278076171875 261.0126953125 259.6082763671875 257.957733154296875 256.070098876953125 253.978057861328125 251.936676025390625 250.33001708984375 249.514739990234375 249.5909271240234375 250.7125091552734375 252.3090057373046875 253.647674560546875 254.3851165771484375 254.4031524658203125 253.8924407958984375 253.128570556640625 252.2596588134765625 251.38690185546875 250.6522369384765625 250.0897369384765625 249.6788482666015625 249.321685791015625 249.094390869140625 249.06011962890625 249.1598663330078125 249.2646484375 249.3692169189453125 249.5401763916015625 249.786285400390625 249.93499755859375 250.0608062744140625 250.0429534912109375 249.9474029541015625 249.688232421875 249.2627410888671875 248.697509765625 247.955230712890625 247.1210174560546875 246.23016357421875 245.254547119140625 244.1768646240234375 243.083953857421875 242.0443115234375 240.9945068359375 240.007354736328125 239.0198974609375 238.1472015380859375 237.3141021728515625 236.4471588134765625 235.6910400390625 234.9993133544921875 234.2772674560546875 233.498626708984375 232.67974853515625 231.8631744384765625 231.023956298828125 230.1279449462890625 -99999 -99999 -99999 -99999 -99999 -99999 -99999 -99999 -99999 -99999 -99999 -99999 -99999 -99999 -99999 -99999 -99999 -99999 -99999 -99999 -99999 -99999 -99999 -99999 -99999 -99999 -99999 -99999 -99999
 -99999 -99999 -99999 -99999 -99999 -99999 -99999 -99999 -99999 -99999 -99999 -99999 -99999 -99999 -99999 -99999 -99999 -99999 -99999 -99999 -99999 -99999 0.38061749935150146484 3.7524054050445556641 7.40044403076171875 11.266335487365722656 15.549969673156738281 20.268068313598632812 25.328287124633789062 31.000562667846679688 37.221416473388671875 44.00682830810546875 51.50042724609375 59.487529754638671875 67.94426727294921875 76.7537841796875 86.00734710693359375 95.4257354736328125 105.06036376953125 114.85932159423828125 124.84375 134.79241943359375 144.99102783203125 155.462860107421875 165.996978759765625 176.474884033203125 186.6612396240234375 196.590789794921875 205.817596435546875 214.23651123046875 221.2241973876953125 226.94500732421875 230.813751220703125 232.7834320068359375 233.2754974365234375 232.02398681640625 229.487335205078125 226.558868408203125 222.0309906005859375 217.341827392578125 212.6081390380859375 208.0293426513671875 203.904266357421875 200.872100830078125 199.6720123291015625 201.415435791015625 205.714691162109375 212.05657958984375 220.0326995849609375 228.8675537109375 238.1235198974609375 246.63629150390625 253.6898345947265625 258.18023681640625 260.201995849609375 260.95843505859375 261.424957275390625 262.0538330078125 262.705841064453125 263.471435546875 264.181854248046875 265.211090087890625 266.6199951171875 268.4266357421875 270.287567138671875 271.7991943359375 272.9364013671875 273.75341796875 274.99188232421875 277.2220458984375 280.074432373046875 282.7554931640625 284.66107177734375 284.751678466796875 283.974365234375 282.932281494140625 281.96588134765625 276.069610595703125 271.050933837890625 267.551971435546875 264.576690673828125 261.574981689453125 259.199432373046875 257.890472412109375 257.9241943359375 259.512237548828125 261.39215087890625 262.984100341796875 264.132080078125 264.61273193359375 264.41943359375 263.8736572265625 263.0948486328125 262.040985107421875 260.71099853515625 259.05633544921875 256.96197509765625 254.657501220703125 252.3353118896484375 250.3177032470703125 248.9670867919921875 249.01312255859375 250.540771484375 252.32470703125 253.3668365478515625 253.6939239501953125 253.5392913818359375 253.0480194091796875 252.3217926025390625 251.6601409912109375 251.1720428466796875 250.778594970703125 250.563385009765625 250.5147705078125 250.7167816162109375 251.00726318359375 251.4074859619140625 251.901763916015625 252.4660491943359375 253.05987548828125 253.6483001708984375 254.2002716064453125 254.57244873046875 254.7026214599609375 254.6343231201171875 254.297637939453125 253.7216644287109375 252.8849639892578125 251.9592437744140625 250.87030029296875 249.63739013671875 248.2915496826171875 246.9254302978515625 245.4451751708984375 243.9783782958984375 242.5626678466796875 241.2292327880859375 239.9737091064453125 238.7121429443359375 237.6201934814453125 236.6908721923828125 235.7831573486328125 234.9236907958984375 234.04949951171875 233.1739654541015625 232.3489532470703125 231.529205322265625 230.6676177978515625 -99999 -99999 -99999 -99999 -99999 -99999 -99999 -99999 -99999 -99999 -99999 -99999 -99999 -99999 -99999 -99999 -99999 -99999 -99999 -99999 -99999 -99999 -99999 -99999 -99999 -99999 -99999 -99999 -99999 -99999 -99999
 -99999 -99999 -99999 -99999 -99999 -99999 -99999 -99999 -99999 -99999 -99999 -99999 -99999 -99999 -99999 -99999 -99999 -99999 -99999 -99999 -99999 2.3465104103088378906 5.6684260368347167969 9.2258005142211914062 12.94146728515625 16.977769851684570312 21.447633743286132812 26.281866073608398438 31.518604278564453125 37.210170745849609375 43.395824432373046875 50.2464141845703125 57.4906463623046875 65.16361236572265625 73.3344268798828125 82.06456756591796875 90.8808746337890625 99.99271392822265625 109.40694427490234375 118.89430999755859375 128.476898193359375 138.1782989501953125 148.082366943359375 158.1637420654296875 168.174407958984375 177.83349609375 187.417083740234375 196.4594573974609375 204.812255859375 212.162750244140625 218.41925048828125 223.237335205078125 226.484527587890625 228.5186004638671875 228.4822540283203125 227.5767974853515625 225.4074554443359375 221.928802490234375 217.600799560546875 213.314239501953125 208.3494873046875 203.3981781005859375 198.61407470703125 194.978607177734375 193.3530120849609375 194.592498779296875 199.561676025390625 206.6778106689453125 214.6002960205078125 223.0088653564453125 231.479461669921875 239.3075714111328125 245.97698974609375 250.840301513671875 254.0681304931640625 255.833221435546875 257.080902099609375 258.165313720703125 259.173004150390625 260.19061279296875 261.228759765625 262.4705810546875 263.9635009765625 265.687835693359375 267.446441650390625 269.041107177734375 270.384674072265625 271.73931884765625 273.47467041015625 275.568115234375 278.0579833984375 280.309112548828125 281.896331787109375 282.132598876953125 281.60479736328125 280.479949951171875 278.909393310546875 273.74615478515625 269.051910400390625 265.800384521484375 262.75982666015625 259.82421875 257.32781982421875 255.612091064453125 256.559173583984375 258.69635009765625 261.24481201171875 263.678375244140625 265.289764404296875 265.56182861328125 265.343505859375 264.839385986328125 264.190399169921875 263.364501953125 262.16650390625 260.5875244140625 258.52008056640625 255.9947967529296875 253.3937835693359375 251.30584716796875 250.3248748779296875 251.0006256103515625 252.4771881103515625 253.4699554443359375 253.9221649169921875 253.777099609375 253.165740966796875 252.3380126953125 251.648406982421875 251.104522705078125 250.81298828125 250.8114776611328125 251.08538818359375 251.4857940673828125 252.1077117919921875 252.88330078125 253.7551727294921875 254.7028656005859375 255.7399139404296875 256.856109619140625 257.878570556640625 258.69085693359375 259.21197509765625 259.39837646484375 259.249603271484375 258.643402099609375 257.74200439453125 256.613311767578125 255.197998046875 253.7440338134765625 252.1159210205078125 250.2704010009765625 248.4366455078125 246.6428985595703125 244.85333251953125 243.1598968505859375 241.443084716796875 239.97808837890625 238.5861053466796875 237.3843231201171875 236.264892578125 235.12945556640625 234.09918212890625 233.1788482666015625 232.2925567626953125 231.3780364990234375 230.4320526123046875 -99999 -99999 -99999 -99999 -99999 -99999 -99999 -99999 -99999 -99999 -99999 -99999 -99999 -99999 -99999 -99999 -99999 -99999 -99999 -99999 -99999 -99999 -99999 -99999 -99999 -99999 -99999 -99999 -99999 -99999 -99999 -99999
 -99999 -99999 -99999 -99999 -99999 -99999 -99999 -99999 -99999 -99999 -99999 -99999 -99999 -99999 -99999 -99999 -99999 -99999 -99999 1.1255414485931396484 4.3606710433959960938 7.6584429740905761719 11.149316787719726562 14.859592437744140625 18.786764144897460938 22.995367050170898438 27.592519760131835938 32.483226776123046875 37.75384521484375 43.497699737548828125 49.760242462158203125 56.362789154052734375 63.468341827392578125 71.0089263916015625 79.02970123291015625 87.35193634033203125 95.9570159912109375 104.76601409912109375 113.964019775390625 123.22199249267578125 132.4016876220703125 141.9181365966796875 151.2457427978515625 160.6753997802734375 170.196624755859375 179.1725311279296875 187.970611572265625 195.979583740234375 203.496063232421875 210.1457977294921875 215.4007720947265625 219.719451904296875 222.5443115234375 223.8298492431640625 224.31744384765625 223.156707763671875 220.730987548828125 217.887176513671875 214.5216064453125 210.0278472900390625 205.08251953125 199.9523162841796875 194.8610076904296875 190.1126251220703125 186.5538787841796875 188.51702880859375 193.838623046875 201.1466217041015625 209.207244873046875 217.4367523193359375 225.4725341796875 232.947357177734375 239.2635498046875 244.1822967529296875 247.98553466796875 250.720001220703125 252.7826080322265625 254.34674072265625 255.7587432861328125 257.064727783203125 258.43414306640625 259.931549072265625 261.5623779296875 263.27191162109375 265.004913330078125 266.693206787109375 268.329803466796875 269.959014892578125 271.75836181640625 273.790069580078125 275.901458740234375 277.6953125 278.96282958984375 279.2340087890625 278.77484130859375 277.507476806640625 275.29608154296875 271.43341064453125 267.714996337890625 264.476654052734375 261.55926513671875 258.8541259765625 256.597320556640625 255.494598388671875 256.2939453125 258.5828857421875 261.430328369140625 264.121002197265625 265.89990234375 266.35821533203125 266.129852294921875 265.7874755859375 265.307769775390625 264.704620361328125 263.939788818359375 262.707794189453125 260.61956787109375 257.9808349609375 255.528533935546875 253.92169189453125 254.4403228759765625 255.3917999267578125 256.023834228515625 256.03411865234375 255.394805908203125 254.304046630859375 253.07684326171875 251.867156982421875 250.9747161865234375 250.5926971435546875 250.6204376220703125 250.9361114501953125 251.717498779296875 252.5718536376953125 253.545135498046875 254.6883697509765625 255.98876953125 257.51116943359375 259.04473876953125 260.540496826171875 261.959259033203125 263.207763671875 263.991424560546875 264.132965087890625 263.79840087890625 263.00042724609375 261.756683349609375 260.18402099609375 258.39971923828125 256.39434814453125 254.30645751953125 252.1602325439453125 250.0077972412109375 247.796630859375 245.6431121826171875 243.62384033203125 241.7274627685546875 240.088836669921875 238.516937255859375 237.0504913330078125 235.770782470703125 234.5900115966796875 233.5124969482421875 232.4791412353515625 231.4387054443359375 230.4722137451171875 -99999 -99999 -99999 -99999 -99999 -99999 -99999 -99999 -99999 -99999 -99999 -99999 -99999 -99999 -99999 -99999 -99999 -99999 -99999 -99999 -99999 -99999 -99999 -99999 -99999 -99999 -99999 -99999 -99999 -99999 -99999 -99999 -99999
 -99999 -99999 -99999 -99999 -99999 -99999 -99999 -99999 -99999 -99999 -99999 -99999 -99999 -99999 -99999 -99999 -99999 -99999 3.0746364593505859375 6.3398766517639160156 9.7017793655395507812 13.167491912841796875 16.837596893310546875 20.688140869140625 24.7672882080078125 29.138299942016601562 33.7835235595703125 38.74507904052734375 44.071048736572265625 49.87126922607421875 56.075099945068359375 62.67028045654296875 69.6580352783203125 76.97167205810546875 84.82988739013671875 92.870574951171875 101.18074798583984375 109.90793609619140625 118.67026519775390625 127.394683837890625 136.477508544921875 145.391510009765625 154.3394927978515625 163.42279052734375 172.06463623046875 180.5012664794921875 188.4871063232421875 196.0270233154296875 202.63311767578125 208.4793701171875 213.2163848876953125 216.8530120849609375 218.9733734130859375 220.3841094970703125 220.721435546875 219.532501220703125 218.07305908203125 215.398040771484375 211.5938568115234375 207.451171875 203.2368621826171875 198.325439453125 192.9103546142578125 187.7801971435546875 184.4129791259765625 184.4633941650390625 190.0887298583984375 197.4000396728515625 205.0305328369140625 212.807159423828125 220.427734375 227.38470458984375 233.5180511474609375 238.7456817626953125 242.85699462890625 245.9997406005859375 248.5771331787109375 250.6894073486328125 252.547027587890625 254.2393951416015625 255.89312744140625 257.608123779296875 259.343475341796875 261.100189208984375 262.833984375 264.675445556640625 266.43060302734375 268.24615478515625 270.06329345703125 271.9139404296875 273.764312744140625 275.234771728515625 276.18328857421875 276.513153076171875 275.83917236328125 274.5625 272.333587646484375 269.515655517578125 266.442169189453125 263.568359375 260.95147705078125 258.676422119140625 256.896759033203125 256.264495849609375 257.121978759765625 258.947479248046875 261.33258056640625 263.851165771484375 265.628265380859375 266.374298095703125 266.6541748046875 266.697998046875 266.569976806640625 266.296600341796875 265.822723388671875 264.72320556640625 262.955718994140625 260.54052734375 258.8416748046875 259.5218505859375 260.723480224609375 261.211578369140625 260.665130615234375 259.065887451171875 257.15087890625 255.1371002197265625 253.2010040283203125 251.544830322265625 250.347930908203125 249.9429779052734375 250.4502716064453125 251.3331146240234375 252.3969573974609375 253.57427978515625 254.8816375732421875 256.487579345703125 258.2769775390625 260.184051513671875 262.14935302734375 264.17816162109375 266.052154541015625 267.543304443359375 268.5496826171875 268.874603271484375 268.3543701171875 267.0987548828125 265.37066650390625 263.31927490234375 261.12969970703125 258.80706787109375 256.43060302734375 253.88983154296875 251.3125457763671875 248.8170928955078125 246.3996429443359375 244.2177734375 242.1300506591796875 240.1451416015625 238.3641510009765625 236.840911865234375 235.4500885009765625 234.149169921875 232.9500885009765625 231.8341064453125 230.7994537353515625 -99999 -99999 -99999 -99999 -99999 -99999 -99999 -99999 -99999 -99999 -99999 -99999 -99999 -99999 -99999 -99999 -99999 -99999 -99999 -99999 -99999 -99999 -99999 -99999 -99999 -99999 -99999 -99999 -99999 -99999 -99999 -99999 -99999 -99999
 -99999 -99999 -99999 -99999 -99999 -99999 -99999 -99999 -99999 -99999 -99999 -99999 -99999 -99999 -99999 -99999 1.73383331298828125 5.0147156715393066406 8.2388753890991210938 11.695585250854492188 15.218773841857910156 18.859127044677734375 22.642175674438476562 26.6504669189453125 30.880025863647460938 35.308544158935546875 40.08705902099609375 45.1325531005859375 50.526035308837890625 56.3443145751953125 62.4891357421875 68.93573760986328125 75.74822235107421875 83.04454803466796875 90.56792449951171875 98.3717193603515625 106.49118804931640625 114.70378875732421875 123.1872406005859375 131.704498291015625 140.349639892578125 149.01385498046875 157.6492767333984375 166.04351806640625 174.164337158203125 182.0286407470703125 189.3729705810546875 196.169830322265625 202.077117919921875 207.2015228271484375 211.2882232666015625 214.4781494140625 216.5357666015625 217.4947052001953125 217.631988525390625 217.0399017333984375 215.072662353515625 212.895599365234375 210.5350189208984375 207.1095123291015625 202.73944091796875 198.0493927001953125 193.468475341796875 189.0866546630859375 185.545654296875 185.9040985107421875 189.84869384765625 195.9159698486328125 202.5863800048828125 209.6605377197265625 216.519805908203125 223.0530853271484375 228.942901611328125 234.1083831787109375 238.45330810546875 241.9162750244140625 244.7639007568359375 247.3613433837890625 249.670806884765625 251.61639404296875 253.4534149169921875 255.3350067138671875 257.176239013671875 259.11865234375 261.001708984375 262.845947265625 264.69573974609375 266.517791748046875 268.328399658203125 270.063201904296875 271.59320068359375 272.915863037109375 273.61090087890625 273.75091552734375 273.29583740234375 272.128570556640625 270.183990478515625 267.848724365234375 265.354248046875 262.8658447265625 260.59625244140625 258.727569580078125 257.5255126953125 257.17181396484375 257.755157470703125 259.22259521484375 261.214599609375 263.275634765625 264.983642578125 266.12310791015625 266.932037353515625 267.512298583984375 267.898590087890625 268.01611328125 267.681793212890625 266.632781982421875 264.952911376953125 263.149932861328125 262.949920654296875 264.13861083984375 265.65509033203125 265.58795166015625 264.232177734375 261.5906982421875 258.843231201171875 256.16876220703125 253.6270599365234375 251.22357177734375 249.9266510009765625 249.8384246826171875 250.617034912109375 251.9613189697265625 253.336517333984375 254.8003387451171875 256.409210205078125 258.249664306640625 260.35186767578125 262.666473388671875 265.099853515625 267.5224609375 269.835906982421875 271.86505126953125 273.170196533203125 273.425079345703125 272.528717041015625 270.732452392578125 268.509857177734375 266.100799560546875 263.513458251953125 260.911346435546875 258.144683837890625 255.398834228515625 252.6158599853515625 249.8624114990234375 247.117462158203125 244.591278076171875 242.2281646728515625 240.184600830078125 238.321502685546875 236.6343841552734375 235.15087890625 233.816314697265625 232.499847412109375 -99999 -99999 -99999 -99999 -99999 -99999 -99999 -99999 -99999 -99999 -99999 -99999 -99999 -99999 -99999 -99999 -99999 -99999 -99999 -99999 -99999 -99999 -99999 -99999 -99999 -99999 -99999 -99999 -99999 -99999 -99999 -99999 -99999 -99999 -99999 -99999
 -99999 -99999 -99999 -99999 -99999 -99999 -99999 -99999 -99999 -99999 -99999 -99999 -99999 -99999 0.11424054950475692749 3.4464714527130126953 6.8146347999572753906 10.202900886535644531 13.6599273681640625 17.228918075561523438 20.862974166870117188 24.653207778930664062 28.611371994018554688 32.691070556640625 37.044193267822265625 41.644962310791015625 46.469928741455078125 51.56172943115234375 57.023113250732421875 62.732818603515625 68.763824462890625 75.1617584228515625 81.9446563720703125 89.0031890869140625 96.3252105712890625 103.9144439697265625 111.825775146484375 119.86785888671875 127.89426422119140625 136.2352447509765625 144.4774017333984375 152.625457763671875 160.7849884033203125 168.702789306640625 176.3522186279296875 183.553619384765625 190.3281097412109375 196.2725372314453125 201.7604827880859375 206.19305419921875 209.76812744140625 212.6437530517578125 214.1801300048828125 215.176177978515625 215.33331298828125 214.7890625 213.6966705322265625 211.9881591796875 209.514190673828125 206.7284698486328125 203.6768341064453125 199.8846435546875 195.545745849609375 191.69024658203125 189.091033935546875 189.2036895751953125 191.62152099609375 196.150726318359375 201.8006134033203125 207.7855682373046875 213.90301513671875 220.0139007568359375 225.496063232421875 230.4262237548828125 234.7021636962890625 238.51104736328125 241.79412841796875 244.519866943359375 246.914825439453125 249.1856689453125 251.3263092041015625 253.3798828125 255.366973876953125 257.35003662109375 259.28570556640625 261.1932373046875 263.06622314453125 264.8868408203125 266.6156005859375 268.27203369140625 269.702178955078125 270.662811279296875 271.3955078125 271.51141357421875 270.975677490234375 269.92919921875 268.407073974609375 266.519775390625 264.37396240234375 262.25225830078125 260.444610595703125 258.986602783203125 258.002899169921875 257.720458984375 258.1832275390625 259.3773193359375 260.994720458984375 262.71197509765625 264.367889404296875 265.8463134765625 266.998931884765625 268.0411376953125 269.00030517578125 269.7410888671875 269.892364501953125 268.798187255859375 267.12713623046875 266.129302978515625 265.96392822265625 266.863067626953125 267.70721435546875 267.228515625 265.6761474609375 263.13421630859375 260.192474365234375 257.3076171875 254.40167236328125 251.9054412841796875 250.216888427734375 250.274017333984375 251.3454132080078125 252.97210693359375 254.5955963134765625 256.179901123046875 257.834869384765625 259.82208251953125 262.249420166015625 264.97479248046875 267.765716552734375 270.5150146484375 273.180938720703125 275.714599609375 277.32940673828125 277.496856689453125 276.06439208984375 273.761138916015625 271.00872802734375 268.224334716796875 265.404571533203125 262.575439453125 259.645599365234375 256.6644287109375 253.5567626953125 250.48370361328125 247.57196044921875 244.890350341796875 242.3838348388671875 240.267364501953125 238.3345489501953125 236.56591796875 234.9730987548828125 233.503570556640625 -99999 -99999 -99999 -99999 -99999 -99999 -99999 -99999 -99999 -99999 -99999 -99999 -99999 -99999 -99999 -99999 -99999 -99999 -99999 -99999 -99999 -99999 -99999 -99999 -99999 -99999 -99999 -99999 -99999 -99999 -99999 -99999 -99999 -99999 -99999 -99999 -99999
 -99999 -99999 -99999 -99999 -99999 -99999 -99999 -99999 -99999 -99999 -99999 -99999 -99999 1.5503437519073486328 5.0225243568420410156 8.4662218093872070312 11.992259979248046875 15.554953575134277344 19.103992462158203125 22.832956314086914062 26.65267181396484375 30.570156097412109375 34.623996734619140625 38.887660980224609375 43.3335113525390625 47.942523956298828125 52.822113037109375 57.9752960205078125 63.386871337890625 69.12060546875 75.1526641845703125 81.4606475830078125 88.09754180908203125 94.954010009765625 102.073760986328125 109.55774688720703125 117.099853515625 124.778533935546875 132.6455230712890625 140.4965057373046875 148.37847900390625 156.2754974365234375 164.0855560302734375 171.4756622314453125 178.5775909423828125 185.324432373046875 191.3253936767578125 197.03424072265625 201.824859619140625 205.817840576171875 209.033477783203125 211.3080596923828125 212.8412322998046875 213.5560455322265625 213.527587890625 213.306365966796875 212.1959228515625 210.8687591552734375 209.5909881591796875 207.804412841796875 205.4141693115234375 202.0429229736328125 198.23834228515625 194.806060791015625 192.5470733642578125 192.2153167724609375 193.9999542236328125 197.3115386962890625 201.8300323486328125 207.1462554931640625 212.5606231689453125 217.8173065185546875 222.867401123046875 227.680633544921875 231.98907470703125 235.7004241943359375 238.9741363525390625 241.9583740234375 244.60321044921875 247.09613037109375 249.374114990234375 251.5919342041015625 253.7072601318359375 255.7539215087890625 257.75482177734375 259.678955078125 261.551605224609375 263.359161376953125 265.041351318359375 266.532073974609375 267.803375244140625 268.783660888671875 269.317962646484375 269.404571533203125 269.092681884765625 268.188568115234375 266.886688232421875 265.26361083984375 263.625335693359375 261.9239501953125 260.39703369140625 259.1771240234375 258.377044677734375 258.121826171875 258.52423095703125 259.40521240234375 260.65576171875 262.200958251953125 263.78875732421875 265.31134033203125 266.81842041015625 268.31793212890625 269.7589111328125 271.073333740234375 271.995697021484375 271.19866943359375 269.417633056640625 268.569488525390625 268.348846435546875 268.439300537109375 268.33319091796875 267.66461181640625 266.096405029296875 263.745941162109375 261.09881591796875 258.39251708984375 255.755859375 253.416595458984375 252.175323486328125 251.904754638671875 252.86871337890625 254.365234375 255.97705078125 257.734405517578125 259.455291748046875 261.560821533203125 264.277740478515625 267.14678955078125 270.14312744140625 273.0616455078125 275.990631103515625 278.8232421875 281.044158935546875 281.10101318359375 279.13330078125 275.9677734375 272.740142822265625 269.689422607421875 266.709503173828125 263.768310546875 260.72607421875 257.60076904296875 254.384979248046875 251.1043548583984375 247.8644866943359375 245.1702728271484375 242.6717529296875 240.4007415771484375 238.3407745361328125 236.484344482421875 234.8488311767578125 -99999 -99999 -99999 -99999 -99999 -99999 -99999 -99999 -99999 -99999 -99999 -99999 -99999 -99999 -99999 -99999 -99999 -99999 -99999 -99999 -99999 -99999 -99999 -99999 -99999 -99999 -99999 -99999 -99999 -99999 -99999 -99999 -99999 -99999 -99999 -99999 -99999 -99999
 -99999 -99999 -99999 -99999 -99999 -99999 -99999 -99999 -99999 -99999 -99999 -99999 2.8219826221466064453 6.4025950431823730469 9.96990966796875 13.616324424743652344 17.245197296142578125 20.983518600463867188 24.686368942260742188 28.5793304443359375 32.499034881591796875 36.5752105712890625 40.744541168212890625 45.058795928955078125 49.558940887451171875 54.299922943115234375 59.22644805908203125 64.3847503662109375 69.84972381591796875 75.53035736083984375 81.401031494140625 87.627685546875 94.14239501953125 100.8618316650390625 107.8241729736328125 115.00273895263671875 122.35314178466796875 129.7720489501953125 137.3323211669921875 144.9195098876953125 152.477203369140625 160.0199127197265625 167.33428955078125 174.321258544921875 180.9703521728515625 187.2984771728515625 192.968536376953125 197.8746185302734375 202.2854461669921875 205.67913818359375 208.318634033203125 210.4484710693359375 211.516326904296875 212.1285552978515625 212.138427734375 211.89892578125 211.295501708984375 210.4878082275390625 209.5008392333984375 208.491973876953125 207.4285125732421875 204.47967529296875 200.7718505859375 197.742584228515625 195.7855377197265625 195.431427001953125 196.667205810546875 199.0822601318359375 202.695831298828125 206.9895172119140625 211.7059783935546875 216.617523193359375 221.40386962890625 225.71197509765625 229.7069244384765625 233.4436798095703125 236.8443756103515625 239.969268798828125 242.725555419921875 245.324005126953125 247.7368316650390625 250.0150604248046875 252.2147674560546875 254.3148651123046875 256.358489990234375 258.3297119140625 260.20574951171875 261.93402099609375 263.528533935546875 264.97491455078125 266.134307861328125 267.031768798828125 267.54058837890625 267.675262451171875 267.3804931640625 266.692596435546875 265.678070068359375 264.413543701171875 263.01422119140625 261.642242431640625 260.336517333984375 259.28271484375 258.64556884765625 258.41156005859375 258.604278564453125 259.3072509765625 260.3543701171875 261.6285400390625 263.078765869140625 264.661163330078125 266.28125 267.977630615234375 269.756317138671875 271.63934326171875 273.085906982421875 272.72271728515625 271.33880615234375 270.33233642578125 269.640869140625 269.25604248046875 268.81695556640625 267.80828857421875 266.2613525390625 264.321044921875 261.905426025390625 259.43536376953125 257.14581298828125 255.2771148681640625 254.14385986328125 254.03460693359375 254.6715087890625 255.96588134765625 257.54693603515625 259.280364990234375 261.239837646484375 263.5406494140625 266.263763427734375 269.213958740234375 272.20458984375 275.157257080078125 278.088531494140625 281.036956787109375 283.444610595703125 283.408294677734375 280.7137451171875 277.19287109375 273.706146240234375 270.620361328125 267.607666015625 264.6361083984375 261.620758056640625 258.49859619140625 255.084075927734375 251.477203369140625 248.258758544921875 245.4193572998046875 242.8413543701171875 240.5281829833984375 238.4560089111328125 236.5496826171875 -99999 -99999 -99999 -99999 -99999 -99999 -99999 -99999 -99999 -99999 -99999 -99999 -99999 -99999 -99999 -99999 -99999 -99999 -99999 -99999 -99999 -99999 -99999 -99999 -99999 -99999 -99999 -99999 -99999 -99999 -99999 -99999 -99999 -99999 -99999 -99999 -99999 -99999 -99999
 -99999 -99999 -99999 -99999 -99999 -99999 -99999 -99999 -99999 -99999 0.13831813633441925049 3.8589594364166259766 7.5934572219848632812 11.339205741882324219 15.097683906555175781 18.84690093994140625 22.69501495361328125 26.508310317993164062 30.334039688110351562 34.338253021240234375 38.41809844970703125 42.546169281005859375 46.8431854248046875 51.294460296630859375 55.89752197265625 60.6237335205078125 65.60643768310546875 70.77318572998046875 76.14559173583984375 81.8072509765625 87.6687774658203125 93.77978515625 100.1074676513671875 106.64178466796875 113.44140625 120.395111083984375 127.4450225830078125 134.6786041259765625 141.907470703125 149.1516265869140625 156.4808197021484375 163.5700225830078125 170.4872283935546875 177.1369171142578125 183.505767822265625 189.2730865478515625 194.519989013671875 199.1183929443359375 202.8700714111328125 206.0593109130859375 208.492095947265625 210.019256591796875 210.8935394287109375 211.3690032958984375 211.209442138671875 211.0145416259765625 210.5465087890625 209.8458709716796875 209.16015625 208.7311248779296875 207.910400390625 205.68536376953125 202.8482208251953125 200.2931060791015625 198.707061767578125 198.3318939208984375 199.2530670166015625 201.2798614501953125 204.2002105712890625 207.76776123046875 211.8475494384765625 215.9720001220703125 220.2003173828125 224.3212127685546875 228.236419677734375 231.891204833984375 235.1933746337890625 238.3102569580078125 241.153411865234375 243.80670166015625 246.2982025146484375 248.6668701171875 250.96197509765625 253.09710693359375 255.1535797119140625 257.06048583984375 258.868438720703125 260.6434326171875 262.206878662109375 263.535125732421875 264.66778564453125 265.525054931640625 266.058349609375 266.231658935546875 266.0426025390625 265.54144287109375 264.73748779296875 263.712127685546875 262.55242919921875 261.372833251953125 260.331878662109375 259.4447021484375 258.8316650390625 258.562530517578125 258.6490478515625 259.0845947265625 259.83892822265625 260.958099365234375 262.280670166015625 263.769805908203125 265.413055419921875 267.1689453125 268.964996337890625 270.812225341796875 272.317138671875 272.665130615234375 271.95477294921875 271.0831298828125 270.407562255859375 269.7720947265625 268.997406005859375 267.94525146484375 266.490203857421875 264.658233642578125 262.61907958984375 260.586334228515625 258.688934326171875 257.25927734375 256.3359375 256.18719482421875 256.71630859375 257.80450439453125 259.303985595703125 261.1072998046875 263.128875732421875 265.468170166015625 268.14093017578125 270.985748291015625 273.948974609375 276.866058349609375 279.735748291015625 282.17987060546875 283.765411376953125 283.660125732421875 281.247406005859375 278.01300048828125 274.58123779296875 271.400390625 268.335479736328125 265.315887451171875 262.301055908203125 259.124755859375 255.7191925048828125 251.802886962890625 248.4173431396484375 245.638214111328125 243.051971435546875 240.7479248046875 238.6556396484375 -99999 -99999 -99999 -99999 -99999 -99999 -99999 -99999 -99999 -99999 -99999 -99999 -99999 -99999 -99999 -99999 -99999 -99999 -99999 -99999 -99999 -99999 -99999 -99999 -99999 -99999 -99999 -99999 -99999 -99999 -99999 -99999 -99999 -99999 -99999 -99999 -99999 -99999 -99999 -99999
 -99999 -99999 -99999 -99999 -99999 -99999 -99999 -99999 -99999 0.76532697677612304688 4.7022533416748046875 8.6155328750610351562 12.490567207336425781 16.3570709228515625 20.265026092529296875 24.164691925048828125 28.091009140014648438 32.063655853271484375 36.07826995849609375 40.193927764892578125 44.357921600341796875 48.647220611572265625 53.0099639892578125 57.484161376953125 62.146045684814453125 66.96051788330078125 71.92292022705078125 77.03536224365234375 82.4610443115234375 88.0146026611328125 93.785614013671875 99.7698516845703125 105.91259765625 112.3833465576171875 118.9835968017578125 125.66054534912109375 132.592803955078125 139.5302276611328125 146.501251220703125 153.5081787109375 160.4539794921875 167.2640228271484375 173.823272705078125 180.19287109375 186.1222991943359375 191.64093017578125 196.544464111328125 200.6719207763671875 204.1824951171875 206.8874664306640625 208.787200927734375 210.1389923095703125 210.6569976806640625 210.72015380859375 210.463134765625 210.28570556640625 209.6845855712890625 209.3554229736328125 209.145904541015625 208.5629730224609375 207.652496337890625 206.14263916015625 204.228546142578125 202.4543609619140625 201.3683929443359375 201.0455474853515625 201.72906494140625 203.331085205078125 205.8367156982421875 208.9190673828125 212.4046478271484375 216.09027099609375 219.824493408203125 223.6488800048828125 227.3655242919921875 230.81658935546875 234.0460662841796875 237.069793701171875 239.9609375 242.66143798828125 245.1701507568359375 247.5615997314453125 249.7865447998046875 251.9466552734375 254.0065765380859375 255.982666015625 257.825592041015625 259.488739013671875 261.00726318359375 262.357391357421875 263.4586181640625 264.295013427734375 264.792327880859375 265.0526123046875 265.00152587890625 264.587646484375 263.9722900390625 263.166412353515625 262.269287109375 261.29925537109375 260.371826171875 259.59039306640625 258.974151611328125 258.602447509765625 258.561431884765625 258.82281494140625 259.35992431640625 260.16998291015625 261.262054443359375 262.691314697265625 264.296661376953125 266.03155517578125 267.852203369140625 269.539642333984375 270.919464111328125 271.532928466796875 271.45928955078125 271.105926513671875 270.433502197265625 269.897857666015625 269.067718505859375 267.996429443359375 266.662872314453125 265.095184326171875 263.3978271484375 261.763763427734375 260.213409423828125 259.02679443359375 258.29083251953125 258.22320556640625 258.68756103515625 259.70819091796875 261.10345458984375 262.812957763671875 264.852020263671875 267.175262451171875 269.7496337890625 272.449249267578125 275.203643798828125 277.892333984375 280.406158447265625 282.3797607421875 283.46588134765625 283.1373291015625 281.36480712890625 278.397064208984375 275.293914794921875 272.086883544921875 268.95513916015625 265.846923828125 262.746337890625 259.5487060546875 255.9520111083984375 252.0801849365234375 248.7360382080078125 246.011383056640625 243.4668731689453125 -99999 -99999 -99999 -99999 -99999 -99999 -99999 -99999 -99999 -99999 -99999 -99999 -99999 -99999 -99999 -99999 -99999 -99999 -99999 -99999 -99999 -99999 -99999 -99999 -99999 -99999 -99999 -99999 -99999 -99999 -99999 -99999 -99999 -99999 -99999 -99999 -99999 -99999 -99999 -99999 -99999 -99999
 -99999 -99999 -99999 -99999 -99999 -99999 -99999 -99999 1.2700928449630737305 5.3178567886352539062 9.371044158935546875 13.400116920471191406 17.412143707275390625 21.469263076782226562 25.467039108276367188 29.522144317626953125 33.625225067138671875 37.728336334228515625 41.802921295166015625 46.072322845458984375 50.343540191650390625 54.688205718994140625 59.104526519775390625 63.69944000244140625 68.38007354736328125 73.21337890625 78.192413330078125 83.33563995361328125 88.62924957275390625 94.14763641357421875 99.83045196533203125 105.64928436279296875 111.75316619873046875 117.95163726806640625 124.284912109375 130.8330841064453125 137.4799652099609375 144.16571044921875 150.9495697021484375 157.6987457275390625 164.36553955078125 170.96002197265625 177.231658935546875 183.2274932861328125 188.8900299072265625 193.9894561767578125 198.5435028076171875 202.5117340087890625 205.622589111328125 208.047149658203125 209.78936767578125 210.602996826171875 210.753631591796875 210.7304840087890625 210.1977996826171875 209.6471710205078125 209.6960296630859375 209.1104888916015625 208.7417449951171875 208.340545654296875 207.832672119140625 206.872650146484375 205.5748291015625 204.3890838623046875 203.640380859375 203.5627899169921875 204.224334716796875 205.59259033203125 207.6133270263671875 210.1909637451171875 213.190277099609375 216.5330963134765625 219.9560089111328125 223.4342498779296875 226.7613983154296875 230.016845703125 233.1707000732421875 236.18133544921875 239.015228271484375 241.6523284912109375 244.1497955322265625 246.568359375 248.8828277587890625 251.0474700927734375 253.1084747314453125 255.0389404296875 256.836639404296875 258.528411865234375 260.0499267578125 261.326446533203125 262.400238037109375 263.244415283203125 263.8603515625 264.14239501953125 264.14117431640625 263.9334716796875 263.480712890625 262.854583740234375 262.080291748046875 261.295257568359375 260.4788818359375 259.751953125 259.14666748046875 258.70965576171875 258.4779052734375 258.45556640625 258.751983642578125 259.353302001953125 260.255523681640625 261.4691162109375 263.04449462890625 264.76910400390625 266.568511962890625 268.241546630859375 269.611114501953125 270.41094970703125 270.70220947265625 270.6593017578125 270.3016357421875 269.714263916015625 268.956878662109375 268.015380859375 266.880615234375 265.560333251953125 264.133148193359375 262.751983642578125 261.5345458984375 260.63958740234375 260.168975830078125 260.152923583984375 260.59478759765625 261.480224609375 262.83062744140625 264.518402099609375 266.4609375 268.6588134765625 271.038909912109375 273.626800537109375 276.156585693359375 278.5802001953125 280.656646728515625 282.21014404296875 282.8670654296875 282.34063720703125 280.84600830078125 278.383819580078125 275.51702880859375 272.43865966796875 269.33966064453125 266.176605224609375 262.99224853515625 259.630401611328125 256.18267822265625 252.714447021484375 249.5289154052734375 246.59912109375 -99999 -99999 -99999 -99999 -99999 -99999 -99999 -99999 -99999 -99999 -99999 -99999 -99999 -99999 -99999 -99999 -99999 -99999 -99999 -99999 -99999 -99999 -99999 -99999 -99999 -99999 -99999 -99999 -99999 -99999 -99999 -99999 -99999 -99999 -99999 -99999 -99999 -99999 -99999 -99999 -99999 -99999 -99999
 -99999 -99999 -99999 -99999 -99999 -99999 -99999 1.4224977493286132812 5.6836705207824707031 9.8026399612426757812 14.09059906005859375 18.25250244140625 22.413013458251953125 26.587896347045898438 30.754894256591796875 34.947757720947265625 39.155803680419921875 43.355377197265625 47.618618011474609375 51.930004119873046875 56.29193115234375 60.730724334716796875 65.24669647216796875 69.8461151123046875 74.59297943115234375 79.427276611328125 84.36096954345703125 89.4272613525390625 94.74489593505859375 100.14316558837890625 105.6707611083984375 111.4100494384765625 117.2955322265625 123.38437652587890625 129.6139373779296875 135.834136962890625 142.2929534912109375 148.766693115234375 155.2159271240234375 161.7328338623046875 168.1428375244140625 174.39996337890625 180.5004119873046875 186.3112030029296875 191.7301788330078125 196.6855316162109375 200.981048583984375 204.6554107666015625 207.5264892578125 209.84771728515625 211.0613555908203125 211.7106781005859375 211.5296783447265625 210.933074951171875 209.9489593505859375 209.4965362548828125 208.937286376953125 209.0031585693359375 209.0098724365234375 208.8557281494140625 208.3048248291015625 207.576812744140625 206.925323486328125 206.2659912109375 205.8515167236328125 205.8857269287109375 206.4446868896484375 207.7325286865234375 209.5157318115234375 211.76141357421875 214.38330078125 217.299896240234375 220.3787994384765625 223.5019378662109375 226.642303466796875 229.7578125 232.740264892578125 235.5999755859375 238.3092041015625 240.9640655517578125 243.5034637451171875 245.871826171875 248.1226043701171875 250.2978057861328125 252.3394012451171875 254.2837066650390625 256.076019287109375 257.715240478515625 259.1865234375 260.47650146484375 261.6070556640625 262.460723876953125 263.084442138671875 263.451385498046875 263.552154541015625 263.45928955078125 263.140899658203125 262.701934814453125 262.079986572265625 261.399993896484375 260.6883544921875 259.990966796875 259.343658447265625 258.80303955078125 258.42303466796875 258.222900390625 258.237823486328125 258.505218505859375 259.17138671875 260.277099609375 261.830596923828125 263.613983154296875 265.411712646484375 267.07098388671875 268.432830810546875 269.333465576171875 269.797332763671875 269.929229736328125 269.783935546875 269.40692138671875 268.793060302734375 267.9827880859375 267.00848388671875 265.9345703125 264.793121337890625 263.71881103515625 262.800628662109375 262.131195068359375 261.78228759765625 261.82373046875 262.34332275390625 263.1842041015625 264.334320068359375 265.928009033203125 267.81671142578125 269.868194580078125 272.075286865234375 274.365234375 276.591339111328125 278.614837646484375 280.308380126953125 281.55499267578125 281.8662109375 281.310211181640625 279.9508056640625 277.907012939453125 275.359039306640625 272.448883056640625 269.370147705078125 266.285400390625 263.071502685546875 259.85443115234375 256.51214599609375 253.257720947265625 -99999 -99999 -99999 -99999 -99999 -99999 -99999 -99999 -99999 -99999 -99999 -99999 -99999 -99999 -99999 -99999 -99999 -99999 -99999 -99999 -99999 -99999 -99999 -99999 -99999 -99999 -99999 -99999 -99999 -99999 -99999 -99999 -99999 -99999 -99999 -99999 -99999 -99999 -99999 -99999 -99999 -99999 -99999 -99999 -99999
 -99999 -99999 -99999 -99999 -99999 -99999 1.3240225315093994141 5.7374081611633300781 10.112071990966796875 14.45984649658203125 18.809846878051757812 23.135351181030273438 27.449594497680664062 31.752820968627929688 36.056453704833984375 40.383922576904296875 44.682453155517578125 49.044376373291015625 53.326442718505859375 57.813793182373046875 62.26647186279296875 66.7587432861328125 71.310455322265625 75.9765625 80.71376800537109375 85.52660369873046875 90.46247100830078125 95.5110626220703125 100.724273681640625 106.02925872802734375 111.4512176513671875 117.05600738525390625 122.81177520751953125 128.6566009521484375 134.5467529296875 140.7544097900390625 146.90155029296875 153.1011810302734375 159.36175537109375 165.7145843505859375 171.9264984130859375 178.0072021484375 183.889312744140625 189.40936279296875 194.5946044921875 199.3965911865234375 203.5195159912109375 207.08404541015625 209.8086395263671875 211.7991485595703125 212.8707122802734375 213.2951507568359375 212.6803741455078125 211.9766082763671875 210.8682403564453125 209.1292724609375 209.435577392578125 209.4335174560546875 209.5098114013671875 209.40716552734375 209.3222503662109375 208.9888153076171875 208.52789306640625 208.06256103515625 207.8709259033203125 208.1124725341796875 208.761199951171875 209.82135009765625 211.3751678466796875 213.426055908203125 215.7642974853515625 218.3268890380859375 221.0806427001953125 223.9606170654296875 226.881103515625 229.7501068115234375 232.5473480224609375 235.3177337646484375 238.0309295654296875 240.5419464111328125 242.9897613525390625 245.3357696533203125 247.6015167236328125 249.7512969970703125 251.7666778564453125 253.665557861328125 255.43798828125 257.084930419921875 258.5787353515625 259.83343505859375 260.98883056640625 261.85260009765625 262.504913330078125 262.9561767578125 263.198394775390625 263.241302490234375 263.0325927734375 262.716583251953125 262.233001708984375 261.6646728515625 261.01800537109375 260.34136962890625 259.67681884765625 259.049163818359375 258.489501953125 258.063201904296875 257.85699462890625 257.9154052734375 258.303436279296875 259.252349853515625 260.726806640625 262.499603271484375 264.339111328125 265.955291748046875 267.263885498046875 268.256805419921875 268.922393798828125 269.2423095703125 269.22052001953125 268.972686767578125 268.52105712890625 267.913848876953125 267.13861083984375 266.2696533203125 265.393096923828125 264.571014404296875 263.872772216796875 263.40447998046875 263.1632080078125 263.1849365234375 263.75457763671875 264.6383056640625 265.798370361328125 267.2215576171875 268.90576171875 270.802703857421875 272.78839111328125 274.78594970703125 276.71356201171875 278.47296142578125 279.807708740234375 280.616912841796875 280.8006591796875 280.33984375 279.127349853515625 277.156005859375 274.69293212890625 272.144195556640625 269.303436279296875 266.241119384765625 263.14276123046875 -99999 -99999 -99999 -99999 -99999 -99999 -99999 -99999 -99999 -99999 -99999 -99999 -99999 -99999 -99999 -99999 -99999 -99999 -99999 -99999 -99999 -99999 -99999 -99999 -99999 -99999 -99999 -99999 -99999 -99999 -99999 -99999 -99999 -99999 -99999 -99999 -99999 -99999 -99999 -99999 -99999 -99999 -99999 -99999 -99999 -99999 -99999 -99999
 -99999 -99999 -99999 -99999 -99999 0.9397614598274230957 5.5179371833801269531 10.069294929504394531 14.601114273071289062 19.049089431762695312 23.60968017578125 28.02620697021484375 32.52060699462890625 36.911327362060546875 41.358638763427734375 45.799114227294921875 50.268939971923828125 54.705944061279296875 59.148868560791015625 63.66661834716796875 68.1656951904296875 72.73089599609375 77.3365325927734375 82.036529541015625 86.763824462890625 91.5838165283203125 96.43569183349609375 101.4545135498046875 106.565032958984375 111.74847412109375 117.11232757568359375 122.49692535400390625 128.0364227294921875 133.727203369140625 139.4830169677734375 145.4121246337890625 151.375213623046875 157.4023895263671875 163.4775390625 169.4945220947265625 175.492156982421875 181.3683319091796875 187.0234222412109375 192.4610137939453125 197.6343994140625 202.171661376953125 206.3523406982421875 209.78564453125 212.3142242431640625 214.2689208984375 215.3973236083984375 215.4473724365234375 214.9246063232421875 213.7346649169921875 212.0702056884765625 210.7473297119140625 210.133148193359375 210.67578125 210.8833160400390625 210.867095947265625 210.675567626953125 210.41925048828125 210.1479644775390625 209.9836578369140625 209.9845428466796875 210.2086029052734375 210.8602142333984375 211.9177703857421875 213.3664703369140625 215.105621337890625 217.1659088134765625 219.53326416015625 222.05731201171875 224.6314849853515625 227.3017730712890625 229.9998016357421875 232.724090576171875 235.3279571533203125 237.8394622802734375 240.3108673095703125 242.7343597412109375 245.044189453125 247.23541259765625 249.33514404296875 251.3343658447265625 253.2222900390625 255.00177001953125 256.59295654296875 258.072357177734375 259.3636474609375 260.484405517578125 261.427886962890625 262.18157958984375 262.70806884765625 262.999114990234375 263.17962646484375 263.1209716796875 262.9271240234375 262.544464111328125 262.057098388671875 261.481536865234375 260.83624267578125 260.154815673828125 259.460601806640625 258.7967529296875 258.18731689453125 257.699371337890625 257.51434326171875 257.88677978515625 258.66461181640625 260.209197998046875 261.908966064453125 263.552215576171875 265.0654296875 266.38690185546875 267.403839111328125 268.087188720703125 268.488372802734375 268.6512451171875 268.585205078125 268.262969970703125 267.79803466796875 267.226959228515625 266.587249755859375 265.90606689453125 265.293792724609375 264.74267578125 264.409210205078125 264.378265380859375 264.611785888671875 265.10150146484375 265.865936279296875 266.959197998046875 268.29693603515625 269.822662353515625 271.470733642578125 273.220855712890625 274.99505615234375 276.597015380859375 278.00872802734375 279.092742919921875 279.7325439453125 279.809478759765625 279.046661376953125 277.8387451171875 276.289825439453125 274.212554931640625 271.712921142578125 268.96484375 -99999 -99999 -99999 -99999 -99999 -99999 -99999 -99999 -99999 -99999 -99999 -99999 -99999 -99999 -99999 -99999 -99999 -99999 -99999 -99999 -99999 -99999 -99999 -99999 -99999 -99999 -99999 -99999 -99999 -99999 -99999 -99999 -99999 -99999 -99999 -99999 -99999 -99999 -99999 -99999 -99999 -99999 -99999 -99999 -99999 -99999 -99999 -99999 -99999 -99999
 -99999 -99999 -99999 -99999 0.26777610182762145996 5.0231080055236816406 9.7013492584228515625 14.451174736022949219 19.08074951171875 23.720041275024414062 28.342344284057617188 32.98223876953125 37.532184600830078125 42.1070404052734375 46.676555633544921875 51.2198944091796875 55.778049468994140625 60.33624267578125 64.83695220947265625 69.45563507080078125 74.0722198486328125 78.6474151611328125 83.323455810546875 88.0047149658203125 92.74370574951171875 97.511474609375 102.37747955322265625 107.286865234375 112.28394317626953125 117.3741607666015625 122.50008392333984375 127.79461669921875 133.1753082275390625 138.66827392578125 144.2220306396484375 149.89447021484375 155.5919342041015625 161.406646728515625 167.20452880859375 173.028656005859375 178.847564697265625 184.5391845703125 190.1111907958984375 195.415771484375 200.367095947265625 205.1427459716796875 209.066253662109375 212.5962982177734375 215.2892608642578125 217.0891265869140625 217.988922119140625 218.1598052978515625 217.2229156494140625 216.086944580078125 214.6573486328125 213.4932708740234375 212.53179931640625 212.5584259033203125 212.5496673583984375 212.4875335693359375 212.3368682861328125 212.164398193359375 211.9999237060546875 211.9333343505859375 212.02032470703125 212.3125152587890625 213.0417327880859375 213.97369384765625 215.2520599365234375 216.8830718994140625 218.752685546875 220.829803466796875 223.0627288818359375 225.4734649658203125 228.0225982666015625 230.5013427734375 232.97662353515625 235.432037353515625 237.918212890625 240.3248291015625 242.6261444091796875 244.8612518310546875 247.028717041015625 249.094573974609375 251.0623321533203125 252.9014434814453125 254.6353302001953125 256.24395751953125 257.725189208984375 259.04296875 260.2000732421875 261.18231201171875 261.962249755859375 262.610992431640625 263.042144775390625 263.28515625 263.33709716796875 263.23333740234375 262.98431396484375 262.590972900390625 262.085784912109375 261.479248046875 260.8089599609375 260.093597412109375 259.356781005859375 258.632476806640625 257.932952880859375 257.531951904296875 257.996795654296875 258.915740966796875 260.131195068359375 261.544647216796875 263.0472412109375 264.4537353515625 265.648834228515625 266.6318359375 267.393768310546875 267.882171630859375 268.11737060546875 268.144378662109375 268.006378173828125 267.72918701171875 267.29144287109375 266.806610107421875 266.341644287109375 265.877044677734375 265.575103759765625 265.421417236328125 265.437408447265625 265.685028076171875 266.192291259765625 266.96575927734375 267.94305419921875 269.106475830078125 270.480987548828125 271.9825439453125 273.485382080078125 274.943511962890625 276.302337646484375 277.47381591796875 278.2799072265625 278.5474853515625 278.5675048828125 278.08917236328125 276.97845458984375 275.4990234375 273.3687744140625 -99999 -99999 -99999 -99999 -99999 -99999 -99999 -99999 -99999 -99999 -99999 -99999 -99999 -99999 -99999 -99999 -99999 -99999 -99999 -99999 -99999 -99999 -99999 -99999 -99999 -99999 -99999 -99999 -99999 -99999 -99999 -99999 -99999 -99999 -99999 -99999 -99999 -99999 -99999 -99999 -99999 -99999 -99999 -99999 -99999 -99999 -99999 -99999 -99999 -99999 -99999 -99999
 -99999 -99999 -99999 -99999 4.1660323143005371094 9.0427303314208984375 13.95037078857421875 18.73980712890625 23.58158111572265625 28.358095169067382812 33.106967926025390625 37.8591156005859375 42.576969146728515625 47.26207733154296875 51.919162750244140625 56.604671478271484375 61.256000518798828125 65.94417572021484375 70.58777618408203125 75.23538970947265625 79.88495635986328125 84.53775787353515625 89.21893310546875 93.90505218505859375 98.612274169921875 103.36643218994140625 108.1724700927734375 112.9828338623046875 117.893798828125 122.78955841064453125 127.8173980712890625 132.8920745849609375 138.0903778076171875 143.37469482421875 148.6696929931640625 154.1299896240234375 159.6561126708984375 165.175384521484375 170.8458709716796875 176.4662628173828125 182.108856201171875 187.6111297607421875 193.024383544921875 198.1875 203.1778106689453125 207.6327667236328125 211.671417236328125 215.35247802734375 217.9369659423828125 220.09967041015625 221.2393798828125 221.2121429443359375 220.33038330078125 219.0904083251953125 217.6643829345703125 216.3199005126953125 215.7011871337890625 215.0702056884765625 214.6268768310546875 214.3356170654296875 214.2920989990234375 214.1178741455078125 213.96075439453125 213.96044921875 214.1810150146484375 214.5287933349609375 215.1288299560546875 216.01593017578125 217.2019195556640625 218.6120147705078125 220.2597198486328125 222.225372314453125 224.3348541259765625 226.5056304931640625 228.747283935546875 231.05963134765625 233.4527130126953125 235.836517333984375 238.1523895263671875 240.4441986083984375 242.6806488037109375 244.8475341796875 246.927703857421875 248.9427337646484375 250.86163330078125 252.6920166015625 254.4209747314453125 256.01739501953125 257.4901123046875 258.83709716796875 260.014068603515625 261.078948974609375 261.9488525390625 262.6363525390625 263.15478515625 263.5062255859375 263.69195556640625 263.677978515625 263.541473388671875 263.254364013671875 262.870880126953125 262.2978515625 261.66162109375 260.931854248046875 260.176788330078125 259.424407958984375 258.750732421875 258.415863037109375 258.604400634765625 259.29498291015625 260.33892822265625 261.549774169921875 262.794342041015625 264.01123046875 265.133880615234375 266.084991455078125 266.819549560546875 267.33935546875 267.67559814453125 267.802642822265625 267.756988525390625 267.586273193359375 267.35797119140625 267.031890869140625 266.72247314453125 266.462799072265625 266.267791748046875 266.195098876953125 266.297210693359375 266.610565185546875 267.102813720703125 267.815093994140625 268.71331787109375 269.784637451171875 270.963958740234375 272.209625244140625 273.504913330078125 274.768829345703125 275.86279296875 276.63494873046875 277.39398193359375 277.70147705078125 277.552642822265625 277.072021484375 -99999 -99999 -99999 -99999 -99999 -99999 -99999 -99999 -99999 -99999 -99999 -99999 -99999 -99999 -99999 -99999 -99999 -99999 -99999 -99999 -99999 -99999 -99999 -99999 -99999 -99999 -99999 -99999 -99999 -99999 -99999 -99999 -99999 -99999 -99999 -99999 -99999 -99999 -99999 -99999 -99999 -99999 -99999 -99999 -99999 -99999 -99999 -99999 -99999 -99999 -99999 -99999 -99999 -99999 -99999
 -99999 -99999 -99999 3.0146048069000244141 8.0888547897338867188 13.094141960144042969 18.109771728515625 23.09234619140625 28.036808013916015625 32.92812347412109375 37.827350616455078125 42.711345672607421875 47.56014251708984375 52.3921051025390625 57.185657501220703125 61.9819793701171875 66.74295806884765625 71.5006103515625 76.19551849365234375 80.9086151123046875 85.64257049560546875 90.34104156494140625 95.0432281494140625 99.72093963623046875 104.41199493408203125 109.12749481201171875 113.856842041015625 118.55319976806640625 123.32056427001953125 128.1237945556640625 132.976043701171875 137.857574462890625 142.891754150390625 147.8759918212890625 152.99468994140625 158.1526947021484375 163.4525604248046875 168.779632568359375 174.1885528564453125 179.595062255859375 185.006072998046875 190.400360107421875 195.668975830078125 200.727203369140625 205.5582427978515625 210.2918243408203125 214.3795166015625 217.9801025390625 221.0513458251953125 223.1001129150390625 224.247039794921875 224.3284149169921875 223.389862060546875 222.0424652099609375 220.791046142578125 219.612091064453125 218.5426177978515625 217.85418701171875 217.25189208984375 216.7781524658203125 216.458282470703125 216.2879791259765625 216.182586669921875 216.128143310546875 216.2495880126953125 216.5960845947265625 217.212921142578125 218.0093231201171875 219.053375244140625 220.3971099853515625 221.9623565673828125 223.6630096435546875 225.51666259765625 227.546844482421875 229.6532135009765625 231.872589111328125 234.097930908203125 236.320587158203125 238.5114593505859375 240.687469482421875 242.8168487548828125 244.9225616455078125 246.9565582275390625 248.910888671875 250.7998809814453125 252.5977783203125 254.28643798828125 255.8907470703125 257.3714599609375 258.75860595703125 259.971099853515625 261.053558349609375 261.9951171875 262.78289794921875 263.395965576171875 263.820892333984375 264.13360595703125 264.272857666015625 264.246917724609375 264.0032958984375 263.67156982421875 263.2176513671875 262.6146240234375 261.931304931640625 261.20263671875 260.482879638671875 259.83465576171875 259.43902587890625 259.51873779296875 259.9859619140625 260.729736328125 261.684051513671875 262.763671875 263.841339111328125 264.823577880859375 265.678009033203125 266.390289306640625 266.924041748046875 267.28851318359375 267.486968994140625 267.565765380859375 267.511505126953125 267.390625 267.2330322265625 267.041839599609375 266.8839111328125 266.808929443359375 266.8538818359375 267.01507568359375 267.339599609375 267.821441650390625 268.481658935546875 269.278411865234375 270.21044921875 271.251220703125 272.342193603515625 273.316680908203125 274.36273193359375 275.39520263671875 276.107574462890625 276.619781494140625 276.784942626953125 -99999 -99999 -99999 -99999 -99999 -99999 -99999 -99999 -99999 -99999 -99999 -99999 -99999 -99999 -99999 -99999 -99999 -99999 -99999 -99999 -99999 -99999 -99999 -99999 -99999 -99999 -99999 -99999 -99999 -99999 -99999 -99999 -99999 -99999 -99999 -99999 -99999 -99999 -99999 -99999 -99999 -99999 -99999 -99999 -99999 -99999 -99999 -99999 -99999 -99999 -99999 -99999 -99999 -99999 -99999 -99999 -99999
 -99999 -99999 1.5376584529876708984 6.7490596771240234375 11.946298599243164062 17.087215423583984375 22.245050430297851562 27.358081817626953125 32.480129241943359375 37.51998138427734375 42.536434173583984375 47.566898345947265625 52.539794921875 57.4736785888671875 62.359516143798828125 67.2914581298828125 72.13671875 76.995758056640625 81.79470062255859375 86.58992767333984375 91.3491668701171875 96.09131622314453125 100.77796173095703125 105.4526519775390625 110.165435791015625 114.79625701904296875 119.431732177734375 124.02684783935546875 128.6617279052734375 133.2981719970703125 137.956085205078125 142.6071929931640625 147.3487548828125 152.1419525146484375 157.0452880859375 162.052276611328125 167.057281494140625 172.122039794921875 177.311431884765625 182.4948883056640625 187.7913055419921875 192.9629974365234375 198.066925048828125 202.9898834228515625 207.8741607666015625 212.2993927001953125 216.414337158203125 220.203369140625 223.2412872314453125 225.8122100830078125 227.7940673828125 227.7135772705078125 226.559844970703125 225.2579498291015625 223.8967742919921875 222.4856719970703125 221.2529449462890625 220.369903564453125 219.7410888671875 219.1937103271484375 218.7609405517578125 218.388702392578125 218.1789398193359375 218.252288818359375 218.4063568115234375 218.6873779296875 219.193450927734375 219.9628143310546875 220.969940185546875 222.1470947265625 223.5337371826171875 225.1288604736328125 226.836578369140625 228.7342376708984375 230.6853179931640625 232.7284393310546875 234.773284912109375 236.8383026123046875 238.940521240234375 241.037994384765625 243.0973968505859375 245.0905303955078125 247.0528411865234375 248.961029052734375 250.803009033203125 252.575469970703125 254.2599945068359375 255.8557281494140625 257.348175048828125 258.730804443359375 260.001220703125 261.14996337890625 262.09625244140625 262.973419189453125 263.71240234375 264.288177490234375 264.656768798828125 264.872894287109375 264.943634033203125 264.829193115234375 264.570159912109375 264.1851806640625 263.680267333984375 263.03460693359375 262.284027099609375 261.564666748046875 260.9229736328125 260.519256591796875 260.43792724609375 260.741302490234375 261.31219482421875 262.070343017578125 262.91265869140625 263.789093017578125 264.656341552734375 265.4356689453125 266.1036376953125 266.657257080078125 267.0025634765625 267.262298583984375 267.40570068359375 267.446563720703125 267.4171142578125 267.348541259765625 267.279205322265625 267.25152587890625 267.26348876953125 267.361083984375 267.562042236328125 267.899261474609375 268.362762451171875 268.971771240234375 269.68975830078125 270.498382568359375 271.31817626953125 272.36834716796875 273.27935791015625 274.119415283203125 274.860107421875 275.299591064453125 -99999 -99999 -99999 -99999 -99999 -99999 -99999 -99999 -99999 -99999 -99999 -99999 -99999 -99999 -99999 -99999 -99999 -99999 -99999 -99999 -99999 -99999 -99999 -99999 -99999 -99999 -99999 -99999 -99999 -99999 -99999 -99999 -99999 -99999 -99999 -99999 -99999 -99999 -99999 -99999 -99999 -99999 -99999 -99999 -99999 -99999 -99999 -99999 -99999 -99999 -99999 -99999 -99999 -99999 -99999 -99999 -99999 -99999 -99999
 -99999 -99999 5.0612821578979492188 10.459139823913574219 15.785329818725585938 21.1272735595703125 26.381803512573242188 31.634904861450195312 36.8553009033203125 42.04736328125 47.21843719482421875 52.328144073486328125 57.435001373291015625 62.48876953125 67.5715179443359375 72.5071258544921875 77.49654388427734375 82.4117889404296875 87.28845977783203125 92.15502166748046875 96.961090087890625 101.73345947265625 106.4335784912109375 111.18527984619140625 115.738922119140625 120.3426971435546875 124.86199951171875 129.387451171875 133.8720855712890625 138.340576171875 142.7757110595703125 147.225189208984375 151.7500762939453125 156.3314208984375 160.96051025390625 165.5554656982421875 170.3474578857421875 175.1478271484375 180.119232177734375 185.160675048828125 190.1533966064453125 195.19805908203125 200.156768798828125 205.0211639404296875 209.7297515869140625 214.2158203125 218.34075927734375 221.9758453369140625 225.2587890625 227.9022674560546875 229.657989501953125 230.062469482421875 229.0784149169921875 227.887939453125 226.367218017578125 225.153961181640625 224.109954833984375 223.0819244384765625 222.0707550048828125 221.320953369140625 220.9623870849609375 220.671905517578125 220.43792724609375 220.29327392578125 220.36981201171875 220.7234344482421875 221.2361297607421875 221.906005859375 222.77435302734375 223.868133544921875 225.133087158203125 226.6040496826171875 228.2168426513671875 229.9176788330078125 231.7160491943359375 233.5786895751953125 235.52099609375 237.5068206787109375 239.4907684326171875 241.451690673828125 243.411468505859375 245.362457275390625 247.2518157958984375 249.1026611328125 250.89300537109375 252.620086669921875 254.2971954345703125 255.875274658203125 257.384490966796875 258.767913818359375 260.032379150390625 261.2435302734375 262.338104248046875 263.322601318359375 264.0684814453125 264.725616455078125 265.214874267578125 265.52313232421875 265.669219970703125 265.657623291015625 265.49761962890625 265.207916259765625 264.7552490234375 264.133331298828125 263.36187744140625 262.607086181640625 261.9869384765625 261.5906982421875 261.44830322265625 261.568939208984375 261.924224853515625 262.505889892578125 263.1910400390625 263.92291259765625 264.6546630859375 265.370361328125 265.9095458984375 266.418212890625 266.782867431640625 267.0740966796875 267.2652587890625 267.380340576171875 267.4442138671875 267.46673583984375 267.480926513671875 267.520111083984375 267.5869140625 267.74169921875 267.984710693359375 268.325225830078125 268.75946044921875 269.278564453125 269.909149169921875 270.73406982421875 271.419281005859375 272.225128173828125 272.922454833984375 -99999 -99999 -99999 -99999 -99999 -99999 -99999 -99999 -99999 -99999 -99999 -99999 -99999 -99999 -99999 -99999 -99999 -99999 -99999 -99999 -99999 -99999 -99999 -99999 -99999 -99999 -99999 -99999 -99999 -99999 -99999 -99999 -99999 -99999 -99999 -99999 -99999 -99999 -99999 -99999 -99999 -99999 -99999 -99999 -99999 -99999 -99999 -99999 -99999 -99999 -99999 -99999 -99999 -99999 -99999 -99999 -99999 -99999 -99999 -99999 -99999 -99999
 -99999 3.0135638713836669922 8.5630130767822265625 14.08957672119140625 19.5568084716796875 25.007184982299804688 30.413644790649414062 35.82930755615234375 41.187408447265625 46.516887664794921875 51.77701568603515625 57.06402587890625 62.26506805419921875 67.446685791015625 72.58416748046875 77.67551422119140625 82.744659423828125 87.7530059814453125 92.74643707275390625 97.634979248046875 102.5140533447265625 107.28643035888671875 112.0272216796875 116.665740966796875 121.28125762939453125 125.81964111328125 130.2692413330078125 134.6432647705078125 138.9586639404296875 143.2295989990234375 147.4333343505859375 151.7393798828125 155.9236297607421875 160.2145233154296875 164.487335205078125 168.922607421875 173.4429931640625 178.04150390625 182.7242279052734375 187.44439697265625 192.2773895263671875 197.1045379638671875 201.938232421875 206.634490966796875 211.221221923828125 215.5810546875 219.602020263671875 223.2654571533203125 226.4200592041015625 228.924346923828125 230.6608428955078125 231.197479248046875 230.8141021728515625 229.743408203125 228.6165771484375 227.287811279296875 226.1475982666015625 225.190582275390625 224.4745025634765625 223.8202362060546875 223.12652587890625 222.621002197265625 222.435882568359375 222.42156982421875 222.5023345947265625 222.6990814208984375 223.0966949462890625 223.7590484619140625 224.5501708984375 225.569183349609375 226.7535247802734375 228.0655975341796875 229.5140838623046875 231.075439453125 232.77117919921875 234.5344390869140625 236.3492431640625 238.191375732421875 240.0579376220703125 241.938201904296875 243.8174896240234375 245.6685943603515625 247.4964599609375 249.288177490234375 251.0401153564453125 252.7404937744140625 254.376708984375 255.897247314453125 257.408294677734375 258.8466796875 260.217681884765625 261.4837646484375 262.546417236328125 263.56732177734375 264.430999755859375 265.166748046875 265.760711669921875 266.200592041015625 266.443267822265625 266.45428466796875 266.330108642578125 266.10162353515625 265.78021240234375 265.099853515625 264.34918212890625 263.620849609375 263.00506591796875 262.5528564453125 262.359222412109375 262.4022216796875 262.636962890625 263.038238525390625 263.5723876953125 264.19775390625 264.711700439453125 265.292877197265625 265.814239501953125 266.2703857421875 266.650604248046875 266.95513916015625 267.175750732421875 267.33148193359375 267.4442138671875 267.535888671875 267.608978271484375 267.70721435546875 267.83990478515625 268.025604248046875 268.277740478515625 268.60302734375 269.003509521484375 269.5693359375 270.0802001953125 270.681304931640625 271.30999755859375 -99999 -99999 -99999 -99999 -99999 -99999 -99999 -99999 -99999 -99999 -99999 -99999 -99999 -99999 -99999 -99999 -99999 -99999 -99999 -99999 -99999 -99999 -99999 -99999 -99999 -99999 -99999 -99999 -99999 -99999 -99999 -99999 -99999 -99999 -99999 -99999 -99999 -99999 -99999 -99999 -99999 -99999 -99999 -99999 -99999 -99999 -99999 -99999 -99999 -99999 -99999 -99999 -99999 -99999 -99999 -99999 -99999 -99999 -99999 -99999 -99999 -99999 -99999 -99999
 -99999 6.4091143608093261719 12.011071205139160156 17.691497802734375 23.26805877685546875 28.89173126220703125 34.414096832275390625 39.946453094482421875 45.423328399658203125 50.88360595703125 56.247509002685546875 61.673480987548828125 67.01555633544921875 72.30658721923828125 77.53546142578125 82.75750732421875 87.89952850341796875 93.0031280517578125 98.02127838134765625 103.01789093017578125 107.93196868896484375 112.7510986328125 117.50173187255859375 122.1397552490234375 126.712921142578125 131.1548004150390625 135.521453857421875 139.7590484619140625 143.9276275634765625 148.00164794921875 151.991607666015625 155.94439697265625 159.9250640869140625 163.9330291748046875 167.93450927734375 172.1017913818359375 176.246063232421875 180.59033203125 184.9930419921875 189.5500335693359375 194.124359130859375 198.7595977783203125 203.389007568359375 207.9317169189453125 212.3883819580078125 216.5489501953125 220.5067138671875 224.07843017578125 227.0772705078125 229.474761962890625 231.0953216552734375 231.85260009765625 231.6787872314453125 231.1868438720703125 230.3952484130859375 229.4158935546875 228.229095458984375 227.2167510986328125 226.3814849853515625 225.596954345703125 225.169586181640625 224.835174560546875 224.4860687255859375 224.2801361083984375 224.331695556640625 224.57415771484375 224.9470977783203125 225.5468597412109375 226.338134765625 227.21051025390625 228.24896240234375 229.4474029541015625 230.818328857421875 232.2843170166015625 233.859161376953125 235.479522705078125 237.173126220703125 238.9228515625 240.6798858642578125 242.4741363525390625 244.2587432861328125 246.03302001953125 247.791290283203125 249.52880859375 251.2161712646484375 252.829620361328125 254.443878173828125 256.023223876953125 257.541961669921875 259.009002685546875 260.305694580078125 261.574310302734375 262.7471923828125 263.818359375 264.782318115234375 265.630126953125 266.294586181640625 266.80474853515625 267.134490966796875 267.227935791015625 267.08880615234375 266.819793701171875 266.421173095703125 265.866912841796875 265.18853759765625 264.494384765625 263.92181396484375 263.498077392578125 263.2447509765625 263.179962158203125 263.326446533203125 263.6158447265625 263.85638427734375 264.371551513671875 264.87420654296875 265.3521728515625 265.808197021484375 266.225616455078125 266.5718994140625 266.858978271484375 267.099212646484375 267.293121337890625 267.442596435546875 267.569122314453125 267.694305419921875 267.82904052734375 267.98394775390625 268.18243408203125 268.46221923828125 268.7642822265625 269.150482177734375 269.58782958984375 270.06585693359375 -99999 -99999 -99999 -99999 -99999 -99999 -99999 -99999 -99999 -99999 -99999 -99999 -99999 -99999 -99999 -99999 -99999 -99999 -99999 -99999 -99999 -99999 -99999 -99999 -99999 -99999 -99999 -99999 -99999 -99999 -99999 -99999 -99999 -99999 -99999 -99999 -99999 -99999 -99999 -99999 -99999 -99999 -99999 -99999 -99999 -99999 -99999 -99999 -99999 -99999 -99999 -99999 -99999 -99999 -99999 -99999 -99999 -99999 -99999 -99999 -99999 -99999 -99999 -99999 -99999 -99999
 -99999 9.5632238388061523438 15.375178337097167969 21.171922683715820312 26.946832656860351562 32.650928497314453125 38.3236236572265625 43.9910888671875 49.592571258544921875 55.214572906494140625 60.725971221923828125 66.21036529541015625 71.64681243896484375 77.097381591796875 82.40374755859375 87.70475006103515625 92.94754791259765625 98.13153076171875 103.24273681640625 108.23224639892578125 113.265716552734375 118.09804534912109375 122.8528900146484375 127.508544921875 132.046844482421875 136.443450927734375 140.685882568359375 144.75689697265625 148.7979888916015625 152.641876220703125 156.387542724609375 160.0524749755859375 163.7470703125 167.467041015625 171.0850982666015625 174.9215087890625 178.8343505859375 182.8630523681640625 186.9738616943359375 191.23748779296875 195.585906982421875 200.037933349609375 204.5280914306640625 208.8763580322265625 213.1534271240234375 217.2651824951171875 221.023193359375 224.3601837158203125 227.2877960205078125 229.652923583984375 231.21148681640625 232.1714324951171875 232.4864654541015625 232.1180877685546875 231.4071197509765625 230.649261474609375 229.912200927734375 229.19451904296875 228.309661865234375 227.562469482421875 226.93402099609375 226.528717041015625 226.2676849365234375 226.1240234375 226.2018585205078125 226.4770050048828125 226.8029937744140625 227.24420166015625 227.88116455078125 228.7287750244140625 229.736114501953125 230.85748291015625 232.097625732421875 233.4364471435546875 234.900665283203125 236.432891845703125 238.0026397705078125 239.6591033935546875 241.3341217041015625 243.023895263671875 244.721435546875 246.4313507080078125 248.1128387451171875 249.7368316650390625 251.393829345703125 253.015380859375 254.5919036865234375 256.1597900390625 257.599578857421875 259.017730712890625 260.387176513671875 261.6993408203125 262.925323486328125 264.055816650390625 265.0562744140625 265.964691162109375 266.73834228515625 267.4100341796875 267.837799072265625 267.9354248046875 267.748565673828125 267.43231201171875 267.05462646484375 266.51318359375 265.894195556640625 265.283782958984375 264.7464599609375 264.278839111328125 264.039886474609375 263.91229248046875 263.84515380859375 264.063629150390625 264.350799560546875 264.68365478515625 265.061065673828125 265.47283935546875 265.851165771484375 266.204071044921875 266.528167724609375 266.812957763671875 267.050048828125 267.2470703125 267.420166015625 267.577178955078125 267.723846435546875 267.8392333984375 268.097686767578125 268.27642822265625 268.53302001953125 268.829986572265625 269.165496826171875 -99999 -99999 -99999 -99999 -99999 -99999 -99999 -99999 -99999 -99999 -99999 -99999 -99999 -99999 -99999 -99999 -99999 -99999 -99999 -99999 -99999 -99999 -99999 -99999 -99999 -99999 -99999 -99999 -99999 -99999 -99999 -99999 -99999 -99999 -99999 -99999 -99999 -99999 -99999 -99999 -99999 -99999 -99999 -99999 -99999 -99999 -99999 -99999 -99999 -99999 -99999 -99999 -99999 -99999 -99999 -99999 -99999 -99999 -99999 -99999 -99999 -99999 -99999 -99999 -99999 -99999 -99999 -99999
 -99999 -99999 18.644475936889648438 24.583929061889648438 30.465999603271484375 36.32303619384765625 42.134654998779296875 47.905246734619140625 53.692577362060546875 59.351902008056640625 65.02297210693359375 70.61571502685546875 76.216949462890625 81.7340240478515625 87.1587677001953125 92.55477142333984375 97.85337066650390625 103.20709991455078125 108.330474853515625 113.47515869140625 118.460357666015625 123.40752410888671875 128.179107666015625 132.7785491943359375 137.2774810791015625 141.6275634765625 145.8677978515625 149.779205322265625 153.6449127197265625 157.22607421875 160.78533935546875 164.1117706298828125 167.4257659912109375 170.74359130859375 174.0883636474609375 177.587890625 181.0953216552734375 184.8774566650390625 188.7592315673828125 192.7803955078125 196.93719482421875 201.168670654296875 205.368560791015625 209.539031982421875 213.684967041015625 217.4971466064453125 221.1947784423828125 224.527313232421875 227.3535919189453125 229.6134185791015625 231.25030517578125 232.2766876220703125 232.6740264892578125 232.695068359375 232.4373016357421875 231.8779144287109375 231.098388671875 230.3647308349609375 229.800689697265625 229.2478485107421875 228.65960693359375 228.2411346435546875 227.997314453125 227.9473419189453125 227.9122772216796875 228.030853271484375 228.353759765625 228.8415374755859375 229.483612060546875 230.233917236328125 231.1154632568359375 232.1634368896484375 233.330474853515625 234.5973968505859375 235.9470672607421875 237.3640594482421875 238.8578948974609375 240.3963165283203125 241.98455810546875 243.5991058349609375 245.2154693603515625 246.8045501708984375 248.4238433837890625 250.0231475830078125 251.596771240234375 253.168487548828125 254.6909027099609375 256.170013427734375 257.621246337890625 259.046051025390625 260.4337158203125 261.769500732421875 263.022857666015625 264.20220947265625 265.2593994140625 266.208251953125 267.03173828125 267.7525634765625 268.343597412109375 268.5743408203125 268.341094970703125 267.99017333984375 267.55902099609375 267.06201171875 266.507080078125 265.92828369140625 265.412261962890625 264.8997802734375 264.663238525390625 264.5252685546875 264.489654541015625 264.556243896484375 264.738494873046875 264.996978759765625 265.28363037109375 265.595001220703125 265.9124755859375 266.229217529296875 266.516876220703125 266.770416259765625 266.99884033203125 267.203338623046875 267.384185791015625 267.55157470703125 267.75634765625 267.917572021484375 268.08477783203125 268.28631591796875 -99999 -99999 -99999 -99999 -99999 -99999 -99999 -99999 -99999 -99999 -99999 -99999 -99999 -99999 -99999 -99999 -99999 -99999 -99999 -99999 -99999 -99999 -99999 -99999 -99999 -99999 -99999 -99999 -99999 -99999 -99999 -99999 -99999 -99999 -99999 -99999 -99999 -99999 -99999 -99999 -99999 -99999 -99999 -99999 -99999 -99999 -99999 -99999 -99999 -99999 -99999 -99999 -99999 -99999 -99999 -99999 -99999 -99999 -99999 -99999 -99999 -99999 -99999 -99999 -99999 -99999 -99999 -99999 -99999 -99999 -99999
 -99999 -99999 21.862367630004882812 27.897520065307617188 33.94866943359375 39.888980865478515625 45.854198455810546875 51.771572113037109375 57.6364898681640625 63.448558807373046875 69.23465728759765625 74.87335205078125 80.6026763916015625 86.19390106201171875 91.76367950439453125 97.24347686767578125 102.67427825927734375 108.0244140625 113.281097412109375 118.4616851806640625 123.52773284912109375 128.5200042724609375 133.291748046875 137.99822998046875 142.4718780517578125 146.76910400390625 150.837646484375 154.7076568603515625 158.373046875 161.7145538330078125 164.93316650390625 167.943511962890625 170.9951019287109375 173.9799041748046875 176.9158935546875 179.993011474609375 183.269775390625 186.6756591796875 190.2130126953125 194.001800537109375 197.8739471435546875 201.9005126953125 206.0044403076171875 210.0626220703125 213.96697998046875 217.767669677734375 221.2557525634765625 224.33001708984375 227.028472900390625 229.31768798828125 231.091949462890625 232.1824493408203125 232.9016265869140625 233.162017822265625 232.964813232421875 232.5582733154296875 232.18267822265625 231.6888275146484375 231.0731353759765625 230.551422119140625 230.144195556640625 229.817474365234375 229.5672149658203125 229.4253997802734375 229.4660186767578125 229.642242431640625 229.9236297607421875 230.3391876220703125 230.9141082763671875 231.6353759765625 232.4858551025390625 233.441650390625 234.497344970703125 235.6591796875 236.9134674072265625 238.2685699462890625 239.685028076171875 241.146087646484375 242.6510162353515625 244.1402587890625 245.672119140625 247.2072906494140625 248.7332305908203125 250.2823944091796875 251.787322998046875 253.268218994140625 254.719879150390625 256.173828125 257.623016357421875 259.03363037109375 260.417694091796875 261.764678955078125 263.044342041015625 264.25433349609375 265.347900390625 266.2982177734375 267.11431884765625 267.844146728515625 268.5106201171875 268.744140625 268.65325927734375 268.3343505859375 267.9453125 267.47906494140625 266.957672119140625 266.46466064453125 265.979827880859375 265.585845947265625 265.276885986328125 265.07440185546875 264.992828369140625 265.011199951171875 265.10516357421875 265.268310546875 265.48583984375 265.741790771484375 266.002593994140625 266.256256103515625 266.502593994140625 266.7374267578125 266.95306396484375 267.147552490234375 267.32855224609375 267.49871826171875 267.666778564453125 267.83831787109375 -99999 -99999 -99999 -99999 -99999 -99999 -99999 -99999 -99999 -99999 -99999 -99999 -99999 -99999 -99999 -99999 -99999 -99999 -99999 -99999 -99999 -99999 -99999 -99999 -99999 -99999 -99999 -99999 -99999 -99999 -99999 -99999 -99999 -99999 -99999 -99999 -99999 -99999 -99999 -99999 -99999 -99999 -99999 -99999 -99999 -99999 -99999 -99999 -99999 -99999 -99999 -99999 -99999 -99999 -99999 -99999 -99999 -99999 -99999 -99999 -99999 -99999 -99999 -99999 -99999 -99999 -99999 -99999 -99999 -99999 -99999 -99999 -99999
 -99999 -99999 -99999 31.090536117553710938 37.2991943359375 43.37662506103515625 49.444515228271484375 55.443572998046875 61.51447296142578125 67.375579833984375 73.285186767578125 79.09807586669921875 84.8756561279296875 90.57459259033203125 96.24968719482421875 101.78578948974609375 107.29058074951171875 112.718048095703125 118.096221923828125 123.359375 128.477569580078125 133.5211029052734375 138.3624420166015625 143.053375244140625 147.5136260986328125 151.796722412109375 155.802581787109375 159.561676025390625 163.0275115966796875 166.1939239501953125 169.1771697998046875 171.8858642578125 174.4445343017578125 176.903594970703125 179.5475006103515625 182.246124267578125 185.076019287109375 188.2283172607421875 191.56365966796875 195.0707855224609375 198.77886962890625 202.647308349609375 206.460662841796875 210.2959442138671875 214.070953369140625 217.6387176513671875 221.01373291015625 224.147216796875 226.881195068359375 228.9967193603515625 230.6771697998046875 232.0303802490234375 232.8256988525390625 233.15509033203125 233.37689208984375 233.30792236328125 232.9972076416015625 232.576019287109375 232.170379638671875 231.7864990234375 231.4401092529296875 231.168609619140625 230.9869537353515625 230.89263916015625 230.912139892578125 231.049102783203125 231.365478515625 231.7729644775390625 232.2977447509765625 232.9407196044921875 233.7270355224609375 234.600921630859375 235.5797271728515625 236.704620361328125 237.9020843505859375 239.1638946533203125 240.5045166015625 241.838348388671875 243.24725341796875 244.6728363037109375 246.1241302490234375 247.583343505859375 249.05340576171875 250.497161865234375 251.913787841796875 253.3433380126953125 254.7684326171875 256.17034912109375 257.565338134765625 258.93994140625 260.29736328125 261.649627685546875 262.956787109375 264.20458984375 265.336029052734375 266.27783203125 267.059356689453125 267.722625732421875 268.338653564453125 268.667236328125 268.67755126953125 268.488189697265625 268.163818359375 267.754302978515625 267.310394287109375 266.865081787109375 266.436065673828125 266.057220458984375 265.754364013671875 265.541534423828125 265.41387939453125 265.376678466796875 265.423126220703125 265.531768798828125 265.68408203125 265.86370849609375 266.068572998046875 266.28662109375 266.503814697265625 266.731658935546875 266.891876220703125 267.074798583984375 267.2451171875 267.409210205078125 -99999 -99999 -99999 -99999 -99999 -99999 -99999 -99999 -99999 -99999 -99999 -99999 -99999 -99999 -99999 -99999 -99999 -99999 -99999 -99999 -99999 -99999 -99999 -99999 -99999 -99999 -99999 -99999 -99999 -99999 -99999 -99999 -99999 -99999 -99999 -99999 -99999 -99999 -99999 -99999 -99999 -99999 -99999 -99999 -99999 -99999 -99999 -99999 -99999 -99999 -99999 -99999 -99999 -99999 -99999 -99999 -99999 -99999 -99999 -99999 -99999 -99999 -99999 -99999 -99999 -99999 -99999 -99999 -99999 -99999 -99999 -99999 -99999 -99999 -99999
 -99999 -99999 -99999 -99999 40.467952728271484375 46.715606689453125 52.930965423583984375 59.054950714111328125 65.1652984619140625 71.21778106689453125 77.2060699462890625 83.103546142578125 89.01729583740234375 94.7842559814453125 100.52991485595703125 106.167633056640625 111.84352874755859375 117.28290557861328125 122.71346282958984375 128.00262451171875 133.278656005859375 138.298431396484375 143.249298095703125 148.0303497314453125 152.5310821533203125 156.8694610595703125 160.735992431640625 164.4335479736328125 167.731781005859375 170.6658172607421875 173.318695068359375 175.6044158935546875 177.7912445068359375 179.9019775390625 182.02545166015625 184.23321533203125 186.824432373046875 189.5800018310546875 192.6160430908203125 195.8930511474609375 199.4059295654296875 203.0267486572265625 206.8033905029296875 210.5560302734375 214.14398193359375 217.6070404052734375 220.897216796875 223.7884521484375 226.3634796142578125 228.5913543701171875 230.4315338134765625 231.823577880859375 232.7630462646484375 233.29852294921875 233.5791778564453125 233.6530914306640625 233.5366973876953125 233.366455078125 233.1646575927734375 232.86962890625 232.569366455078125 232.3427886962890625 232.203521728515625 232.216522216796875 232.2744903564453125 232.397064208984375 232.648193359375 233.0225830078125 233.5470123291015625 234.153594970703125 234.8321533203125 235.7265472412109375 236.6705322265625 237.70361328125 238.825469970703125 239.985198974609375 241.230499267578125 242.5043182373046875 243.8313140869140625 245.1827545166015625 246.56634521484375 247.929229736328125 249.325347900390625 250.689788818359375 252.06585693359375 253.4249114990234375 254.7728729248046875 256.104949951171875 257.433563232421875 258.7642822265625 260.068695068359375 261.359405517578125 262.709014892578125 264.0262451171875 265.223876953125 266.20819091796875 266.93695068359375 267.5599365234375 268.097625732421875 268.42645263671875 268.515380859375 268.428558349609375 268.2103271484375 267.906097412109375 267.528472900390625 267.13336181640625 266.74871826171875 266.403594970703125 266.11749267578125 265.904632568359375 265.764251708984375 265.68817138671875 265.682525634765625 265.73114013671875 265.838531494140625 265.976776123046875 266.136260986328125 266.302215576171875 266.4766845703125 266.64984130859375 266.799346923828125 -99999 -99999 -99999 -99999 -99999 -99999 -99999 -99999 -99999 -99999 -99999 -99999 -99999 -99999 -99999 -99999 -99999 -99999 -99999 -99999 -99999 -99999 -99999 -99999 -99999 -99999 -99999 -99999 -99999 -99999 -99999 -99999 -99999 -99999 -99999 -99999 -99999 -99999 -99999 -99999 -99999 -99999 -99999 -99999 -99999 -99999 -99999 -99999 -99999 -99999 -99999 -99999 -99999 -99999 -99999 -99999 -99999 -99999 -99999 -99999 -99999 -99999 -99999 -99999 -99999 -99999 -99999 -99999 -99999 -99999 -99999 -99999 -99999 -99999 -99999 -99999 -99999 -99999
 -99999 -99999 -99999 -99999 43.605194091796875 49.9371490478515625 56.23955535888671875 62.490047454833984375 68.71083831787109375 74.86614990234375 80.96121978759765625 86.99868011474609375 92.89780426025390625 98.84641265869140625 104.65167999267578125 110.4188079833984375 116.063629150390625 121.5938720703125 127.144073486328125 132.5528411865234375 137.89971923828125 142.9698638916015625 148.0302886962890625 152.8004150390625 157.370513916015625 161.7134857177734375 165.669586181640625 169.2400970458984375 172.43804931640625 175.2304229736328125 177.520751953125 179.50347900390625 181.1651763916015625 182.6392822265625 184.2223358154296875 186.1014251708984375 188.2351531982421875 190.789337158203125 193.6060028076171875 196.674285888671875 200.0296630859375 203.5420989990234375 207.0312957763671875 210.596038818359375 214.0986328125 217.45513916015625 220.567840576171875 223.4716949462890625 226.0564117431640625 228.2202301025390625 230.00177001953125 231.365997314453125 232.528106689453125 233.3206024169921875 233.73101806640625 233.902008056640625 234.0068511962890625 233.928070068359375 233.8226165771484375 233.648193359375 233.5474853515625 233.4684906005859375 233.3714752197265625 233.296142578125 233.3686370849609375 233.593475341796875 233.81744384765625 234.170257568359375 234.6596527099609375 235.289642333984375 235.9753570556640625 236.7716064453125 237.674896240234375 238.6202850341796875 239.6573486328125 240.7493743896484375 241.91290283203125 243.134246826171875 244.4001617431640625 245.6609649658203125 246.96624755859375 248.2666168212890625 249.5828857421875 250.8922882080078125 252.1891326904296875 253.472015380859375 254.730072021484375 255.9728546142578125 257.17327880859375 258.4215087890625 259.73907470703125 261.050048828125 262.414764404296875 263.72705078125 264.968963623046875 266.0364990234375 266.71435546875 267.292572021484375 267.774871826171875 268.1187744140625 268.288330078125 268.27783203125 268.13055419921875 267.89599609375 267.60101318359375 267.280303955078125 266.952423095703125 266.643524169921875 266.379913330078125 266.16015625 266.00518798828125 265.915985107421875 265.8839111328125 265.899993896484375 265.95709228515625 266.04864501953125 266.160919189453125 266.292388916015625 266.432708740234375 -99999 -99999 -99999 -99999 -99999 -99999 -99999 -99999 -99999 -99999 -99999 -99999 -99999 -99999 -99999 -99999 -99999 -99999 -99999 -99999 -99999 -99999 -99999 -99999 -99999 -99999 -99999 -99999 -99999 -99999 -99999 -99999 -99999 -99999 -99999 -99999 -99999 -99999 -99999 -99999 -99999 -99999 -99999 -99999 -99999 -99999 -99999 -99999 -99999 -99999 -99999 -99999 -99999 -99999 -99999 -99999 -99999 -99999 -99999 -99999 -99999 -99999 -99999 -99999 -99999 -99999 -99999 -99999 -99999 -99999 -99999 -99999 -99999 -99999 -99999 -99999 -99999 -99999 -99999 -99999
 -99999 -99999 -99999 -99999 -99999 53.025478363037109375 59.439350128173828125 65.8712158203125 72.1121826171875 78.3890380859375 84.55681610107421875 90.69147491455078125 96.708343505859375 102.6888885498046875 108.5683441162109375 114.3680419921875 120.11049652099609375 125.77696990966796875 131.362152099609375 136.788970947265625 142.19683837890625 147.4439544677734375 152.5843658447265625 157.4833831787109375 162.1449737548828125 166.5271148681640625 170.5088043212890625 174.1852569580078125 177.2242431640625 179.843505859375 181.8892822265625 183.3513031005859375 184.5446624755859375 185.504364013671875 186.4859466552734375 187.782989501953125 189.435546875 191.7459564208984375 194.4415283203125 197.4000396728515625 200.538421630859375 203.8596649169921875 207.29888916015625 210.7609405517578125 214.1575164794921875 217.34100341796875 220.3807525634765625 223.1819000244140625 225.6502227783203125 227.8132476806640625 229.6744537353515625 231.2029876708984375 232.338348388671875 233.1431121826171875 233.8019256591796875 234.2180328369140625 234.362640380859375 234.4564971923828125 234.4422760009765625 234.393646240234375 234.2910003662109375 234.243194580078125 234.234375 234.2923736572265625 234.4185791015625 234.62548828125 234.9281463623046875 235.2936248779296875 235.7493896484375 236.3394622802734375 237.0144195556640625 237.7398681640625 238.5403289794921875 239.4311065673828125 240.418212890625 241.479888916015625 242.57598876953125 243.7100830078125 244.8908538818359375 246.1071319580078125 247.33868408203125 248.580230712890625 249.8206787109375 251.0675811767578125 252.2463226318359375 253.442657470703125 254.6462860107421875 255.8097381591796875 256.964447021484375 258.184967041015625 259.38427734375 260.56451416015625 261.83868408203125 263.1673583984375 264.4619140625 265.50091552734375 266.291046142578125 266.9053955078125 267.395233154296875 267.73388671875 267.933837890625 268.0006103515625 267.946807861328125 267.789276123046875 267.56011962890625 267.30596923828125 267.029510498046875 266.76055908203125 266.525238037109375 266.328399658203125 266.175445556640625 266.068389892578125 266.00726318359375 266.004241943359375 266.01348876953125 266.082611083984375 266.159912109375 -99999 -99999 -99999 -99999 -99999 -99999 -99999 -99999 -99999 -99999 -99999 -99999 -99999 -99999 -99999 -99999 -99999 -99999 -99999 -99999 -99999 -99999 -99999 -99999 -99999 -99999 -99999 -99999 -99999 -99999 -99999 -99999 -99999 -99999 -99999 -99999 -99999 -99999 -99999 -99999 -99999 -99999 -99999 -99999 -99999 -99999 -99999 -99999 -99999 -99999 -99999 -99999 -99999 -99999 -99999 -99999 -99999 -99999 -99999 -99999 -99999 -99999 -99999 -99999 -99999 -99999 -99999 -99999 -99999 -99999 -99999 -99999 -99999 -99999 -99999 -99999 -99999 -99999 -99999 -99999 -99999 -99999
 -99999 -99999 -99999 -99999 -99999 55.9124755859375 62.44359588623046875 68.93264007568359375 75.3450164794921875 81.71495819091796875 87.988555908203125 94.26114654541015625 100.21312713623046875 106.3518829345703125 112.2800445556640625 118.21944427490234375 123.9607391357421875 129.6507415771484375 135.2783966064453125 140.8532257080078125 146.349517822265625 151.635223388671875 156.90338134765625 161.962799072265625 166.7048187255859375 171.237762451171875 175.282257080078125 178.9813690185546875 182.0054779052734375 184.56512451171875 186.4091644287109375 187.487640380859375 188.13995361328125 188.3463897705078125 188.6109466552734375 189.2823333740234375 190.5323486328125 192.715789794921875 195.229095458984375 198.0561981201171875 201.087127685546875 204.3194427490234375 207.65704345703125 210.94329833984375 214.179412841796875 217.29571533203125 220.273681640625 222.9012298583984375 225.378387451171875 227.5763092041015625 229.3699493408203125 230.879608154296875 232.0710906982421875 233.0935516357421875 233.8602142333984375 234.2945098876953125 234.5755767822265625 234.8610382080078125 235.0281524658203125 235.0446624755859375 235.0423583984375 235.073394775390625 235.1261444091796875 235.2252197265625 235.3992919921875 235.6406402587890625 235.87982177734375 236.29815673828125 236.7534637451171875 237.261383056640625 237.847198486328125 238.5311431884765625 239.3575286865234375 240.238494873046875 241.151092529296875 242.1102294921875 243.14630126953125 244.243682861328125 245.3588409423828125 246.516448974609375 247.685638427734375 248.870513916015625 250.017364501953125 251.17706298828125 252.3427276611328125 253.4420928955078125 254.561370849609375 255.6923370361328125 256.771087646484375 257.75604248046875 258.81494140625 259.9434814453125 261.17327880859375 262.46148681640625 263.718658447265625 264.84954833984375 265.681488037109375 266.34552001953125 266.883941650390625 267.26947021484375 267.542999267578125 267.640533447265625 267.651031494140625 267.570068359375 267.4212646484375 267.221710205078125 267.000640869140625 266.781646728515625 266.575927734375 266.394866943359375 266.24627685546875 266.140106201171875 266.063232421875 266.035430908203125 266.036773681640625 -99999 -99999 -99999 -99999 -99999 -99999 -99999 -99999 -99999 -99999 -99999 -99999 -99999 -99999 -99999 -99999 -99999 -99999 -99999 -99999 -99999 -99999 -99999 -99999 -99999 -99999 -99999 -99999 -99999 -99999 -99999 -99999 -99999 -99999 -99999 -99999 -99999 -99999 -99999 -99999 -99999 -99999 -99999 -99999 -99999 -99999 -99999 -99999 -99999 -99999 -99999 -99999 -99999 -99999 -99999 -99999 -99999 -99999 -99999 -99999 -99999 -99999 -99999 -99999 -99999 -99999 -99999 -99999 -99999 -99999 -99999 -99999 -99999 -99999 -99999 -99999 -99999 -99999 -99999 -99999 -99999 -99999 -99999 -99999
 -99999 -99999 -99999 -99999 -99999 58.669292449951171875 65.29047393798828125 71.952911376953125 78.38967132568359375 84.857269287109375 91.1890411376953125 97.5018768310546875 103.65418243408203125 109.75504302978515625 115.76776123046875 121.69181060791015625 127.48636627197265625 133.2967529296875 138.9749755859375 144.5624237060546875 150.078094482421875 155.5299072265625 160.8834991455078125 166.07757568359375 171.101287841796875 175.807769775390625 180.059173583984375 183.9374237060546875 187.050140380859375 189.488616943359375 191.09039306640625 191.97137451171875 191.9603424072265625 191.3831939697265625 190.6505279541015625 190.4835357666015625 191.3093109130859375 193.3534698486328125 196.0389251708984375 198.8374176025390625 201.7551727294921875 204.8560333251953125 208.0440521240234375 211.2433013916015625 214.387420654296875 217.428466796875 220.228240966796875 222.83123779296875 225.230621337890625 227.2816009521484375 229.1008453369140625 230.7133026123046875 232.01007080078125 232.97589111328125 233.7180938720703125 234.3551177978515625 234.8603057861328125 235.1676788330078125 235.318572998046875 235.4368743896484375 235.61663818359375 235.7924957275390625 235.8681488037109375 235.954010009765625 236.1254119873046875 236.4210052490234375 236.7524871826171875 237.1044769287109375 237.5054931640625 238.03564453125 238.6828460693359375 239.366546630859375 240.0854339599609375 240.8702850341796875 241.7427520751953125 242.707122802734375 243.69085693359375 244.724212646484375 245.7887725830078125 246.8768310546875 247.99407958984375 249.0883941650390625 250.2103729248046875 251.2880401611328125 252.390960693359375 253.4765625 254.5367279052734375 255.4538421630859375 256.433441162109375 257.3824462890625 258.30859375 259.2965087890625 260.440673828125 261.770355224609375 263.01300048828125 264.09259033203125 265.000762939453125 265.748931884765625 266.31683349609375 266.739013671875 267.037445068359375 267.22198486328125 267.30279541015625 267.26922607421875 267.176055908203125 267.04058837890625 266.884857177734375 266.7008056640625 266.52288818359375 266.40399169921875 266.2037353515625 266.1126708984375 -99999 -99999 -99999 -99999 -99999 -99999 -99999 -99999 -99999 -99999 -99999 -99999 -99999 -99999 -99999 -99999 -99999 -99999 -99999 -99999 -99999 -99999 -99999 -99999 -99999 -99999 -99999 -99999 -99999 -99999 -99999 -99999 -99999 -99999 -99999 -99999 -99999 -99999 -99999 -99999 -99999 -99999 -99999 -99999 -99999 -99999 -99999 -99999 -99999 -99999 -99999 -99999 -99999 -99999 -99999 -99999 -99999 -99999 -99999 -99999 -99999 -99999 -99999 -99999 -99999 -99999 -99999 -99999 -99999 -99999 -99999 -99999 -99999 -99999 -99999 -99999 -99999 -99999 -99999 -99999 -99999 -99999 -99999 -99999 -99999 -99999 -99999
 -99999 -99999 -99999 -99999 -99999 61.214603424072265625 67.9720001220703125 74.685882568359375 81.253204345703125 87.819915771484375 94.23784637451171875 100.6465606689453125 106.8450469970703125 112.970062255859375 118.99483489990234375 125.063995361328125 130.836273193359375 136.6116485595703125 142.270843505859375 147.9719085693359375 153.5882415771484375 159.0737457275390625 164.5668487548828125 169.87933349609375 175.2129058837890625 180.0528564453125 184.5941925048828125 188.6589508056640625 192.04974365234375 194.6119384765625 196.197265625 196.7974090576171875 196.492279052734375 195.1365509033203125 193.063262939453125 191.5483551025390625 191.49798583984375 193.8813629150390625 196.8204345703125 199.681976318359375 202.607269287109375 205.5961151123046875 208.70166015625 211.7836456298828125 214.7529296875 217.6021881103515625 220.3222503662109375 222.8740386962890625 225.1536102294921875 227.1812286376953125 229.0097198486328125 230.523223876953125 231.7811431884765625 232.8909759521484375 233.80230712890625 234.472869873046875 234.935089111328125 235.3158416748046875 235.68524169921875 235.94195556640625 236.102813720703125 236.2345123291015625 236.4241180419921875 236.684906005859375 236.8869171142578125 237.112762451171875 237.4303436279296875 237.837493896484375 238.315521240234375 238.81231689453125 239.3487396240234375 240.0001220703125 240.697235107421875 241.50732421875 242.3430938720703125 243.2324981689453125 244.1674652099609375 245.1350860595703125 246.1664276123046875 247.2004241943359375 248.2450714111328125 249.28814697265625 250.34722900390625 251.41424560546875 252.460479736328125 253.4091949462890625 254.357818603515625 255.30059814453125 256.199371337890625 257.081634521484375 257.9296875 258.741546630859375 259.92706298828125 261.17486572265625 262.37030029296875 263.439605712890625 264.349700927734375 265.0902099609375 265.69793701171875 266.178955078125 266.52008056640625 266.738922119140625 266.85968017578125 266.901336669921875 266.878204345703125 266.786102294921875 266.71539306640625 266.53857421875 266.395660400390625 266.26226806640625 -99999 -99999 -99999 -99999 -99999 -99999 -99999 -99999 -99999 -99999 -99999 -99999 -99999 -99999 -99999 -99999 -99999 -99999 -99999 -99999 -99999 -99999 -99999 -99999 -99999 -99999 -99999 -99999 -99999 -99999 -99999 -99999 -99999 -99999 -99999 -99999 -99999 -99999 -99999 -99999 -99999 -99999 -99999 -99999 -99999 -99999 -99999 -99999 -99999 -99999 -99999 -99999 -99999 -99999 -99999 -99999 -99999 -99999 -99999 -99999 -99999 -99999 -99999 -99999 -99999 -99999 -99999 -99999 -99999 -99999 -99999 -99999 -99999 -99999 -99999 -99999 -99999 -99999 -99999 -99999 -99999 -99999 -99999 -99999 -99999 -99999 -99999 -99999 -99999
 -99999 -99999 -99999 -99999 -99999 63.600616455078125 70.439422607421875 77.29012298583984375 83.94580841064453125 90.57413482666015625 97.064208984375 103.516632080078125 109.7704315185546875 115.93994903564453125 122.0222625732421875 128.0297393798828125 133.830596923828125 139.64154052734375 145.3453521728515625 151.0716552734375 156.5920867919921875 162.1894683837890625 167.7790374755859375 173.2969512939453125 178.811676025390625 184.13623046875 188.942352294921875 193.367889404296875 197.0347137451171875 199.84942626953125 201.68829345703125 202.3615264892578125 201.597503662109375 199.4442901611328125 196.185150146484375 192.906463623046875 191.5479736328125 194.370849609375 197.76666259765625 200.8141326904296875 203.7660675048828125 206.6737823486328125 209.54119873046875 212.4749755859375 215.3106231689453125 218.061126708984375 220.60845947265625 222.9586029052734375 225.1321868896484375 227.1401824951171875 228.8831329345703125 230.3163604736328125 231.750732421875 232.8410797119140625 233.7258148193359375 234.4568634033203125 235.0899658203125 235.5788116455078125 235.92755126953125 236.2170562744140625 236.4986114501953125 236.752777099609375 236.98150634765625 237.193115234375 237.4530792236328125 237.7811126708984375 238.116485595703125 238.4854736328125 238.923828125 239.4181671142578125 239.94842529296875 240.615478515625 241.3039093017578125 242.0454559326171875 242.8372955322265625 243.68756103515625 244.587738037109375 245.549835205078125 246.47991943359375 247.4403533935546875 248.43756103515625 249.4659881591796875 250.4850311279296875 251.489654541015625 252.4024200439453125 253.3415679931640625 254.264617919921875 255.1704254150390625 256.022705078125 256.86083984375 257.69012451171875 258.580810546875 259.592315673828125 260.742645263671875 261.838043212890625 262.82568359375 263.70928955078125 264.4666748046875 265.08636474609375 265.576812744140625 265.951873779296875 266.228424072265625 266.401275634765625 266.496124267578125 266.499847412109375 266.410614013671875 266.36395263671875 266.288116455078125 -99999 -99999 -99999 -99999 -99999 -99999 -99999 -99999 -99999 -99999 -99999 -99999 -99999 -99999 -99999 -99999 -99999 -99999 -99999 -99999 -99999 -99999 -99999 -99999 -99999 -99999 -99999 -99999 -99999 -99999 -99999 -99999 -99999 -99999 -99999 -99999 -99999 -99999 -99999 -99999 -99999 -99999 -99999 -99999 -99999 -99999 -99999 -99999 -99999 -99999 -99999 -99999 -99999 -99999 -99999 -99999 -99999 -99999 -99999 -99999 -99999 -99999 -99999 -99999 -99999 -99999 -99999 -99999 -99999 -99999 -99999 -99999 -99999 -99999 -99999 -99999 -99999 -99999 -99999 -99999 -99999 -99999 -99999 -99999 -99999 -99999 -99999 -99999 -99999 -99999 -99999
 -99999 -99999 -99999 -99999 -99999 65.778350830078125 72.75850677490234375 79.642913818359375 86.44033050537109375 93.1461639404296875 99.73126220703125 106.22686004638671875 112.51834869384765625 118.699310302734375 124.77983856201171875 130.7949676513671875 136.60064697265625 142.3826904296875 147.9993438720703125 153.6749114990234375 159.2301177978515625 164.8484649658203125 170.5097198486328125 176.1589202880859375 181.839447021484375 187.4614410400390625 192.900665283203125 197.7648162841796875 201.921051025390625 205.1707916259765625 207.23626708984375 208.10675048828125 207.57745361328125 205.3736114501953125 201.4798431396484375 196.9319915771484375 194.33135986328125 196.893646240234375 199.7829132080078125 202.67193603515625 205.430389404296875 208.124114990234375 210.816070556640625 213.4841461181640625 216.0937652587890625 218.585845947265625 220.9814453125 223.242828369140625 225.352020263671875 227.19024658203125 228.8675384521484375 230.4523162841796875 231.6406402587890625 232.697235107421875 233.5951690673828125 234.5171966552734375 235.1599884033203125 235.6811981201171875 236.1147918701171875 236.50750732421875 236.8423614501953125 237.1280364990234375 237.4051513671875 237.678619384765625 237.967926025390625 238.287261962890625 238.6352691650390625 239.0353851318359375 239.4050750732421875 239.97369384765625 240.529632568359375 241.13433837890625 241.78826904296875 242.5059814453125 243.2818756103515625 244.1533355712890625 244.9144744873046875 245.783538818359375 246.7171783447265625 247.6654052734375 248.6084747314453125 249.5263824462890625 250.4998931884765625 251.43621826171875 252.3727264404296875 253.2879638671875 254.1847686767578125 255.050872802734375 255.8741302490234375 256.683563232421875 257.511474609375 258.3900146484375 259.350189208984375 260.340850830078125 261.3302001953125 262.285186767578125 263.1396484375 263.87542724609375 264.55633544921875 265.036956787109375 265.3603515625 265.678466796875 265.823944091796875 266.01129150390625 266.072265625 -99999 -99999 -99999 -99999 -99999 -99999 -99999 -99999 -99999 -99999 -99999 -99999 -99999 -99999 -99999 -99999 -99999 -99999 -99999 -99999 -99999 -99999 -99999 -99999 -99999 -99999 -99999 -99999 -99999 -99999 -99999 -99999 -99999 -99999 -99999 -99999 -99999 -99999 -99999 -99999 -99999 -99999 -99999 -99999 -99999 -99999 -99999 -99999 -99999 -99999 -99999 -99999 -99999 -99999 -99999 -99999 -99999 -99999 -99999 -99999 -99999 -99999 -99999 -99999 -99999 -99999 -99999 -99999 -99999 -99999 -99999 -99999 -99999 -99999 -99999 -99999 -99999 -99999 -99999 -99999 -99999 -99999 -99999 -99999 -99999 -99999 -99999 -99999 -99999 -99999 -99999 -99999 -99999 -99999
 -99999 -99999 -99999 -99999 -99999 67.71233367919921875 74.85947418212890625 81.88402557373046875 88.7048492431640625 95.48101806640625 102.12772369384765625 108.6207275390625 115.0350799560546875 121.26519775390625 127.32001495361328125 133.2857513427734375 139.06011962890625 144.742767333984375 150.3260345458984375 155.9382171630859375 161.414794921875 167.0003814697265625 172.6556396484375 178.4132232666015625 184.261993408203125 190.207672119140625 195.9886932373046875 201.5758056640625 206.4376983642578125 210.1575775146484375 212.8071136474609375 214.31097412109375 214.26922607421875 212.1864013671875 208.49188232421875 204.1315155029296875 201.44342041015625 201.5576171875 203.161468505859375 205.402587890625 207.619415283203125 209.948394775390625 212.3300933837890625 214.71673583984375 217.0363616943359375 219.3457489013671875 221.581268310546875 223.606903076171875 225.5302886962890625 227.3120269775390625 228.9481658935546875 230.409423828125 231.6620941162109375 232.7730560302734375 233.6937713623046875 234.50787353515625 235.11761474609375 235.690673828125 236.2389373779296875 236.663421630859375 237.0079345703125 237.301513671875 237.6441802978515625 238.0164337158203125 238.34234619140625 238.6609649658203125 239.0282135009765625 239.4957122802734375 239.94610595703125 240.437713623046875 240.982574462890625 241.57672119140625 242.221160888671875 242.9629364013671875 243.6048736572265625 244.3901519775390625 245.215087890625 246.06036376953125 246.9094696044921875 247.8108062744140625 248.698272705078125 249.6153411865234375 250.510284423828125 251.42095947265625 252.320831298828125 253.197357177734375 254.08892822265625 254.9604644775390625 255.73919677734375 256.5076904296875 257.331878662109375 258.181640625 259.128082275390625 260.006317138671875 260.973297119140625 261.866912841796875 262.619537353515625 263.211883544921875 263.864959716796875 264.286376953125 264.743560791015625 265.104217529296875 265.346343994140625 -99999 -99999 -99999 -99999 -99999 -99999 -99999 -99999 -99999 -99999 -99999 -99999 -99999 -99999 -99999 -99999 -99999 -99999 -99999 -99999 -99999 -99999 -99999 -99999 -99999 -99999 -99999 -99999 -99999 -99999 -99999 -99999 -99999 -99999 -99999 -99999 -99999 -99999 -99999 -99999 -99999 -99999 -99999 -99999 -99999 -99999 -99999 -99999 -99999 -99999 -99999 -99999 -99999 -99999 -99999 -99999 -99999 -99999 -99999 -99999 -99999 -99999 -99999 -99999 -99999 -99999 -99999 -99999 -99999 -99999 -99999 -99999 -99999 -99999 -99999 -99999 -99999 -99999 -99999 -99999 -99999 -99999 -99999 -99999 -99999 -99999 -99999 -99999 -99999 -99999 -99999 -99999 -99999 -99999 -99999 -99999
 -99999 -99999 -99999 -99999 -99999 69.549560546875 76.72817230224609375 83.8045806884765625 90.80785369873046875 97.6502685546875 104.403411865234375 110.92922210693359375 117.3180084228515625 123.53354644775390625 129.6204986572265625 135.5555877685546875 141.244598388671875 146.8950653076171875 152.3458099365234375 157.8191375732421875 163.103424072265625 168.536773681640625 174.147705078125 179.9252777099609375 185.9098663330078125 192.2864227294921875 198.645965576171875 204.686676025390625 210.1440582275390625 214.640228271484375 217.8226776123046875 219.676513671875 220.7900543212890625 220.111480712890625 215.885589599609375 211.4583587646484375 208.4707794189453125 207.4803466796875 207.667205810546875 208.8227691650390625 210.27142333984375 212.164459228515625 214.0370330810546875 216.093597412109375 218.1934661865234375 220.219390869140625 222.1773223876953125 224.079254150390625 225.9055938720703125 227.565399169921875 229.045379638671875 230.3840484619140625 231.6380767822265625 232.8073577880859375 233.7410888671875 234.53375244140625 235.2398834228515625 235.842010498046875 236.3617095947265625 236.827239990234375 237.2448272705078125 237.62786865234375 237.99127197265625 238.340850830078125 238.6947174072265625 239.06524658203125 239.4508056640625 239.8750762939453125 240.3332672119140625 240.8547515869140625 241.4167327880859375 241.9645843505859375 242.5409393310546875 243.2195587158203125 243.9294891357421875 244.6525421142578125 245.40338134765625 246.2235565185546875 247.01654052734375 247.8582611083984375 248.7473297119140625 249.6171112060546875 250.4905242919921875 251.3425140380859375 252.227569580078125 253.07550048828125 253.9294586181640625 254.8149261474609375 255.5862579345703125 256.393035888671875 257.095947265625 257.932861328125 258.78814697265625 259.5926513671875 260.40081787109375 261.15655517578125 261.909210205078125 262.580841064453125 263.231964111328125 263.759002685546875 264.186126708984375 -99999 -99999 -99999 -99999 -99999 -99999 -99999 -99999 -99999 -99999 -99999 -99999 -99999 -99999 -99999 -99999 -99999 -99999 -99999 -99999 -99999 -99999 -99999 -99999 -99999 -99999 -99999 -99999 -99999 -99999 -99999 -99999 -99999 -99999 -99999 -99999 -99999 -99999 -99999 -99999 -99999 -99999 -99999 -99999 -99999 -99999 -99999 -99999 -99999 -99999 -99999 -99999 -99999 -99999 -99999 -99999 -99999 -99999 -99999 -99999 -99999 -99999 -99999 -99999 -99999 -99999 -99999 -99999 -99999 -99999 -99999 -99999 -99999 -99999 -99999 -99999 -99999 -99999 -99999 -99999 -99999 -99999 -99999 -99999 -99999 -99999 -99999 -99999 -99999 -99999 -99999 -99999 -99999 -99999 -99999 -99999 -99999 -99999
 -99999 -99999 -99999 -99999 -99999 71.11917877197265625 78.357391357421875 85.55096435546875 92.63695526123046875 99.57201385498046875 106.34520721435546875 112.93526458740234375 119.43352508544921875 125.69493865966796875 131.67413330078125 137.5018768310546875 143.2059173583984375 148.6584014892578125 153.94281005859375 159.23223876953125 164.3597564697265625 169.5964202880859375 174.9214324951171875 180.5415802001953125 186.6426849365234375 193.1727752685546875 200.002105712890625 206.9901580810546875 213.3311309814453125 218.137725830078125 221.7201690673828125 223.7312164306640625 225.012054443359375 224.5242462158203125 221.4350128173828125 217.3945465087890625 214.2183837890625 212.5195770263671875 212.0307464599609375 212.3743133544921875 213.2689361572265625 214.4638214111328125 215.9419403076171875 217.6651763916015625 219.3693084716796875 221.165802001953125 222.9579620361328125 224.6606597900390625 226.2563323974609375 227.7582244873046875 229.2087249755859375 230.5558929443359375 231.7112579345703125 232.705078125 233.6240692138671875 234.505279541015625 235.278717041015625 235.92822265625 236.4773406982421875 236.9466400146484375 237.3878936767578125 237.80157470703125 238.19598388671875 238.57989501953125 238.9587554931640625 239.350921630859375 239.797943115234375 240.238494873046875 240.6282806396484375 241.0973968505859375 241.6577911376953125 242.238739013671875 242.81781005859375 243.4359283447265625 244.1094512939453125 244.8324432373046875 245.5569000244140625 246.3083648681640625 247.124481201171875 247.9326171875 248.7541351318359375 249.5880279541015625 250.4176483154296875 251.2580718994140625 252.0924072265625 252.9562225341796875 253.7923431396484375 254.507293701171875 255.2374114990234375 256.018096923828125 256.78082275390625 257.505828857421875 258.22802734375 259.098480224609375 259.894775390625 260.686859130859375 261.413604736328125 262.06951904296875 -99999 -99999 -99999 -99999 -99999 -99999 -99999 -99999 -99999 -99999 -99999 -99999 -99999 -99999 -99999 -99999 -99999 -99999 -99999 -99999 -99999 -99999 -99999 -99999 -99999 -99999 -99999 -99999 -99999 -99999 -99999 -99999 -99999 -99999 -99999 -99999 -99999 -99999 -99999 -99999 -99999 -99999 -99999 -99999 -99999 -99999 -99999 -99999 -99999 -99999 -99999 -99999 -99999 -99999 -99999 -99999 -99999 -99999 -99999 -99999 -99999 -99999 -99999 -99999 -99999 -99999 -99999 -99999 -99999 -99999 -99999 -99999 -99999 -99999 -99999 -99999 -99999 -99999 -99999 -99999 -99999 -99999 -99999 -99999 -99999 -99999 -99999 -99999 -99999 -99999 -99999 -99999 -99999 -99999 -99999 -99999 -99999 -99999 -99999 -99999 -99999
 -99999 -99999 -99999 -99999 -99999 -99999 79.81401824951171875 87.23500823974609375 94.29816436767578125 101.28426361083984375 108.21257781982421875 114.82160186767578125 121.25879669189453125 127.49002838134765625 133.59686279296875 139.407562255859375 144.902435302734375 150.2754974365234375 155.4159393310546875 160.481536865234375 165.2172088623046875 170.0268402099609375 175.036773681640625 180.3303680419921875 186.12127685546875 192.6180572509765625 200.1538543701171875 207.92633056640625 215.1881561279296875 221.0232696533203125 224.45037841796875 226.2120208740234375 227.05712890625 226.6043701171875 224.4502105712890625 221.6293182373046875 218.827178955078125 216.763916015625 215.9359283447265625 215.581207275390625 215.965362548828125 216.8037261962890625 217.9244842529296875 219.2009124755859375 220.6011810302734375 222.120697021484375 223.65728759765625 225.161468505859375 226.6752471923828125 228.121490478515625 229.40704345703125 230.5890045166015625 231.6744232177734375 232.74908447265625 233.7052154541015625 234.46917724609375 235.1461639404296875 235.8135986328125 236.4410400390625 236.9937591552734375 237.422119140625 237.819793701171875 238.271087646484375 238.722900390625 239.1344757080078125 239.505615234375 239.90399169921875 240.3606414794921875 240.8712615966796875 241.3582763671875 241.8497161865234375 242.3864898681640625 243.00360107421875 243.642578125 244.25030517578125 244.9298858642578125 245.662322998046875 246.3900909423828125 247.1443328857421875 247.9248504638671875 248.702301025390625 249.509613037109375 250.3045806884765625 251.1412506103515625 251.9559478759765625 252.6511993408203125 253.4176025390625 254.209228515625 254.967132568359375 255.578765869140625 256.306976318359375 257.15435791015625 257.948760986328125 258.71368408203125 259.463287353515625 260.1873779296875 -99999 -99999 -99999 -99999 -99999 -99999 -99999 -99999 -99999 -99999 -99999 -99999 -99999 -99999 -99999 -99999 -99999 -99999 -99999 -99999 -99999 -99999 -99999 -99999 -99999 -99999 -99999 -99999 -99999 -99999 -99999 -99999 -99999 -99999 -99999 -99999 -99999 -99999 -99999 -99999 -99999 -99999 -99999 -99999 -99999 -99999 -99999 -99999 -99999 -99999 -99999 -99999 -99999 -99999 -99999 -99999 -99999 -99999 -99999 -99999 -99999 -99999 -99999 -99999 -99999 -99999 -99999 -99999 -99999 -99999 -99999 -99999 -99999 -99999 -99999 -99999 -99999 -99999 -99999 -99999 -99999 -99999 -99999 -99999 -99999 -99999 -99999 -99999 -99999 -99999 -99999 -99999 -99999 -99999 -99999 -99999 -99999 -99999 -99999 -99999 -99999 -99999 -99999
 -99999 -99999 -99999 -99999 -99999 -99999 80.99498748779296875 88.41049957275390625 95.656280517578125 102.7733154296875 109.6934051513671875 116.376007080078125 122.96726226806640625 129.2261810302734375 135.2052154541015625 140.9499664306640625 146.4447021484375 151.6115570068359375 156.51885986328125 161.2796630859375 165.7122039794921875 170.026885986328125 174.3967437744140625 179.1400146484375 184.409759521484375 190.69683837890625 198.2047119140625 207.212554931640625 216.0231475830078125 222.3853912353515625 225.7792510986328125 227.38006591796875 227.9593505859375 227.4230499267578125 226.08447265625 223.841033935546875 221.7136993408203125 220.055877685546875 218.8520355224609375 218.3924560546875 218.42584228515625 218.79327392578125 219.5917816162109375 220.6341705322265625 221.8390960693359375 223.1078643798828125 224.39129638671875 225.74481201171875 227.01055908203125 228.3011016845703125 229.536224365234375 230.7227935791015625 231.784515380859375 232.7250823974609375 233.575775146484375 234.4051055908203125 235.17864990234375 235.824981689453125 236.3590087890625 236.892425537109375 237.4226226806640625 237.9284515380859375 238.348602294921875 238.745635986328125 239.1651611328125 239.6373138427734375 240.0951690673828125 240.517364501953125 240.9521026611328125 241.4605865478515625 242.0088348388671875 242.5586090087890625 243.0665740966796875 243.67767333984375 244.34332275390625 244.995147705078125 245.6812591552734375 246.3916168212890625 247.1156768798828125 247.8614959716796875 248.646575927734375 249.405120849609375 250.182403564453125 250.8794097900390625 251.6389312744140625 252.407470703125 253.14813232421875 253.7260284423828125 254.4697723388671875 255.2863311767578125 256.046478271484375 256.78436279296875 257.522705078125 258.259368896484375 -99999 -99999 -99999 -99999 -99999 -99999 -99999 -99999 -99999 -99999 -99999 -99999 -99999 -99999 -99999 -99999 -99999 -99999 -99999 -99999 -99999 -99999 -99999 -99999 -99999 -99999 -99999 -99999 -99999 -99999 -99999 -99999 -99999 -99999 -99999 -99999 -99999 -99999 -99999 -99999 -99999 -99999 -99999 -99999 -99999 -99999 -99999 -99999 -99999 -99999 -99999 -99999 -99999 -99999 -99999 -99999 -99999 -99999 -99999 -99999 -99999 -99999 -99999 -99999 -99999 -99999 -99999 -99999 -99999 -99999 -99999 -99999 -99999 -99999 -99999 -99999 -99999 -99999 -99999 -99999 -99999 -99999 -99999 -99999 -99999 -99999 -99999 -99999 -99999 -99999 -99999 -99999 -99999 -99999 -99999 -99999 -99999 -99999 -99999 -99999 -99999 -99999 -99999 -99999 -99999
 -99999 -99999 -99999 -99999 -99999 -99999 81.93802642822265625 89.4473419189453125 96.802947998046875 104.020263671875 111.06957244873046875 117.78000640869140625 124.32784271240234375 130.63397216796875 136.7139129638671875 142.448516845703125 147.7778778076171875 152.928741455078125 157.6488037109375 162.1033782958984375 166.077239990234375 169.9322662353515625 173.596649169921875 177.2856903076171875 181.2979278564453125 186.6510162353515625 193.59356689453125 203.033905029296875 214.4092559814453125 222.6851654052734375 225.5624237060546875 226.87542724609375 227.5176849365234375 227.2396697998046875 226.25152587890625 224.9346160888671875 223.40509033203125 221.9093170166015625 220.9586334228515625 220.31494140625 220.225616455078125 220.5347137451171875 221.1183624267578125 221.8811187744140625 222.8089752197265625 223.89312744140625 225.06085205078125 226.25927734375 227.4600677490234375 228.559051513671875 229.641265869140625 230.7273406982421875 231.7115020751953125 232.6776275634765625 233.5595703125 234.341796875 235.022918701171875 235.672210693359375 236.3265228271484375 236.892974853515625 237.38238525390625 237.840301513671875 238.3144683837890625 238.8090667724609375 239.2421722412109375 239.6497802734375 240.090118408203125 240.5720672607421875 241.0660858154296875 241.47503662109375 241.979583740234375 242.547332763671875 243.1434783935546875 243.7338409423828125 244.3498382568359375 244.989227294921875 245.6452484130859375 246.3353729248046875 247.0516815185546875 247.79779052734375 248.505828857421875 249.1775970458984375 249.9120025634765625 250.667327880859375 251.3927001953125 252.026763916015625 252.7216644287109375 253.4942169189453125 254.22735595703125 254.9373626708984375 255.65264892578125 256.37017822265625 -99999 -99999 -99999 -99999 -99999 -99999 -99999 -99999 -99999 -99999 -99999 -99999 -99999 -99999 -99999 -99999 -99999 -99999 -99999 -99999 -99999 -99999 -99999 -99999 -99999 -99999 -99999 -99999 -99999 -99999 -99999 -99999 -99999 -99999 -99999 -99999 -99999 -99999 -99999 -99999 -99999 -99999 -99999 -99999 -99999 -99999 -99999 -99999 -99999 -99999 -99999 -99999 -99999 -99999 -99999 -99999 -99999 -99999 -99999 -99999 -99999 -99999 -99999 -99999 -99999 -99999 -99999 -99999 -99999 -99999 -99999 -99999 -99999 -99999 -99999 -99999 -99999 -99999 -99999 -99999 -99999 -99999 -99999 -99999 -99999 -99999 -99999 -99999 -99999 -99999 -99999 -99999 -99999 -99999 -99999 -99999 -99999 -99999 -99999 -99999 -99999 -99999 -99999 -99999 -99999 -99999 -99999
 -99999 -99999 -99999 -99999 -99999 -99999 82.62175750732421875 90.28258514404296875 97.664886474609375 105.02942657470703125 112.075408935546875 118.93743896484375 125.59925079345703125 131.924285888671875 137.9486083984375 143.713165283203125 148.9709930419921875 154.0341644287109375 158.6192626953125 162.87530517578125 166.5087432861328125 169.7146759033203125 172.622833251953125 175.4412689208984375 178.2306671142578125 181.50244140625 186.156494140625 194.29266357421875 206.82965087890625 216.4735870361328125 221.7841339111328125 224.1138458251953125 225.1771392822265625 225.7413787841796875 225.52996826171875 224.7165374755859375 223.80743408203125 222.957275390625 222.252349853515625 221.753387451171875 221.616180419921875 221.7936859130859375 222.2010498046875 222.8405609130859375 223.6670074462890625 224.6295013427734375 225.5748748779296875 226.6086578369140625 227.6700592041015625 228.7565765380859375 229.845123291015625 230.750946044921875 231.6203765869140625 232.5345916748046875 233.3739013671875 234.1230621337890625 234.8958282470703125 235.5588531494140625 236.14715576171875 236.7160491943359375 237.2552490234375 237.7724151611328125 238.249237060546875 238.6918487548828125 239.1430511474609375 239.6187744140625 240.008758544921875 240.472900390625 240.994049072265625 241.5013275146484375 242.0290069580078125 242.5618438720703125 243.11663818359375 243.6943206787109375 244.302032470703125 244.924774169921875 245.5709381103515625 246.298492431640625 246.9217681884765625 247.5530853271484375 248.2568206787109375 248.98492431640625 249.686309814453125 250.3404083251953125 250.9260101318359375 251.758056640625 252.4605865478515625 253.1521453857421875 253.8502044677734375 -99999 -99999 -99999 -99999 -99999 -99999 -99999 -99999 -99999 -99999 -99999 -99999 -99999 -99999 -99999 -99999 -99999 -99999 -99999 -99999 -99999 -99999 -99999 -99999 -99999 -99999 -99999 -99999 -99999 -99999 -99999 -99999 -99999 -99999 -99999 -99999 -99999 -99999 -99999 -99999 -99999 -99999 -99999 -99999 -99999 -99999 -99999 -99999 -99999 -99999 -99999 -99999 -99999 -99999 -99999 -99999 -99999 -99999 -99999 -99999 -99999 -99999 -99999 -99999 -99999 -99999 -99999 -99999 -99999 -99999 -99999 -99999 -99999 -99999 -99999 -99999 -99999 -99999 -99999 -99999 -99999 -99999 -99999 -99999 -99999 -99999 -99999 -99999 -99999 -99999 -99999 -99999 -99999 -99999 -99999 -99999 -99999 -99999 -99999 -99999 -99999 -99999 -99999 -99999 -99999 -99999 -99999 -99999 -99999 -99999
 -99999 -99999 -99999 -99999 -99999 -99999 83.01114654541015625 90.79915618896484375 98.3120269775390625 105.7509765625 112.90631866455078125 119.923492431640625 126.53089141845703125 132.976348876953125 139.0860137939453125 144.8248138427734375 150.1702117919921875 155.1410369873046875 159.618988037109375 163.6984710693359375 167.103118896484375 170.0567779541015625 172.3498687744140625 173.8455810546875 174.9054412841796875 176.37060546875 178.962646484375 184.2825927734375 193.884735107421875 206.4900970458984375 213.9214324951171875 218.495391845703125 221.3799896240234375 223.0749664306640625 223.6526641845703125 223.75177001953125 223.5506591796875 223.081512451171875 222.6285552978515625 222.446380615234375 222.45361328125 222.5152435302734375 223.0001373291015625 223.57098388671875 224.2544708251953125 225.0583648681640625 225.944549560546875 226.8947906494140625 227.8733673095703125 228.8202056884765625 229.7572479248046875 230.6992034912109375 231.689056396484375 232.4520721435546875 233.222198486328125 233.9702606201171875 234.647979736328125 235.295440673828125 235.876739501953125 236.42462158203125 237.0228118896484375 237.552825927734375 238.0408172607421875 238.4821014404296875 238.9389495849609375 239.486663818359375 239.96429443359375 240.44195556640625 240.9310455322265625 241.4271240234375 241.938446044921875 242.46881103515625 243.0244903564453125 243.6096954345703125 244.2276458740234375 244.8813629150390625 245.4194793701171875 246.013702392578125 246.6920166015625 247.3801116943359375 248.0403594970703125 248.6605377197265625 249.2890777587890625 250.0458984375 250.70452880859375 251.4151458740234375 252.0873870849609375 -99999 -99999 -99999 -99999 -99999 -99999 -99999 -99999 -99999 -99999 -99999 -99999 -99999 -99999 -99999 -99999 -99999 -99999 -99999 -99999 -99999 -99999 -99999 -99999 -99999 -99999 -99999 -99999 -99999 -99999 -99999 -99999 -99999 -99999 -99999 -99999 -99999 -99999 -99999 -99999 -99999 -99999 -99999 -99999 -99999 -99999 -99999 -99999 -99999 -99999 -99999 -99999 -99999 -99999 -99999 -99999 -99999 -99999 -99999 -99999 -99999 -99999 -99999 -99999 -99999 -99999 -99999 -99999 -99999 -99999 -99999 -99999 -99999 -99999 -99999 -99999 -99999 -99999 -99999 -99999 -99999 -99999 -99999 -99999 -99999 -99999 -99999 -99999 -99999 -99999 -99999 -99999 -99999 -99999 -99999 -99999 -99999 -99999 -99999 -99999 -99999 -99999 -99999 -99999 -99999 -99999 -99999 -99999 -99999 -99999 -99999 -99999
 -99999 -99999 -99999 -99999 -99999 -99999 83.11072540283203125 90.94956207275390625 98.6250762939453125 106.20447540283203125 113.45302581787109375 120.588623046875 127.27889251708984375 133.77801513671875 139.9318389892578125 145.7706298828125 151.105926513671875 156.1449432373046875 160.66009521484375 164.652618408203125 168.0314483642578125 170.779815673828125 172.5714569091796875 173.6260833740234375 173.856109619140625 173.1823272705078125 173.6951751708984375 178.66778564453125 187.59832763671875 198.1084747314453125 206.8920440673828125 213.044036865234375 216.8739776611328125 219.4238128662109375 221.1154632568359375 221.90179443359375 222.2690887451171875 222.507904052734375 222.600860595703125 222.615020751953125 222.7075042724609375 222.945556640625 223.3714752197265625 223.901336669921875 224.5677642822265625 225.33697509765625 226.179473876953125 227.0164031982421875 227.882598876953125 228.7812347412109375 229.68536376953125 230.58038330078125 231.412384033203125 232.206207275390625 233.0807342529296875 233.7424163818359375 234.436798095703125 235.0750732421875 235.68072509765625 236.2627410888671875 236.82025146484375 237.346160888671875 237.8534393310546875 238.343597412109375 238.8297882080078125 239.3137359619140625 239.79217529296875 240.27618408203125 240.7872161865234375 241.2899017333984375 241.825836181640625 242.343292236328125 242.9265899658203125 243.430572509765625 243.9737091064453125 244.5738677978515625 245.20587158203125 245.839813232421875 246.453369140625 247.0467681884765625 247.6950836181640625 248.3617401123046875 249.0303802490234375 249.714630126953125 250.3672332763671875 -99999 -99999 -99999 -99999 -99999 -99999 -99999 -99999 -99999 -99999 -99999 -99999 -99999 -99999 -99999 -99999 -99999 -99999 -99999 -99999 -99999 -99999 -99999 -99999 -99999 -99999 -99999 -99999 -99999 -99999 -99999 -99999 -99999 -99999 -99999 -99999 -99999 -99999 -99999 -99999 -99999 -99999 -99999 -99999 -99999 -99999 -99999 -99999 -99999 -99999 -99999 -99999 -99999 -99999 -99999 -99999 -99999 -99999 -99999 -99999 -99999 -99999 -99999 -99999 -99999 -99999 -99999 -99999 -99999 -99999 -99999 -99999 -99999 -99999 -99999 -99999 -99999 -99999 -99999 -99999 -99999 -99999 -99999 -99999 -99999 -99999 -99999 -99999 -99999 -99999 -99999 -99999 -99999 -99999 -99999 -99999 -99999 -99999 -99999 -99999 -99999 -99999 -99999 -99999 -99999 -99999 -99999 -99999 -99999 -99999 -99999 -99999 -99999 -99999
 -99999 -99999 -99999 -99999 -99999 -99999 82.8849334716796875 90.8697662353515625 98.76001739501953125 106.2077484130859375 113.73603057861328125 120.84595489501953125 127.73427581787109375 134.3679046630859375 140.5298614501953125 146.4492340087890625 151.9198760986328125 156.9683074951171875 161.4750213623046875 165.652191162109375 169.2247314453125 172.003662109375 174.12322998046875 175.0313873291015625 174.4527130126953125 173.688812255859375 174.0641326904296875 178.0286407470703125 185.0815277099609375 193.7361907958984375 201.5091552734375 207.842376708984375 212.6111602783203125 216.011962890625 218.418487548828125 219.8661651611328125 220.808135986328125 221.4148712158203125 221.8225860595703125 222.15966796875 222.584716796875 223.0018768310546875 223.4589385986328125 223.9934539794921875 224.639801025390625 225.3748321533203125 226.118560791015625 226.9510498046875 227.82867431640625 228.6826171875 229.5075836181640625 230.3116912841796875 231.1239166259765625 231.9407501220703125 232.70172119140625 233.4015960693359375 234.1048583984375 234.777496337890625 235.4120635986328125 235.98760986328125 236.56793212890625 237.0736236572265625 237.575042724609375 238.0761260986328125 238.603424072265625 239.1313629150390625 239.6101531982421875 240.0990753173828125 240.568389892578125 241.08770751953125 241.565185546875 242.0779571533203125 242.6139373779296875 243.187164306640625 243.772735595703125 244.3457183837890625 244.9204254150390625 245.5244140625 246.137451171875 246.7664337158203125 247.398193359375 248.04217529296875 -99999 -99999 -99999 -99999 -99999 -99999 -99999 -99999 -99999 -99999 -99999 -99999 -99999 -99999 -99999 -99999 -99999 -99999 -99999 -99999 -99999 -99999 -99999 -99999 -99999 -99999 -99999 -99999 -99999 -99999 -99999 -99999 -99999 -99999 -99999 -99999 -99999 -99999 -99999 -99999 -99999 -99999 -99999 -99999 -99999 -99999 -99999 -99999 -99999 -99999 -99999 -99999 -99999 -99999 -99999 -99999 -99999 -99999 -99999 -99999 -99999 -99999 -99999 -99999 -99999 -99999 -99999 -99999 -99999 -99999 -99999 -99999 -99999 -99999 -99999 -99999 -99999 -99999 -99999 -99999 -99999 -99999 -99999 -99999 -99999 -99999 -99999 -99999 -99999 -99999 -99999 -99999 -99999 -99999 -99999 -99999 -99999 -99999 -99999 -99999 -99999 -99999 -99999 -99999 -99999 -99999 -99999 -99999 -99999 -99999 -99999 -99999 -99999 -99999 -99999 -99999 -99999
 -99999 -99999 -99999 -99999 -99999 74.08112335205078125 82.3617706298828125 90.43505859375 98.4020538330078125 106.17139434814453125 113.6707611083984375 121.016754150390625 127.96929168701171875 134.5420379638671875 140.8465118408203125 146.865997314453125 152.36114501953125 157.6240081787109375 162.3666229248046875 166.4953460693359375 170.3291168212890625 173.6321563720703125 176.1224212646484375 177.540283203125 177.398468017578125 176.23577880859375 176.8639678955078125 180.0034027099609375 185.15582275390625 191.675750732421875 198.310455322265625 204.076812744140625 208.8019561767578125 212.51080322265625 215.370025634765625 217.4270172119140625 218.856658935546875 219.959625244140625 220.7935638427734375 221.4807891845703125 222.0240478515625 222.5590057373046875 223.1523590087890625 223.81549072265625 224.517547607421875 225.1822967529296875 225.9819793701171875 226.775787353515625 227.5536956787109375 228.3487396240234375 229.1983184814453125 230.0352783203125 230.817535400390625 231.5360260009765625 232.2491607666015625 232.99017333984375 233.7070770263671875 234.3327484130859375 234.9168548583984375 235.5055389404296875 236.0997314453125 236.6900634765625 237.2155303955078125 237.7024078369140625 238.1865234375 238.724853515625 239.2631683349609375 239.73809814453125 240.21563720703125 240.724151611328125 241.26885986328125 241.8173675537109375 242.34381103515625 242.881072998046875 243.4382476806640625 244.0236968994140625 244.6055755615234375 245.1593017578125 245.7545928955078125 246.410797119140625 -99999 -99999 -99999 -99999 -99999 -99999 -99999 -99999 -99999 -99999 -99999 -99999 -99999 -99999 -99999 -99999 -99999 -99999 -99999 -99999 -99999 -99999 -99999 -99999 -99999 -99999 -99999 -99999 -99999 -99999 -99999 -99999 -99999 -99999 -99999 -99999 -99999 -99999 -99999 -99999 -99999 -99999 -99999 -99999 -99999 -99999 -99999 -99999 -99999 -99999 -99999 -99999 -99999 -99999 -99999 -99999 -99999 -99999 -99999 -99999 -99999 -99999 -99999 -99999 -99999 -99999 -99999 -99999 -99999 -99999 -99999 -99999 -99999 -99999 -99999 -99999 -99999 -99999 -99999 -99999 -99999 -99999 -99999 -99999 -99999 -99999 -99999 -99999 -99999 -99999 -99999 -99999 -99999 -99999 -99999 -99999 -99999 -99999 -99999 -99999 -99999 -99999 -99999 -99999 -99999 -99999 -99999 -99999 -99999 -99999 -99999 -99999 -99999 -99999 -99999 -99999 -99999 -99999 -99999
 -99999 -99999 -99999 -99999 -99999 73.04019927978515625 81.40630340576171875 89.68967437744140625 97.770294189453125 105.6319732666015625 113.3585357666015625 120.64055633544921875 127.75579071044921875 134.5054779052734375 140.8608245849609375 147.0191802978515625 152.644073486328125 157.8595123291015625 162.7138671875 167.1024932861328125 171.02947998046875 174.8172607421875 178.418701171875 181.0467529296875 180.2455596923828125 179.525421142578125 179.7936553955078125 181.744659423828125 185.813140869140625 190.7371063232421875 196.1319732666015625 201.3124542236328125 205.920867919921875 209.5989532470703125 212.5947265625 215.0360260009765625 216.8599090576171875 218.2752227783203125 219.4067230224609375 220.3339691162109375 221.1345367431640625 221.9060821533203125 222.6429290771484375 223.3246612548828125 224.0159912109375 224.806671142578125 225.5423583984375 226.2979583740234375 227.1566162109375 228.0092315673828125 228.7798614501953125 229.5324859619140625 230.3149261474609375 231.1050872802734375 231.8620758056640625 232.5242156982421875 233.1636199951171875 233.824188232421875 234.485137939453125 235.104766845703125 235.646881103515625 236.1732177734375 236.7407073974609375 237.30706787109375 237.8352508544921875 238.3197479248046875 238.8048553466796875 239.3462371826171875 239.8870697021484375 240.400604248046875 240.902099609375 241.41949462890625 241.9815673828125 242.5117645263671875 243.0234375 243.602447509765625 244.1996612548828125 -99999 -99999 -99999 -99999 -99999 -99999 -99999 -99999 -99999 -99999 -99999 -99999 -99999 -99999 -99999 -99999 -99999 -99999 -99999 -99999 -99999 -99999 -99999 -99999 -99999 -99999 -99999 -99999 -99999 -99999 -99999 -99999 -99999 -99999 -99999 -99999 -99999 -99999 -99999 -99999 -99999 -99999 -99999 -99999 -99999 -99999 -99999 -99999 -99999 -99999 -99999 -99999 -99999 -99999 -99999 -99999 -99999 -99999 -99999 -99999 -99999 -99999 -99999 -99999 -99999 -99999 -99999 -99999 -99999 -99999 -99999 -99999 -99999 -99999 -99999 -99999 -99999 -99999 -99999 -99999 -99999 -99999 -99999 -99999 -99999 -99999 -99999 -99999 -99999 -99999 -99999 -99999 -99999 -99999 -99999 -99999 -99999 -99999 -99999 -99999 -99999 -99999 -99999 -99999 -99999 -99999 -99999 -99999 -99999 -99999 -99999 -99999 -99999 -99999 -99999 -99999 -99999 -99999 -99999 -99999 -99999 -99999
 -99999 -99999 -99999 -99999 -99999 71.63641357421875 80.12941741943359375 88.516082763671875 96.8339385986328125 104.79451751708984375 112.511962890625 119.97745513916015625 127.1609344482421875 133.93939208984375 140.4684906005859375 146.6191558837890625 152.3132781982421875 157.7727813720703125 162.75311279296875 167.11102294921875 171.1918792724609375 174.9158935546875 178.6264801025390625 181.059906005859375 181.5917510986328125 181.115814208984375 181.70159912109375 183.5424957275390625 186.4942169189453125 190.376983642578125 194.9774017333984375 199.349456787109375 203.43927001953125 207.11175537109375 210.22808837890625 212.7104339599609375 214.8173065185546875 216.5020599365234375 217.820098876953125 219.005706787109375 220.039642333984375 220.9240875244140625 221.7400360107421875 222.5730438232421875 223.4065093994140625 224.2036285400390625 224.9830322265625 225.7903289794921875 226.6089630126953125 227.34210205078125 228.1498260498046875 229.0029296875 229.7819671630859375 230.501068115234375 231.205780029296875 231.9353790283203125 232.660797119140625 233.3022308349609375 233.9031982421875 234.48870849609375 235.119720458984375 235.7212677001953125 236.25921630859375 236.771575927734375 237.3051605224609375 237.865509033203125 238.4051055908203125 238.9032440185546875 239.4010162353515625 239.930572509765625 240.4845123291015625 240.973052978515625 241.5077362060546875 -99999 -99999 -99999 -99999 -99999 -99999 -99999 -99999 -99999 -99999 -99999 -99999 -99999 -99999 -99999 -99999 -99999 -99999 -99999 -99999 -99999 -99999 -99999 -99999 -99999 -99999 -99999 -99999 -99999 -99999 -99999 -99999 -99999 -99999 -99999 -99999 -99999 -99999 -99999 -99999 -99999 -99999 -99999 -99999 -99999 -99999 -99999 -99999 -99999 -99999 -99999 -99999 -99999 -99999 -99999 -99999 -99999 -99999 -99999 -99999 -99999 -99999 -99999 -99999 -99999 -99999 -99999 -99999 -99999 -99999 -99999 -99999 -99999 -99999 -99999 -99999 -99999 -99999 -99999 -99999 -99999 -99999 -99999 -99999 -99999 -99999 -99999 -99999 -99999 -99999 -99999 -99999 -99999 -99999 -99999 -99999 -99999 -99999 -99999 -99999 -99999 -99999 -99999 -99999 -99999 -99999 -99999 -99999 -99999 -99999 -99999 -99999 -99999 -99999 -99999 -99999 -99999 -99999 -99999 -99999 -99999 -99999 -99999 -99999 -99999 -99999
 -99999 -99999 -99999 -99999 -99999 69.80291748046875 78.56292724609375 86.9701080322265625 95.30866241455078125 103.45824432373046875 111.40863037109375 118.960662841796875 126.32623291015625 133.1132659912109375 139.6342926025390625 145.7401580810546875 151.6283111572265625 157.126708984375 162.2103729248046875 166.6787261962890625 170.57080078125 174.0362091064453125 177.3332977294921875 179.958282470703125 181.0500030517578125 181.81915283203125 182.7168731689453125 184.286346435546875 186.93829345703125 190.2752685546875 193.9176483154296875 197.8054962158203125 201.55194091796875 204.9266815185546875 207.911773681640625 210.5565185546875 212.7820892333984375 214.612579345703125 216.1993560791015625 217.5316314697265625 218.6414947509765625 219.7287139892578125 220.74420166015625 221.666961669921875 222.5001373291015625 223.33966064453125 224.2206268310546875 225.0756683349609375 225.89501953125 226.712158203125 227.539581298828125 228.2461395263671875 229.01019287109375 229.762542724609375 230.5268402099609375 231.2684173583984375 231.9319305419921875 232.5961151123046875 233.278106689453125 233.906982421875 234.4965972900390625 235.0611724853515625 235.64117431640625 236.23046875 236.7690277099609375 237.2790374755859375 237.8069915771484375 238.32696533203125 238.845611572265625 -99999 -99999 -99999 -99999 -99999 -99999 -99999 -99999 -99999 -99999 -99999 -99999 -99999 -99999 -99999 -99999 -99999 -99999 -99999 -99999 -99999 -99999 -99999 -99999 -99999 -99999 -99999 -99999 -99999 -99999 -99999 -99999 -99999 -99999 -99999 -99999 -99999 -99999 -99999 -99999 -99999 -99999 -99999 -99999 -99999 -99999 -99999 -99999 -99999 -99999 -99999 -99999 -99999 -99999 -99999 -99999 -99999 -99999 -99999 -99999 -99999 -99999 -99999 -99999 -99999 -99999 -99999 -99999 -99999 -99999 -99999 -99999 -99999 -99999 -99999 -99999 -99999 -99999 -99999 -99999 -99999 -99999 -99999 -99999 -99999 -99999 -99999 -99999 -99999 -99999 -99999 -99999 -99999 -99999 -99999 -99999 -99999 -99999 -99999 -99999 -99999 -99999 -99999 -99999 -99999 -99999 -99999 -99999 -99999 -99999 -99999 -99999 -99999 -99999 -99999 -99999 -99999 -99999 -99999 -99999 -99999 -99999 -99999 -99999 -99999 -99999 -99999 -99999 -99999 -99999
 -99999 -99999 -99999 -99999 -99999 67.54427337646484375 76.28733062744140625 84.9638671875 93.4965057373046875 101.77616119384765625 109.7538604736328125 117.5338134765625 124.7834625244140625 131.7076568603515625 138.33172607421875 144.5495452880859375 150.4840545654296875 156.0191497802734375 161.2050018310546875 165.9456939697265625 169.650665283203125 172.923675537109375 176.0140380859375 178.440338134765625 180.3007354736328125 181.44610595703125 182.870849609375 184.6255950927734375 186.955718994140625 189.7577362060546875 193.0975494384765625 196.443939208984375 199.7773895263671875 202.990142822265625 205.89862060546875 208.4410400390625 210.6822967529296875 212.692413330078125 214.337799072265625 215.886138916015625 217.253662109375 218.41436767578125 219.460662841796875 220.4712982177734375 221.4605560302734375 222.41973876953125 223.286956787109375 224.137451171875 224.9997711181640625 225.858154296875 226.7087249755859375 227.5139312744140625 228.3007659912109375 229.10150146484375 229.7660064697265625 230.4885101318359375 231.103546142578125 231.7965850830078125 232.4787445068359375 233.13323974609375 233.7341766357421875 234.3085784912109375 234.901458740234375 235.4998931884765625 236.0723724365234375 -99999 -99999 -99999 -99999 -99999 -99999 -99999 -99999 -99999 -99999 -99999 -99999 -99999 -99999 -99999 -99999 -99999 -99999 -99999 -99999 -99999 -99999 -99999 -99999 -99999 -99999 -99999 -99999 -99999 -99999 -99999 -99999 -99999 -99999 -99999 -99999 -99999 -99999 -99999 -99999 -99999 -99999 -99999 -99999 -99999 -99999 -99999 -99999 -99999 -99999 -99999 -99999 -99999 -99999 -99999 -99999 -99999 -99999 -99999 -99999 -99999 -99999 -99999 -99999 -99999 -99999 -99999 -99999 -99999 -99999 -99999 -99999 -99999 -99999 -99999 -99999 -99999 -99999 -99999 -99999 -99999 -99999 -99999 -99999 -99999 -99999 -99999 -99999 -99999 -99999 -99999 -99999 -99999 -99999 -99999 -99999 -99999 -99999 -99999 -99999 -99999 -99999 -99999 -99999 -99999 -99999 -99999 -99999 -99999 -99999 -99999 -99999 -99999 -99999 -99999 -99999 -99999 -99999 -99999 -99999 -99999 -99999 -99999 -99999 -99999 -99999 -99999 -99999 -99999 -99999 -99999 -99999 -99999 -99999
 -99999 -99999 -99999 -99999 -99999 64.8643646240234375 73.72318267822265625 82.5666046142578125 91.2582855224609375 99.655120849609375 107.82384490966796875 115.6056060791015625 122.96784210205078125 129.9932098388671875 136.48541259765625 142.7310028076171875 148.5737457275390625 154.214996337890625 159.659698486328125 164.6402130126953125 168.4256744384765625 171.5592803955078125 174.4838714599609375 176.99163818359375 178.9376373291015625 180.690093994140625 182.3811187744140625 184.2928009033203125 186.5457763671875 189.16650390625 192.0457305908203125 195.1080474853515625 198.1727752685546875 201.0980682373046875 203.868988037109375 206.44488525390625 208.7537994384765625 210.741363525390625 212.5061798095703125 214.1309967041015625 215.593414306640625 216.877899169921875 218.0963592529296875 219.2284698486328125 220.240631103515625 221.215606689453125 222.17828369140625 223.12579345703125 224.0194244384765625 224.876739501953125 225.710693359375 226.542205810546875 227.357269287109375 228.16729736328125 228.9231414794921875 229.686767578125 230.4579315185546875 231.133758544921875 231.7385711669921875 232.3679962158203125 233.0087890625 -99999 -99999 -99999 -99999 -99999 -99999 -99999 -99999 -99999 -99999 -99999 -99999 -99999 -99999 -99999 -99999 -99999 -99999 -99999 -99999 -99999 -99999 -99999 -99999 -99999 -99999 -99999 -99999 -99999 -99999 -99999 -99999 -99999 -99999 -99999 -99999 -99999 -99999 -99999 -99999 -99999 -99999 -99999 -99999 -99999 -99999 -99999 -99999 -99999 -99999 -99999 -99999 -99999 -99999 -99999 -99999 -99999 -99999 -99999 -99999 -99999 -99999 -99999 -99999 -99999 -99999 -99999 -99999 -99999 -99999 -99999 -99999 -99999 -99999 -99999 -99999 -99999 -99999 -99999 -99999 -99999 -99999 -99999 -99999 -99999 -99999 -99999 -99999 -99999 -99999 -99999 -99999 -99999 -99999 -99999 -99999 -99999 -99999 -99999 -99999 -99999 -99999 -99999 -99999 -99999 -99999 -99999 -99999 -99999 -99999 -99999 -99999 -99999 -99999 -99999 -99999 -99999 -99999 -99999 -99999 -99999 -99999 -99999 -99999 -99999 -99999 -99999 -99999 -99999 -99999 -99999 -99999 -99999 -99999 -99999 -99999 -99999 -99999
 -99999 -99999 -99999 -99999 -99999 -99999 70.76568603515625 79.70135498046875 88.54045867919921875 97.18677520751953125 105.47252655029296875 113.39189910888671875 120.84405517578125 127.79273223876953125 134.3193511962890625 140.352691650390625 146.1835174560546875 151.7604827880859375 157.1736907958984375 162.2054595947265625 166.2967376708984375 169.625244140625 172.50921630859375 175.1740264892578125 177.4201507568359375 179.4094390869140625 181.35894775390625 183.4429931640625 185.6974945068359375 188.17437744140625 190.865631103515625 193.678863525390625 196.4902801513671875 199.3121337890625 201.9381103515625 204.3983917236328125 206.672271728515625 208.7618560791015625 210.673004150390625 212.318389892578125 213.7462615966796875 215.276123046875 216.663360595703125 217.7421722412109375 218.8587646484375 219.943511962890625 220.96533203125 221.9246673583984375 222.84161376953125 223.763397216796875 224.65753173828125 225.5182342529296875 226.3370819091796875 227.1204681396484375 227.9093475341796875 228.6767578125 229.4269256591796875 -99999 -99999 -99999 -99999 -99999 -99999 -99999 -99999 -99999 -99999 -99999 -99999 -99999 -99999 -99999 -99999 -99999 -99999 -99999 -99999 -99999 -99999 -99999 -99999 -99999 -99999 -99999 -99999 -99999 -99999 -99999 -99999 -99999 -99999 -99999 -99999 -99999 -99999 -99999 -99999 -99999 -99999 -99999 -99999 -99999 -99999 -99999 -99999 -99999 -99999 -99999 -99999 -99999 -99999 -99999 -99999 -99999 -99999 -99999 -99999 -99999 -99999 -99999 -99999 -99999 -99999 -99999 -99999 -99999 -99999 -99999 -99999 -99999 -99999 -99999 -99999 -99999 -99999 -99999 -99999 -99999 -99999 -99999 -99999 -99999 -99999 -99999 -99999 -99999 -99999 -99999 -99999 -99999 -99999 -99999 -99999 -99999 -99999 -99999 -99999 -99999 -99999 -99999 -99999 -99999 -99999 -99999 -99999 -99999 -99999 -99999 -99999 -99999 -99999 -99999 -99999 -99999 -99999 -99999 -99999 -99999 -99999 -99999 -99999 -99999 -99999 -99999 -99999 -99999 -99999 -99999 -99999 -99999 -99999 -99999 -99999 -99999 -99999 -99999 -99999 -99999 -99999
 -99999 -99999 -99999 -99999 -99999 -99999 67.16786956787109375 76.33642578125 85.3061676025390625 94.19586944580078125 102.68613433837890625 110.80776214599609375 118.243011474609375 125.2656097412109375 131.713897705078125 137.7493743896484375 143.239990234375 148.70977783203125 154.060302734375 159.07916259765625 163.2673797607421875 166.979705810546875 170.1072540283203125 172.997802734375 175.3957061767578125 177.740570068359375 179.925933837890625 182.1171112060546875 184.4297027587890625 186.881744384765625 189.407958984375 192.075592041015625 194.7586669921875 197.5045013427734375 199.9761810302734375 202.41400146484375 204.654266357421875 206.7354888916015625 208.6436767578125 210.4043121337890625 212.0432281494140625 213.51611328125 214.8611602783203125 216.1683349609375 217.4599761962890625 218.4814300537109375 219.5343475341796875 220.587860107421875 221.597930908203125 222.5562591552734375 223.457611083984375 224.3243865966796875 225.1935882568359375 -99999 -99999 -99999 -99999 -99999 -99999 -99999 -99999 -99999 -99999 -99999 -99999 -99999 -99999 -99999 -99999 -99999 -99999 -99999 -99999 -99999 -99999 -99999 -99999 -99999 -99999 -99999 -99999 -99999 -99999 -99999 -99999 -99999 -99999 -99999 -99999 -99999 -99999 -99999 -99999 -99999 -99999 -99999 -99999 -99999 -99999 -99999 -99999 -99999 -99999 -99999 -99999 -99999 -99999 -99999 -99999 -99999 -99999 -99999 -99999 -99999 -99999 -99999 -99999 -99999 -99999 -99999 -99999 -99999 -99999 -99999 -99999 -99999 -99999 -99999 -99999 -99999 -99999 -99999 -99999 -99999 -99999 -99999 -99999 -99999 -99999 -99999 -99999 -99999 -99999 -99999 -99999 -99999 -99999 -99999 -99999 -99999 -99999 -99999 -99999 -99999 -99999 -99999 -99999 -99999 -99999 -99999 -99999 -99999 -99999 -99999 -99999 -99999 -99999 -99999 -99999 -99999 -99999 -99999 -99999 -99999 -99999 -99999 -99999 -99999 -99999 -99999 -99999 -99999 -99999 -99999 -99999 -99999 -99999 -99999 -99999 -99999 -99999 -99999 -99999 -99999 -99999 -99999 -99999 -99999 -99999
 -99999 -99999 -99999 -99999 -99999 -99999 -99999 72.437347412109375 81.8105926513671875 90.79961395263671875 99.41841888427734375 107.66762542724609375 115.23305511474609375 122.2330322265625 128.7054443359375 134.646087646484375 140.16302490234375 145.5377044677734375 150.8405609130859375 155.740203857421875 160.125457763671875 163.980987548828125 167.3701324462890625 170.367919921875 173.1295623779296875 175.6471099853515625 178.0447845458984375 180.353363037109375 182.759796142578125 185.2220611572265625 187.7544403076171875 190.31890869140625 192.90679931640625 195.4435577392578125 197.9117584228515625 200.3195037841796875 202.5390625 204.63739013671875 206.6040496826171875 208.434417724609375 210.1031036376953125 211.6369476318359375 213.088623046875 214.3878326416015625 215.7014617919921875 216.945709228515625 218.1123046875 219.1533050537109375 220.16876220703125 -99999 -99999 -99999 -99999 -99999 -99999 -99999 -99999 -99999 -99999 -99999 -99999 -99999 -99999 -99999 -99999 -99999 -99999 -99999 -99999 -99999 -99999 -99999 -99999 -99999 -99999 -99999 -99999 -99999 -99999 -99999 -99999 -99999 -99999 -99999 -99999 -99999 -99999 -99999 -99999 -99999 -99999 -99999 -99999 -99999 -99999 -99999 -99999 -99999 -99999 -99999 -99999 -99999 -99999 -99999 -99999 -99999 -99999 -99999 -99999 -99999 -99999 -99999 -99999 -99999 -99999 -99999 -99999 -99999 -99999 -99999 -99999 -99999 -99999 -99999 -99999 -99999 -99999 -99999 -99999 -99999 -99999 -99999 -99999 -99999 -99999 -99999 -99999 -99999 -99999 -99999 -99999 -99999 -99999 -99999 -99999 -99999 -99999 -99999 -99999 -99999 -99999 -99999 -99999 -99999 -99999 -99999 -99999 -99999 -99999 -99999 -99999 -99999 -99999 -99999 -99999 -99999 -99999 -99999 -99999 -99999 -99999 -99999 -99999 -99999 -99999 -99999 -99999 -99999 -99999 -99999 -99999 -99999 -99999 -99999 -99999 -99999 -99999 -99999 -99999 -99999 -99999 -99999 -99999 -99999 -99999 -99999 -99999 -99999 -99999
 -99999 -99999 -99999 -99999 -99999 -99999 -99999 67.8968048095703125 77.42082977294921875 86.725128173828125 95.82425689697265625 104.241424560546875 111.9471435546875 118.98671722412109375 125.4982452392578125 131.3068695068359375 136.916717529296875 142.2660980224609375 147.4131011962890625 152.274658203125 156.7267303466796875 160.6753692626953125 164.2732086181640625 167.5189208984375 170.4421844482421875 173.1601409912109375 175.745269775390625 178.2356109619140625 180.724029541015625 183.2396392822265625 185.7775421142578125 188.3263397216796875 190.8630828857421875 193.356109619140625 195.7889862060546875 198.1261749267578125 200.405914306640625 202.4659423828125 204.4504852294921875 206.3118438720703125 208.0559539794921875 209.695465087890625 211.2198028564453125 212.6247100830078125 213.9454345703125 -99999 -99999 -99999 -99999 -99999 -99999 -99999 -99999 -99999 -99999 -99999 -99999 -99999 -99999 -99999 -99999 -99999 -99999 -99999 -99999 -99999 -99999 -99999 -99999 -99999 -99999 -99999 -99999 -99999 -99999 -99999 -99999 -99999 -99999 -99999 -99999 -99999 -99999 -99999 -99999 -99999 -99999 -99999 -99999 -99999 -99999 -99999 -99999 -99999 -99999 -99999 -99999 -99999 -99999 -99999 -99999 -99999 -99999 -99999 -99999 -99999 -99999 -99999 -99999 -99999 -99999 -99999 -99999 -99999 -99999 -99999 -99999 -99999 -99999 -99999 -99999 -99999 -99999 -99999 -99999 -99999 -99999 -99999 -99999 -99999 -99999 -99999 -99999 -99999 -99999 -99999 -99999 -99999 -99999 -99999 -99999 -99999 -99999 -99999 -99999 -99999 -99999 -99999 -99999 -99999 -99999 -99999 -99999 -99999 -99999 -99999 -99999 -99999 -99999 -99999 -99999 -99999 -99999 -99999 -99999 -99999 -99999 -99999 -99999 -99999 -99999 -99999 -99999 -99999 -99999 -99999 -99999 -99999 -99999 -99999 -99999 -99999 -99999 -99999 -99999 -99999 -99999 -99999 -99999 -99999 -99999 -99999 -99999 -99999 -99999 -99999 -99999 -99999 -99999
 -99999 -99999 -99999 -99999 -99999 -99999 -99999 62.742603302001953125 72.465850830078125 82.10407257080078125 91.5568389892578125 100.440399169921875 108.44254302978515625 115.20897674560546875 121.6643218994140625 128.009613037109375 133.4492950439453125 138.6029052734375 143.7196807861328125 148.5309600830078125 152.94378662109375 157.119476318359375 160.8516998291015625 164.215240478515625 167.4193572998046875 170.361846923828125 173.08502197265625 175.7502593994140625 178.3503570556640625 180.9626312255859375 183.480255126953125 186.068328857421875 188.5904541015625 191.1006317138671875 193.5070953369140625 195.8381195068359375 198.0853729248046875 200.2719268798828125 202.30047607421875 204.1334686279296875 205.9323577880859375 -99999 -99999 -99999 -99999 -99999 -99999 -99999 -99999 -99999 -99999 -99999 -99999 -99999 -99999 -99999 -99999 -99999 -99999 -99999 -99999 -99999 -99999 -99999 -99999 -99999 -99999 -99999 -99999 -99999 -99999 -99999 -99999 -99999 -99999 -99999 -99999 -99999 -99999 -99999 -99999 -99999 -99999 -99999 -99999 -99999 -99999 -99999 -99999 -99999 -99999 -99999 -99999 -99999 -99999 -99999 -99999 -99999 -99999 -99999 -99999 -99999 -99999 -99999 -99999 -99999 -99999 -99999 -99999 -99999 -99999 -99999 -99999 -99999 -99999 -99999 -99999 -99999 -99999 -99999 -99999 -99999 -99999 -99999 -99999 -99999 -99999 -99999 -99999 -99999 -99999 -99999 -99999 -99999 -99999 -99999 -99999 -99999 -99999 -99999 -99999 -99999 -99999 -99999 -99999 -99999 -99999 -99999 -99999 -99999 -99999 -99999 -99999 -99999 -99999 -99999 -99999 -99999 -99999 -99999 -99999 -99999 -99999 -99999 -99999 -99999 -99999 -99999 -99999 -99999 -99999 -99999 -99999 -99999 -99999 -99999 -99999 -99999 -99999 -99999 -99999 -99999 -99999 -99999 -99999 -99999 -99999 -99999 -99999 -99999 -99999 -99999 -99999 -99999 -99999 -99999 -99999 -99999 -99999
 -99999 -99999 -99999 -99999 -99999 -99999 -99999 -99999 66.6979522705078125 76.71416473388671875 86.6208343505859375 96.2432708740234375 104.5894927978515625 111.38813018798828125 117.58179473876953125 123.437469482421875 129.22705078125 134.6026763916015625 139.6385040283203125 144.5206756591796875 149.089385986328125 153.222015380859375 157.151824951171875 160.785400390625 164.0631103515625 167.1843414306640625 170.15313720703125 172.9687347412109375 175.662506103515625 178.418487548828125 181.0152587890625 183.5287933349609375 186.1271820068359375 188.650848388671875 191.09173583984375 193.4455718994140625 195.6860809326171875 -99999 -99999 -99999 -99999 -99999 -99999 -99999 -99999 -99999 -99999 -99999 -99999 -99999 -99999 -99999 -99999 -99999 -99999 -99999 -99999 -99999 -99999 -99999 -99999 -99999 -99999 -99999 -99999 -99999 -99999 -99999 -99999 -99999 -99999 -99999 -99999 -99999 -99999 -99999 -99999 -99999 -99999 -99999 -99999 -99999 -99999 -99999 -99999 -99999 -99999 -99999 -99999 -99999 -99999 -99999 -99999 -99999 -99999 -99999 -99999 -99999 -99999 -99999 -99999 -99999 -99999 -99999 -99999 -99999 -99999 -99999 -99999 -99999 -99999 -99999 -99999 -99999 -99999 -99999 -99999 -99999 -99999 -99999 -99999 -99999 -99999 -99999 -99999 -99999 -99999 -99999 -99999 -99999 -99999 -99999 -99999 -99999 -99999 -99999 -99999 -99999 -99999 -99999 -99999 -99999 -99999 -99999 -99999 -99999 -99999 -99999 -99999 -99999 -99999 -99999 -99999 -99999 -99999 -99999 -99999 -99999 -99999 -99999 -99999 -99999 -99999 -99999 -99999 -99999 -99999 -99999 -99999 -99999 -99999 -99999 -99999 -99999 -99999 -99999 -99999 -99999 -99999 -99999 -99999 -99999 -99999 -99999 -99999 -99999 -99999 -99999 -99999 -99999 -99999 -99999 -99999 -99999 -99999 -99999 -99999 -99999 -99999
 -99999 -99999 -99999 -99999 -99999 -99999 -99999 -99999 60.26766204833984375 70.4779815673828125 80.8828277587890625 91.13953399658203125 100.28284454345703125 106.97245025634765625 112.99036407470703125 118.92696380615234375 124.55350494384765625 129.9783477783203125 135.2061614990234375 140.1009674072265625 144.74761962890625 149.15167236328125 153.19891357421875 157.0217742919921875 160.504425048828125 163.76593017578125 166.828857421875 169.85980224609375 172.7305145263671875 175.530853271484375 178.22607421875 180.9459075927734375 183.4933319091796875 -99999 -99999 -99999 -99999 -99999 -99999 -99999 -99999 -99999 -99999 -99999 -99999 -99999 -99999 -99999 -99999 -99999 -99999 -99999 -99999 -99999 -99999 -99999 -99999 -99999 -99999 -99999 -99999 -99999 -99999 -99999 -99999 -99999 -99999 -99999 -99999 -99999 -99999 -99999 -99999 -99999 -99999 -99999 -99999 -99999 -99999 -99999 -99999 -99999 -99999 -99999 -99999 -99999 -99999 -99999 -99999 -99999 -99999 -99999 -99999 -99999 -99999 -99999 -99999 -99999 -99999 -99999 -99999 -99999 -99999 -99999 -99999 -99999 -99999 -99999 -99999 -99999 -99999 -99999 -99999 -99999 -99999 -99999 -99999 -99999 -99999 -99999 -99999 -99999 -99999 -99999 -99999 -99999 -99999 -99999 -99999 -99999 -99999 -99999 -99999 -99999 -99999 -99999 -99999 -99999 -99999 -99999 -99999 -99999 -99999 -99999 -99999 -99999 -99999 -99999 -99999 -99999 -99999 -99999 -99999 -99999 -99999 -99999 -99999 -99999 -99999 -99999 -99999 -99999 -99999 -99999 -99999 -99999 -99999 -99999 -99999 -99999 -99999 -99999 -99999 -99999 -99999 -99999 -99999 -99999 -99999 -99999 -99999 -99999 -99999 -99999 -99999 -99999 -99999 -99999 -99999 -99999 -99999 -99999 -99999 -99999 -99999 -99999 -99999 -99999 -99999
 -99999 -99999 -99999 -99999 -99999 -99999 -99999 -99999 -99999 -99999 73.78978729248046875 84.1215972900390625 93.50957489013671875 101.06400299072265625 107.4351043701171875 113.635833740234375 119.38033294677734375 125.05513763427734375 130.3159332275390625 135.511383056640625 140.166229248046875 144.6218719482421875 148.911346435546875 152.862030029296875 156.585479736328125 160.3072357177734375 163.4026031494140625 166.51556396484375 169.5196380615234375 -99999 -99999 -99999 -99999 -99999 -99999 -99999 -99999 -99999 -99999 -99999 -99999 -99999 -99999 -99999 -99999 -99999 -99999 -99999 -99999 -99999 -99999 -99999 -99999 -99999 -99999 -99999 -99999 -99999 -99999 -99999 -99999 -99999 -99999 -99999 -99999 -99999 -99999 -99999 -99999 -99999 -99999 -99999 -99999 -99999 -99999 -99999 -99999 -99999 -99999 -99999 -99999 -99999 -99999 -99999 -99999 -99999 -99999 -99999 -99999 -99999 -99999 -99999 -99999 -99999 -99999 -99999 -99999 -99999 -99999 -99999 -99999 -99999 -99999 -99999 -99999 -99999 -99999 -99999 -99999 -99999 -99999 -99999 -99999 -99999 -99999 -99999 -99999 -99999 -99999 -99999 -99999 -99999 -99999 -99999 -99999 -99999 -99999 -99999 -99999 -99999 -99999 -99999 -99999 -99999 -99999 -99999 -99999 -99999 -99999 -99999 -99999 -99999 -99999 -99999 -99999 -99999 -99999 -99999 -99999 -99999 -99999 -99999 -99999 -99999 -99999 -99999 -99999 -99999 -99999 -99999 -99999 -99999 -99999 -99999 -99999 -99999 -99999 -99999 -99999 -99999 -99999 -99999 -99999 -99999 -99999 -99999 -99999 -99999 -99999 -99999 -99999 -99999 -99999 -99999 -99999 -99999 -99999 -99999 -99999 -99999 -99999 -99999 -99999 -99999 -99999 -99999 -99999 -99999 -99999
 -99999 -99999 -99999 -99999 -99999 -99999 -99999 -99999 -99999 -99999 -99999 76.0664520263671875 85.5414276123046875 93.660369873046875 100.74666595458984375 107.46173095703125 113.69769287109375 119.530731201171875 125.1480560302734375 130.3990478515625 135.384674072265625 140.0547027587890625 144.3883056640625 148.553070068359375 -99999 -99999 -99999 -99999 -99999 -99999 -99999 -99999 -99999 -99999 -99999 -99999 -99999 -99999 -99999 -99999 -99999 -99999 -99999 -99999 -99999 -99999 -99999 -99999 -99999 -99999 -99999 -99999 -99999 -99999 -99999 -99999 -99999 -99999 -99999 -99999 -99999 -99999 -99999 -99999 -99999 -99999 -99999 -99999 -99999 -99999 -99999 -99999 -99999 -99999 -99999 -99999 -99999 -99999 -99999 -99999 -99999 -99999 -99999 -99999 -99999 -99999 -99999 -99999 -99999 -99999 -99999 -99999 -99999 -99999 -99999 -99999 -99999 -99999 -99999 -99999 -99999 -99999 -99999 -99999 -99999 -99999 -99999 -99999 -99999 -99999 -99999 -99999 -99999 -99999 -99999 -99999 -99999 -99999 -99999 -99999 -99999 -99999 -99999 -99999 -99999 -99999 -99999 -99999 -99999 -99999 -99999 -99999 -99999 -99999 -99999 -99999 -99999 -99999 -99999 -99999 -99999 -99999 -99999 -99999 -99999 -99999 -99999 -99999 -99999 -99999 -99999 -99999 -99999 -99999 -99999 -99999 -99999 -99999 -99999 -99999 -99999 -99999 -99999 -99999 -99999 -99999 -99999 -99999 -99999 -99999 -99999 -99999 -99999 -99999 -99999 -99999 -99999 -99999 -99999 -99999 -99999 -99999 -99999 -99999 -99999 -99999 -99999 -99999 -99999 -99999 -99999 -99999 -99999 -99999 -99999 -99999 -99999 -99999 -99999
 -99999 -99999 -99999 -99999 -99999 -99999 -99999 -99999 -99999 -99999 -99999 -99999 77.26520538330078125 85.954315185546875 93.7260894775390625 100.78256988525390625 107.4686431884765625 113.70142364501953125 119.508819580078125 124.9884033203125 -99999 -99999 -99999 -99999 -99999 -99999 -99999 -99999 -99999 -99999 -99999 -99999 -99999 -99999 -99999 -99999 -99999 -99999 -99999 -99999 -99999 -99999 -99999 -99999 -99999 -99999 -99999 -99999 -99999 -99999 -99999 -99999 -99999 -99999 -99999 -99999 -99999 -99999 -99999 -99999 -99999 -99999 -99999 -99999 -99999 -99999 -99999 -99999 -99999 -99999 -99999 -99999 -99999 -99999 -99999 -99999 -99999 -99999 -99999 -99999 -99999 -99999 -99999 -99999 -99999 -99999 -99999 -99999 -99999 -99999 -99999 -99999 -99999 -99999 -99999 -99999 -99999 -99999 -99999 -99999 -99999 -99999 -99999 -99999 -99999 -99999 -99999 -99999 -99999 -99999 -99999 -99999 -99999 -99999 -99999 -99999 -99999 -99999 -99999 -99999 -99999 -99999 -99999 -99999 -99999 -99999 -99999 -99999 -99999 -99999 -99999 -99999 -99999 -99999 -99999 -99999 -99999 -99999 -99999 -99999 -99999 -99999 -99999 -99999 -99999 -99999 -99999 -99999 -99999 -99999 -99999 -99999 -99999 -99999 -99999 -99999 -99999 -99999 -99999 -99999 -99999 -99999 -99999 -99999 -99999 -99999 -99999 -99999 -99999 -99999 -99999 -99999 -99999 -99999 -99999 -99999 -99999 -99999 -99999 -99999 -99999 -99999 -99999 -99999 -99999 -99999 -99999 -99999 -99999 -99999 -99999 -99999 -99999 -99999 -99999 -99999 -99999 -99999 -99999
 -99999 -99999 -99999 -99999 -99999 -99999 -99999 -99999 -99999 -99999 -99999 -99999 -99999 -99999 86.41387176513671875 93.96800994873046875 -99999 -99999 -99999 -99999 -99999 -99999 -99999 -99999 -99999 -99999 -99999 -99999 -99999 -99999 -99999 -99999 -99999 -99999 -99999 -99999 -99999 -99999 -99999 -99999 -99999 -99999 -99999 -99999 -99999 -99999 -99999 -99999 -99999 -99999 -99999 -99999 -99999 -99999 -99999 -99999 -99999 -99999 -99999 -99999 -99999 -99999 -99999 -99999 -99999 -99999 -99999 -99999 -99999 -99999 -99999 -99999 -99999 -99999 -99999 -99999 -99999 -99999 -99999 -99999 -99999 -99999 -99999 -99999 -99999 -99999 -99999 -99999 -99999 -99999 -99999 -99999 -99999 -99999 -99999 -99999 -99999 -99999 -99999 -99999 -99999 -99999 -99999 -99999 -99999 -99999 -99999 -99999 -99999 -99999 -99999 -99999 -99999 -99999 -99999 -99999 -99999 -99999 -99999 -99999 -99999 -99999 -99999 -99999 -99999 -99999 -99999 -99999 -99999 -99999 -99999 -99999 -99999 -99999 -99999 -99999 -99999 -99999 -99999 -99999 -99999 -99999 -99999 -99999 -99999 -99999 -99999 -99999 -99999 -99999 -99999 -99999 -99999 -99999 -99999 -99999 -99999 -99999 -99999 -99999 -99999 -99999 -99999 -99999 -99999 -99999 -99999 -99999 -99999 -99999 -99999 -99999 -99999 -99999 -99999 -99999 -99999 -99999 -99999 -99999 -99999 -99999 -99999 -99999 -99999 -99999 -99999 -99999 -99999 -99999 -99999 -99999 -99999 -99999 -99999 -99999 -99999 -99999 -99999
